hehonglu123/ABB_Primitive_Study/execution/movec+movel_smooth/curve_exe_v200_z10.csv
timestamp, cmd_num, J1, J2, J3, J4, J5, J6
0, 1, 32.7465, 54.2623, -9.50115, 89.6875, -78.664, 35.1143
0.002, 1, 32.7465, 54.2623, -9.50115, 89.6875, -78.664, 35.1143
0.004, 1, 32.7465, 54.2623, -9.50115, 89.6875, -78.664, 35.1143
0.008, 1, 32.7465, 54.2623, -9.50115, 89.6875, -78.664, 35.1143
0.011, 1, 32.7465, 54.2623, -9.50115, 89.6875, -78.664, 35.1143
0.016, 1, 32.7465, 54.2623, -9.50115, 89.6875, -78.664, 35.1143
0.02, 1, 32.7465, 54.2623, -9.50115, 89.6875, -78.664, 35.1143
0.024, 1, 32.7465, 54.2623, -9.50115, 89.6875, -78.664, 35.1143
0.028, 1, 32.7465, 54.2623, -9.50115, 89.6875, -78.664, 35.1143
0.032, 1, 32.7465, 54.2623, -9.50115, 89.6875, -78.664, 35.1143
0.036, 1, 32.7465, 54.2623, -9.50115, 89.6875, -78.664, 35.1143
0.04, 1, 32.7466, 54.2623, -9.50115, 89.6875, -78.664, 35.1143
0.044, 1, 32.7467, 54.2621, -9.50116, 89.6875, -78.664, 35.1143
0.048, 1, 32.7471, 54.2618, -9.50116, 89.6875, -78.6639, 35.1143
0.052, 1, 32.7479, 54.2611, -9.50118, 89.6876, -78.6638, 35.1144
0.056, 1, 32.7491, 54.2598, -9.50124, 89.6877, -78.6634, 35.1145
0.06, 1, 32.7507, 54.2577, -9.50136, 89.6879, -78.6626, 35.1147
0.064, 1, 32.7529, 54.2547, -9.50159, 89.6883, -78.6611, 35.1152
0.068, 1, 32.7556, 54.2507, -9.502, 89.689, -78.6586, 35.1161
0.072, 1, 32.7588, 54.2455, -9.50267, 89.6902, -78.6545, 35.1174
0.076, 1, 32.7625, 54.2391, -9.5037, 89.692, -78.6482, 35.1195
0.08, 1, 32.7668, 54.2314, -9.50521, 89.6946, -78.6391, 35.1225
0.084, 1, 32.7718, 54.2224, -9.50734, 89.6982, -78.6262, 35.1267
0.088, 1, 32.7776, 54.212, -9.51024, 89.7032, -78.6088, 35.1325
0.092, 1, 32.784, 54.2002, -9.5141, 89.7098, -78.5857, 35.1401
0.096, 1, 32.7912, 54.1873, -9.51908, 89.7183, -78.5559, 35.1499
0.1, 1, 32.7988, 54.1733, -9.52538, 89.729, -78.5183, 35.1622
0.104, 1, 32.8067, 54.1585, -9.53315, 89.7422, -78.472, 35.1774
0.108, 1, 32.815, 54.143, -9.54252, 89.7581, -78.4163, 35.1957
0.112, 1, 32.8235, 54.1267, -9.55357, 89.7769, -78.3507, 35.2173
0.116, 1, 32.8324, 54.1096, -9.56636, 89.7986, -78.2748, 35.2423
0.12, 1, 32.8415, 54.0916, -9.58087, 89.8232, -78.1888, 35.2705
0.124, 1, 32.8511, 54.0725, -9.59706, 89.8507, -78.0929, 35.3021
0.128, 1, 32.8611, 54.0525, -9.61485, 89.8808, -77.9875, 35.3367
0.131, 1, 32.8716, 54.0317, -9.63411, 89.9134, -77.8735, 35.3742
0.136, 1, 32.8823, 54.0101, -9.65471, 89.9483, -77.7516, 35.4142
0.139, 1, 32.8932, 53.9877, -9.67648, 89.9852, -77.6227, 35.4566
0.144, 1, 32.9045, 53.9644, -9.69923, 90.0237, -77.4881, 35.5008
0.148, 1, 32.9163, 53.9399, -9.72278, 90.0636, -77.3487, 35.5466
0.152, 1, 32.9288, 53.914, -9.74695, 90.1045, -77.2057, 35.5936
0.156, 1, 32.942, 53.8866, -9.77157, 90.1462, -77.0599, 35.6415
0.16, 1, 32.9561, 53.8575, -9.79651, 90.1885, -76.9123, 35.6901
0.164, 1, 32.9711, 53.8271, -9.82165, 90.231, -76.7634, 35.739
0.168, 1, 32.9869, 53.7955, -9.84692, 90.2739, -76.6137, 35.7882
0.172, 1, 33.0032, 53.7631, -9.87226, 90.3168, -76.4636, 35.8375
0.176, 1, 33.02, 53.7302, -9.89762, 90.3598, -76.3133, 35.8869
0.18, 1, 33.037, 53.6969, -9.92299, 90.4028, -76.163, 35.9363
0.184, 1, 33.0541, 53.6634, -9.94833, 90.4457, -76.0128, 35.9857
0.188, 1, 33.0714, 53.6298, -9.97365, 90.4886, -75.8628, 36.035
0.192, 1, 33.0888, 53.5962, -9.99894, 90.5315, -75.713, 36.0842
0.196, 1, 33.1061, 53.5625, -10.0242, 90.5743, -75.5634, 36.1334
0.2, 1, 33.1235, 53.5289, -10.0494, 90.617, -75.4141, 36.1825
0.204, 1, 33.1409, 53.4952, -10.0745, 90.6596, -75.265, 36.2315
0.208, 1, 33.1582, 53.4616, -10.0996, 90.7021, -75.1163, 36.2804
0.212, 1, 33.1755, 53.4281, -10.1247, 90.7446, -74.9678, 36.3292
0.216, 1, 33.1928, 53.3946, -10.1497, 90.787, -74.8197, 36.3779
0.22, 1, 33.2101, 53.3612, -10.1746, 90.8292, -74.6718, 36.4265
0.224, 1, 33.2273, 53.3278, -10.1995, 90.8714, -74.5242, 36.475
0.228, 1, 33.2446, 53.2945, -10.2244, 90.9136, -74.377, 36.5234
0.232, 1, 33.2617, 53.2613, -10.2492, 90.9556, -74.23, 36.5717
0.236, 1, 33.2789, 53.2282, -10.2739, 90.9975, -74.0834, 36.6199
0.24, 1, 33.296, 53.1951, -10.2986, 91.0394, -73.937, 36.668
0.244, 1, 33.313, 53.162, -10.3233, 91.0812, -73.7909, 36.716
0.248, 1, 33.3301, 53.1291, -10.3479, 91.1229, -73.6451, 36.7639
0.252, 1, 33.3471, 53.0962, -10.3724, 91.1645, -73.4996, 36.8117
0.256, 1, 33.364, 53.0633, -10.3969, 91.206, -73.3544, 36.8595
0.26, 1, 33.381, 53.0306, -10.4214, 91.2474, -73.2095, 36.9071
0.264, 1, 33.3979, 52.9979, -10.4458, 91.2888, -73.0649, 36.9546
0.268, 1, 33.4147, 52.9652, -10.4701, 91.3301, -72.9206, 37.0021
0.272, 1, 33.4316, 52.9327, -10.4944, 91.3713, -72.7765, 37.0494
0.276, 1, 33.4484, 52.9002, -10.5187, 91.4124, -72.6327, 37.0967
0.28, 1, 33.4651, 52.8677, -10.5429, 91.4534, -72.4893, 37.1438
0.284, 1, 33.4819, 52.8353, -10.5671, 91.4944, -72.346, 37.1909
0.288, 1, 33.4986, 52.803, -10.5912, 91.5353, -72.2031, 37.2379
0.292, 1, 33.5152, 52.7708, -10.6153, 91.5761, -72.0604, 37.2848
0.296, 1, 33.5319, 52.7386, -10.6393, 91.6168, -71.9181, 37.3316
0.3, 1, 33.5485, 52.7065, -10.6633, 91.6574, -71.776, 37.3783
0.304, 1, 33.5651, 52.6744, -10.6872, 91.698, -71.6341, 37.4249
0.308, 1, 33.5816, 52.6424, -10.7111, 91.7385, -71.4925, 37.4714
0.312, 1, 33.5981, 52.6104, -10.7349, 91.7789, -71.3513, 37.5179
0.316, 1, 33.6146, 52.5785, -10.7587, 91.8192, -71.2102, 37.5642
0.32, 1, 33.631, 52.5467, -10.7825, 91.8595, -71.0695, 37.6105
0.324, 1, 33.6474, 52.5149, -10.8062, 91.8997, -70.929, 37.6567
0.328, 1, 33.6638, 52.4832, -10.8299, 91.9398, -70.7887, 37.7028
0.332, 1, 33.6802, 52.4516, -10.8535, 91.9798, -70.6488, 37.7488
0.336, 1, 33.6965, 52.42, -10.8771, 92.0198, -70.509, 37.7947
0.34, 1, 33.7128, 52.3885, -10.9006, 92.0597, -70.3696, 37.8405
0.344, 1, 33.7291, 52.357, -10.9241, 92.0995, -70.2304, 37.8863
0.348, 1, 33.7453, 52.3256, -10.9475, 92.1392, -70.0914, 37.9319
0.352, 1, 33.7615, 52.2942, -10.9709, 92.1789, -69.9528, 37.9775
0.356, 1, 33.7777, 52.2629, -10.9943, 92.2185, -69.8143, 38.023
0.36, 1, 33.7938, 52.2317, -11.0176, 92.258, -69.6762, 38.0685
0.364, 1, 33.8099, 52.2005, -11.0409, 92.2974, -69.5382, 38.1138
0.368, 1, 33.826, 52.1694, -11.0641, 92.3368, -69.4006, 38.159
0.372, 1, 33.8421, 52.1383, -11.0873, 92.3761, -69.2631, 38.2042
0.376, 1, 33.8581, 52.1073, -11.1104, 92.4153, -69.126, 38.2493
0.38, 1, 33.8741, 52.0763, -11.1336, 92.4545, -68.989, 38.2943
0.384, 1, 33.8901, 52.0454, -11.1566, 92.4936, -68.8523, 38.3392
0.388, 1, 33.906, 52.0146, -11.1796, 92.5326, -68.7159, 38.3841
0.392, 1, 33.9219, 51.9838, -11.2026, 92.5716, -68.5797, 38.4288
0.396, 1, 33.9378, 51.953, -11.2256, 92.6104, -68.4437, 38.4735
0.4, 1, 33.9537, 51.9224, -11.2485, 92.6493, -68.308, 38.5181
0.404, 1, 33.9695, 51.8917, -11.2713, 92.688, -68.1725, 38.5627
0.408, 1, 33.9853, 51.8611, -11.2942, 92.7267, -68.0373, 38.6071
0.412, 1, 34.0011, 51.8306, -11.3169, 92.7653, -67.9023, 38.6515
0.416, 1, 34.0168, 51.8002, -11.3397, 92.8038, -67.7675, 38.6958
0.42, 1, 34.0326, 51.7697, -11.3624, 92.8423, -67.633, 38.74
0.424, 1, 34.0483, 51.7394, -11.385, 92.8807, -67.4987, 38.7842
0.428, 1, 34.0639, 51.7091, -11.4077, 92.9191, -67.3646, 38.8282
0.432, 1, 34.0796, 51.6788, -11.4302, 92.9574, -67.2307, 38.8722
0.436, 1, 34.0952, 51.6486, -11.4528, 92.9956, -67.0971, 38.9161
0.44, 1, 34.1108, 51.6184, -11.4753, 93.0337, -66.9637, 38.96
0.444, 1, 34.1263, 51.5883, -11.4978, 93.0718, -66.8306, 39.0038
0.448, 1, 34.1418, 51.5583, -11.5202, 93.1098, -66.6976, 39.0474
0.452, 1, 34.1573, 51.5282, -11.5426, 93.1478, -66.5649, 39.0911
0.456, 1, 34.1728, 51.4983, -11.565, 93.1857, -66.4324, 39.1346
0.46, 1, 34.1883, 51.4684, -11.5873, 93.2235, -66.3002, 39.1781
0.464, 1, 34.2037, 51.4385, -11.6096, 93.2613, -66.1681, 39.2215
0.468, 1, 34.2191, 51.4087, -11.6318, 93.299, -66.0363, 39.2648
0.472, 1, 34.2345, 51.379, -11.654, 93.3366, -65.9047, 39.3081
0.476, 1, 34.2498, 51.3493, -11.6762, 93.3742, -65.7733, 39.3513
0.48, 1, 34.2652, 51.3196, -11.6983, 93.4117, -65.6421, 39.3944
0.484, 1, 34.2805, 51.29, -11.7204, 93.4492, -65.5111, 39.4374
0.488, 1, 34.2957, 51.2604, -11.7425, 93.4865, -65.3804, 39.4804
0.492, 1, 34.311, 51.2309, -11.7645, 93.5239, -65.2498, 39.5233
0.496, 1, 34.3262, 51.2014, -11.7865, 93.5611, -65.1195, 39.5662
0.5, 1, 34.3414, 51.172, -11.8085, 93.5984, -64.9894, 39.6089
0.504, 1, 34.3566, 51.1426, -11.8304, 93.6355, -64.8595, 39.6516
0.508, 1, 34.3718, 51.1133, -11.8523, 93.6726, -64.7298, 39.6943
0.512, 1, 34.3869, 51.084, -11.8741, 93.7096, -64.6003, 39.7368
0.516, 1, 34.402, 51.0548, -11.8959, 93.7466, -64.471, 39.7793
0.52, 1, 34.4171, 51.0256, -11.9177, 93.7835, -64.3419, 39.8217
0.524, 1, 34.4321, 50.9965, -11.9395, 93.8204, -64.213, 39.8641
0.528, 1, 34.4472, 50.9674, -11.9612, 93.8572, -64.0844, 39.9064
0.532, 1, 34.4622, 50.9384, -11.9828, 93.8939, -63.9559, 39.9486
0.536, 1, 34.4771, 50.9094, -12.0045, 93.9306, -63.8276, 39.9908
0.54, 1, 34.4921, 50.8804, -12.0261, 93.9672, -63.6996, 40.0329
0.544, 1, 34.507, 50.8515, -12.0477, 94.0038, -63.5717, 40.0749
0.548, 1, 34.522, 50.8226, -12.0692, 94.0403, -63.444, 40.1169
0.552, 1, 34.5369, 50.7938, -12.0907, 94.0768, -63.3166, 40.1588
0.556, 1, 34.5517, 50.765, -12.1122, 94.1132, -63.1893, 40.2006
0.56, 1, 34.5666, 50.7363, -12.1337, 94.1495, -63.0622, 40.2424
0.564, 1, 34.5814, 50.7076, -12.1551, 94.1858, -62.9353, 40.2841
0.568, 1, 34.5962, 50.679, -12.1764, 94.2221, -62.8086, 40.3257
0.572, 1, 34.611, 50.6504, -12.1978, 94.2582, -62.6821, 40.3673
0.576, 1, 34.6257, 50.6218, -12.2191, 94.2943, -62.5558, 40.4088
0.58, 1, 34.6405, 50.5933, -12.2404, 94.3304, -62.4297, 40.4502
0.584, 1, 34.6552, 50.5648, -12.2616, 94.3664, -62.3038, 40.4916
0.588, 1, 34.6699, 50.5364, -12.2828, 94.4024, -62.1781, 40.533
0.592, 1, 34.6845, 50.508, -12.304, 94.4383, -62.0525, 40.5742
0.596, 1, 34.6992, 50.4797, -12.3252, 94.4741, -61.9272, 40.6154
0.6, 1, 34.7138, 50.4514, -12.3463, 94.5099, -61.802, 40.6566
0.604, 1, 34.7284, 50.4231, -12.3674, 94.5457, -61.677, 40.6977
0.608, 1, 34.743, 50.3949, -12.3884, 94.5814, -61.5522, 40.7387
0.612, 1, 34.7575, 50.3667, -12.4095, 94.617, -61.4276, 40.7796
0.616, 1, 34.7721, 50.3386, -12.4305, 94.6526, -61.3032, 40.8205
0.62, 1, 34.7866, 50.3105, -12.4514, 94.6881, -61.1789, 40.8614
0.624, 1, 34.8011, 50.2824, -12.4724, 94.7236, -61.0548, 40.9022
0.628, 1, 34.8155, 50.2544, -12.4933, 94.7591, -60.931, 40.9429
0.632, 1, 34.83, 50.2265, -12.5142, 94.7944, -60.8073, 40.9835
0.636, 1, 34.8444, 50.1985, -12.535, 94.8298, -60.6837, 41.0241
0.64, 1, 34.8588, 50.1707, -12.5558, 94.865, -60.5604, 41.0647
0.644, 1, 34.8732, 50.1428, -12.5766, 94.9003, -60.4372, 41.1052
0.648, 1, 34.8876, 50.115, -12.5973, 94.9354, -60.3142, 41.1456
0.652, 1, 34.9019, 50.0872, -12.6181, 94.9706, -60.1914, 41.1859
0.656, 1, 34.9163, 50.0595, -12.6388, 95.0056, -60.0688, 41.2263
0.66, 1, 34.9306, 50.0318, -12.6594, 95.0407, -59.9463, 41.2665
0.664, 1, 34.9449, 50.0042, -12.6801, 95.0756, -59.824, 41.3067
0.668, 1, 34.9591, 49.9766, -12.7007, 95.1106, -59.7019, 41.3468
0.672, 1, 34.9734, 49.949, -12.7212, 95.1454, -59.58, 41.3869
0.676, 1, 34.9876, 49.9215, -12.7418, 95.1803, -59.4582, 41.427
0.68, 1, 35.0018, 49.894, -12.7623, 95.215, -59.3366, 41.4669
0.684, 1, 35.016, 49.8665, -12.7828, 95.2498, -59.2151, 41.5068
0.688, 1, 35.0301, 49.8391, -12.8033, 95.2844, -59.0939, 41.5467
0.692, 1, 35.0443, 49.8117, -12.8237, 95.3191, -58.9728, 41.5865
0.696, 1, 35.0584, 49.7844, -12.8441, 95.3537, -58.8519, 41.6262
0.7, 1, 35.0725, 49.7571, -12.8645, 95.3882, -58.7311, 41.6659
0.704, 1, 35.0866, 49.7298, -12.8848, 95.4227, -58.6105, 41.7056
0.708, 1, 35.1007, 49.7026, -12.9051, 95.4571, -58.4901, 41.7451
0.712, 1, 35.1147, 49.6754, -12.9254, 95.4915, -58.3698, 41.7847
0.716, 1, 35.1288, 49.6482, -12.9457, 95.5259, -58.2497, 41.8241
0.72, 1, 35.1428, 49.6211, -12.9659, 95.5602, -58.1298, 41.8636
0.724, 1, 35.1568, 49.5941, -12.9862, 95.5944, -58.01, 41.9029
0.728, 1, 35.1707, 49.567, -13.0063, 95.6286, -57.8904, 41.9422
0.732, 1, 35.1847, 49.54, -13.0265, 95.6628, -57.771, 41.9815
0.736, 1, 35.1986, 49.513, -13.0466, 95.6969, -57.6517, 42.0207
0.74, 1, 35.2125, 49.4861, -13.0667, 95.731, -57.5326, 42.0599
0.744, 1, 35.2264, 49.4592, -13.0868, 95.765, -57.4136, 42.099
0.748, 1, 35.2403, 49.4324, -13.1068, 95.799, -57.2948, 42.138
0.752, 1, 35.2542, 49.4055, -13.1269, 95.8329, -57.1762, 42.177
0.756, 1, 35.268, 49.3787, -13.1468, 95.8668, -57.0577, 42.2159
0.76, 1, 35.2818, 49.352, -13.1668, 95.9006, -56.9394, 42.2548
0.764, 1, 35.2956, 49.3253, -13.1868, 95.9344, -56.8212, 42.2937
0.768, 1, 35.3094, 49.2986, -13.2067, 95.9682, -56.7032, 42.3325
0.772, 1, 35.3232, 49.272, -13.2266, 96.0019, -56.5854, 42.3712
0.776, 1, 35.3369, 49.2453, -13.2464, 96.0355, -56.4676, 42.4099
0.78, 1, 35.3507, 49.2188, -13.2663, 96.0692, -56.3501, 42.4485
0.784, 1, 35.3644, 49.1922, -13.2861, 96.1027, -56.2327, 42.4871
0.788, 1, 35.3781, 49.1657, -13.3058, 96.1363, -56.1155, 42.5257
0.792, 1, 35.3917, 49.1392, -13.3256, 96.1698, -55.9984, 42.5641
0.796, 1, 35.4054, 49.1128, -13.3453, 96.2032, -55.8814, 42.6026
0.8, 1, 35.4191, 49.0864, -13.365, 96.2366, -55.7646, 42.641
0.804, 1, 35.4327, 49.06, -13.3847, 96.27, -55.648, 42.6793
0.808, 1, 35.4463, 49.0337, -13.4044, 96.3033, -55.5315, 42.7176
0.812, 1, 35.4599, 49.0074, -13.424, 96.3365, -55.4151, 42.7558
0.816, 1, 35.4734, 48.9811, -13.4436, 96.3698, -55.2989, 42.794
0.82, 1, 35.487, 48.9549, -13.4632, 96.403, -55.1829, 42.8322
0.824, 1, 35.5005, 48.9287, -13.4828, 96.4361, -55.067, 42.8703
0.828, 1, 35.5141, 48.9025, -13.5023, 96.4692, -54.9512, 42.9083
0.832, 1, 35.5276, 48.8764, -13.5218, 96.5023, -54.8356, 42.9463
0.836, 1, 35.5411, 48.8503, -13.5413, 96.5353, -54.7201, 42.9843
0.84, 1, 35.5545, 48.8242, -13.5608, 96.5683, -54.6048, 43.0222
0.844, 1, 35.568, 48.7981, -13.5802, 96.6012, -54.4896, 43.06
0.848, 1, 35.5814, 48.7721, -13.5996, 96.6341, -54.3746, 43.0979
0.852, 1, 35.5949, 48.7461, -13.619, 96.667, -54.2597, 43.1356
0.856, 1, 35.6083, 48.7202, -13.6384, 96.6998, -54.1449, 43.1733
0.86, 1, 35.6216, 48.6943, -13.6577, 96.7326, -54.0303, 43.211
0.864, 1, 35.635, 48.6684, -13.677, 96.7654, -53.9158, 43.2486
0.868, 1, 35.6483, 48.6426, -13.6963, 96.798, -53.8015, 43.2862
0.872, 1, 35.6616, 48.6169, -13.7156, 96.8307, -53.6873, 43.3238
0.876, 1, 35.6747, 48.5912, -13.7348, 96.8633, -53.5732, 43.3612
0.88, 1, 35.6878, 48.5656, -13.754, 96.8959, -53.4594, 43.3987
0.884, 1, 35.7008, 48.5402, -13.7732, 96.9284, -53.3457, 43.436
0.888, 1, 35.7135, 48.515, -13.7924, 96.9608, -53.2323, 43.4733
0.892, 1, 35.726, 48.4902, -13.8115, 96.9932, -53.1192, 43.5105
0.896, 1, 35.738, 48.466, -13.8305, 97.0254, -53.0066, 43.5475
0.9, 1, 35.7494, 48.4426, -13.8494, 97.0574, -52.8946, 43.5843
0.904, 1, 35.7603, 48.4201, -13.8682, 97.0892, -52.7836, 43.6208
0.908, 1, 35.7705, 48.3986, -13.8867, 97.1205, -52.6741, 43.6568
0.912, 1, 35.7802, 48.3781, -13.9049, 97.1513, -52.5665, 43.6922
0.916, 1, 35.7894, 48.3586, -13.9227, 97.1813, -52.4615, 43.7267
0.92, 1, 35.7982, 48.3399, -13.9399, 97.2104, -52.3599, 43.7602
0.924, 1, 35.8067, 48.3221, -13.9564, 97.2383, -52.2624, 43.7923
0.928, 1, 35.8148, 48.3051, -13.9721, 97.2649, -52.1697, 43.8228
0.932, 1, 35.8225, 48.2891, -13.9869, 97.2898, -52.0824, 43.8514
0.936, 1, 35.8299, 48.274, -14.0006, 97.313, -52.0014, 43.8781
0.94, 1, 35.837, 48.2597, -14.0132, 97.3343, -51.927, 43.9026
0.944, 1, 35.8438, 48.2461, -14.0246, 97.3535, -51.8598, 43.9247
0.948, 1, 35.8505, 48.233, -14.0347, 97.3706, -51.8, 43.9443
0.952, 1, 35.8571, 48.2204, -14.0435, 97.3856, -51.7476, 43.9615
0.956, 1, 35.8636, 48.2083, -14.0511, 97.3985, -51.7026, 43.9763
0.96, 1, 35.8699, 48.1968, -14.0574, 97.4093, -51.6646, 43.9888
0.964, 1, 35.8759, 48.1861, -14.0627, 97.4183, -51.633, 43.9991
0.968, 2, 35.8815, 48.1763, -14.067, 97.4257, -51.6074, 44.0075
0.972, 2, 35.8866, 48.1676, -14.0704, 97.4315, -51.5869, 44.0143
0.976, 2, 35.8914, 48.16, -14.073, 97.436, -51.5709, 44.0195
0.98, 2, 35.8957, 48.1533, -14.075, 97.4395, -51.5587, 44.0235
0.984, 2, 35.8997, 48.1475, -14.0765, 97.4421, -51.5496, 44.0264
0.988, 2, 35.9032, 48.1427, -14.0776, 97.444, -51.543, 44.0286
0.992, 2, 35.9062, 48.1387, -14.0784, 97.4453, -51.5382, 44.0302
0.996, 2, 35.9087, 48.1355, -14.0789, 97.4463, -51.5349, 44.0312
1, 2, 35.9106, 48.1332, -14.0793, 97.4469, -51.5327, 44.032
1.004, 2, 35.912, 48.1315, -14.0795, 97.4474, -51.5311, 44.0325
1.008, 2, 35.913, 48.1303, -14.0797, 97.4477, -51.5301, 44.0328
1.012, 2, 35.9137, 48.1295, -14.0798, 97.4479, -51.5293, 44.033
1.016, 2, 35.9142, 48.1289, -14.0799, 97.448, -51.5289, 44.0332
1.02, 2, 35.9145, 48.1286, -14.0799, 97.4481, -51.5285, 44.0333
1.024, 2, 35.9147, 48.1283, -14.08, 97.4482, -51.5283, 44.0334
1.027, 2, 35.9148, 48.1281, -14.08, 97.4482, -51.5282, 44.0334
1.032, 2, 35.9149, 48.128, -14.08, 97.4482, -51.5281, 44.0335
1.036, 2, 35.915, 48.1279, -14.08, 97.4482, -51.528, 44.0335
1.04, 2, 35.915, 48.1279, -14.08, 97.4483, -51.5279, 44.0335
1.044, 2, 35.9151, 48.1279, -14.08, 97.4483, -51.5279, 44.0335
1.048, 2, 35.9151, 48.1278, -14.08, 97.4483, -51.5279, 44.0335
1.052, 2, 35.9151, 48.1278, -14.08, 97.4483, -51.5279, 44.0335
1.055, 2, 35.9151, 48.1278, -14.08, 97.4483, -51.5279, 44.0335
1.06, 2, 35.9151, 48.1278, -14.08, 97.4483, -51.5279, 44.0335
1.064, 2, 35.9151, 48.1278, -14.08, 97.4483, -51.5279, 44.0335
1.068, 2, 35.9151, 48.1278, -14.08, 97.4483, -51.5278, 44.0335
1.072, 2, 35.9151, 48.1278, -14.08, 97.4483, -51.5278, 44.0335
1.076, 2, 35.9151, 48.1278, -14.08, 97.4483, -51.5278, 44.0335
1.08, 2, 35.9151, 48.1278, -14.08, 97.4483, -51.5278, 44.0335
1.084, 2, 35.9151, 48.1278, -14.08, 97.4483, -51.5278, 44.0335
1.088, 2, 35.9151, 48.1278, -14.08, 97.4483, -51.5278, 44.0335
1.091, 2, 35.9151, 48.1278, -14.08, 97.4483, -51.5278, 44.0335
1.096, 2, 35.9151, 48.1278, -14.08, 97.4483, -51.5278, 44.0335
1.1, 2, 35.9151, 48.1278, -14.08, 97.4483, -51.5278, 44.0335
1.104, 2, 35.9151, 48.1278, -14.08, 97.4483, -51.5278, 44.0335
1.108, 2, 35.9151, 48.1278, -14.08, 97.4483, -51.5278, 44.0335
1.112, 2, 35.9151, 48.1278, -14.08, 97.4483, -51.5278, 44.0335
1.116, 2, 35.9151, 48.1278, -14.08, 97.4483, -51.5278, 44.0335
1.119, 2, 35.9151, 48.1278, -14.08, 97.4483, -51.5278, 44.0335
1.124, 2, 35.9151, 48.1278, -14.08, 97.4483, -51.5278, 44.0335
1.128, 2, 35.9151, 48.1278, -14.08, 97.4483, -51.5278, 44.0335
1.132, 2, 35.9151, 48.1278, -14.08, 97.4483, -51.5278, 44.0335
1.136, 2, 35.9151, 48.1278, -14.08, 97.4483, -51.5278, 44.0335
1.14, 2, 35.9151, 48.1278, -14.08, 97.4483, -51.5278, 44.0335
1.144, 2, 35.9151, 48.1278, -14.08, 97.4483, -51.5278, 44.0335
1.147, 2, 35.9151, 48.1278, -14.08, 97.4483, -51.5278, 44.0335
1.152, 2, 35.9151, 48.1278, -14.08, 97.4483, -51.5278, 44.0335
1.156, 2, 35.9151, 48.1278, -14.08, 97.4483, -51.5278, 44.0335
1.16, 2, 35.9151, 48.1278, -14.08, 97.4483, -51.5278, 44.0335
1.164, 2, 35.9151, 48.1278, -14.08, 97.4483, -51.5278, 44.0335
1.168, 2, 35.9151, 48.1278, -14.08, 97.4483, -51.5278, 44.0335
1.172, 2, 35.9151, 48.1278, -14.08, 97.4483, -51.5278, 44.0335
1.175, 2, 35.9151, 48.1278, -14.08, 97.4483, -51.5278, 44.0335
1.18, 2, 35.9151, 48.1278, -14.08, 97.4483, -51.5278, 44.0335
1.184, 2, 35.9151, 48.1278, -14.08, 97.4483, -51.5278, 44.0335
1.188, 2, 35.9151, 48.1278, -14.08, 97.4483, -51.5278, 44.0335
1.192, 2, 35.9151, 48.1278, -14.08, 97.4483, -51.5278, 44.0335
1.196, 2, 35.9151, 48.1278, -14.08, 97.4483, -51.5278, 44.0335
1.2, 2, 35.9151, 48.1278, -14.08, 97.4483, -51.5278, 44.0335
1.204, 2, 35.9151, 48.1278, -14.08, 97.4483, -51.5278, 44.0335
1.208, 2, 35.9151, 48.1278, -14.08, 97.4483, -51.5278, 44.0335
1.212, 2, 35.9151, 48.1278, -14.08, 97.4483, -51.5278, 44.0335
1.216, 2, 35.9151, 48.1278, -14.08, 97.4483, -51.5278, 44.0335
1.22, 2, 35.9151, 48.1278, -14.08, 97.4483, -51.5278, 44.0335
1.224, 2, 35.9151, 48.1278, -14.08, 97.4483, -51.5278, 44.0335
1.228, 2, 35.9151, 48.1278, -14.08, 97.4483, -51.5278, 44.0335
1.232, 2, 35.9151, 48.1278, -14.08, 97.4483, -51.5278, 44.0335
1.236, 2, 35.9151, 48.1278, -14.08, 97.4483, -51.5278, 44.0335
1.24, 2, 35.9151, 48.1278, -14.08, 97.4483, -51.5278, 44.0335
1.244, 2, 35.9151, 48.1278, -14.08, 97.4483, -51.5278, 44.0335
1.248, 2, 35.9151, 48.1278, -14.08, 97.4483, -51.5278, 44.0335
1.252, 2, 35.9151, 48.1278, -14.08, 97.4483, -51.5278, 44.0335
1.256, 2, 35.9151, 48.1278, -14.08, 97.4483, -51.5278, 44.0335
1.26, 2, 35.9151, 48.1278, -14.08, 97.4483, -51.5278, 44.0335
1.264, 2, 35.9151, 48.1278, -14.08, 97.4483, -51.5278, 44.0335
1.267, 2, 35.9151, 48.1278, -14.08, 97.4483, -51.5278, 44.0335
1.272, 2, 35.9151, 48.1278, -14.08, 97.4483, -51.5278, 44.0335
1.276, 2, 35.9151, 48.1278, -14.08, 97.4483, -51.5278, 44.0335
1.28, 2, 35.9151, 48.1278, -14.08, 97.4483, -51.5278, 44.0335
1.284, 2, 35.9151, 48.1278, -14.08, 97.4483, -51.5278, 44.0335
1.288, 2, 35.9151, 48.1278, -14.08, 97.4483, -51.5278, 44.0335
1.292, 2, 35.9151, 48.1278, -14.08, 97.4483, -51.5278, 44.0335
1.295, 2, 35.9151, 48.1278, -14.08, 97.4483, -51.5278, 44.0335
1.3, 2, 35.9151, 48.1278, -14.08, 97.4483, -51.5278, 44.0335
1.304, 2, 35.9151, 48.1278, -14.08, 97.4483, -51.5278, 44.0335
1.308, 2, 35.9151, 48.1278, -14.08, 97.4483, -51.5278, 44.0335
1.312, 2, 35.9151, 48.1278, -14.08, 97.4483, -51.5278, 44.0335
1.316, 2, 35.9151, 48.1278, -14.08, 97.4483, -51.5278, 44.0335
1.32, 2, 35.9151, 48.1278, -14.08, 97.4483, -51.5278, 44.0335
1.324, 2, 35.9151, 48.1278, -14.08, 97.4483, -51.5278, 44.0335
1.328, 2, 35.9151, 48.1278, -14.08, 97.4483, -51.5278, 44.0335
1.332, 2, 35.9151, 48.1278, -14.08, 97.4483, -51.5278, 44.0335
1.336, 2, 35.9151, 48.1278, -14.08, 97.4483, -51.5278, 44.0335
1.34, 2, 35.9151, 48.1278, -14.08, 97.4483, -51.5278, 44.0335
1.344, 2, 35.9151, 48.1278, -14.08, 97.4483, -51.5278, 44.0335
1.348, 2, 35.9151, 48.1278, -14.08, 97.4483, -51.5278, 44.0335
1.352, 2, 35.9151, 48.1278, -14.08, 97.4483, -51.5278, 44.0335
1.356, 2, 35.9151, 48.1278, -14.08, 97.4483, -51.5278, 44.0335
1.36, 2, 35.9151, 48.1278, -14.08, 97.4483, -51.5278, 44.0335
1.364, 2, 35.9151, 48.1278, -14.08, 97.4483, -51.5278, 44.0335
1.368, 2, 35.9151, 48.1278, -14.08, 97.4483, -51.5278, 44.0335
1.372, 2, 35.9151, 48.1278, -14.08, 97.4483, -51.5278, 44.0335
1.376, 2, 35.9151, 48.1278, -14.08, 97.4483, -51.5278, 44.0335
1.38, 2, 35.9151, 48.1278, -14.08, 97.4483, -51.5278, 44.0335
1.384, 2, 35.9151, 48.1278, -14.08, 97.4483, -51.5278, 44.0335
1.388, 2, 35.9151, 48.1278, -14.08, 97.4483, -51.5278, 44.0335
1.392, 2, 35.9151, 48.1278, -14.08, 97.4483, -51.5278, 44.0335
1.396, 2, 35.9151, 48.1278, -14.08, 97.4483, -51.5278, 44.0335
1.4, 2, 35.9151, 48.1278, -14.08, 97.4483, -51.5278, 44.0335
1.404, 2, 35.9151, 48.1278, -14.08, 97.4483, -51.5278, 44.0335
1.408, 2, 35.9151, 48.1278, -14.08, 97.4483, -51.5278, 44.0335
1.412, 2, 35.9151, 48.1278, -14.08, 97.4483, -51.5278, 44.0335
1.416, 2, 35.9151, 48.1278, -14.08, 97.4483, -51.5278, 44.0335
1.42, 2, 35.9151, 48.1278, -14.08, 97.4483, -51.5278, 44.0335
1.424, 2, 35.9151, 48.1278, -14.08, 97.4483, -51.5278, 44.0335
1.428, 2, 35.9151, 48.1278, -14.08, 97.4483, -51.5278, 44.0335
1.432, 2, 35.9151, 48.1278, -14.08, 97.4483, -51.5278, 44.0335
1.436, 2, 35.9151, 48.1278, -14.08, 97.4483, -51.5278, 44.0335
1.44, 2, 35.9151, 48.1278, -14.08, 97.4483, -51.5278, 44.0335
1.444, 2, 35.9151, 48.1278, -14.08, 97.4483, -51.5278, 44.0335
1.448, 2, 35.9151, 48.1278, -14.08, 97.4483, -51.5278, 44.0335
1.452, 2, 35.9151, 48.1278, -14.08, 97.4483, -51.5278, 44.0335
1.456, 2, 35.9151, 48.1278, -14.08, 97.4483, -51.5278, 44.0335
1.46, 2, 35.9151, 48.1278, -14.08, 97.4483, -51.5278, 44.0335
1.464, 2, 35.9151, 48.1278, -14.08, 97.4483, -51.5278, 44.0335
1.468, 2, 35.9151, 48.1278, -14.08, 97.4483, -51.5278, 44.0335
1.472, 2, 35.9151, 48.1278, -14.08, 97.4483, -51.5278, 44.0335
1.476, 2, 35.9151, 48.1278, -14.08, 97.4483, -51.5278, 44.0335
1.48, 2, 35.9151, 48.1278, -14.08, 97.4483, -51.5278, 44.0335
1.484, 2, 35.9151, 48.1278, -14.08, 97.4483, -51.5278, 44.0335
1.488, 2, 35.9151, 48.1278, -14.08, 97.4483, -51.5278, 44.0335
1.492, 2, 35.9151, 48.1278, -14.08, 97.4483, -51.5278, 44.0335
1.496, 2, 35.9151, 48.1278, -14.08, 97.4483, -51.5278, 44.0335
1.5, 2, 35.9151, 48.1278, -14.08, 97.4483, -51.5278, 44.0335
1.504, 2, 35.9151, 48.1278, -14.08, 97.4483, -51.5278, 44.0335
1.508, 2, 35.9151, 48.1278, -14.08, 97.4483, -51.5278, 44.0335
1.512, 2, 35.9151, 48.1278, -14.08, 97.4483, -51.5278, 44.0335
1.516, 2, 35.9151, 48.1278, -14.08, 97.4483, -51.5278, 44.0335
1.52, 2, 35.9151, 48.1278, -14.08, 97.4483, -51.5278, 44.0335
1.524, 2, 35.9151, 48.1278, -14.08, 97.4483, -51.5278, 44.0335
1.528, 2, 35.9151, 48.1278, -14.08, 97.4483, -51.5278, 44.0335
1.532, 2, 35.9151, 48.1278, -14.08, 97.4483, -51.5278, 44.0335
1.536, 2, 35.9151, 48.1278, -14.08, 97.4483, -51.5278, 44.0335
1.54, 2, 35.9151, 48.1278, -14.08, 97.4483, -51.5278, 44.0335
1.544, 2, 35.9151, 48.1278, -14.08, 97.4483, -51.5278, 44.0335
1.548, 2, 35.9151, 48.1278, -14.08, 97.4483, -51.5278, 44.0335
1.552, 2, 35.9151, 48.1278, -14.08, 97.4483, -51.5278, 44.0335
1.556, 2, 35.9151, 48.1278, -14.08, 97.4483, -51.5278, 44.0335
1.56, 2, 35.9151, 48.1278, -14.08, 97.4483, -51.5278, 44.0335
1.564, 2, 35.9151, 48.1278, -14.08, 97.4483, -51.5278, 44.0335
1.568, 2, 35.9151, 48.1278, -14.08, 97.4483, -51.5278, 44.0335
1.572, 2, 35.9151, 48.1278, -14.08, 97.4483, -51.5278, 44.0335
1.576, 2, 35.9151, 48.1278, -14.08, 97.4483, -51.5278, 44.0335
1.58, 2, 35.9151, 48.1278, -14.08, 97.4483, -51.5278, 44.0335
1.584, 2, 35.9151, 48.1278, -14.08, 97.4483, -51.5278, 44.0335
1.588, 2, 35.9151, 48.1278, -14.08, 97.4483, -51.5278, 44.0335
1.592, 2, 35.9151, 48.1278, -14.08, 97.4483, -51.5278, 44.0335
1.596, 2, 35.9151, 48.1278, -14.08, 97.4483, -51.5278, 44.0335
1.6, 2, 35.9151, 48.1278, -14.08, 97.4483, -51.5278, 44.0335
1.604, 2, 35.9151, 48.1278, -14.08, 97.4483, -51.5278, 44.0335
1.608, 2, 35.9151, 48.1278, -14.08, 97.4483, -51.5278, 44.0335
1.612, 2, 35.9151, 48.1278, -14.08, 97.4483, -51.5278, 44.0335
1.616, 2, 35.9151, 48.1278, -14.08, 97.4483, -51.5278, 44.0335
1.62, 2, 35.9151, 48.1278, -14.08, 97.4483, -51.5278, 44.0335
1.624, 2, 35.9151, 48.1278, -14.08, 97.4483, -51.5278, 44.0335
1.628, 2, 35.9151, 48.1278, -14.08, 97.4483, -51.5278, 44.0335
1.632, 2, 35.9151, 48.1278, -14.08, 97.4483, -51.5278, 44.0335
1.636, 2, 35.9151, 48.1278, -14.08, 97.4483, -51.5278, 44.0335
1.64, 2, 35.9151, 48.1278, -14.08, 97.4483, -51.5278, 44.0335
1.644, 2, 35.9151, 48.1278, -14.08, 97.4483, -51.5278, 44.0335
1.648, 2, 35.9151, 48.1278, -14.08, 97.4483, -51.5278, 44.0335
1.652, 2, 35.9151, 48.1278, -14.08, 97.4483, -51.5278, 44.0335
1.656, 2, 35.9151, 48.1278, -14.08, 97.4483, -51.5278, 44.0335
1.66, 2, 35.9151, 48.1278, -14.08, 97.4483, -51.5278, 44.0335
1.664, 2, 35.9151, 48.1278, -14.08, 97.4483, -51.5278, 44.0335
1.668, 2, 35.9151, 48.1278, -14.08, 97.4483, -51.5278, 44.0335
1.672, 2, 35.9151, 48.1278, -14.08, 97.4483, -51.5278, 44.0335
1.676, 2, 35.9151, 48.1278, -14.08, 97.4483, -51.5278, 44.0335
1.68, 2, 35.9151, 48.1278, -14.08, 97.4483, -51.5278, 44.0335
1.684, 2, 35.9151, 48.1278, -14.08, 97.4483, -51.5278, 44.0335
1.688, 2, 35.9151, 48.1278, -14.08, 97.4483, -51.5278, 44.0335
1.692, 2, 35.9151, 48.1278, -14.08, 97.4483, -51.5278, 44.0335
1.696, 2, 35.9151, 48.1278, -14.08, 97.4483, -51.5278, 44.0335
1.7, 2, 35.9151, 48.1278, -14.08, 97.4483, -51.5278, 44.0335
1.704, 2, 35.9151, 48.1278, -14.08, 97.4483, -51.5278, 44.0335
1.708, 2, 35.9151, 48.1278, -14.08, 97.4483, -51.5278, 44.0335
1.712, 2, 35.9151, 48.1278, -14.08, 97.4483, -51.5278, 44.0335
1.716, 2, 35.9151, 48.1278, -14.08, 97.4483, -51.5278, 44.0335
1.72, 2, 35.9151, 48.1278, -14.08, 97.4483, -51.5278, 44.0335
1.724, 2, 35.9151, 48.1278, -14.08, 97.4483, -51.5278, 44.0335
1.728, 2, 35.9151, 48.1278, -14.08, 97.4483, -51.5278, 44.0335
1.732, 2, 35.9151, 48.1278, -14.08, 97.4483, -51.5278, 44.0335
1.736, 2, 35.9151, 48.1278, -14.08, 97.4483, -51.5278, 44.0335
1.74, 2, 35.9151, 48.1278, -14.08, 97.4483, -51.5278, 44.0335
1.744, 2, 35.9151, 48.1278, -14.08, 97.4483, -51.5278, 44.0335
1.748, 2, 35.9151, 48.1278, -14.08, 97.4483, -51.5278, 44.0335
1.752, 2, 35.9151, 48.1278, -14.08, 97.4483, -51.5278, 44.0335
1.756, 2, 35.9151, 48.1278, -14.08, 97.4483, -51.5278, 44.0335
1.76, 2, 35.9151, 48.1278, -14.08, 97.4483, -51.5278, 44.0335
1.764, 2, 35.9151, 48.1278, -14.08, 97.4483, -51.5278, 44.0335
1.768, 2, 35.9151, 48.1278, -14.08, 97.4483, -51.5278, 44.0335
1.772, 2, 35.9151, 48.1278, -14.08, 97.4483, -51.5278, 44.0335
1.776, 2, 35.9151, 48.1278, -14.08, 97.4483, -51.5278, 44.0335
1.78, 2, 35.9151, 48.1278, -14.08, 97.4483, -51.5278, 44.0335
1.784, 2, 35.9151, 48.1278, -14.08, 97.4483, -51.5278, 44.0335
1.788, 2, 35.9151, 48.1278, -14.08, 97.4483, -51.5278, 44.0335
1.792, 2, 35.9151, 48.1278, -14.08, 97.4483, -51.5278, 44.0335
1.796, 2, 35.9151, 48.1278, -14.08, 97.4483, -51.5278, 44.0335
1.8, 2, 35.9151, 48.1278, -14.08, 97.4483, -51.5278, 44.0335
1.804, 2, 35.9151, 48.1278, -14.08, 97.4483, -51.5278, 44.0335
1.808, 2, 35.9151, 48.1278, -14.08, 97.4483, -51.5278, 44.0335
1.812, 2, 35.9151, 48.1278, -14.08, 97.4483, -51.5278, 44.0335
1.816, 2, 35.9151, 48.1278, -14.08, 97.4483, -51.5278, 44.0335
1.82, 2, 35.9151, 48.1278, -14.08, 97.4483, -51.5278, 44.0335
1.824, 2, 35.9151, 48.1278, -14.08, 97.4483, -51.5278, 44.0335
1.828, 2, 35.9151, 48.1278, -14.08, 97.4483, -51.5278, 44.0335
1.832, 2, 35.9151, 48.1278, -14.08, 97.4483, -51.5278, 44.0335
1.836, 2, 35.9151, 48.1278, -14.08, 97.4483, -51.5278, 44.0335
1.84, 2, 35.9151, 48.1278, -14.08, 97.4483, -51.5278, 44.0335
1.844, 2, 35.9151, 48.1278, -14.08, 97.4483, -51.5278, 44.0335
1.848, 2, 35.9151, 48.1278, -14.08, 97.4483, -51.5278, 44.0335
1.852, 2, 35.9151, 48.1278, -14.08, 97.4483, -51.5278, 44.0335
1.856, 2, 35.9151, 48.1278, -14.08, 97.4483, -51.5278, 44.0335
1.86, 2, 35.9151, 48.1278, -14.08, 97.4483, -51.5278, 44.0335
1.864, 2, 35.9151, 48.1278, -14.08, 97.4483, -51.5278, 44.0335
1.868, 2, 35.9151, 48.1278, -14.08, 97.4483, -51.5278, 44.0335
1.872, 2, 35.9151, 48.1278, -14.08, 97.4483, -51.5278, 44.0335
1.876, 2, 35.9151, 48.1278, -14.08, 97.4483, -51.5278, 44.0335
1.88, 2, 35.9151, 48.1278, -14.08, 97.4483, -51.5278, 44.0335
1.884, 2, 35.9151, 48.1278, -14.08, 97.4483, -51.5278, 44.0335
1.888, 2, 35.9151, 48.1278, -14.08, 97.4483, -51.5278, 44.0335
1.892, 2, 35.9151, 48.1278, -14.08, 97.4483, -51.5278, 44.0335
1.896, 2, 35.9151, 48.1278, -14.08, 97.4483, -51.5278, 44.0335
1.9, 2, 35.9151, 48.1278, -14.08, 97.4483, -51.5278, 44.0335
1.904, 2, 35.9151, 48.1278, -14.08, 97.4483, -51.5278, 44.0335
1.908, 2, 35.9151, 48.1278, -14.08, 97.4483, -51.5278, 44.0335
1.912, 2, 35.9151, 48.1278, -14.08, 97.4483, -51.5278, 44.0335
1.916, 2, 35.9151, 48.1278, -14.08, 97.4483, -51.5278, 44.0335
1.92, 2, 35.9151, 48.1278, -14.08, 97.4483, -51.5278, 44.0335
1.924, 2, 35.9151, 48.1278, -14.08, 97.4483, -51.5278, 44.0335
1.928, 2, 35.9151, 48.1278, -14.08, 97.4483, -51.5278, 44.0335
1.932, 2, 35.9151, 48.1278, -14.08, 97.4483, -51.5278, 44.0335
1.936, 2, 35.9151, 48.1278, -14.08, 97.4483, -51.5278, 44.0335
1.94, 2, 35.9151, 48.1278, -14.08, 97.4483, -51.5278, 44.0335
1.944, 2, 35.9151, 48.1278, -14.08, 97.4483, -51.5278, 44.0335
1.948, 2, 35.9151, 48.1278, -14.08, 97.4483, -51.5278, 44.0335
1.952, 2, 35.9151, 48.1278, -14.08, 97.4483, -51.5278, 44.0335
1.956, 2, 35.9151, 48.1278, -14.08, 97.4483, -51.5278, 44.0335
1.96, 2, 35.9151, 48.1278, -14.08, 97.4483, -51.5278, 44.0335
1.964, 2, 35.9151, 48.1278, -14.08, 97.4483, -51.5278, 44.0335
1.968, 3, 35.9151, 48.1278, -14.08, 97.4483, -51.5278, 44.0335
1.972, 3, 35.9151, 48.1278, -14.08, 97.4483, -51.5278, 44.0335
1.976, 3, 35.9151, 48.1278, -14.08, 97.4483, -51.5278, 44.0335
1.98, 3, 35.9151, 48.1278, -14.08, 97.4483, -51.5278, 44.0335
1.984, 3, 35.9151, 48.1278, -14.08, 97.4483, -51.5278, 44.0335
1.988, 3, 35.9151, 48.1278, -14.08, 97.4483, -51.5278, 44.0335
1.992, 3, 35.9151, 48.1278, -14.08, 97.4483, -51.5278, 44.0335
1.996, 3, 35.9151, 48.1278, -14.08, 97.4483, -51.5278, 44.0335
1.999, 3, 35.9151, 48.1278, -14.08, 97.4483, -51.5278, 44.0335
2.004, 4, 35.9151, 48.1278, -14.08, 97.4483, -51.5278, 44.0335
2.008, 4, 35.9151, 48.1278, -14.08, 97.4483, -51.5278, 44.0335
2.012, 4, 35.9151, 48.1278, -14.08, 97.4483, -51.5278, 44.0335
2.015, 4, 35.9151, 48.1278, -14.08, 97.4483, -51.5278, 44.0335
2.019, 4, 35.9151, 48.1278, -14.08, 97.4483, -51.5278, 44.0335
2.024, 4, 35.9151, 48.1278, -14.08, 97.4483, -51.5278, 44.0335
2.028, 4, 35.9151, 48.1278, -14.08, 97.4483, -51.5278, 44.0335
2.031, 4, 35.9151, 48.1278, -14.08, 97.4483, -51.5278, 44.0335
2.036, 4, 35.9151, 48.1278, -14.08, 97.4483, -51.5278, 44.0335
2.04, 4, 35.9151, 48.1278, -14.08, 97.4483, -51.5278, 44.0335
2.044, 4, 35.9151, 48.1278, -14.08, 97.4483, -51.5278, 44.0335
2.048, 4, 35.9151, 48.1278, -14.08, 97.4483, -51.5278, 44.0335
2.051, 4, 35.9151, 48.1278, -14.08, 97.4483, -51.5278, 44.0335
2.055, 4, 35.9151, 48.1278, -14.08, 97.4483, -51.5278, 44.0335
2.06, 4, 35.9151, 48.1278, -14.08, 97.4483, -51.5278, 44.0335
2.064, 4, 35.9151, 48.1278, -14.08, 97.4483, -51.5278, 44.0335
2.068, 4, 35.9151, 48.1278, -14.08, 97.4483, -51.5278, 44.0335
2.071, 4, 35.9151, 48.1278, -14.08, 97.4483, -51.5278, 44.0335
2.076, 4, 35.9151, 48.1278, -14.08, 97.4483, -51.5278, 44.0335
2.08, 4, 35.9151, 48.1278, -14.08, 97.4483, -51.5278, 44.0335
2.084, 4, 35.9151, 48.1278, -14.08, 97.4483, -51.5278, 44.0335
2.087, 4, 35.9151, 48.1278, -14.08, 97.4483, -51.5278, 44.0335
2.092, 4, 35.9151, 48.1278, -14.08, 97.4483, -51.5278, 44.0335
2.096, 4, 35.9151, 48.1278, -14.08, 97.4483, -51.5278, 44.0335
2.1, 4, 35.9151, 48.1278, -14.08, 97.4483, -51.5278, 44.0335
2.104, 5, 35.9151, 48.1278, -14.08, 97.4483, -51.5278, 44.0335
2.107, 5, 35.9151, 48.1278, -14.08, 97.4483, -51.5278, 44.0335
2.111, 5, 35.9151, 48.1278, -14.08, 97.4483, -51.5278, 44.0335
2.116, 5, 35.9151, 48.1278, -14.08, 97.4483, -51.5278, 44.0335
2.12, 5, 35.9151, 48.1278, -14.08, 97.4483, -51.5278, 44.0335
2.124, 5, 35.9151, 48.1278, -14.08, 97.4483, -51.5278, 44.0335
2.127, 5, 35.9151, 48.1278, -14.08, 97.4483, -51.5278, 44.0335
2.132, 5, 35.9151, 48.1278, -14.08, 97.4483, -51.5278, 44.0335
2.136, 5, 35.9151, 48.1278, -14.08, 97.4483, -51.5278, 44.0335
2.14, 5, 35.9151, 48.1278, -14.08, 97.4483, -51.5278, 44.0335
2.143, 5, 35.915, 48.128, -14.08, 97.4483, -51.5279, 44.0335
2.148, 5, 35.9148, 48.1283, -14.08, 97.4483, -51.5279, 44.0335
2.152, 5, 35.9144, 48.1291, -14.08, 97.4483, -51.5281, 44.0334
2.156, 5, 35.9137, 48.1303, -14.08, 97.4482, -51.5284, 44.0333
2.16, 5, 35.9128, 48.1322, -14.0799, 97.4481, -51.5292, 44.033
2.163, 5, 35.9115, 48.1347, -14.0798, 97.4478, -51.5306, 44.0325
2.168, 5, 35.91, 48.1378, -14.0797, 97.4474, -51.533, 44.0316
2.172, 5, 35.9084, 48.1415, -14.0795, 97.4468, -51.5368, 44.0301
2.176, 5, 35.9067, 48.1457, -14.0792, 97.4459, -51.5425, 44.028
2.179, 5, 35.905, 48.1504, -14.0788, 97.4445, -51.5505, 44.0249
2.184, 5, 35.9034, 48.1554, -14.0782, 97.4427, -51.5612, 44.0208
2.188, 5, 35.9018, 48.1609, -14.0775, 97.4404, -51.5751, 44.0155
2.192, 5, 35.9002, 48.1669, -14.0766, 97.4374, -51.5925, 44.0089
2.196, 5, 35.8987, 48.1733, -14.0756, 97.4339, -51.6135, 44.0009
2.199, 5, 35.8972, 48.1801, -14.0743, 97.4296, -51.6384, 43.9914
2.204, 5, 35.8958, 48.1873, -14.0729, 97.4247, -51.6672, 43.9804
2.208, 5, 35.8945, 48.1949, -14.0712, 97.4191, -51.6999, 43.9679
2.212, 5, 35.8933, 48.2028, -14.0694, 97.4129, -51.7362, 43.9541
2.216, 5, 35.8922, 48.211, -14.0673, 97.406, -51.7759, 43.939
2.219, 5, 35.8911, 48.2197, -14.0651, 97.3987, -51.8186, 43.9227
2.224, 5, 35.89, 48.229, -14.0628, 97.3908, -51.8639, 43.9055
2.228, 5, 35.8887, 48.2389, -14.0603, 97.3826, -51.9115, 43.8874
2.232, 5, 35.8873, 48.2495, -14.0577, 97.374, -51.9607, 43.8687
2.235, 5, 35.8856, 48.2607, -14.055, 97.3652, -52.0114, 43.8495
2.24, 5, 35.8837, 48.2726, -14.0521, 97.3561, -52.0631, 43.8299
2.244, 5, 35.8816, 48.2849, -14.0493, 97.3469, -52.1155, 43.81
2.248, 5, 35.8793, 48.2977, -14.0463, 97.3375, -52.1686, 43.7899
2.252, 5, 35.8769, 48.3108, -14.0433, 97.328, -52.2221, 43.7697
2.255, 5, 35.8743, 48.3242, -14.0402, 97.3185, -52.2758, 43.7494
2.259, 5, 35.8716, 48.3377, -14.0371, 97.3088, -52.3298, 43.729
2.264, 5, 35.8689, 48.3514, -14.0339, 97.2991, -52.3839, 43.7086
2.268, 5, 35.866, 48.3652, -14.0307, 97.2894, -52.4382, 43.6881
2.272, 5, 35.8631, 48.3791, -14.0275, 97.2795, -52.4924, 43.6677
2.275, 5, 35.8602, 48.393, -14.0242, 97.2697, -52.5467, 43.6473
2.28, 5, 35.8572, 48.4069, -14.0209, 97.2598, -52.601, 43.6269
2.284, 5, 35.8542, 48.4208, -14.0175, 97.2499, -52.6554, 43.6064
2.288, 5, 35.8512, 48.4348, -14.0141, 97.2399, -52.7097, 43.5861
2.291, 5, 35.8482, 48.4487, -14.0107, 97.2299, -52.764, 43.5657
2.296, 5, 35.8452, 48.4626, -14.0072, 97.2198, -52.8183, 43.5454
2.3, 5, 35.8421, 48.4765, -14.0037, 97.2097, -52.8726, 43.525
2.304, 5, 35.839, 48.4904, -14.0001, 97.1996, -52.9269, 43.5047
2.308, 5, 35.8359, 48.5042, -13.9965, 97.1894, -52.9812, 43.4844
2.311, 5, 35.8328, 48.5181, -13.9929, 97.1792, -53.0355, 43.4642
2.316, 5, 35.8297, 48.5319, -13.9892, 97.169, -53.0898, 43.444
2.32, 5, 35.8266, 48.5457, -13.9855, 97.1587, -53.144, 43.4237
2.324, 5, 35.8235, 48.5594, -13.9818, 97.1484, -53.1982, 43.4036
2.328, 5, 35.8203, 48.5732, -13.978, 97.138, -53.2525, 43.3834
2.331, 5, 35.8172, 48.5869, -13.9742, 97.1276, -53.3067, 43.3632
2.336, 5, 35.814, 48.6006, -13.9703, 97.1172, -53.3609, 43.3431
2.34, 5, 35.8108, 48.6143, -13.9664, 97.1068, -53.415, 43.323
2.344, 5, 35.8076, 48.628, -13.9625, 97.0963, -53.4692, 43.3029
2.347, 5, 35.8044, 48.6417, -13.9585, 97.0857, -53.5233, 43.2829
2.352, 5, 35.8011, 48.6553, -13.9545, 97.0751, -53.5775, 43.2629
2.356, 5, 35.7979, 48.6689, -13.9505, 97.0645, -53.6316, 43.2428
2.36, 5, 35.7947, 48.6825, -13.9464, 97.0539, -53.6857, 43.2229
2.364, 5, 35.7914, 48.696, -13.9423, 97.0432, -53.7398, 43.2029
2.367, 5, 35.7881, 48.7096, -13.9381, 97.0325, -53.7939, 43.1829
2.372, 5, 35.7848, 48.7231, -13.9339, 97.0217, -53.8479, 43.163
2.376, 5, 35.7815, 48.7366, -13.9297, 97.0109, -53.902, 43.1431
2.38, 5, 35.7782, 48.7501, -13.9254, 97.0001, -53.956, 43.1232
2.383, 5, 35.7749, 48.7635, -13.9211, 96.9893, -54.01, 43.1034
2.388, 5, 35.7715, 48.777, -13.9167, 96.9784, -54.064, 43.0835
2.392, 5, 35.7682, 48.7904, -13.9123, 96.9674, -54.118, 43.0637
2.396, 5, 35.7648, 48.8038, -13.9079, 96.9565, -54.172, 43.0439
2.4, 5, 35.7615, 48.8171, -13.9034, 96.9455, -54.226, 43.0242
2.403, 5, 35.7581, 48.8305, -13.8989, 96.9344, -54.2799, 43.0044
2.408, 5, 35.7547, 48.8438, -13.8944, 96.9234, -54.3339, 42.9847
2.412, 5, 35.7513, 48.8571, -13.8898, 96.9122, -54.3878, 42.965
2.416, 5, 35.7478, 48.8704, -13.8851, 96.9011, -54.4417, 42.9453
2.42, 5, 35.7444, 48.8837, -13.8805, 96.8899, -54.4956, 42.9256
2.423, 5, 35.7409, 48.8969, -13.8758, 96.8787, -54.5495, 42.9059
2.428, 5, 35.7375, 48.9101, -13.871, 96.8675, -54.6033, 42.8863
2.432, 5, 35.734, 48.9233, -13.8662, 96.8562, -54.6572, 42.8667
2.436, 5, 35.7305, 48.9365, -13.8614, 96.8449, -54.711, 42.8471
2.439, 5, 35.727, 48.9496, -13.8566, 96.8335, -54.7648, 42.8275
2.444, 5, 35.7235, 48.9628, -13.8517, 96.8221, -54.8187, 42.808
2.448, 5, 35.72, 48.9759, -13.8467, 96.8107, -54.8725, 42.7884
2.452, 5, 35.7164, 48.9889, -13.8417, 96.7993, -54.9262, 42.7689
2.456, 5, 35.7129, 49.002, -13.8367, 96.7878, -54.98, 42.7494
2.459, 5, 35.7093, 49.015, -13.8317, 96.7763, -55.0338, 42.73
2.464, 5, 35.7057, 49.0281, -13.8266, 96.7647, -55.0875, 42.7105
2.468, 5, 35.7022, 49.041, -13.8214, 96.7531, -55.1412, 42.6911
2.472, 5, 35.6986, 49.054, -13.8163, 96.7415, -55.1949, 42.6717
2.476, 5, 35.695, 49.067, -13.811, 96.7299, -55.2486, 42.6523
2.479, 5, 35.6913, 49.0799, -13.8058, 96.7182, -55.3023, 42.6329
2.484, 5, 35.6877, 49.0928, -13.8005, 96.7065, -55.356, 42.6135
2.488, 5, 35.684, 49.1057, -13.7952, 96.6947, -55.4096, 42.5942
2.492, 5, 35.6804, 49.1185, -13.7898, 96.6829, -55.4633, 42.5748
2.495, 5, 35.6767, 49.1314, -13.7844, 96.6711, -55.5169, 42.5555
2.5, 5, 35.673, 49.1442, -13.7789, 96.6592, -55.5705, 42.5363
2.504, 5, 35.6693, 49.157, -13.7735, 96.6474, -55.6241, 42.517
2.508, 5, 35.6656, 49.1698, -13.7679, 96.6355, -55.6777, 42.4977
2.512, 5, 35.6619, 49.1825, -13.7624, 96.6235, -55.7313, 42.4785
2.515, 5, 35.6581, 49.1952, -13.7568, 96.6115, -55.7849, 42.4593
2.52, 5, 35.6544, 49.2079, -13.7511, 96.5995, -55.8384, 42.4401
2.524, 5, 35.6506, 49.2206, -13.7454, 96.5875, -55.8919, 42.4209
2.528, 5, 35.6469, 49.2333, -13.7397, 96.5754, -55.9455, 42.4017
2.531, 5, 35.6431, 49.2459, -13.734, 96.5633, -55.999, 42.3826
2.536, 5, 35.6393, 49.2585, -13.7282, 96.5511, -56.0525, 42.3635
2.54, 5, 35.6355, 49.2711, -13.7223, 96.539, -56.1059, 42.3444
2.544, 5, 35.6316, 49.2837, -13.7165, 96.5267, -56.1594, 42.3253
2.548, 5, 35.6278, 49.2962, -13.7105, 96.5145, -56.2129, 42.3062
2.551, 5, 35.624, 49.3087, -13.7046, 96.5022, -56.2663, 42.2872
2.556, 5, 35.6201, 49.3212, -13.6986, 96.4899, -56.3197, 42.2681
2.56, 5, 35.6162, 49.3337, -13.6926, 96.4776, -56.3731, 42.2491
2.564, 5, 35.6123, 49.3462, -13.6865, 96.4652, -56.4265, 42.2301
2.568, 5, 35.6084, 49.3586, -13.6804, 96.4528, -56.4799, 42.2111
2.571, 5, 35.6045, 49.371, -13.6742, 96.4404, -56.5333, 42.1921
2.576, 5, 35.6006, 49.3834, -13.6681, 96.428, -56.5867, 42.1732
2.58, 5, 35.5967, 49.3958, -13.6618, 96.4155, -56.64, 42.1542
2.584, 5, 35.5927, 49.4081, -13.6556, 96.4029, -56.6933, 42.1353
2.587, 6, 35.5888, 49.4204, -13.6493, 96.3904, -56.7467, 42.1164
2.592, 6, 35.5848, 49.4327, -13.6429, 96.3778, -56.8, 42.0975
2.596, 6, 35.5808, 49.445, -13.6365, 96.3652, -56.8533, 42.0787
2.6, 6, 35.5768, 49.4572, -13.6301, 96.3525, -56.9065, 42.0598
2.604, 6, 35.5728, 49.4695, -13.6237, 96.3399, -56.9598, 42.041
2.607, 6, 35.5688, 49.4817, -13.6172, 96.3271, -57.0131, 42.0221
2.612, 6, 35.5648, 49.4939, -13.6106, 96.3144, -57.0663, 42.0033
2.616, 6, 35.5607, 49.506, -13.6041, 96.3016, -57.1195, 41.9845
2.62, 6, 35.5567, 49.5182, -13.5974, 96.2888, -57.1727, 41.9658
2.624, 6, 35.5526, 49.5303, -13.5908, 96.276, -57.2259, 41.947
2.627, 6, 35.5485, 49.5424, -13.5841, 96.2631, -57.2791, 41.9283
2.632, 6, 35.5444, 49.5544, -13.5774, 96.2503, -57.3323, 41.9095
2.636, 6, 35.5403, 49.5665, -13.5706, 96.2373, -57.3854, 41.8908
2.64, 6, 35.5362, 49.5785, -13.5638, 96.2244, -57.4386, 41.8721
2.643, 6, 35.5321, 49.5905, -13.5569, 96.2114, -57.4917, 41.8534
2.648, 6, 35.5279, 49.6025, -13.5501, 96.1984, -57.5448, 41.8348
2.652, 6, 35.5238, 49.6144, -13.5431, 96.1853, -57.5979, 41.8161
2.656, 6, 35.5196, 49.6264, -13.5362, 96.1723, -57.651, 41.7975
2.66, 6, 35.5155, 49.6383, -13.5292, 96.1592, -57.7041, 41.7789
2.663, 6, 35.5113, 49.6501, -13.5221, 96.146, -57.7572, 41.7603
2.668, 6, 35.5071, 49.662, -13.5151, 96.1329, -57.8102, 41.7417
2.672, 6, 35.5029, 49.6738, -13.5079, 96.1197, -57.8633, 41.7231
2.676, 6, 35.4986, 49.6857, -13.5008, 96.1065, -57.9163, 41.7045
2.679, 6, 35.4944, 49.6975, -13.4936, 96.0932, -57.9693, 41.686
2.684, 6, 35.4901, 49.7092, -13.4864, 96.0799, -58.0223, 41.6675
2.688, 6, 35.4859, 49.721, -13.4791, 96.0666, -58.0753, 41.649
2.692, 6, 35.4816, 49.7327, -13.4718, 96.0533, -58.1283, 41.6305
2.696, 6, 35.4773, 49.7444, -13.4644, 96.0399, -58.1812, 41.612
2.699, 6, 35.473, 49.7561, -13.457, 96.0265, -58.2342, 41.5935
2.704, 6, 35.4687, 49.7677, -13.4496, 96.0131, -58.2871, 41.575
2.708, 6, 35.4644, 49.7793, -13.4421, 95.9996, -58.34, 41.5566
2.712, 6, 35.4601, 49.7909, -13.4346, 95.9861, -58.3929, 41.5382
2.716, 6, 35.4557, 49.8025, -13.4271, 95.9726, -58.4458, 41.5197
2.719, 6, 35.4514, 49.8141, -13.4195, 95.9591, -58.4987, 41.5013
2.724, 6, 35.447, 49.8256, -13.4119, 95.9455, -58.5516, 41.483
2.728, 6, 35.4426, 49.8371, -13.4042, 95.9319, -58.6045, 41.4646
2.732, 6, 35.4382, 49.8486, -13.3965, 95.9183, -58.6573, 41.4462
2.735, 6, 35.4338, 49.8601, -13.3888, 95.9046, -58.7101, 41.4279
2.74, 6, 35.4294, 49.8715, -13.381, 95.8909, -58.7629, 41.4095
2.744, 6, 35.425, 49.883, -13.3732, 95.8772, -58.8158, 41.3912
2.748, 6, 35.4205, 49.8943, -13.3653, 95.8635, -58.8685, 41.3729
2.752, 6, 35.4161, 49.9057, -13.3574, 95.8497, -58.9213, 41.3546
2.755, 6, 35.4116, 49.9171, -13.3495, 95.8359, -58.9741, 41.3363
2.76, 6, 35.4071, 49.9284, -13.3415, 95.8221, -59.0268, 41.3181
2.764, 6, 35.4026, 49.9397, -13.3335, 95.8082, -59.0796, 41.2998
2.768, 6, 35.3981, 49.951, -13.3255, 95.7943, -59.1323, 41.2816
2.772, 6, 35.3936, 49.9622, -13.3174, 95.7804, -59.185, 41.2634
2.775, 6, 35.3891, 49.9735, -13.3093, 95.7665, -59.2377, 41.2451
2.78, 6, 35.3846, 49.9847, -13.3011, 95.7525, -59.2904, 41.2269
2.784, 6, 35.38, 49.9958, -13.2929, 95.7385, -59.3431, 41.2088
2.788, 6, 35.3755, 50.007, -13.2847, 95.7245, -59.3958, 41.1906
2.791, 6, 35.3709, 50.0181, -13.2764, 95.7104, -59.4484, 41.1724
2.796, 6, 35.3663, 50.0293, -13.2681, 95.6964, -59.5011, 41.1543
2.8, 6, 35.3617, 50.0403, -13.2597, 95.6823, -59.5537, 41.1361
2.804, 6, 35.3571, 50.0514, -13.2513, 95.6681, -59.6063, 41.118
2.808, 6, 35.3525, 50.0625, -13.2429, 95.654, -59.6589, 41.0999
2.811, 6, 35.3479, 50.0735, -13.2344, 95.6398, -59.7115, 41.0818
2.816, 6, 35.3432, 50.0845, -13.2259, 95.6256, -59.764, 41.0637
2.82, 6, 35.3386, 50.0954, -13.2173, 95.6113, -59.8166, 41.0456
2.824, 6, 35.3339, 50.1064, -13.2087, 95.5971, -59.8692, 41.0276
2.828, 6, 35.3292, 50.1173, -13.2001, 95.5828, -59.9217, 41.0095
2.831, 6, 35.3245, 50.1282, -13.1915, 95.5684, -59.9742, 40.9915
2.836, 6, 35.3198, 50.1391, -13.1827, 95.5541, -60.0267, 40.9734
2.84, 6, 35.3151, 50.1499, -13.174, 95.5397, -60.0792, 40.9554
2.844, 6, 35.3104, 50.1607, -13.1652, 95.5253, -60.1317, 40.9374
2.847, 6, 35.3056, 50.1715, -13.1564, 95.5109, -60.1842, 40.9194
2.852, 6, 35.3009, 50.1823, -13.1475, 95.4964, -60.2366, 40.9014
2.856, 6, 35.2961, 50.1931, -13.1386, 95.4819, -60.2891, 40.8835
2.86, 6, 35.2913, 50.2038, -13.1297, 95.4674, -60.3415, 40.8655
2.864, 6, 35.2866, 50.2145, -13.1207, 95.4529, -60.3939, 40.8476
2.867, 6, 35.2818, 50.2252, -13.1117, 95.4383, -60.4464, 40.8296
2.872, 6, 35.277, 50.2359, -13.1026, 95.4237, -60.4988, 40.8117
2.876, 6, 35.2721, 50.2465, -13.0935, 95.4091, -60.5511, 40.7938
2.88, 6, 35.2673, 50.2571, -13.0844, 95.3945, -60.6035, 40.7759
2.883, 6, 35.2625, 50.2677, -13.0752, 95.3798, -60.6559, 40.758
2.888, 6, 35.2576, 50.2782, -13.066, 95.3651, -60.7082, 40.7401
2.892, 6, 35.2527, 50.2888, -13.0568, 95.3504, -60.7606, 40.7222
2.896, 6, 35.2479, 50.2993, -13.0475, 95.3356, -60.8129, 40.7044
2.9, 6, 35.243, 50.3098, -13.0381, 95.3209, -60.8652, 40.6865
2.903, 6, 35.2381, 50.3203, -13.0288, 95.3061, -60.9175, 40.6687
2.908, 6, 35.2331, 50.3307, -13.0194, 95.2912, -60.9698, 40.6509
2.912, 6, 35.2282, 50.3411, -13.0099, 95.2764, -61.022, 40.633
2.916, 6, 35.2233, 50.3515, -13.0004, 95.2615, -61.0743, 40.6152
2.92, 6, 35.2183, 50.3619, -12.9909, 95.2466, -61.1265, 40.5974
2.923, 6, 35.2134, 50.3722, -12.9813, 95.2317, -61.1788, 40.5796
2.928, 6, 35.2084, 50.3825, -12.9717, 95.2167, -61.231, 40.5619
2.932, 6, 35.2034, 50.3928, -12.9621, 95.2018, -61.2832, 40.5441
2.936, 6, 35.1984, 50.4031, -12.9524, 95.1867, -61.3354, 40.5263
2.939, 6, 35.1934, 50.4133, -12.9427, 95.1717, -61.3876, 40.5086
2.944, 6, 35.1884, 50.4235, -12.9329, 95.1567, -61.4397, 40.4909
2.948, 6, 35.1833, 50.4337, -12.9231, 95.1416, -61.4919, 40.4731
2.952, 6, 35.1783, 50.4439, -12.9133, 95.1265, -61.5441, 40.4554
2.956, 6, 35.1732, 50.4541, -12.9034, 95.1114, -61.5962, 40.4377
2.959, 6, 35.1682, 50.4642, -12.8935, 95.0962, -61.6483, 40.42
2.964, 6, 35.1631, 50.4743, -12.8836, 95.081, -61.7004, 40.4023
2.968, 6, 35.158, 50.4844, -12.8736, 95.0658, -61.7525, 40.3846
2.972, 6, 35.1529, 50.4944, -12.8635, 95.0506, -61.8046, 40.367
2.976, 6, 35.1478, 50.5044, -12.8535, 95.0353, -61.8567, 40.3493
2.98, 6, 35.1426, 50.5144, -12.8434, 95.02, -61.9087, 40.3317
2.984, 6, 35.1375, 50.5244, -12.8332, 95.0047, -61.9608, 40.314
2.988, 6, 35.1324, 50.5343, -12.823, 94.9894, -62.0128, 40.2964
2.992, 6, 35.1272, 50.5443, -12.8128, 94.9741, -62.0648, 40.2788
2.995, 6, 35.122, 50.5542, -12.8025, 94.9587, -62.1168, 40.2612
3, 6, 35.1168, 50.564, -12.7922, 94.9433, -62.1688, 40.2436
3.004, 6, 35.1116, 50.5739, -12.7819, 94.9279, -62.2208, 40.226
3.008, 6, 35.1064, 50.5837, -12.7715, 94.9124, -62.2728, 40.2084
3.012, 6, 35.1012, 50.5935, -12.7611, 94.8969, -62.3247, 40.1908
3.015, 6, 35.096, 50.6033, -12.7506, 94.8814, -62.3767, 40.1732
3.02, 6, 35.0907, 50.613, -12.7401, 94.8659, -62.4286, 40.1557
3.024, 6, 35.0855, 50.6227, -12.7295, 94.8504, -62.4805, 40.1381
3.028, 6, 35.0802, 50.6324, -12.719, 94.8348, -62.5325, 40.1206
3.031, 6, 35.0749, 50.6421, -12.7083, 94.8192, -62.5844, 40.103
3.036, 6, 35.0696, 50.6518, -12.6977, 94.8036, -62.6362, 40.0855
3.04, 6, 35.0643, 50.6614, -12.687, 94.7879, -62.6881, 40.068
3.044, 6, 35.059, 50.671, -12.6762, 94.7722, -62.74, 40.0505
3.048, 6, 35.0537, 50.6806, -12.6655, 94.7566, -62.7918, 40.033
3.051, 6, 35.0483, 50.6901, -12.6547, 94.7408, -62.8437, 40.0155
3.056, 6, 35.043, 50.6996, -12.6438, 94.7251, -62.8955, 39.998
3.06, 6, 35.0376, 50.7091, -12.6329, 94.7093, -62.9473, 39.9805
3.064, 6, 35.0323, 50.7186, -12.622, 94.6936, -62.9991, 39.963
3.068, 6, 35.0269, 50.728, -12.611, 94.6777, -63.0509, 39.9456
3.071, 6, 35.0215, 50.7375, -12.6, 94.6619, -63.1027, 39.9281
3.076, 6, 35.0161, 50.7469, -12.5889, 94.6461, -63.1544, 39.9107
3.08, 6, 35.0106, 50.7562, -12.5778, 94.6302, -63.2062, 39.8932
3.084, 6, 35.0052, 50.7656, -12.5667, 94.6143, -63.2579, 39.8758
3.087, 6, 34.9998, 50.7749, -12.5555, 94.5983, -63.3096, 39.8584
3.092, 6, 34.9943, 50.7842, -12.5443, 94.5824, -63.3614, 39.8409
3.096, 6, 34.9888, 50.7935, -12.5331, 94.5664, -63.4131, 39.8235
3.1, 6, 34.9834, 50.8027, -12.5218, 94.5504, -63.4647, 39.8061
3.104, 6, 34.9779, 50.8119, -12.5104, 94.5344, -63.5164, 39.7887
3.107, 6, 34.9724, 50.8211, -12.4991, 94.5184, -63.5681, 39.7713
3.112, 6, 34.9669, 50.8303, -12.4877, 94.5023, -63.6197, 39.754
3.116, 6, 34.9613, 50.8394, -12.4762, 94.4862, -63.6714, 39.7366
3.12, 6, 34.9558, 50.8485, -12.4647, 94.4701, -63.723, 39.7192
3.124, 6, 34.9502, 50.8576, -12.4532, 94.454, -63.7746, 39.7019
3.128, 6, 34.9447, 50.8667, -12.4416, 94.4378, -63.8262, 39.6845
3.132, 6, 34.9391, 50.8757, -12.43, 94.4216, -63.8778, 39.6671
3.136, 6, 34.9335, 50.8847, -12.4184, 94.4054, -63.9294, 39.6498
3.14, 6, 34.9279, 50.8937, -12.4067, 94.3892, -63.981, 39.6325
3.143, 6, 34.9223, 50.9027, -12.395, 94.373, -64.0325, 39.6151
3.148, 6, 34.9167, 50.9116, -12.3832, 94.3567, -64.0841, 39.5978
3.152, 6, 34.9111, 50.9206, -12.3714, 94.3404, -64.1356, 39.5805
3.156, 6, 34.9055, 50.9295, -12.3596, 94.3241, -64.1872, 39.5632
3.16, 6, 34.8999, 50.9383, -12.3478, 94.3078, -64.2387, 39.5459
3.163, 6, 34.8942, 50.9472, -12.3359, 94.2915, -64.2902, 39.5286
3.168, 6, 34.8886, 50.956, -12.324, 94.2752, -64.3417, 39.5112
3.172, 6, 34.8829, 50.9649, -12.3121, 94.2589, -64.3933, 39.4939
3.176, 6, 34.8773, 50.9737, -12.3001, 94.2426, -64.4448, 39.4766
3.179, 6, 34.8716, 50.9825, -12.2882, 94.2263, -64.4963, 39.4593
3.184, 6, 34.8659, 50.9913, -12.2762, 94.2101, -64.5479, 39.442
3.188, 6, 34.8602, 51.0001, -12.2643, 94.1938, -64.5995, 39.4247
3.192, 6, 34.8545, 51.0088, -12.2523, 94.1776, -64.651, 39.4074
3.196, 6, 34.8488, 51.0176, -12.2404, 94.1614, -64.7026, 39.3901
3.199, 6, 34.8431, 51.0264, -12.2284, 94.1452, -64.7542, 39.3728
3.204, 6, 34.8373, 51.0351, -12.2165, 94.1291, -64.8059, 39.3554
3.208, 6, 34.8316, 51.0439, -12.2046, 94.113, -64.8575, 39.3381
3.212, 6, 34.8258, 51.0527, -12.1927, 94.097, -64.9092, 39.3208
3.216, 6, 34.82, 51.0615, -12.1808, 94.0809, -64.9609, 39.3034
3.22, 6, 34.8143, 51.0703, -12.1689, 94.065, -65.0127, 39.2861
3.224, 6, 34.8085, 51.0791, -12.1571, 94.0491, -65.0644, 39.2688
3.228, 6, 34.8027, 51.0879, -12.1453, 94.0332, -65.1162, 39.2514
3.232, 6, 34.7969, 51.0968, -12.1335, 94.0173, -65.168, 39.2341
3.235, 6, 34.791, 51.1056, -12.1217, 94.0015, -65.2199, 39.2167
3.24, 6, 34.7852, 51.1145, -12.11, 93.9858, -65.2717, 39.1994
3.244, 6, 34.7794, 51.1234, -12.0983, 93.9701, -65.3236, 39.182
3.248, 6, 34.7735, 51.1323, -12.0867, 93.9544, -65.3756, 39.1646
3.252, 6, 34.7677, 51.1413, -12.0751, 93.9388, -65.4275, 39.1473
3.255, 6, 34.7618, 51.1503, -12.0636, 93.9232, -65.4795, 39.1299
3.26, 6, 34.7559, 51.1593, -12.0521, 93.9077, -65.5315, 39.1126
3.264, 6, 34.75, 51.1684, -12.0406, 93.8923, -65.5835, 39.0953
3.268, 6, 34.7442, 51.1774, -12.0293, 93.8768, -65.6356, 39.0779
3.272, 6, 34.7383, 51.1866, -12.0179, 93.8614, -65.6877, 39.0606
3.276, 6, 34.7323, 51.1957, -12.0066, 93.8461, -65.7398, 39.0432
3.28, 6, 34.7264, 51.2049, -11.9954, 93.8308, -65.792, 39.0259
3.284, 6, 34.7205, 51.2142, -11.9842, 93.8155, -65.8441, 39.0086
3.288, 6, 34.7145, 51.2234, -11.973, 93.8003, -65.8963, 38.9913
3.291, 6, 34.7086, 51.2327, -11.9619, 93.7851, -65.9486, 38.974
3.296, 6, 34.7026, 51.2421, -11.9509, 93.7699, -66.0008, 38.9567
3.3, 6, 34.6966, 51.2515, -11.9399, 93.7548, -66.053, 38.9394
3.304, 6, 34.6906, 51.2609, -11.9289, 93.7396, -66.1053, 38.9221
3.308, 6, 34.6846, 51.2703, -11.918, 93.7245, -66.1576, 38.9049
3.312, 6, 34.6786, 51.2798, -11.9071, 93.7094, -66.2099, 38.8876
3.316, 6, 34.6725, 51.2894, -11.8962, 93.6944, -66.2622, 38.8704
3.32, 6, 34.6665, 51.2989, -11.8853, 93.6793, -66.3144, 38.8531
3.324, 6, 34.6604, 51.3085, -11.8745, 93.6642, -66.3667, 38.8359
3.328, 6, 34.6543, 51.3181, -11.8637, 93.6491, -66.419, 38.8187
3.332, 6, 34.6483, 51.3278, -11.8529, 93.634, -66.4713, 38.8015
3.336, 6, 34.6422, 51.3375, -11.8421, 93.6189, -66.5236, 38.7844
3.34, 6, 34.6361, 51.3472, -11.8313, 93.6038, -66.5759, 38.7672
3.344, 6, 34.6299, 51.3569, -11.8205, 93.5886, -66.6282, 38.7501
3.347, 6, 34.6238, 51.3667, -11.8097, 93.5735, -66.6805, 38.7329
3.352, 6, 34.6176, 51.3764, -11.799, 93.5583, -66.7327, 38.7158
3.356, 6, 34.6115, 51.3863, -11.7883, 93.5432, -66.785, 38.6987
3.36, 6, 34.6053, 51.3961, -11.7775, 93.528, -66.8372, 38.6816
3.364, 6, 34.5991, 51.406, -11.7668, 93.5128, -66.8895, 38.6646
3.368, 6, 34.5929, 51.4158, -11.7561, 93.4976, -66.9417, 38.6475
3.372, 6, 34.5867, 51.4258, -11.7453, 93.4823, -66.994, 38.6305
3.376, 6, 34.5804, 51.4357, -11.7346, 93.4671, -67.0462, 38.6135
3.38, 6, 34.5742, 51.4457, -11.7239, 93.4518, -67.0984, 38.5965
3.383, 6, 34.5679, 51.4556, -11.7132, 93.4365, -67.1506, 38.5795
3.388, 6, 34.5616, 51.4656, -11.7026, 93.4213, -67.2028, 38.5625
3.392, 6, 34.5553, 51.4757, -11.6919, 93.4059, -67.255, 38.5456
3.396, 6, 34.549, 51.4857, -11.6812, 93.3906, -67.3072, 38.5287
3.4, 6, 34.5426, 51.4958, -11.6705, 93.3753, -67.3594, 38.5117
3.403, 6, 34.5363, 51.5059, -11.6599, 93.3599, -67.4116, 38.4948
3.408, 6, 34.5299, 51.516, -11.6492, 93.3446, -67.4637, 38.4779
3.412, 6, 34.5235, 51.5262, -11.6386, 93.3292, -67.5159, 38.4611
3.416, 6, 34.5171, 51.5364, -11.6279, 93.3138, -67.5681, 38.4442
3.42, 6, 34.5107, 51.5466, -11.6173, 93.2984, -67.6202, 38.4274
3.424, 6, 34.5043, 51.5568, -11.6067, 93.2829, -67.6724, 38.4105
3.428, 6, 34.4978, 51.567, -11.5961, 93.2675, -67.7245, 38.3937
3.432, 6, 34.4914, 51.5773, -11.5854, 93.2521, -67.7766, 38.3769
3.436, 6, 34.4849, 51.5876, -11.5748, 93.2366, -67.8288, 38.3601
3.439, 6, 34.4784, 51.5979, -11.5642, 93.2211, -67.8809, 38.3434
3.444, 6, 34.4719, 51.6083, -11.5537, 93.2056, -67.933, 38.3266
3.448, 6, 34.4653, 51.6186, -11.5431, 93.1901, -67.9851, 38.3099
3.452, 6, 34.4588, 51.629, -11.5325, 93.1745, -68.0372, 38.2932
3.456, 6, 34.4522, 51.6394, -11.5219, 93.159, -68.0893, 38.2765
3.46, 6, 34.4457, 51.6499, -11.5114, 93.1434, -68.1413, 38.2598
3.464, 6, 34.4391, 51.6603, -11.5008, 93.1279, -68.1934, 38.2431
3.468, 6, 34.4325, 51.6708, -11.4902, 93.1123, -68.2455, 38.2265
3.472, 6, 34.4258, 51.6813, -11.4797, 93.0967, -68.2976, 38.2098
3.476, 6, 34.4192, 51.6919, -11.4692, 93.0811, -68.3496, 38.1932
3.48, 6, 34.4125, 51.7024, -11.4586, 93.0654, -68.4016, 38.1766
3.484, 6, 34.4059, 51.713, -11.4481, 93.0498, -68.4537, 38.16
3.488, 6, 34.3992, 51.7236, -11.4376, 93.0341, -68.5057, 38.1434
3.492, 6, 34.3925, 51.7342, -11.4271, 93.0184, -68.5578, 38.1268
3.495, 6, 34.3858, 51.7449, -11.4166, 93.0027, -68.6098, 38.1102
3.5, 6, 34.379, 51.7556, -11.4061, 92.987, -68.6618, 38.0937
3.504, 6, 34.3723, 51.7663, -11.3956, 92.9713, -68.7138, 38.0772
3.508, 6, 34.3655, 51.777, -11.3851, 92.9556, -68.7658, 38.0607
3.512, 6, 34.3587, 51.7877, -11.3747, 92.9398, -68.8178, 38.0442
3.516, 6, 34.3519, 51.7985, -11.3642, 92.9241, -68.8698, 38.0277
3.52, 6, 34.3451, 51.8093, -11.3537, 92.9083, -68.9218, 38.0112
3.524, 6, 34.3383, 51.8201, -11.3433, 92.8925, -68.9737, 37.9948
3.528, 6, 34.3314, 51.831, -11.3328, 92.8767, -69.0257, 37.9783
3.531, 6, 34.3245, 51.8418, -11.3224, 92.8609, -69.0777, 37.9619
3.536, 6, 34.3177, 51.8527, -11.312, 92.845, -69.1296, 37.9455
3.54, 6, 34.3108, 51.8636, -11.3015, 92.8292, -69.1816, 37.9291
3.544, 6, 34.3039, 51.8745, -11.2911, 92.8133, -69.2335, 37.9127
3.548, 6, 34.2969, 51.8855, -11.2807, 92.7974, -69.2854, 37.8964
3.552, 6, 34.29, 51.8965, -11.2703, 92.7815, -69.3374, 37.88
3.556, 6, 34.283, 51.9075, -11.2599, 92.7656, -69.3893, 37.8637
3.56, 6, 34.276, 51.9185, -11.2495, 92.7497, -69.4412, 37.8473
3.564, 6, 34.269, 51.9296, -11.2391, 92.7338, -69.4931, 37.831
3.568, 6, 34.262, 51.9406, -11.2287, 92.7178, -69.545, 37.8147
3.572, 6, 34.255, 51.9517, -11.2184, 92.7019, -69.5969, 37.7985
3.576, 6, 34.2479, 51.9629, -11.208, 92.6859, -69.6488, 37.7822
3.58, 6, 34.2409, 51.974, -11.1977, 92.6699, -69.7007, 37.7659
3.584, 6, 34.2338, 51.9852, -11.1873, 92.6539, -69.7526, 37.7497
3.587, 6, 34.2267, 51.9964, -11.177, 92.6379, -69.8045, 37.7335
3.592, 6, 34.2196, 52.0076, -11.1666, 92.6218, -69.8563, 37.7173
3.596, 6, 34.2125, 52.0188, -11.1563, 92.6058, -69.9082, 37.7011
3.6, 6, 34.2053, 52.0301, -11.146, 92.5897, -69.96, 37.6849
3.604, 6, 34.1982, 52.0414, -11.1357, 92.5737, -70.0119, 37.6687
3.608, 6, 34.191, 52.0527, -11.1254, 92.5576, -70.0637, 37.6525
3.612, 6, 34.1838, 52.064, -11.1151, 92.5415, -70.1155, 37.6364
3.616, 6, 34.1766, 52.0754, -11.1048, 92.5254, -70.1674, 37.6203
3.62, 6, 34.1694, 52.0867, -11.0945, 92.5092, -70.2192, 37.6042
3.624, 6, 34.1621, 52.0981, -11.0842, 92.4931, -70.271, 37.5881
3.628, 6, 34.1549, 52.1096, -11.0739, 92.4769, -70.3228, 37.572
3.632, 6, 34.1476, 52.121, -11.0637, 92.4608, -70.3746, 37.5559
3.636, 6, 34.1403, 52.1325, -11.0534, 92.4446, -70.4264, 37.5398
3.64, 6, 34.133, 52.144, -11.0431, 92.4284, -70.4782, 37.5238
3.644, 6, 34.1257, 52.1555, -11.0329, 92.4122, -70.53, 37.5078
3.648, 6, 34.1183, 52.167, -11.0227, 92.396, -70.5817, 37.4917
3.652, 6, 34.111, 52.1786, -11.0124, 92.3797, -70.6335, 37.4757
3.656, 6, 34.1036, 52.1902, -11.0022, 92.3635, -70.6853, 37.4597
3.66, 6, 34.0962, 52.2018, -10.992, 92.3472, -70.737, 37.4438
3.664, 6, 34.0888, 52.2134, -10.9818, 92.3309, -70.7888, 37.4278
3.668, 6, 34.0814, 52.2251, -10.9716, 92.3146, -70.8405, 37.4118
3.672, 6, 34.0739, 52.2367, -10.9614, 92.2983, -70.8923, 37.3959
3.676, 6, 34.0665, 52.2484, -10.9512, 92.282, -70.944, 37.38
3.679, 6, 34.059, 52.2602, -10.941, 92.2657, -70.9957, 37.3641
3.684, 6, 34.0515, 52.2719, -10.9308, 92.2493, -71.0475, 37.3482
3.688, 6, 34.044, 52.2837, -10.9207, 92.233, -71.0992, 37.3323
3.692, 6, 34.0365, 52.2955, -10.9105, 92.2166, -71.1509, 37.3164
3.696, 6, 34.0289, 52.3073, -10.9004, 92.2002, -71.2026, 37.3005
3.7, 6, 34.0213, 52.3191, -10.8902, 92.1838, -71.2543, 37.2847
3.704, 6, 34.0138, 52.331, -10.8801, 92.1674, -71.306, 37.2688
3.708, 6, 34.0062, 52.3429, -10.8699, 92.151, -71.3576, 37.253
3.712, 6, 33.9986, 52.3548, -10.8598, 92.1346, -71.4093, 37.2372
3.716, 6, 33.9909, 52.3667, -10.8497, 92.1181, -71.461, 37.2214
3.72, 6, 33.9833, 52.3786, -10.8396, 92.1016, -71.5127, 37.2056
3.724, 6, 33.9756, 52.3906, -10.8295, 92.0852, -71.5643, 37.1899
3.728, 6, 33.968, 52.4026, -10.8194, 92.0687, -71.616, 37.1741
3.732, 6, 33.9603, 52.4146, -10.8093, 92.0522, -71.6676, 37.1584
3.735, 6, 33.9526, 52.4267, -10.7992, 92.0357, -71.7193, 37.1426
3.74, 6, 33.9448, 52.4387, -10.7891, 92.0191, -71.7709, 37.1269
3.744, 6, 33.9371, 52.4508, -10.7791, 92.0026, -71.8225, 37.1112
3.748, 6, 33.9293, 52.4629, -10.769, 91.986, -71.8741, 37.0955
3.752, 6, 33.9215, 52.4751, -10.759, 91.9695, -71.9258, 37.0798
3.756, 6, 33.9137, 52.4872, -10.7489, 91.9529, -71.9774, 37.0641
3.76, 6, 33.9059, 52.4994, -10.7389, 91.9363, -72.029, 37.0485
3.764, 6, 33.8981, 52.5116, -10.7288, 91.9197, -72.0806, 37.0328
3.768, 6, 33.8902, 52.5238, -10.7188, 91.9031, -72.1322, 37.0172
3.772, 6, 33.8824, 52.5361, -10.7088, 91.8864, -72.1838, 37.0016
3.776, 6, 33.8745, 52.5484, -10.6988, 91.8698, -72.2353, 36.986
3.78, 6, 33.8666, 52.5606, -10.6888, 91.8531, -72.2869, 36.9704
3.784, 6, 33.8587, 52.573, -10.6788, 91.8365, -72.3385, 36.9548
3.788, 6, 33.8507, 52.5853, -10.6688, 91.8198, -72.39, 36.9392
3.792, 6, 33.8428, 52.5977, -10.6588, 91.8031, -72.4416, 36.9237
3.796, 6, 33.8348, 52.61, -10.6488, 91.7864, -72.4932, 36.9081
3.8, 6, 33.8268, 52.6224, -10.6389, 91.7697, -72.5447, 36.8926
3.804, 6, 33.8188, 52.6349, -10.6289, 91.7529, -72.5962, 36.8771
3.808, 6, 33.8108, 52.6473, -10.6189, 91.7362, -72.6478, 36.8615
3.812, 6, 33.8028, 52.6598, -10.609, 91.7194, -72.6993, 36.846
3.816, 6, 33.7947, 52.6723, -10.5991, 91.7027, -72.7508, 36.8306
3.82, 6, 33.7867, 52.6848, -10.5891, 91.6859, -72.8024, 36.8151
3.824, 6, 33.7786, 52.6973, -10.5792, 91.6691, -72.8539, 36.7996
3.828, 6, 33.7705, 52.7099, -10.5693, 91.6523, -72.9054, 36.7842
3.832, 6, 33.7623, 52.7225, -10.5594, 91.6355, -72.9569, 36.7687
3.836, 6, 33.7542, 52.7351, -10.5495, 91.6186, -73.0084, 36.7533
3.84, 6, 33.746, 52.7477, -10.5396, 91.6018, -73.0599, 36.7379
3.844, 6, 33.7379, 52.7604, -10.5297, 91.5849, -73.1113, 36.7225
3.848, 6, 33.7297, 52.773, -10.5198, 91.5681, -73.1628, 36.7071
3.852, 6, 33.7215, 52.7857, -10.5099, 91.5512, -73.2143, 36.6917
3.856, 6, 33.7132, 52.7985, -10.5, 91.5343, -73.2657, 36.6763
3.86, 6, 33.705, 52.8112, -10.4902, 91.5174, -73.3172, 36.661
3.864, 6, 33.6967, 52.824, -10.4803, 91.5005, -73.3687, 36.6456
3.868, 6, 33.6885, 52.8368, -10.4705, 91.4835, -73.4201, 36.6303
3.872, 6, 33.6802, 52.8496, -10.4606, 91.4666, -73.4715, 36.615
3.876, 6, 33.6718, 52.8624, -10.4508, 91.4496, -73.523, 36.5997
3.88, 6, 33.6635, 52.8752, -10.441, 91.4327, -73.5744, 36.5844
3.884, 6, 33.6552, 52.8881, -10.4312, 91.4157, -73.6258, 36.5691
3.888, 6, 33.6468, 52.901, -10.4214, 91.3987, -73.6773, 36.5538
3.892, 6, 33.6384, 52.9139, -10.4116, 91.3817, -73.7287, 36.5385
3.896, 6, 33.63, 52.9269, -10.4018, 91.3647, -73.7801, 36.5233
3.9, 6, 33.6216, 52.9398, -10.392, 91.3476, -73.8315, 36.508
3.904, 6, 33.6131, 52.9528, -10.3822, 91.3306, -73.8829, 36.4928
3.908, 6, 33.6047, 52.9658, -10.3724, 91.3136, -73.9343, 36.4776
3.912, 6, 33.5962, 52.9789, -10.3626, 91.2965, -73.9857, 36.4624
3.916, 6, 33.5877, 52.9919, -10.3529, 91.2794, -74.0371, 36.4472
3.92, 6, 33.5792, 53.005, -10.3431, 91.2623, -74.0884, 36.432
3.924, 6, 33.5707, 53.0181, -10.3334, 91.2452, -74.1398, 36.4168
3.928, 6, 33.5621, 53.0312, -10.3236, 91.2281, -74.1912, 36.4016
3.932, 6, 33.5536, 53.0444, -10.3139, 91.211, -74.2425, 36.3865
3.936, 6, 33.545, 53.0575, -10.3042, 91.1939, -74.2939, 36.3713
3.94, 6, 33.5364, 53.0707, -10.2945, 91.1767, -74.3452, 36.3562
3.944, 6, 33.5278, 53.0839, -10.2848, 91.1595, -74.3966, 36.3411
3.948, 6, 33.5192, 53.0972, -10.2751, 91.1424, -74.4479, 36.326
3.952, 6, 33.5105, 53.1104, -10.2654, 91.1252, -74.4992, 36.3109
3.956, 6, 33.5018, 53.1237, -10.2557, 91.108, -74.5506, 36.2958
3.96, 6, 33.4932, 53.137, -10.246, 91.0908, -74.6019, 36.2807
3.964, 6, 33.4845, 53.1503, -10.2363, 91.0736, -74.6532, 36.2657
3.968, 6, 33.4757, 53.1636, -10.2267, 91.0564, -74.7045, 36.2506
3.972, 6, 33.467, 53.177, -10.217, 91.0391, -74.7558, 36.2356
3.976, 6, 33.4582, 53.1904, -10.2074, 91.0219, -74.8071, 36.2205
3.98, 6, 33.4495, 53.2038, -10.1977, 91.0046, -74.8584, 36.2055
3.984, 6, 33.4407, 53.2172, -10.1881, 90.9873, -74.9097, 36.1905
3.988, 6, 33.4319, 53.2307, -10.1784, 90.97, -74.961, 36.1755
3.992, 6, 33.423, 53.2442, -10.1688, 90.9527, -75.0123, 36.1605
3.996, 6, 33.4142, 53.2577, -10.1592, 90.9354, -75.0635, 36.1455
3.999, 6, 33.4053, 53.2712, -10.1496, 90.9181, -75.1148, 36.1305
4.004, 6, 33.3964, 53.2847, -10.14, 90.9008, -75.1661, 36.1156
4.008, 6, 33.3875, 53.2983, -10.1304, 90.8834, -75.2173, 36.1006
4.012, 6, 33.3786, 53.3119, -10.1208, 90.8661, -75.2686, 36.0857
4.016, 6, 33.3697, 53.3255, -10.1112, 90.8487, -75.3198, 36.0708
4.02, 6, 33.3607, 53.3391, -10.1017, 90.8313, -75.3711, 36.0558
4.024, 6, 33.3517, 53.3527, -10.0921, 90.8139, -75.4223, 36.0409
4.028, 6, 33.3427, 53.3664, -10.0826, 90.7965, -75.4735, 36.026
4.032, 6, 33.3337, 53.3801, -10.073, 90.7791, -75.5248, 36.0111
4.036, 6, 33.3247, 53.3938, -10.0635, 90.7617, -75.576, 35.9963
4.04, 6, 33.3157, 53.4076, -10.054, 90.7443, -75.6272, 35.9814
4.044, 6, 33.3066, 53.4213, -10.0444, 90.7268, -75.6784, 35.9665
4.048, 6, 33.2975, 53.4351, -10.0349, 90.7093, -75.7296, 35.9517
4.052, 6, 33.2884, 53.4489, -10.0254, 90.6919, -75.7808, 35.9368
4.056, 6, 33.2793, 53.4627, -10.0159, 90.6744, -75.832, 35.922
4.06, 6, 33.2702, 53.4766, -10.0064, 90.6569, -75.8832, 35.9072
4.064, 6, 33.261, 53.4904, -9.99693, 90.6394, -75.9344, 35.8924
4.068, 6, 33.2518, 53.5043, -9.98745, 90.6219, -75.9856, 35.8776
4.072, 6, 33.2426, 53.5182, -9.97798, 90.6043, -76.0367, 35.8628
4.076, 6, 33.2334, 53.5322, -9.96852, 90.5868, -76.0879, 35.848
4.08, 6, 33.2242, 53.5461, -9.95907, 90.5693, -76.1391, 35.8333
4.084, 6, 33.215, 53.5601, -9.94962, 90.5517, -76.1902, 35.8185
4.088, 6, 33.2057, 53.5741, -9.94018, 90.5341, -76.2414, 35.8038
4.092, 6, 33.1964, 53.5881, -9.93076, 90.5165, -76.2925, 35.789
4.096, 6, 33.1871, 53.6022, -9.92133, 90.4989, -76.3437, 35.7743
4.1, 6, 33.1778, 53.6162, -9.91192, 90.4813, -76.3948, 35.7596
4.104, 6, 33.1684, 53.6303, -9.90251, 90.4637, -76.446, 35.7449
4.108, 6, 33.1591, 53.6444, -9.89311, 90.4461, -76.4971, 35.7302
4.112, 6, 33.1497, 53.6585, -9.88372, 90.4284, -76.5482, 35.7155
4.116, 6, 33.1403, 53.6727, -9.87434, 90.4108, -76.5993, 35.7008
4.12, 6, 33.1309, 53.6869, -9.86496, 90.3931, -76.6505, 35.6861
4.124, 6, 33.1215, 53.7011, -9.85559, 90.3754, -76.7016, 35.6715
4.128, 6, 33.112, 53.7153, -9.84623, 90.3577, -76.7527, 35.6568
4.132, 6, 33.1026, 53.7295, -9.83688, 90.3401, -76.8038, 35.6422
4.136, 6, 33.0931, 53.7438, -9.82754, 90.3223, -76.8549, 35.6275
4.14, 6, 33.0836, 53.758, -9.8182, 90.3046, -76.906, 35.6129
4.144, 6, 33.0741, 53.7723, -9.80887, 90.2869, -76.9571, 35.5983
4.148, 6, 33.0645, 53.7867, -9.79955, 90.2692, -77.0082, 35.5837
4.152, 6, 33.055, 53.801, -9.79024, 90.2514, -77.0592, 35.5691
4.156, 6, 33.0454, 53.8154, -9.78093, 90.2336, -77.1103, 35.5545
4.16, 6, 33.0358, 53.8297, -9.77163, 90.2159, -77.1614, 35.5399
4.164, 6, 33.0262, 53.8442, -9.76234, 90.1981, -77.2124, 35.5254
4.168, 6, 33.0166, 53.8586, -9.75306, 90.1803, -77.2635, 35.5108
4.172, 6, 33.0069, 53.873, -9.74379, 90.1625, -77.3146, 35.4962
4.176, 6, 32.9973, 53.8875, -9.73452, 90.1447, -77.3656, 35.4817
4.18, 6, 32.9876, 53.902, -9.72527, 90.1268, -77.4167, 35.4672
4.184, 6, 32.9779, 53.9165, -9.71602, 90.109, -77.4677, 35.4526
4.188, 6, 32.9682, 53.931, -9.70677, 90.0911, -77.5188, 35.4381
4.192, 6, 32.9584, 53.9456, -9.69754, 90.0733, -77.5698, 35.4236
4.196, 6, 32.9487, 53.9601, -9.68832, 90.0554, -77.6208, 35.4091
4.2, 6, 32.9389, 53.9747, -9.6791, 90.0375, -77.6718, 35.3946
4.204, 6, 32.9291, 53.9894, -9.66989, 90.0196, -77.7229, 35.3802
4.208, 6, 32.9193, 54.004, -9.66068, 90.0017, -77.7739, 35.3657
4.212, 6, 32.9095, 54.0186, -9.65149, 89.9838, -77.8249, 35.3512
4.216, 6, 32.8999, 54.0332, -9.6423, 89.9659, -77.8759, 35.3368
4.22, 6, 32.8904, 54.0477, -9.63312, 89.948, -77.9268, 35.3223
4.224, 6, 32.8811, 54.062, -9.62394, 89.93, -77.9778, 35.3079
4.228, 6, 32.8723, 54.076, -9.61478, 89.9122, -78.0285, 35.2936
4.232, 6, 32.8639, 54.0894, -9.60563, 89.8943, -78.0791, 35.2792
4.236, 6, 32.856, 54.1022, -9.59653, 89.8766, -78.1294, 35.2651
4.24, 6, 32.8487, 54.1141, -9.58751, 89.8591, -78.179, 35.251
4.244, 6, 32.8419, 54.1251, -9.57862, 89.8419, -78.2278, 35.2372
4.248, 6, 32.8355, 54.1351, -9.56992, 89.8251, -78.2755, 35.2238
4.252, 6, 32.8295, 54.1444, -9.5615, 89.8088, -78.3215, 35.2108
4.256, 6, 32.8237, 54.153, -9.55344, 89.7932, -78.3655, 35.1984
4.26, 6, 32.8181, 54.1613, -9.54583, 89.7785, -78.4072, 35.1867
4.264, 6, 32.8127, 54.1692, -9.53875, 89.7648, -78.4459, 35.1757
4.268, 6, 32.8073, 54.177, -9.53227, 89.7522, -78.4816, 35.1657
4.272, 6, 32.8021, 54.1847, -9.52644, 89.7408, -78.5138, 35.1566
4.276, 6, 32.797, 54.1923, -9.5213, 89.7306, -78.5424, 35.1486
4.28, 6, 32.792, 54.1998, -9.51686, 89.7218, -78.5673, 35.1415
4.284, 6, 32.7871, 54.2073, -9.51312, 89.7142, -78.5886, 35.1355
4.288, 7, 32.7823, 54.2147, -9.51004, 89.7079, -78.6064, 35.1305
4.292, 7, 32.7776, 54.2219, -9.50758, 89.7028, -78.6209, 35.1265
4.296, 7, 32.7729, 54.229, -9.50569, 89.6987, -78.6324, 35.1232
4.3, 7, 32.7684, 54.2356, -9.50427, 89.6956, -78.6413, 35.1207
4.304, 7, 32.7641, 54.2416, -9.50326, 89.6932, -78.6479, 35.1188
4.308, 7, 32.7602, 54.2467, -9.50255, 89.6915, -78.6528, 35.1174
4.312, 7, 32.7568, 54.251, -9.50208, 89.6902, -78.6563, 35.1164
4.316, 7, 32.754, 54.2543, -9.50177, 89.6893, -78.6588, 35.1158
4.32, 7, 32.7517, 54.2568, -9.50157, 89.6888, -78.6604, 35.1153
4.324, 7, 32.7501, 54.2585, -9.50143, 89.6884, -78.6616, 35.115
4.328, 7, 32.7489, 54.2598, -9.50134, 89.6881, -78.6623, 35.1147
4.332, 7, 32.7481, 54.2606, -9.50128, 89.6879, -78.6629, 35.1146
4.336, 7, 32.7476, 54.2611, -9.50124, 89.6878, -78.6632, 35.1145
4.34, 7, 32.7473, 54.2615, -9.50121, 89.6877, -78.6635, 35.1144
4.344, 7, 32.747, 54.2618, -9.50119, 89.6876, -78.6636, 35.1144
4.348, 7, 32.7468, 54.2619, -9.50118, 89.6876, -78.6637, 35.1143
4.352, 7, 32.7467, 54.2621, -9.50117, 89.6876, -78.6638, 35.1143
4.356, 7, 32.7467, 54.2621, -9.50117, 89.6875, -78.6639, 35.1143
4.36, 7, 32.7466, 54.2622, -9.50116, 89.6875, -78.6639, 35.1143
4.364, 7, 32.7466, 54.2622, -9.50116, 89.6875, -78.6639, 35.1143
4.368, 7, 32.7465, 54.2623, -9.50116, 89.6875, -78.6639, 35.1143
4.372, 7, 32.7465, 54.2623, -9.50116, 89.6875, -78.6639, 35.1143
4.376, 7, 32.7465, 54.2623, -9.50116, 89.6875, -78.664, 35.1143
4.38, 7, 32.7465, 54.2623, -9.50116, 89.6875, -78.664, 35.1143
4.384, 7, 32.7465, 54.2623, -9.50116, 89.6875, -78.664, 35.1143
