hehonglu123/ABB_Primitive_Study/execution/movec+movel_smooth/curve_exe_v300_z20.csv
timestamp, cmd_num, J1, J2, J3, J4, J5, J6
0, -1, 32.7465, 54.2623, -9.50115, 89.6875, -78.664, 35.1143
0.002, -1, 32.7465, 54.2623, -9.50115, 89.6875, -78.664, 35.1143
0.006, -1, 32.7465, 54.2623, -9.50115, 89.6875, -78.664, 35.1143
0.008, -1, 32.7465, 54.2623, -9.50115, 89.6875, -78.664, 35.1143
0.011, -1, 32.7465, 54.2623, -9.50115, 89.6875, -78.664, 35.1143
0.016, -1, 32.7465, 54.2623, -9.50115, 89.6875, -78.664, 35.1143
0.02, -1, 32.7465, 54.2623, -9.50115, 89.6875, -78.664, 35.1143
0.024, -1, 32.7465, 54.2623, -9.50115, 89.6875, -78.664, 35.1143
0.028, -1, 32.7465, 54.2623, -9.50115, 89.6875, -78.664, 35.1143
0.032, -1, 32.7465, 54.2623, -9.50115, 89.6875, -78.664, 35.1143
0.036, -1, 32.7466, 54.2623, -9.50115, 89.6875, -78.664, 35.1143
0.04, -1, 32.7467, 54.2621, -9.50116, 89.6875, -78.664, 35.1143
0.044, -1, 32.7471, 54.2618, -9.50116, 89.6875, -78.6639, 35.1143
0.048, -1, 32.7479, 54.2611, -9.50118, 89.6876, -78.6638, 35.1144
0.052, -1, 32.7491, 54.2598, -9.50124, 89.6877, -78.6634, 35.1145
0.056, -1, 32.7507, 54.2577, -9.50136, 89.6879, -78.6626, 35.1147
0.06, -1, 32.7529, 54.2547, -9.50159, 89.6883, -78.6611, 35.1152
0.064, -1, 32.7556, 54.2507, -9.502, 89.689, -78.6586, 35.1161
0.068, -1, 32.7588, 54.2455, -9.50267, 89.6902, -78.6545, 35.1174
0.072, -1, 32.7625, 54.2391, -9.5037, 89.692, -78.6482, 35.1195
0.076, -1, 32.7668, 54.2314, -9.50521, 89.6946, -78.6391, 35.1225
0.08, -1, 32.7718, 54.2224, -9.50734, 89.6982, -78.6262, 35.1267
0.084, -1, 32.7776, 54.212, -9.51024, 89.7032, -78.6088, 35.1325
0.088, -1, 32.784, 54.2002, -9.5141, 89.7098, -78.5857, 35.1401
0.092, -1, 32.7912, 54.1873, -9.51908, 89.7183, -78.5559, 35.1499
0.096, -1, 32.7988, 54.1733, -9.52538, 89.729, -78.5183, 35.1622
0.1, -1, 32.8067, 54.1585, -9.53315, 89.7422, -78.472, 35.1774
0.104, -1, 32.815, 54.143, -9.54252, 89.7581, -78.4163, 35.1957
0.108, -1, 32.8235, 54.1267, -9.55357, 89.7769, -78.3507, 35.2173
0.112, -1, 32.8324, 54.1096, -9.56636, 89.7986, -78.2748, 35.2423
0.116, -1, 32.8415, 54.0916, -9.58087, 89.8232, -78.1888, 35.2705
0.12, -1, 32.8511, 54.0725, -9.59706, 89.8507, -78.0929, 35.3021
0.124, -1, 32.8611, 54.0525, -9.61485, 89.8808, -77.9875, 35.3367
0.128, -1, 32.8716, 54.0317, -9.63411, 89.9134, -77.8735, 35.3742
0.131, -1, 32.8823, 54.0101, -9.65471, 89.9483, -77.7516, 35.4142
0.136, -1, 32.8932, 53.9877, -9.67648, 89.9852, -77.6227, 35.4566
0.139, -1, 32.9045, 53.9644, -9.69923, 90.0237, -77.4881, 35.5008
0.144, -1, 32.9163, 53.9399, -9.72278, 90.0636, -77.3487, 35.5466
0.148, -1, 32.9288, 53.914, -9.74695, 90.1045, -77.2057, 35.5936
0.152, -1, 32.942, 53.8866, -9.77157, 90.1462, -77.0599, 35.6415
0.156, -1, 32.9561, 53.8575, -9.79651, 90.1885, -76.9123, 35.6901
0.16, -1, 32.9711, 53.8271, -9.82165, 90.231, -76.7634, 35.739
0.164, -1, 32.9869, 53.7955, -9.84692, 90.2739, -76.6137, 35.7882
0.168, -1, 33.0032, 53.7631, -9.87226, 90.3168, -76.4636, 35.8375
0.172, -1, 33.02, 53.7302, -9.89762, 90.3598, -76.3133, 35.8869
0.176, -1, 33.037, 53.6969, -9.92299, 90.4028, -76.163, 35.9363
0.18, -1, 33.0541, 53.6634, -9.94833, 90.4457, -76.0128, 35.9857
0.184, -1, 33.0714, 53.6298, -9.97365, 90.4886, -75.8628, 36.035
0.188, -1, 33.0888, 53.5962, -9.99894, 90.5315, -75.713, 36.0842
0.192, -1, 33.1061, 53.5625, -10.0242, 90.5743, -75.5634, 36.1334
0.196, -1, 33.1235, 53.5289, -10.0494, 90.617, -75.4141, 36.1825
0.2, -1, 33.1409, 53.4952, -10.0745, 90.6596, -75.265, 36.2315
0.204, -1, 33.1582, 53.4616, -10.0996, 90.7021, -75.1163, 36.2804
0.208, -1, 33.1755, 53.4281, -10.1247, 90.7446, -74.9678, 36.3292
0.212, -1, 33.1928, 53.3946, -10.1497, 90.787, -74.8197, 36.3779
0.216, -1, 33.2101, 53.3612, -10.1746, 90.8292, -74.6718, 36.4265
0.22, -1, 33.2273, 53.3278, -10.1995, 90.8714, -74.5242, 36.475
0.224, -1, 33.2446, 53.2945, -10.2244, 90.9136, -74.377, 36.5234
0.228, -1, 33.2617, 53.2613, -10.2492, 90.9556, -74.23, 36.5717
0.232, -1, 33.2789, 53.2282, -10.2739, 90.9975, -74.0834, 36.6199
0.236, -1, 33.296, 53.1951, -10.2986, 91.0394, -73.937, 36.668
0.24, -1, 33.313, 53.162, -10.3233, 91.0812, -73.7909, 36.716
0.244, -1, 33.3301, 53.1291, -10.3479, 91.1229, -73.6451, 36.7639
0.248, -1, 33.3471, 53.0962, -10.3724, 91.1645, -73.4996, 36.8117
0.252, -1, 33.364, 53.0633, -10.3969, 91.206, -73.3544, 36.8595
0.256, -1, 33.381, 53.0306, -10.4214, 91.2474, -73.2095, 36.9071
0.26, -1, 33.3979, 52.9979, -10.4458, 91.2888, -73.0649, 36.9546
0.264, -1, 33.4147, 52.9652, -10.4701, 91.3301, -72.9206, 37.0021
0.268, -1, 33.4316, 52.9327, -10.4944, 91.3713, -72.7765, 37.0494
0.272, -1, 33.4484, 52.9002, -10.5187, 91.4124, -72.6327, 37.0967
0.276, -1, 33.4651, 52.8677, -10.5429, 91.4534, -72.4893, 37.1438
0.28, -1, 33.4819, 52.8353, -10.5671, 91.4944, -72.346, 37.1909
0.284, -1, 33.4986, 52.803, -10.5912, 91.5353, -72.2031, 37.2379
0.288, -1, 33.5152, 52.7708, -10.6153, 91.5761, -72.0604, 37.2848
0.292, -1, 33.5319, 52.7386, -10.6393, 91.6168, -71.9181, 37.3316
0.296, -1, 33.5485, 52.7065, -10.6633, 91.6574, -71.776, 37.3783
0.3, -1, 33.5651, 52.6744, -10.6872, 91.698, -71.6341, 37.4249
0.304, -1, 33.5816, 52.6424, -10.7111, 91.7385, -71.4925, 37.4714
0.308, -1, 33.5981, 52.6104, -10.7349, 91.7789, -71.3513, 37.5179
0.312, -1, 33.6146, 52.5785, -10.7587, 91.8192, -71.2102, 37.5642
0.316, -1, 33.631, 52.5467, -10.7825, 91.8595, -71.0695, 37.6105
0.32, -1, 33.6474, 52.5149, -10.8062, 91.8997, -70.929, 37.6567
0.324, -1, 33.6638, 52.4832, -10.8299, 91.9398, -70.7887, 37.7028
0.328, -1, 33.6802, 52.4516, -10.8535, 91.9798, -70.6488, 37.7488
0.332, -1, 33.6965, 52.42, -10.8771, 92.0198, -70.509, 37.7947
0.336, -1, 33.7128, 52.3885, -10.9006, 92.0597, -70.3696, 37.8405
0.34, -1, 33.7291, 52.357, -10.9241, 92.0995, -70.2304, 37.8863
0.344, -1, 33.7453, 52.3256, -10.9475, 92.1392, -70.0914, 37.9319
0.348, -1, 33.7615, 52.2942, -10.9709, 92.1789, -69.9528, 37.9775
0.352, -1, 33.7777, 52.2629, -10.9943, 92.2185, -69.8143, 38.023
0.356, -1, 33.7938, 52.2317, -11.0176, 92.258, -69.6762, 38.0685
0.36, -1, 33.8099, 52.2005, -11.0409, 92.2974, -69.5382, 38.1138
0.364, -1, 33.826, 52.1694, -11.0641, 92.3368, -69.4006, 38.159
0.368, -1, 33.8421, 52.1383, -11.0873, 92.3761, -69.2631, 38.2042
0.372, -1, 33.8581, 52.1073, -11.1104, 92.4153, -69.126, 38.2493
0.376, -1, 33.8741, 52.0763, -11.1336, 92.4545, -68.989, 38.2943
0.38, -1, 33.8901, 52.0454, -11.1566, 92.4936, -68.8523, 38.3392
0.384, -1, 33.906, 52.0146, -11.1796, 92.5326, -68.7159, 38.3841
0.388, -1, 33.9219, 51.9838, -11.2026, 92.5716, -68.5797, 38.4288
0.392, -1, 33.9378, 51.953, -11.2256, 92.6104, -68.4437, 38.4735
0.396, -1, 33.9537, 51.9224, -11.2485, 92.6493, -68.308, 38.5181
0.4, -1, 33.9695, 51.8917, -11.2713, 92.688, -68.1725, 38.5627
0.404, -1, 33.9853, 51.8611, -11.2942, 92.7267, -68.0373, 38.6071
0.408, -1, 34.0011, 51.8306, -11.3169, 92.7653, -67.9023, 38.6515
0.412, -1, 34.0168, 51.8002, -11.3397, 92.8038, -67.7675, 38.6958
0.416, -1, 34.0326, 51.7697, -11.3624, 92.8423, -67.633, 38.74
0.42, -1, 34.0483, 51.7394, -11.385, 92.8807, -67.4987, 38.7842
0.424, -1, 34.0639, 51.7091, -11.4077, 92.9191, -67.3646, 38.8282
0.428, -1, 34.0796, 51.6788, -11.4302, 92.9574, -67.2307, 38.8722
0.432, -1, 34.0952, 51.6486, -11.4528, 92.9956, -67.0971, 38.9161
0.436, -1, 34.1108, 51.6184, -11.4753, 93.0337, -66.9637, 38.96
0.44, -1, 34.1263, 51.5883, -11.4978, 93.0718, -66.8306, 39.0038
0.444, -1, 34.1418, 51.5583, -11.5202, 93.1098, -66.6976, 39.0474
0.448, -1, 34.1573, 51.5282, -11.5426, 93.1478, -66.5649, 39.0911
0.452, -1, 34.1728, 51.4983, -11.565, 93.1857, -66.4324, 39.1346
0.456, -1, 34.1883, 51.4684, -11.5873, 93.2235, -66.3002, 39.1781
0.46, -1, 34.2037, 51.4385, -11.6096, 93.2613, -66.1681, 39.2215
0.464, -1, 34.2191, 51.4087, -11.6318, 93.299, -66.0363, 39.2648
0.468, -1, 34.2345, 51.379, -11.654, 93.3366, -65.9047, 39.3081
0.472, -1, 34.2498, 51.3493, -11.6762, 93.3742, -65.7733, 39.3513
0.476, -1, 34.2652, 51.3196, -11.6983, 93.4117, -65.6421, 39.3944
0.48, -1, 34.2805, 51.29, -11.7204, 93.4492, -65.5111, 39.4374
0.484, -1, 34.2957, 51.2604, -11.7425, 93.4865, -65.3804, 39.4804
0.488, -1, 34.311, 51.2309, -11.7645, 93.5239, -65.2498, 39.5233
0.492, -1, 34.3262, 51.2014, -11.7865, 93.5611, -65.1195, 39.5662
0.496, -1, 34.3414, 51.172, -11.8085, 93.5984, -64.9894, 39.6089
0.5, -1, 34.3566, 51.1426, -11.8304, 93.6355, -64.8595, 39.6516
0.504, -1, 34.3718, 51.1133, -11.8523, 93.6726, -64.7298, 39.6943
0.508, -1, 34.3869, 51.084, -11.8741, 93.7096, -64.6003, 39.7368
0.512, -1, 34.402, 51.0548, -11.8959, 93.7466, -64.471, 39.7793
0.516, -1, 34.4171, 51.0256, -11.9177, 93.7835, -64.3419, 39.8217
0.52, -1, 34.4321, 50.9965, -11.9395, 93.8204, -64.213, 39.8641
0.524, -1, 34.4472, 50.9674, -11.9612, 93.8572, -64.0844, 39.9064
0.528, -1, 34.4622, 50.9384, -11.9828, 93.8939, -63.9559, 39.9486
0.532, -1, 34.4771, 50.9094, -12.0045, 93.9306, -63.8276, 39.9908
0.536, -1, 34.4921, 50.8804, -12.0261, 93.9672, -63.6996, 40.0329
0.54, -1, 34.507, 50.8515, -12.0477, 94.0038, -63.5717, 40.0749
0.544, -1, 34.522, 50.8226, -12.0692, 94.0403, -63.444, 40.1169
0.548, -1, 34.5369, 50.7938, -12.0907, 94.0768, -63.3166, 40.1588
0.552, -1, 34.5517, 50.765, -12.1122, 94.1132, -63.1893, 40.2006
0.556, -1, 34.5666, 50.7363, -12.1337, 94.1495, -63.0622, 40.2424
0.56, -1, 34.5814, 50.7076, -12.1551, 94.1858, -62.9353, 40.2841
0.564, -1, 34.5962, 50.679, -12.1764, 94.2221, -62.8086, 40.3257
0.568, -1, 34.611, 50.6504, -12.1978, 94.2582, -62.6821, 40.3673
0.572, -1, 34.6257, 50.6218, -12.2191, 94.2943, -62.5558, 40.4088
0.576, -1, 34.6405, 50.5933, -12.2404, 94.3304, -62.4297, 40.4502
0.58, -1, 34.6552, 50.5648, -12.2616, 94.3664, -62.3038, 40.4916
0.584, -1, 34.6699, 50.5364, -12.2828, 94.4024, -62.1781, 40.533
0.588, -1, 34.6845, 50.508, -12.304, 94.4383, -62.0525, 40.5742
0.592, -1, 34.6992, 50.4797, -12.3252, 94.4741, -61.9272, 40.6154
0.596, -1, 34.7138, 50.4514, -12.3463, 94.5099, -61.802, 40.6566
0.6, -1, 34.7284, 50.4231, -12.3674, 94.5457, -61.677, 40.6977
0.604, -1, 34.743, 50.3949, -12.3884, 94.5814, -61.5522, 40.7387
0.608, -1, 34.7575, 50.3667, -12.4095, 94.617, -61.4276, 40.7796
0.612, -1, 34.7721, 50.3386, -12.4305, 94.6526, -61.3032, 40.8205
0.616, -1, 34.7866, 50.3105, -12.4514, 94.6881, -61.1789, 40.8614
0.62, -1, 34.8011, 50.2824, -12.4724, 94.7236, -61.0548, 40.9022
0.624, -1, 34.8155, 50.2544, -12.4933, 94.7591, -60.931, 40.9429
0.628, -1, 34.83, 50.2265, -12.5142, 94.7944, -60.8073, 40.9835
0.632, -1, 34.8444, 50.1985, -12.535, 94.8298, -60.6837, 41.0241
0.636, -1, 34.8588, 50.1707, -12.5558, 94.865, -60.5604, 41.0647
0.64, -1, 34.8732, 50.1428, -12.5766, 94.9003, -60.4372, 41.1052
0.644, -1, 34.8876, 50.115, -12.5973, 94.9354, -60.3142, 41.1456
0.648, -1, 34.9019, 50.0872, -12.6181, 94.9706, -60.1914, 41.1859
0.652, -1, 34.9163, 50.0595, -12.6388, 95.0056, -60.0688, 41.2263
0.656, -1, 34.9306, 50.0318, -12.6594, 95.0407, -59.9463, 41.2665
0.66, -1, 34.9449, 50.0042, -12.6801, 95.0756, -59.824, 41.3067
0.664, -1, 34.9591, 49.9766, -12.7007, 95.1106, -59.7019, 41.3468
0.668, -1, 34.9734, 49.949, -12.7212, 95.1454, -59.58, 41.3869
0.672, -1, 34.9876, 49.9215, -12.7418, 95.1803, -59.4582, 41.427
0.676, -1, 35.0018, 49.894, -12.7623, 95.215, -59.3366, 41.4669
0.68, -1, 35.016, 49.8665, -12.7828, 95.2498, -59.2151, 41.5068
0.684, -1, 35.0301, 49.8391, -12.8033, 95.2844, -59.0939, 41.5467
0.688, -1, 35.0443, 49.8117, -12.8237, 95.3191, -58.9728, 41.5865
0.692, -1, 35.0584, 49.7844, -12.8441, 95.3537, -58.8519, 41.6262
0.696, -1, 35.0725, 49.7571, -12.8645, 95.3882, -58.7311, 41.6659
0.7, -1, 35.0866, 49.7298, -12.8848, 95.4227, -58.6105, 41.7056
0.704, -1, 35.1007, 49.7026, -12.9051, 95.4571, -58.4901, 41.7451
0.708, -1, 35.1147, 49.6754, -12.9254, 95.4915, -58.3698, 41.7847
0.712, -1, 35.1288, 49.6482, -12.9457, 95.5259, -58.2497, 41.8241
0.716, -1, 35.1428, 49.6211, -12.9659, 95.5602, -58.1298, 41.8636
0.72, -1, 35.1568, 49.5941, -12.9862, 95.5944, -58.01, 41.9029
0.724, -1, 35.1707, 49.567, -13.0063, 95.6286, -57.8904, 41.9422
0.728, -1, 35.1847, 49.54, -13.0265, 95.6628, -57.771, 41.9815
0.732, -1, 35.1986, 49.513, -13.0466, 95.6969, -57.6517, 42.0207
0.736, -1, 35.2125, 49.4861, -13.0667, 95.731, -57.5326, 42.0599
0.74, -1, 35.2264, 49.4592, -13.0868, 95.765, -57.4136, 42.099
0.744, -1, 35.2403, 49.4324, -13.1068, 95.799, -57.2948, 42.138
0.748, -1, 35.2542, 49.4055, -13.1269, 95.8329, -57.1762, 42.177
0.752, -1, 35.268, 49.3787, -13.1468, 95.8668, -57.0577, 42.2159
0.756, -1, 35.2818, 49.352, -13.1668, 95.9006, -56.9394, 42.2548
0.76, -1, 35.2956, 49.3253, -13.1868, 95.9344, -56.8212, 42.2937
0.764, -1, 35.3094, 49.2986, -13.2067, 95.9682, -56.7032, 42.3325
0.768, -1, 35.3232, 49.272, -13.2266, 96.0019, -56.5854, 42.3712
0.772, -1, 35.3369, 49.2453, -13.2464, 96.0355, -56.4676, 42.4099
0.776, -1, 35.3507, 49.2188, -13.2663, 96.0692, -56.3501, 42.4485
0.78, -1, 35.3644, 49.1922, -13.2861, 96.1027, -56.2327, 42.4871
0.784, -1, 35.3781, 49.1657, -13.3058, 96.1363, -56.1155, 42.5257
0.788, -1, 35.3917, 49.1392, -13.3256, 96.1698, -55.9984, 42.5641
0.792, -1, 35.4054, 49.1128, -13.3453, 96.2032, -55.8814, 42.6026
0.796, -1, 35.4191, 49.0864, -13.365, 96.2366, -55.7646, 42.641
0.8, -1, 35.4327, 49.06, -13.3847, 96.27, -55.648, 42.6793
0.804, -1, 35.4463, 49.0337, -13.4044, 96.3033, -55.5315, 42.7176
0.808, -1, 35.4599, 49.0074, -13.424, 96.3365, -55.4151, 42.7558
0.812, -1, 35.4734, 48.9811, -13.4436, 96.3698, -55.2989, 42.794
0.816, -1, 35.487, 48.9549, -13.4632, 96.403, -55.1829, 42.8322
0.82, -1, 35.5005, 48.9287, -13.4828, 96.4361, -55.067, 42.8703
0.824, -1, 35.5141, 48.9025, -13.5023, 96.4692, -54.9512, 42.9083
0.828, -1, 35.5276, 48.8764, -13.5218, 96.5023, -54.8356, 42.9463
0.832, -1, 35.5411, 48.8503, -13.5413, 96.5353, -54.7201, 42.9843
0.836, -1, 35.5545, 48.8242, -13.5608, 96.5683, -54.6048, 43.0222
0.84, -1, 35.568, 48.7981, -13.5802, 96.6012, -54.4896, 43.06
0.844, -1, 35.5814, 48.7721, -13.5996, 96.6341, -54.3746, 43.0979
0.848, -1, 35.5949, 48.7461, -13.619, 96.667, -54.2597, 43.1356
0.852, -1, 35.6083, 48.7202, -13.6384, 96.6998, -54.1449, 43.1733
0.856, -1, 35.6216, 48.6943, -13.6577, 96.7326, -54.0303, 43.211
0.86, -1, 35.635, 48.6684, -13.677, 96.7654, -53.9158, 43.2486
0.864, -1, 35.6483, 48.6426, -13.6963, 96.798, -53.8015, 43.2862
0.868, -1, 35.6616, 48.6169, -13.7156, 96.8307, -53.6873, 43.3238
0.872, -1, 35.6747, 48.5912, -13.7348, 96.8633, -53.5732, 43.3612
0.876, -1, 35.6878, 48.5656, -13.754, 96.8959, -53.4594, 43.3987
0.88, -1, 35.7008, 48.5402, -13.7732, 96.9284, -53.3457, 43.436
0.884, -1, 35.7135, 48.515, -13.7924, 96.9608, -53.2323, 43.4733
0.888, -1, 35.726, 48.4902, -13.8115, 96.9932, -53.1192, 43.5105
0.892, -1, 35.738, 48.466, -13.8305, 97.0254, -53.0066, 43.5475
0.896, -1, 35.7494, 48.4426, -13.8494, 97.0574, -52.8946, 43.5843
0.9, -1, 35.7603, 48.4201, -13.8682, 97.0892, -52.7836, 43.6208
0.904, -1, 35.7705, 48.3986, -13.8867, 97.1205, -52.6741, 43.6568
0.908, -1, 35.7802, 48.3781, -13.9049, 97.1513, -52.5665, 43.6922
0.912, -1, 35.7894, 48.3586, -13.9227, 97.1813, -52.4615, 43.7267
0.916, -1, 35.7982, 48.3399, -13.9399, 97.2104, -52.3599, 43.7602
0.92, -1, 35.8067, 48.3221, -13.9564, 97.2383, -52.2624, 43.7923
0.924, -1, 35.8148, 48.3051, -13.9721, 97.2649, -52.1697, 43.8228
0.928, -1, 35.8225, 48.2891, -13.9869, 97.2898, -52.0824, 43.8514
0.932, -1, 35.8299, 48.274, -14.0006, 97.313, -52.0014, 43.8781
0.936, -1, 35.837, 48.2597, -14.0132, 97.3343, -51.927, 43.9026
0.94, -1, 35.8438, 48.2461, -14.0246, 97.3535, -51.8598, 43.9247
0.944, -1, 35.8505, 48.233, -14.0347, 97.3706, -51.8, 43.9443
0.948, -1, 35.8571, 48.2204, -14.0435, 97.3856, -51.7476, 43.9615
0.952, -1, 35.8636, 48.2083, -14.0511, 97.3985, -51.7026, 43.9763
0.956, -1, 35.8699, 48.1968, -14.0574, 97.4093, -51.6646, 43.9888
0.96, -1, 35.8759, 48.1861, -14.0627, 97.4183, -51.633, 43.9991
0.964, -1, 35.8815, 48.1763, -14.067, 97.4257, -51.6074, 44.0075
0.968, -1, 35.8866, 48.1676, -14.0704, 97.4315, -51.5869, 44.0143
0.972, -1, 35.8914, 48.16, -14.073, 97.436, -51.5709, 44.0195
0.976, -1, 35.8957, 48.1533, -14.075, 97.4395, -51.5587, 44.0235
0.98, -1, 35.8997, 48.1475, -14.0765, 97.4421, -51.5496, 44.0264
0.984, -1, 35.9032, 48.1427, -14.0776, 97.444, -51.543, 44.0286
0.988, 2, 35.9062, 48.1387, -14.0784, 97.4453, -51.5382, 44.0302
0.992, 2, 35.9087, 48.1355, -14.0789, 97.4463, -51.5349, 44.0312
0.996, 2, 35.9106, 48.1332, -14.0793, 97.4469, -51.5327, 44.032
1, 2, 35.912, 48.1315, -14.0795, 97.4474, -51.5311, 44.0325
1.004, 2, 35.913, 48.1303, -14.0797, 97.4477, -51.5301, 44.0328
1.008, 2, 35.9137, 48.1295, -14.0798, 97.4479, -51.5293, 44.033
1.012, 2, 35.9142, 48.1289, -14.0799, 97.448, -51.5289, 44.0332
1.016, 2, 35.9145, 48.1286, -14.0799, 97.4481, -51.5285, 44.0333
1.02, 2, 35.9147, 48.1283, -14.08, 97.4482, -51.5283, 44.0334
1.024, 2, 35.9148, 48.1281, -14.08, 97.4482, -51.5282, 44.0334
1.027, 2, 35.9149, 48.128, -14.08, 97.4482, -51.5281, 44.0335
1.032, 2, 35.915, 48.1279, -14.08, 97.4482, -51.528, 44.0335
1.036, 2, 35.915, 48.1279, -14.08, 97.4483, -51.5279, 44.0335
1.04, 2, 35.9151, 48.1279, -14.08, 97.4483, -51.5279, 44.0335
1.044, 2, 35.9151, 48.1278, -14.08, 97.4483, -51.5279, 44.0335
1.048, 2, 35.9151, 48.1278, -14.08, 97.4483, -51.5279, 44.0335
1.052, 2, 35.9151, 48.1278, -14.08, 97.4483, -51.5279, 44.0335
1.055, 2, 35.9151, 48.1278, -14.08, 97.4483, -51.5279, 44.0335
1.06, 2, 35.9151, 48.1278, -14.08, 97.4483, -51.5279, 44.0335
1.064, 2, 35.9151, 48.1278, -14.08, 97.4483, -51.5278, 44.0335
1.068, 2, 35.9151, 48.1278, -14.08, 97.4483, -51.5278, 44.0335
1.072, 2, 35.9151, 48.1278, -14.08, 97.4483, -51.5278, 44.0335
1.076, 2, 35.9151, 48.1278, -14.08, 97.4483, -51.5278, 44.0335
1.08, 2, 35.9151, 48.1278, -14.08, 97.4483, -51.5278, 44.0335
1.084, 2, 35.9151, 48.1278, -14.08, 97.4483, -51.5278, 44.0335
1.088, 2, 35.9151, 48.1278, -14.08, 97.4483, -51.5278, 44.0335
1.091, 2, 35.9151, 48.1278, -14.08, 97.4483, -51.5278, 44.0335
1.096, 2, 35.9151, 48.1278, -14.08, 97.4483, -51.5278, 44.0335
1.1, 2, 35.9151, 48.1278, -14.08, 97.4483, -51.5278, 44.0335
1.104, 2, 35.9151, 48.1278, -14.08, 97.4483, -51.5278, 44.0335
1.108, 2, 35.9151, 48.1278, -14.08, 97.4483, -51.5278, 44.0335
1.112, 2, 35.9151, 48.1278, -14.08, 97.4483, -51.5278, 44.0335
1.116, 2, 35.9151, 48.1278, -14.08, 97.4483, -51.5278, 44.0335
1.119, 2, 35.9151, 48.1278, -14.08, 97.4483, -51.5278, 44.0335
1.124, 2, 35.9151, 48.1278, -14.08, 97.4483, -51.5278, 44.0335
1.128, 2, 35.9151, 48.1278, -14.08, 97.4483, -51.5278, 44.0335
1.132, 2, 35.9151, 48.1278, -14.08, 97.4483, -51.5278, 44.0335
1.136, 2, 35.9151, 48.1278, -14.08, 97.4483, -51.5278, 44.0335
1.14, 2, 35.9151, 48.1278, -14.08, 97.4483, -51.5278, 44.0335
1.144, 2, 35.9151, 48.1278, -14.08, 97.4483, -51.5278, 44.0335
1.147, 2, 35.9151, 48.1278, -14.08, 97.4483, -51.5278, 44.0335
1.152, 2, 35.9151, 48.1278, -14.08, 97.4483, -51.5278, 44.0335
1.156, 2, 35.9151, 48.1278, -14.08, 97.4483, -51.5278, 44.0335
1.16, 2, 35.9151, 48.1278, -14.08, 97.4483, -51.5278, 44.0335
1.164, 2, 35.9151, 48.1278, -14.08, 97.4483, -51.5278, 44.0335
1.168, 2, 35.9151, 48.1278, -14.08, 97.4483, -51.5278, 44.0335
1.172, 2, 35.9151, 48.1278, -14.08, 97.4483, -51.5278, 44.0335
1.175, 2, 35.9151, 48.1278, -14.08, 97.4483, -51.5278, 44.0335
1.18, 2, 35.9151, 48.1278, -14.08, 97.4483, -51.5278, 44.0335
1.184, 2, 35.9151, 48.1278, -14.08, 97.4483, -51.5278, 44.0335
1.188, 2, 35.9151, 48.1278, -14.08, 97.4483, -51.5278, 44.0335
1.192, 2, 35.9151, 48.1278, -14.08, 97.4483, -51.5278, 44.0335
1.196, 2, 35.9151, 48.1278, -14.08, 97.4483, -51.5278, 44.0335
1.2, 2, 35.9151, 48.1278, -14.08, 97.4483, -51.5278, 44.0335
1.204, 2, 35.9151, 48.1278, -14.08, 97.4483, -51.5278, 44.0335
1.208, 2, 35.9151, 48.1278, -14.08, 97.4483, -51.5278, 44.0335
1.212, 2, 35.9151, 48.1278, -14.08, 97.4483, -51.5278, 44.0335
1.216, 2, 35.9151, 48.1278, -14.08, 97.4483, -51.5278, 44.0335
1.22, 2, 35.9151, 48.1278, -14.08, 97.4483, -51.5278, 44.0335
1.224, 2, 35.9151, 48.1278, -14.08, 97.4483, -51.5278, 44.0335
1.228, 2, 35.9151, 48.1278, -14.08, 97.4483, -51.5278, 44.0335
1.232, 2, 35.9151, 48.1278, -14.08, 97.4483, -51.5278, 44.0335
1.236, 2, 35.9151, 48.1278, -14.08, 97.4483, -51.5278, 44.0335
1.24, 2, 35.9151, 48.1278, -14.08, 97.4483, -51.5278, 44.0335
1.244, 2, 35.9151, 48.1278, -14.08, 97.4483, -51.5278, 44.0335
1.248, 2, 35.9151, 48.1278, -14.08, 97.4483, -51.5278, 44.0335
1.252, 2, 35.9151, 48.1278, -14.08, 97.4483, -51.5278, 44.0335
1.256, 2, 35.9151, 48.1278, -14.08, 97.4483, -51.5278, 44.0335
1.26, 2, 35.9151, 48.1278, -14.08, 97.4483, -51.5278, 44.0335
1.264, 2, 35.9151, 48.1278, -14.08, 97.4483, -51.5278, 44.0335
1.267, 2, 35.9151, 48.1278, -14.08, 97.4483, -51.5278, 44.0335
1.272, 2, 35.9151, 48.1278, -14.08, 97.4483, -51.5278, 44.0335
1.276, 2, 35.9151, 48.1278, -14.08, 97.4483, -51.5278, 44.0335
1.28, 2, 35.9151, 48.1278, -14.08, 97.4483, -51.5278, 44.0335
1.284, 2, 35.9151, 48.1278, -14.08, 97.4483, -51.5278, 44.0335
1.288, 2, 35.9151, 48.1278, -14.08, 97.4483, -51.5278, 44.0335
1.292, 2, 35.9151, 48.1278, -14.08, 97.4483, -51.5278, 44.0335
1.295, 2, 35.9151, 48.1278, -14.08, 97.4483, -51.5278, 44.0335
1.3, 2, 35.9151, 48.1278, -14.08, 97.4483, -51.5278, 44.0335
1.304, 2, 35.9151, 48.1278, -14.08, 97.4483, -51.5278, 44.0335
1.308, 2, 35.9151, 48.1278, -14.08, 97.4483, -51.5278, 44.0335
1.312, 2, 35.9151, 48.1278, -14.08, 97.4483, -51.5278, 44.0335
1.316, 2, 35.9151, 48.1278, -14.08, 97.4483, -51.5278, 44.0335
1.32, 2, 35.9151, 48.1278, -14.08, 97.4483, -51.5278, 44.0335
1.324, 2, 35.9151, 48.1278, -14.08, 97.4483, -51.5278, 44.0335
1.328, 2, 35.9151, 48.1278, -14.08, 97.4483, -51.5278, 44.0335
1.332, 2, 35.9151, 48.1278, -14.08, 97.4483, -51.5278, 44.0335
1.336, 2, 35.9151, 48.1278, -14.08, 97.4483, -51.5278, 44.0335
1.34, 2, 35.9151, 48.1278, -14.08, 97.4483, -51.5278, 44.0335
1.344, 2, 35.9151, 48.1278, -14.08, 97.4483, -51.5278, 44.0335
1.348, 2, 35.9151, 48.1278, -14.08, 97.4483, -51.5278, 44.0335
1.352, 2, 35.9151, 48.1278, -14.08, 97.4483, -51.5278, 44.0335
1.356, 2, 35.9151, 48.1278, -14.08, 97.4483, -51.5278, 44.0335
1.36, 2, 35.9151, 48.1278, -14.08, 97.4483, -51.5278, 44.0335
1.364, 2, 35.9151, 48.1278, -14.08, 97.4483, -51.5278, 44.0335
1.368, 2, 35.9151, 48.1278, -14.08, 97.4483, -51.5278, 44.0335
1.372, 2, 35.9151, 48.1278, -14.08, 97.4483, -51.5278, 44.0335
1.376, 2, 35.9151, 48.1278, -14.08, 97.4483, -51.5278, 44.0335
1.38, 2, 35.9151, 48.1278, -14.08, 97.4483, -51.5278, 44.0335
1.384, 2, 35.9151, 48.1278, -14.08, 97.4483, -51.5278, 44.0335
1.388, 2, 35.9151, 48.1278, -14.08, 97.4483, -51.5278, 44.0335
1.392, 2, 35.9151, 48.1278, -14.08, 97.4483, -51.5278, 44.0335
1.396, 2, 35.9151, 48.1278, -14.08, 97.4483, -51.5278, 44.0335
1.4, 2, 35.9151, 48.1278, -14.08, 97.4483, -51.5278, 44.0335
1.404, 2, 35.9151, 48.1278, -14.08, 97.4483, -51.5278, 44.0335
1.408, 2, 35.9151, 48.1278, -14.08, 97.4483, -51.5278, 44.0335
1.412, 2, 35.9151, 48.1278, -14.08, 97.4483, -51.5278, 44.0335
1.416, 2, 35.9151, 48.1278, -14.08, 97.4483, -51.5278, 44.0335
1.42, 2, 35.9151, 48.1278, -14.08, 97.4483, -51.5278, 44.0335
1.424, 2, 35.9151, 48.1278, -14.08, 97.4483, -51.5278, 44.0335
1.428, 2, 35.9151, 48.1278, -14.08, 97.4483, -51.5278, 44.0335
1.432, 2, 35.9151, 48.1278, -14.08, 97.4483, -51.5278, 44.0335
1.436, 2, 35.9151, 48.1278, -14.08, 97.4483, -51.5278, 44.0335
1.44, 2, 35.9151, 48.1278, -14.08, 97.4483, -51.5278, 44.0335
1.444, 2, 35.9151, 48.1278, -14.08, 97.4483, -51.5278, 44.0335
1.448, 2, 35.9151, 48.1278, -14.08, 97.4483, -51.5278, 44.0335
1.452, 2, 35.9151, 48.1278, -14.08, 97.4483, -51.5278, 44.0335
1.456, 2, 35.9151, 48.1278, -14.08, 97.4483, -51.5278, 44.0335
1.46, 2, 35.9151, 48.1278, -14.08, 97.4483, -51.5278, 44.0335
1.464, 2, 35.9151, 48.1278, -14.08, 97.4483, -51.5278, 44.0335
1.468, 2, 35.9151, 48.1278, -14.08, 97.4483, -51.5278, 44.0335
1.472, 2, 35.9151, 48.1278, -14.08, 97.4483, -51.5278, 44.0335
1.476, 2, 35.9151, 48.1278, -14.08, 97.4483, -51.5278, 44.0335
1.48, 2, 35.9151, 48.1278, -14.08, 97.4483, -51.5278, 44.0335
1.484, 2, 35.9151, 48.1278, -14.08, 97.4483, -51.5278, 44.0335
1.488, 2, 35.9151, 48.1278, -14.08, 97.4483, -51.5278, 44.0335
1.492, 2, 35.9151, 48.1278, -14.08, 97.4483, -51.5278, 44.0335
1.496, 2, 35.9151, 48.1278, -14.08, 97.4483, -51.5278, 44.0335
1.5, 2, 35.9151, 48.1278, -14.08, 97.4483, -51.5278, 44.0335
1.504, 2, 35.9151, 48.1278, -14.08, 97.4483, -51.5278, 44.0335
1.508, 2, 35.9151, 48.1278, -14.08, 97.4483, -51.5278, 44.0335
1.512, 2, 35.9151, 48.1278, -14.08, 97.4483, -51.5278, 44.0335
1.516, 2, 35.9151, 48.1278, -14.08, 97.4483, -51.5278, 44.0335
1.52, 2, 35.9151, 48.1278, -14.08, 97.4483, -51.5278, 44.0335
1.524, 2, 35.9151, 48.1278, -14.08, 97.4483, -51.5278, 44.0335
1.528, 2, 35.9151, 48.1278, -14.08, 97.4483, -51.5278, 44.0335
1.532, 2, 35.9151, 48.1278, -14.08, 97.4483, -51.5278, 44.0335
1.536, 2, 35.9151, 48.1278, -14.08, 97.4483, -51.5278, 44.0335
1.54, 2, 35.9151, 48.1278, -14.08, 97.4483, -51.5278, 44.0335
1.544, 2, 35.9151, 48.1278, -14.08, 97.4483, -51.5278, 44.0335
1.548, 2, 35.9151, 48.1278, -14.08, 97.4483, -51.5278, 44.0335
1.552, 2, 35.9151, 48.1278, -14.08, 97.4483, -51.5278, 44.0335
1.556, 2, 35.9151, 48.1278, -14.08, 97.4483, -51.5278, 44.0335
1.56, 2, 35.9151, 48.1278, -14.08, 97.4483, -51.5278, 44.0335
1.564, 2, 35.9151, 48.1278, -14.08, 97.4483, -51.5278, 44.0335
1.568, 2, 35.9151, 48.1278, -14.08, 97.4483, -51.5278, 44.0335
1.572, 2, 35.9151, 48.1278, -14.08, 97.4483, -51.5278, 44.0335
1.576, 2, 35.9151, 48.1278, -14.08, 97.4483, -51.5278, 44.0335
1.58, 2, 35.9151, 48.1278, -14.08, 97.4483, -51.5278, 44.0335
1.584, 2, 35.9151, 48.1278, -14.08, 97.4483, -51.5278, 44.0335
1.588, 2, 35.9151, 48.1278, -14.08, 97.4483, -51.5278, 44.0335
1.592, 2, 35.9151, 48.1278, -14.08, 97.4483, -51.5278, 44.0335
1.596, 2, 35.9151, 48.1278, -14.08, 97.4483, -51.5278, 44.0335
1.6, 2, 35.9151, 48.1278, -14.08, 97.4483, -51.5278, 44.0335
1.604, 2, 35.9151, 48.1278, -14.08, 97.4483, -51.5278, 44.0335
1.608, 2, 35.9151, 48.1278, -14.08, 97.4483, -51.5278, 44.0335
1.612, 2, 35.9151, 48.1278, -14.08, 97.4483, -51.5278, 44.0335
1.616, 2, 35.9151, 48.1278, -14.08, 97.4483, -51.5278, 44.0335
1.62, 2, 35.9151, 48.1278, -14.08, 97.4483, -51.5278, 44.0335
1.624, 2, 35.9151, 48.1278, -14.08, 97.4483, -51.5278, 44.0335
1.628, 2, 35.9151, 48.1278, -14.08, 97.4483, -51.5278, 44.0335
1.632, 2, 35.9151, 48.1278, -14.08, 97.4483, -51.5278, 44.0335
1.636, 2, 35.9151, 48.1278, -14.08, 97.4483, -51.5278, 44.0335
1.64, 2, 35.9151, 48.1278, -14.08, 97.4483, -51.5278, 44.0335
1.644, 2, 35.9151, 48.1278, -14.08, 97.4483, -51.5278, 44.0335
1.648, 2, 35.9151, 48.1278, -14.08, 97.4483, -51.5278, 44.0335
1.652, 2, 35.9151, 48.1278, -14.08, 97.4483, -51.5278, 44.0335
1.656, 2, 35.9151, 48.1278, -14.08, 97.4483, -51.5278, 44.0335
1.66, 2, 35.9151, 48.1278, -14.08, 97.4483, -51.5278, 44.0335
1.664, 2, 35.9151, 48.1278, -14.08, 97.4483, -51.5278, 44.0335
1.668, 2, 35.9151, 48.1278, -14.08, 97.4483, -51.5278, 44.0335
1.672, 2, 35.9151, 48.1278, -14.08, 97.4483, -51.5278, 44.0335
1.676, 2, 35.9151, 48.1278, -14.08, 97.4483, -51.5278, 44.0335
1.68, 2, 35.9151, 48.1278, -14.08, 97.4483, -51.5278, 44.0335
1.684, 2, 35.9151, 48.1278, -14.08, 97.4483, -51.5278, 44.0335
1.688, 2, 35.9151, 48.1278, -14.08, 97.4483, -51.5278, 44.0335
1.692, 2, 35.9151, 48.1278, -14.08, 97.4483, -51.5278, 44.0335
1.696, 2, 35.9151, 48.1278, -14.08, 97.4483, -51.5278, 44.0335
1.7, 2, 35.9151, 48.1278, -14.08, 97.4483, -51.5278, 44.0335
1.704, 2, 35.9151, 48.1278, -14.08, 97.4483, -51.5278, 44.0335
1.708, 2, 35.9151, 48.1278, -14.08, 97.4483, -51.5278, 44.0335
1.712, 2, 35.9151, 48.1278, -14.08, 97.4483, -51.5278, 44.0335
1.716, 2, 35.9151, 48.1278, -14.08, 97.4483, -51.5278, 44.0335
1.72, 2, 35.9151, 48.1278, -14.08, 97.4483, -51.5278, 44.0335
1.724, 2, 35.9151, 48.1278, -14.08, 97.4483, -51.5278, 44.0335
1.728, 2, 35.9151, 48.1278, -14.08, 97.4483, -51.5278, 44.0335
1.732, 2, 35.9151, 48.1278, -14.08, 97.4483, -51.5278, 44.0335
1.736, 2, 35.9151, 48.1278, -14.08, 97.4483, -51.5278, 44.0335
1.74, 2, 35.9151, 48.1278, -14.08, 97.4483, -51.5278, 44.0335
1.744, 2, 35.9151, 48.1278, -14.08, 97.4483, -51.5278, 44.0335
1.748, 2, 35.9151, 48.1278, -14.08, 97.4483, -51.5278, 44.0335
1.752, 2, 35.9151, 48.1278, -14.08, 97.4483, -51.5278, 44.0335
1.756, 2, 35.9151, 48.1278, -14.08, 97.4483, -51.5278, 44.0335
1.76, 2, 35.9151, 48.1278, -14.08, 97.4483, -51.5278, 44.0335
1.764, 2, 35.9151, 48.1278, -14.08, 97.4483, -51.5278, 44.0335
1.768, 2, 35.9151, 48.1278, -14.08, 97.4483, -51.5278, 44.0335
1.772, 2, 35.9151, 48.1278, -14.08, 97.4483, -51.5278, 44.0335
1.776, 2, 35.9151, 48.1278, -14.08, 97.4483, -51.5278, 44.0335
1.78, 2, 35.9151, 48.1278, -14.08, 97.4483, -51.5278, 44.0335
1.784, 2, 35.9151, 48.1278, -14.08, 97.4483, -51.5278, 44.0335
1.788, 2, 35.9151, 48.1278, -14.08, 97.4483, -51.5278, 44.0335
1.792, 2, 35.9151, 48.1278, -14.08, 97.4483, -51.5278, 44.0335
1.796, 2, 35.9151, 48.1278, -14.08, 97.4483, -51.5278, 44.0335
1.8, 2, 35.9151, 48.1278, -14.08, 97.4483, -51.5278, 44.0335
1.804, 2, 35.9151, 48.1278, -14.08, 97.4483, -51.5278, 44.0335
1.808, 2, 35.9151, 48.1278, -14.08, 97.4483, -51.5278, 44.0335
1.812, 2, 35.9151, 48.1278, -14.08, 97.4483, -51.5278, 44.0335
1.816, 2, 35.9151, 48.1278, -14.08, 97.4483, -51.5278, 44.0335
1.82, 2, 35.9151, 48.1278, -14.08, 97.4483, -51.5278, 44.0335
1.824, 2, 35.9151, 48.1278, -14.08, 97.4483, -51.5278, 44.0335
1.828, 2, 35.9151, 48.1278, -14.08, 97.4483, -51.5278, 44.0335
1.832, 2, 35.9151, 48.1278, -14.08, 97.4483, -51.5278, 44.0335
1.836, 2, 35.9151, 48.1278, -14.08, 97.4483, -51.5278, 44.0335
1.84, 2, 35.9151, 48.1278, -14.08, 97.4483, -51.5278, 44.0335
1.844, 2, 35.9151, 48.1278, -14.08, 97.4483, -51.5278, 44.0335
1.848, 2, 35.9151, 48.1278, -14.08, 97.4483, -51.5278, 44.0335
1.852, 2, 35.9151, 48.1278, -14.08, 97.4483, -51.5278, 44.0335
1.856, 2, 35.9151, 48.1278, -14.08, 97.4483, -51.5278, 44.0335
1.86, 2, 35.9151, 48.1278, -14.08, 97.4483, -51.5278, 44.0335
1.864, 2, 35.9151, 48.1278, -14.08, 97.4483, -51.5278, 44.0335
1.868, 2, 35.9151, 48.1278, -14.08, 97.4483, -51.5278, 44.0335
1.872, 2, 35.9151, 48.1278, -14.08, 97.4483, -51.5278, 44.0335
1.876, 2, 35.9151, 48.1278, -14.08, 97.4483, -51.5278, 44.0335
1.88, 2, 35.9151, 48.1278, -14.08, 97.4483, -51.5278, 44.0335
1.884, 2, 35.9151, 48.1278, -14.08, 97.4483, -51.5278, 44.0335
1.888, 2, 35.9151, 48.1278, -14.08, 97.4483, -51.5278, 44.0335
1.892, 2, 35.9151, 48.1278, -14.08, 97.4483, -51.5278, 44.0335
1.896, 2, 35.9151, 48.1278, -14.08, 97.4483, -51.5278, 44.0335
1.9, 2, 35.9151, 48.1278, -14.08, 97.4483, -51.5278, 44.0335
1.904, 2, 35.9151, 48.1278, -14.08, 97.4483, -51.5278, 44.0335
1.908, 2, 35.9151, 48.1278, -14.08, 97.4483, -51.5278, 44.0335
1.912, 2, 35.9151, 48.1278, -14.08, 97.4483, -51.5278, 44.0335
1.916, 2, 35.9151, 48.1278, -14.08, 97.4483, -51.5278, 44.0335
1.92, 2, 35.9151, 48.1278, -14.08, 97.4483, -51.5278, 44.0335
1.924, 2, 35.9151, 48.1278, -14.08, 97.4483, -51.5278, 44.0335
1.928, 2, 35.9151, 48.1278, -14.08, 97.4483, -51.5278, 44.0335
1.932, 2, 35.9151, 48.1278, -14.08, 97.4483, -51.5278, 44.0335
1.936, 2, 35.9151, 48.1278, -14.08, 97.4483, -51.5278, 44.0335
1.94, 2, 35.9151, 48.1278, -14.08, 97.4483, -51.5278, 44.0335
1.944, 2, 35.9151, 48.1278, -14.08, 97.4483, -51.5278, 44.0335
1.948, 2, 35.9151, 48.1278, -14.08, 97.4483, -51.5278, 44.0335
1.952, 2, 35.9151, 48.1278, -14.08, 97.4483, -51.5278, 44.0335
1.956, 2, 35.9151, 48.1278, -14.08, 97.4483, -51.5278, 44.0335
1.96, 2, 35.9151, 48.1278, -14.08, 97.4483, -51.5278, 44.0335
1.964, 2, 35.9151, 48.1278, -14.08, 97.4483, -51.5278, 44.0335
1.968, 2, 35.9151, 48.1278, -14.08, 97.4483, -51.5278, 44.0335
1.972, 2, 35.9151, 48.1278, -14.08, 97.4483, -51.5278, 44.0335
1.976, 2, 35.9151, 48.1278, -14.08, 97.4483, -51.5278, 44.0335
1.98, 2, 35.9151, 48.1278, -14.08, 97.4483, -51.5278, 44.0335
1.984, 2, 35.9151, 48.1278, -14.08, 97.4483, -51.5278, 44.0335
1.988, 2, 35.9151, 48.1278, -14.08, 97.4483, -51.5278, 44.0335
1.992, 2, 35.9151, 48.1278, -14.08, 97.4483, -51.5278, 44.0335
1.996, 2, 35.9151, 48.1278, -14.08, 97.4483, -51.5278, 44.0335
1.999, 2, 35.9151, 48.1278, -14.08, 97.4483, -51.5278, 44.0335
2.004, 2, 35.9151, 48.1278, -14.08, 97.4483, -51.5278, 44.0335
2.008, 2, 35.9151, 48.1278, -14.08, 97.4483, -51.5278, 44.0335
2.012, 2, 35.9151, 48.1278, -14.08, 97.4483, -51.5278, 44.0335
2.015, 2, 35.9151, 48.1278, -14.08, 97.4483, -51.5278, 44.0335
2.019, 2, 35.9151, 48.1278, -14.08, 97.4483, -51.5278, 44.0335
2.024, 2, 35.9151, 48.1278, -14.08, 97.4483, -51.5278, 44.0335
2.028, 2, 35.9151, 48.1278, -14.08, 97.4483, -51.5278, 44.0335
2.031, 2, 35.9151, 48.1278, -14.08, 97.4483, -51.5278, 44.0335
2.036, 2, 35.9151, 48.1278, -14.08, 97.4483, -51.5278, 44.0335
2.04, 2, 35.9151, 48.1278, -14.08, 97.4483, -51.5278, 44.0335
2.044, 4, 35.9151, 48.1278, -14.08, 97.4483, -51.5278, 44.0335
2.048, 4, 35.9151, 48.1278, -14.08, 97.4483, -51.5278, 44.0335
2.051, 4, 35.9151, 48.1278, -14.08, 97.4483, -51.5278, 44.0335
2.055, 4, 35.9151, 48.1278, -14.08, 97.4483, -51.5278, 44.0335
2.06, 4, 35.9151, 48.1278, -14.08, 97.4483, -51.5278, 44.0335
2.064, 4, 35.9151, 48.1278, -14.08, 97.4483, -51.5278, 44.0335
2.068, 4, 35.9151, 48.1278, -14.08, 97.4483, -51.5278, 44.0335
2.071, 4, 35.9151, 48.1278, -14.08, 97.4483, -51.5278, 44.0335
2.076, 4, 35.9151, 48.1278, -14.08, 97.4483, -51.5278, 44.0335
2.08, 4, 35.9151, 48.1278, -14.08, 97.4483, -51.5278, 44.0335
2.084, 4, 35.9151, 48.1278, -14.08, 97.4483, -51.5278, 44.0335
2.087, 4, 35.9151, 48.1278, -14.08, 97.4483, -51.5278, 44.0335
2.092, 4, 35.9151, 48.1278, -14.08, 97.4483, -51.5278, 44.0335
2.096, 4, 35.9151, 48.1278, -14.08, 97.4483, -51.5278, 44.0335
2.1, 4, 35.9151, 48.1278, -14.08, 97.4483, -51.5278, 44.0335
2.104, 4, 35.9151, 48.1278, -14.08, 97.4483, -51.5278, 44.0335
2.107, 4, 35.9151, 48.1278, -14.08, 97.4483, -51.5278, 44.0335
2.111, 4, 35.9151, 48.1278, -14.08, 97.4483, -51.5278, 44.0335
2.116, 4, 35.9151, 48.1278, -14.08, 97.4483, -51.5278, 44.0335
2.12, 4, 35.9151, 48.1278, -14.08, 97.4483, -51.5278, 44.0335
2.124, 4, 35.9151, 48.1278, -14.08, 97.4483, -51.5278, 44.0335
2.127, 4, 35.9151, 48.1278, -14.08, 97.4483, -51.5278, 44.0335
2.132, 4, 35.9151, 48.1278, -14.08, 97.4483, -51.5278, 44.0335
2.136, 4, 35.9151, 48.1278, -14.08, 97.4483, -51.5278, 44.0335
2.14, 4, 35.9151, 48.1278, -14.08, 97.4483, -51.5278, 44.0335
2.143, 4, 35.9151, 48.1278, -14.08, 97.4483, -51.5278, 44.0335
2.149, 4, 35.9151, 48.1278, -14.08, 97.4483, -51.5278, 44.0335
2.152, 4, 35.9151, 48.1278, -14.08, 97.4483, -51.5278, 44.0335
2.156, 4, 35.9151, 48.1278, -14.08, 97.4483, -51.5278, 44.0335
2.16, 4, 35.9151, 48.1278, -14.08, 97.4483, -51.5278, 44.0335
2.163, 4, 35.9151, 48.1278, -14.08, 97.4483, -51.5278, 44.0335
2.168, 4, 35.9151, 48.1278, -14.08, 97.4483, -51.5278, 44.0335
2.172, 4, 35.9151, 48.1278, -14.08, 97.4483, -51.5278, 44.0335
2.176, 4, 35.9151, 48.1278, -14.08, 97.4483, -51.5278, 44.0335
2.179, 4, 35.9151, 48.1278, -14.08, 97.4483, -51.5278, 44.0335
2.184, 4, 35.915, 48.128, -14.08, 97.4483, -51.5279, 44.0335
2.188, 4, 35.9148, 48.1283, -14.08, 97.4483, -51.5279, 44.0335
2.192, 4, 35.9144, 48.1291, -14.08, 97.4483, -51.5281, 44.0334
2.196, 4, 35.9137, 48.1303, -14.08, 97.4482, -51.5284, 44.0333
2.199, 4, 35.9128, 48.1322, -14.0799, 97.4481, -51.5292, 44.033
2.204, 4, 35.9115, 48.1347, -14.0798, 97.4478, -51.5306, 44.0325
2.208, 4, 35.91, 48.1379, -14.0797, 97.4474, -51.533, 44.0316
2.212, 4, 35.9083, 48.1418, -14.0795, 97.4468, -51.5368, 44.0301
2.216, 5, 35.9064, 48.1464, -14.0792, 97.4459, -51.5426, 44.0279
2.219, 5, 35.9045, 48.1518, -14.0787, 97.4445, -51.5508, 44.0248
2.224, 5, 35.9025, 48.1578, -14.0782, 97.4426, -51.562, 44.0205
2.228, 5, 35.9003, 48.1647, -14.0774, 97.4401, -51.5768, 44.0149
2.232, 5, 35.8981, 48.1724, -14.0764, 97.4369, -51.5956, 44.0077
2.235, 5, 35.8959, 48.1809, -14.0752, 97.4329, -51.619, 43.9988
2.24, 5, 35.8936, 48.19, -14.0738, 97.4281, -51.6474, 43.988
2.244, 5, 35.8914, 48.1997, -14.072, 97.4223, -51.681, 43.9752
2.248, 5, 35.8893, 48.21, -14.07, 97.4156, -51.72, 43.9603
2.252, 5, 35.8872, 48.2208, -14.0677, 97.408, -51.7645, 43.9434
2.255, 5, 35.8851, 48.2323, -14.0651, 97.3993, -51.8142, 43.9245
2.259, 5, 35.8831, 48.2443, -14.0622, 97.3898, -51.869, 43.9037
2.264, 5, 35.8809, 48.2572, -14.059, 97.3794, -51.9285, 43.8811
2.268, 5, 35.8787, 48.271, -14.0556, 97.3683, -51.9921, 43.857
2.272, 5, 35.8763, 48.2855, -14.0519, 97.3565, -52.0595, 43.8314
2.275, 5, 35.8738, 48.3008, -14.048, 97.344, -52.13, 43.8047
2.28, 5, 35.8712, 48.3169, -14.0439, 97.331, -52.2033, 43.777
2.284, 5, 35.8684, 48.3337, -14.0395, 97.3175, -52.2786, 43.7486
2.288, 5, 35.8654, 48.3512, -14.0351, 97.3037, -52.3557, 43.7195
2.291, 5, 35.8621, 48.3693, -14.0304, 97.2896, -52.4341, 43.6899
2.296, 5, 35.8587, 48.388, -14.0257, 97.2752, -52.5135, 43.66
2.3, 5, 35.8549, 48.4073, -14.0208, 97.2606, -52.5935, 43.6299
2.304, 5, 35.8509, 48.427, -14.0158, 97.2459, -52.674, 43.5997
2.308, 5, 35.8468, 48.4471, -14.0107, 97.231, -52.7548, 43.5694
2.311, 5, 35.8424, 48.4674, -14.0055, 97.216, -52.8358, 43.5391
2.316, 5, 35.838, 48.4878, -14.0002, 97.2009, -52.917, 43.5087
2.32, 5, 35.8335, 48.5083, -13.9948, 97.1857, -52.9982, 43.4784
2.324, 5, 35.8289, 48.5289, -13.9894, 97.1704, -53.0794, 43.4481
2.328, 5, 35.8243, 48.5495, -13.9838, 97.155, -53.1607, 43.4178
2.331, 5, 35.8196, 48.57, -13.9782, 97.1395, -53.242, 43.3876
2.336, 5, 35.8149, 48.5906, -13.9724, 97.1239, -53.3232, 43.3574
2.34, 5, 35.8101, 48.6111, -13.9666, 97.1082, -53.4044, 43.3272
2.344, 5, 35.8053, 48.6316, -13.9607, 97.0925, -53.4857, 43.2971
2.347, 5, 35.8005, 48.652, -13.9547, 97.0766, -53.5669, 43.267
2.352, 5, 35.7956, 48.6724, -13.9486, 97.0607, -53.648, 43.237
2.356, 5, 35.7908, 48.6927, -13.9425, 97.0447, -53.7292, 43.2071
2.36, 5, 35.7858, 48.7131, -13.9362, 97.0287, -53.8103, 43.1771
2.364, 5, 35.7809, 48.7333, -13.9299, 97.0125, -53.8914, 43.1473
2.367, 5, 35.7759, 48.7535, -13.9235, 96.9963, -53.9724, 43.1175
2.372, 5, 35.7709, 48.7737, -13.917, 96.9799, -54.0534, 43.0877
2.376, 5, 35.7659, 48.7938, -13.9104, 96.9635, -54.1344, 43.058
2.38, 5, 35.7609, 48.8139, -13.9037, 96.9471, -54.2154, 43.0283
2.383, 5, 35.7558, 48.8339, -13.8969, 96.9305, -54.2963, 42.9986
2.388, 5, 35.7507, 48.8539, -13.8901, 96.9139, -54.3772, 42.9691
2.392, 5, 35.7455, 48.8738, -13.8831, 96.8972, -54.4581, 42.9395
2.396, 5, 35.7404, 48.8936, -13.8761, 96.8804, -54.5389, 42.91
2.4, 5, 35.7352, 48.9135, -13.869, 96.8635, -54.6197, 42.8806
2.403, 5, 35.7299, 48.9332, -13.8618, 96.8466, -54.7005, 42.8512
2.408, 5, 35.7247, 48.953, -13.8545, 96.8295, -54.7812, 42.8218
2.412, 5, 35.7194, 48.9726, -13.8471, 96.8124, -54.8619, 42.7925
2.416, 5, 35.7141, 48.9922, -13.8396, 96.7952, -54.9426, 42.7632
2.42, 5, 35.7088, 49.0118, -13.8321, 96.778, -55.0232, 42.734
2.423, 5, 35.7034, 49.0313, -13.8244, 96.7607, -55.1038, 42.7048
2.428, 5, 35.698, 49.0508, -13.8167, 96.7433, -55.1844, 42.6757
2.432, 5, 35.6926, 49.0702, -13.8089, 96.7258, -55.2649, 42.6466
2.436, 5, 35.6871, 49.0896, -13.801, 96.7082, -55.3455, 42.6175
2.439, 5, 35.6817, 49.1089, -13.793, 96.6906, -55.426, 42.5885
2.444, 5, 35.6762, 49.1282, -13.7849, 96.6729, -55.5064, 42.5595
2.448, 5, 35.6706, 49.1474, -13.7767, 96.6551, -55.5868, 42.5306
2.452, 5, 35.6651, 49.1666, -13.7685, 96.6373, -55.6672, 42.5017
2.456, 5, 35.6595, 49.1857, -13.7601, 96.6193, -55.7476, 42.4729
2.459, 5, 35.6539, 49.2048, -13.7517, 96.6013, -55.8279, 42.4441
2.464, 5, 35.6482, 49.2238, -13.7432, 96.5833, -55.9082, 42.4153
2.468, 5, 35.6426, 49.2428, -13.7345, 96.5651, -55.9885, 42.3866
2.472, 5, 35.6369, 49.2617, -13.7259, 96.5469, -56.0687, 42.3579
2.476, 5, 35.6312, 49.2806, -13.7171, 96.5286, -56.1489, 42.3292
2.479, 5, 35.6254, 49.2994, -13.7082, 96.5103, -56.2291, 42.3006
2.484, 5, 35.6196, 49.3182, -13.6992, 96.4918, -56.3093, 42.2721
2.488, 5, 35.6138, 49.3369, -13.6902, 96.4733, -56.3894, 42.2435
2.492, 5, 35.608, 49.3555, -13.6811, 96.4547, -56.4695, 42.215
2.495, 5, 35.6021, 49.3741, -13.6719, 96.4361, -56.5495, 42.1866
2.5, 5, 35.5962, 49.3927, -13.6625, 96.4174, -56.6296, 42.1582
2.504, 5, 35.5903, 49.4112, -13.6532, 96.3986, -56.7096, 42.1298
2.508, 5, 35.5844, 49.4297, -13.6437, 96.3797, -56.7895, 42.1014
2.512, 5, 35.5784, 49.4481, -13.6341, 96.3608, -56.8695, 42.0731
2.515, 5, 35.5724, 49.4665, -13.6245, 96.3418, -56.9494, 42.0449
2.52, 5, 35.5664, 49.4848, -13.6147, 96.3228, -57.0293, 42.0166
2.524, 5, 35.5603, 49.503, -13.6049, 96.3036, -57.1091, 41.9884
2.528, 5, 35.5542, 49.5212, -13.595, 96.2844, -57.1889, 41.9603
2.531, 5, 35.5481, 49.5394, -13.585, 96.2651, -57.2687, 41.9322
2.536, 5, 35.542, 49.5575, -13.5749, 96.2458, -57.3485, 41.9041
2.54, 5, 35.5358, 49.5755, -13.5647, 96.2264, -57.4282, 41.876
2.544, 5, 35.5296, 49.5935, -13.5544, 96.2069, -57.5079, 41.848
2.548, 5, 35.5234, 49.6115, -13.5441, 96.1874, -57.5876, 41.82
2.551, 5, 35.5172, 49.6294, -13.5336, 96.1678, -57.6672, 41.7921
2.556, 5, 35.5109, 49.6472, -13.5231, 96.1481, -57.7468, 41.7641
2.56, 5, 35.5046, 49.665, -13.5125, 96.1283, -57.8264, 41.7363
2.564, 5, 35.4983, 49.6827, -13.5018, 96.1085, -57.9059, 41.7084
2.568, 5, 35.4919, 49.7004, -13.491, 96.0886, -57.9855, 41.6806
2.571, 5, 35.4855, 49.7181, -13.4801, 96.0687, -58.0649, 41.6528
2.576, 5, 35.4791, 49.7356, -13.4692, 96.0487, -58.1444, 41.6251
2.58, 5, 35.4727, 49.7532, -13.4581, 96.0286, -58.2238, 41.5973
2.584, 5, 35.4662, 49.7707, -13.447, 96.0085, -58.3032, 41.5697
2.587, 5, 35.4598, 49.7881, -13.4358, 95.9883, -58.3826, 41.542
2.592, 5, 35.4532, 49.8055, -13.4244, 95.968, -58.462, 41.5144
2.596, 5, 35.4467, 49.8228, -13.413, 95.9476, -58.5413, 41.4868
2.6, 5, 35.4401, 49.84, -13.4016, 95.9272, -58.6206, 41.4592
2.604, 5, 35.4335, 49.8573, -13.39, 95.9068, -58.6998, 41.4317
2.607, 5, 35.4269, 49.8744, -13.3783, 95.8863, -58.779, 41.4042
2.612, 5, 35.4203, 49.8915, -13.3666, 95.8656, -58.8582, 41.3767
2.616, 5, 35.4136, 49.9086, -13.3547, 95.845, -58.9374, 41.3493
2.62, 5, 35.4069, 49.9256, -13.3428, 95.8243, -59.0165, 41.3219
2.624, 5, 35.4001, 49.9425, -13.3308, 95.8035, -59.0956, 41.2945
2.627, 5, 35.3934, 49.9594, -13.3187, 95.7826, -59.1747, 41.2672
2.632, 5, 35.3866, 49.9763, -13.3065, 95.7617, -59.2538, 41.2398
2.636, 5, 35.3798, 49.9931, -13.2942, 95.7408, -59.3328, 41.2126
2.64, 5, 35.3729, 50.0098, -13.2819, 95.7197, -59.4118, 41.1853
2.643, 5, 35.3661, 50.0265, -13.2694, 95.6986, -59.4908, 41.1581
2.648, 5, 35.3592, 50.0431, -13.2569, 95.6775, -59.5697, 41.1308
2.652, 5, 35.3523, 50.0597, -13.2443, 95.6562, -59.6486, 41.1037
2.656, 5, 35.3453, 50.0762, -13.2316, 95.635, -59.7275, 41.0765
2.66, 5, 35.3383, 50.0927, -13.2188, 95.6136, -59.8063, 41.0494
2.663, 5, 35.3313, 50.1091, -13.2059, 95.5922, -59.8852, 41.0223
2.668, 5, 35.3243, 50.1255, -13.1929, 95.5707, -59.9639, 40.9952
2.672, 5, 35.3173, 50.1418, -13.1798, 95.5492, -60.0427, 40.9682
2.676, 5, 35.3102, 50.1581, -13.1667, 95.5276, -60.1214, 40.9412
2.679, 5, 35.3031, 50.1743, -13.1535, 95.506, -60.2001, 40.9142
2.684, 5, 35.2959, 50.1904, -13.1401, 95.4843, -60.2788, 40.8872
2.688, 5, 35.2888, 50.2065, -13.1267, 95.4625, -60.3575, 40.8603
2.692, 5, 35.2816, 50.2225, -13.1132, 95.4407, -60.4361, 40.8334
2.696, 5, 35.2744, 50.2385, -13.0996, 95.4188, -60.5147, 40.8065
2.699, 5, 35.2671, 50.2544, -13.086, 95.3969, -60.5932, 40.7796
2.704, 5, 35.2599, 50.2703, -13.0722, 95.3749, -60.6718, 40.7528
2.708, 5, 35.2526, 50.2861, -13.0583, 95.3528, -60.7503, 40.726
2.712, 5, 35.2453, 50.3019, -13.0444, 95.3307, -60.8288, 40.6992
2.716, 5, 35.2379, 50.3176, -13.0304, 95.3085, -60.9072, 40.6724
2.719, 5, 35.2305, 50.3333, -13.0163, 95.2863, -60.9856, 40.6457
2.724, 5, 35.2231, 50.3489, -13.0021, 95.264, -61.064, 40.6189
2.728, 5, 35.2157, 50.3644, -12.9878, 95.2416, -61.1424, 40.5923
2.732, 5, 35.2083, 50.3799, -12.9734, 95.2192, -61.2207, 40.5656
2.735, 5, 35.2008, 50.3953, -12.9589, 95.1967, -61.299, 40.5389
2.74, 5, 35.1933, 50.4107, -12.9444, 95.1742, -61.3773, 40.5123
2.744, 5, 35.1857, 50.426, -12.9297, 95.1516, -61.4556, 40.4857
2.748, 5, 35.1782, 50.4413, -12.915, 95.129, -61.5338, 40.4591
2.752, 5, 35.1706, 50.4565, -12.9002, 95.1063, -61.612, 40.4326
2.755, 5, 35.163, 50.4717, -12.8853, 95.0836, -61.6901, 40.406
2.76, 5, 35.1553, 50.4868, -12.8703, 95.0607, -61.7683, 40.3795
2.764, 5, 35.1477, 50.5018, -12.8552, 95.0379, -61.8464, 40.353
2.768, 5, 35.14, 50.5168, -12.84, 95.015, -61.9245, 40.3265
2.772, 5, 35.1323, 50.5317, -12.8247, 94.992, -62.0025, 40.3001
2.775, 5, 35.1245, 50.5466, -12.8094, 94.969, -62.0805, 40.2736
2.78, 5, 35.1167, 50.5614, -12.7939, 94.9459, -62.1585, 40.2472
2.784, 5, 35.1089, 50.5762, -12.7784, 94.9227, -62.2365, 40.2208
2.788, 5, 35.1011, 50.5909, -12.7628, 94.8995, -62.3144, 40.1944
2.791, 5, 35.0933, 50.6056, -12.7471, 94.8763, -62.3924, 40.1681
2.796, 5, 35.0854, 50.6202, -12.7313, 94.853, -62.4702, 40.1418
2.8, 5, 35.0775, 50.6347, -12.7154, 94.8296, -62.5481, 40.1154
2.804, 5, 35.0696, 50.6492, -12.6994, 94.8062, -62.6259, 40.0891
2.808, 5, 35.0616, 50.6636, -12.6834, 94.7828, -62.7037, 40.0629
2.811, 5, 35.0536, 50.678, -12.6672, 94.7593, -62.7815, 40.0366
2.816, 5, 35.0456, 50.6923, -12.651, 94.7357, -62.8593, 40.0103
2.82, 5, 35.0376, 50.7066, -12.6347, 94.7121, -62.937, 39.9841
2.824, 5, 35.0295, 50.7208, -12.6182, 94.6884, -63.0147, 39.9579
2.828, 5, 35.0215, 50.7349, -12.6018, 94.6647, -63.0923, 39.9317
2.831, 5, 35.0134, 50.749, -12.5852, 94.6409, -63.17, 39.9055
2.836, 5, 35.0052, 50.7631, -12.5685, 94.6171, -63.2476, 39.8794
2.84, 5, 34.9971, 50.7771, -12.5518, 94.5933, -63.3252, 39.8532
2.844, 5, 34.9889, 50.791, -12.535, 94.5694, -63.4028, 39.8271
2.847, 5, 34.9808, 50.8049, -12.5181, 94.5455, -63.4804, 39.8009
2.852, 5, 34.9726, 50.8187, -12.5012, 94.5216, -63.558, 39.7748
2.856, 5, 34.9643, 50.8325, -12.4842, 94.4977, -63.6355, 39.7487
2.86, 5, 34.9561, 50.8463, -12.4671, 94.4737, -63.7131, 39.7226
2.864, 5, 34.9478, 50.86, -12.45, 94.4498, -63.7906, 39.6965
2.867, 5, 34.9395, 50.8736, -12.4328, 94.4258, -63.8682, 39.6704
2.872, 5, 34.9312, 50.8873, -12.4156, 94.4018, -63.9457, 39.6443
2.876, 5, 34.9228, 50.9009, -12.3983, 94.3778, -64.0233, 39.6182
2.88, 5, 34.9145, 50.9144, -12.381, 94.3539, -64.1008, 39.5922
2.883, 5, 34.9061, 50.9279, -12.3637, 94.3299, -64.1784, 39.5661
2.888, 5, 34.8976, 50.9414, -12.3463, 94.306, -64.256, 39.54
2.892, 5, 34.8892, 50.9549, -12.3289, 94.2821, -64.3336, 39.5139
2.896, 5, 34.8807, 50.9684, -12.3115, 94.2582, -64.4112, 39.4878
2.9, 5, 34.8722, 50.9818, -12.294, 94.2343, -64.4888, 39.4618
2.903, 5, 34.8636, 50.9953, -12.2766, 94.2105, -64.5665, 39.4357
2.908, 5, 34.8551, 51.0087, -12.2591, 94.1867, -64.6441, 39.4096
2.912, 6, 34.8465, 51.0221, -12.2416, 94.1629, -64.7218, 39.3836
2.916, 6, 34.8379, 51.0355, -12.2241, 94.1391, -64.7995, 39.3575
2.92, 6, 34.8293, 51.0489, -12.2066, 94.1154, -64.8773, 39.3315
2.923, 6, 34.8206, 51.0623, -12.1891, 94.0917, -64.955, 39.3054
2.928, 6, 34.8119, 51.0757, -12.1716, 94.068, -65.0328, 39.2794
2.932, 6, 34.8032, 51.0891, -12.1541, 94.0443, -65.1105, 39.2533
2.936, 6, 34.7945, 51.1026, -12.1367, 94.0207, -65.1883, 39.2273
2.939, 6, 34.7858, 51.116, -12.1192, 93.9971, -65.2662, 39.2013
2.944, 6, 34.777, 51.1295, -12.1018, 93.9736, -65.344, 39.1753
2.948, 6, 34.7682, 51.143, -12.0845, 93.95, -65.4219, 39.1493
2.952, 6, 34.7594, 51.1566, -12.0671, 93.9265, -65.4998, 39.1234
2.956, 6, 34.7505, 51.1702, -12.0498, 93.9031, -65.5777, 39.0974
2.959, 6, 34.7416, 51.1838, -12.0325, 93.8796, -65.6556, 39.0715
2.964, 6, 34.7327, 51.1975, -12.0153, 93.8562, -65.7336, 39.0456
2.968, 6, 34.7238, 51.2112, -11.9982, 93.8329, -65.8116, 39.0197
2.972, 6, 34.7149, 51.225, -11.9811, 93.8095, -65.8896, 38.9938
2.976, 6, 34.7059, 51.2389, -11.964, 93.7862, -65.9676, 38.9679
2.98, 6, 34.6969, 51.2528, -11.947, 93.7629, -66.0457, 38.9421
2.984, 6, 34.6878, 51.2668, -11.9301, 93.7397, -66.1237, 38.9163
2.988, 6, 34.6788, 51.2808, -11.9132, 93.7165, -66.2018, 38.8905
2.992, 6, 34.6697, 51.2949, -11.8964, 93.6933, -66.28, 38.8647
2.995, 6, 34.6606, 51.3091, -11.8797, 93.6702, -66.3581, 38.839
3, 6, 34.6514, 51.3234, -11.8631, 93.647, -66.4363, 38.8133
3.004, 6, 34.6423, 51.3377, -11.8465, 93.6239, -66.5144, 38.7876
3.008, 6, 34.633, 51.3521, -11.83, 93.6009, -66.5926, 38.7619
3.012, 6, 34.6238, 51.3666, -11.8135, 93.5778, -66.6709, 38.7363
3.015, 6, 34.6145, 51.3811, -11.7971, 93.5548, -66.7491, 38.7107
3.02, 6, 34.6052, 51.3957, -11.7808, 93.5317, -66.8273, 38.6851
3.024, 6, 34.5959, 51.4104, -11.7645, 93.5087, -66.9056, 38.6595
3.028, 6, 34.5865, 51.4251, -11.7482, 93.4857, -66.9838, 38.634
3.031, 6, 34.5771, 51.4399, -11.732, 93.4627, -67.0621, 38.6085
3.036, 6, 34.5677, 51.4548, -11.7159, 93.4397, -67.1404, 38.583
3.04, 6, 34.5582, 51.4698, -11.6998, 93.4166, -67.2186, 38.5576
3.044, 6, 34.5487, 51.4848, -11.6837, 93.3936, -67.2969, 38.5322
3.048, 6, 34.5392, 51.4999, -11.6677, 93.3705, -67.3751, 38.5068
3.051, 6, 34.5296, 51.515, -11.6516, 93.3475, -67.4534, 38.4815
3.056, 6, 34.52, 51.5302, -11.6357, 93.3243, -67.5316, 38.4562
3.06, 6, 34.5104, 51.5455, -11.6197, 93.3012, -67.6098, 38.4309
3.064, 6, 34.5007, 51.5608, -11.6037, 93.2781, -67.688, 38.4057
3.068, 6, 34.4911, 51.5762, -11.5878, 93.2549, -67.7662, 38.3805
3.071, 6, 34.4813, 51.5916, -11.5719, 93.2317, -67.8444, 38.3553
3.076, 6, 34.4716, 51.6071, -11.556, 93.2084, -67.9226, 38.3302
3.08, 6, 34.4618, 51.6227, -11.5401, 93.1851, -68.0007, 38.3051
3.084, 6, 34.4519, 51.6383, -11.5243, 93.1618, -68.0789, 38.28
3.087, 6, 34.4421, 51.6539, -11.5084, 93.1385, -68.157, 38.255
3.092, 6, 34.4322, 51.6697, -11.4926, 93.1151, -68.2351, 38.23
3.096, 6, 34.4222, 51.6854, -11.4768, 93.0917, -68.3132, 38.205
3.1, 6, 34.4123, 51.7012, -11.461, 93.0683, -68.3913, 38.1801
3.104, 6, 34.4022, 51.7171, -11.4452, 93.0448, -68.4693, 38.1552
3.107, 6, 34.3922, 51.733, -11.4294, 93.0213, -68.5474, 38.1303
3.112, 6, 34.3821, 51.749, -11.4137, 92.9977, -68.6254, 38.1055
3.116, 6, 34.372, 51.765, -11.3979, 92.9742, -68.7034, 38.0807
3.12, 6, 34.3618, 51.7811, -11.3822, 92.9506, -68.7814, 38.0559
3.124, 6, 34.3516, 51.7973, -11.3665, 92.9269, -68.8594, 38.0312
3.128, 6, 34.3414, 51.8134, -11.3508, 92.9033, -68.9374, 38.0065
3.132, 6, 34.3312, 51.8297, -11.3351, 92.8796, -69.0154, 37.9818
3.136, 6, 34.3209, 51.846, -11.3195, 92.8558, -69.0933, 37.9572
3.14, 6, 34.3105, 51.8623, -11.3038, 92.8321, -69.1712, 37.9326
3.143, 6, 34.3001, 51.8787, -11.2882, 92.8083, -69.2491, 37.908
3.148, 6, 34.2897, 51.8952, -11.2726, 92.7844, -69.327, 37.8835
3.152, 6, 34.2793, 51.9117, -11.257, 92.7606, -69.4049, 37.859
3.156, 6, 34.2688, 51.9283, -11.2414, 92.7367, -69.4828, 37.8345
3.16, 6, 34.2583, 51.9449, -11.2259, 92.7128, -69.5606, 37.81
3.163, 6, 34.2477, 51.9615, -11.2103, 92.6888, -69.6385, 37.7856
3.168, 6, 34.2371, 51.9783, -11.1948, 92.6648, -69.7163, 37.7612
3.172, 6, 34.2265, 51.995, -11.1793, 92.6408, -69.7941, 37.7369
3.176, 6, 34.2158, 52.0118, -11.1638, 92.6168, -69.8719, 37.7126
3.179, 6, 34.2051, 52.0287, -11.1483, 92.5927, -69.9497, 37.6883
3.184, 6, 34.1944, 52.0456, -11.1328, 92.5686, -70.0275, 37.664
3.188, 6, 34.1836, 52.0626, -11.1173, 92.5444, -70.1052, 37.6398
3.192, 6, 34.1728, 52.0797, -11.1019, 92.5202, -70.1829, 37.6156
3.196, 6, 34.1619, 52.0967, -11.0865, 92.496, -70.2607, 37.5915
3.199, 6, 34.151, 52.1139, -11.0711, 92.4718, -70.3384, 37.5673
3.204, 6, 34.1401, 52.1311, -11.0557, 92.4475, -70.4161, 37.5432
3.208, 6, 34.1291, 52.1483, -11.0403, 92.4232, -70.4938, 37.5192
3.212, 6, 34.1181, 52.1656, -11.0249, 92.3989, -70.5714, 37.4951
3.216, 6, 34.1071, 52.1829, -11.0096, 92.3746, -70.6491, 37.4711
3.22, 6, 34.096, 52.2003, -10.9943, 92.3502, -70.7267, 37.4471
3.224, 6, 34.0849, 52.2178, -10.9789, 92.3258, -70.8043, 37.4232
3.228, 6, 34.0737, 52.2353, -10.9636, 92.3013, -70.882, 37.3993
3.232, 6, 34.0625, 52.2528, -10.9484, 92.2768, -70.9596, 37.3754
3.235, 6, 34.0513, 52.2704, -10.9331, 92.2523, -71.0371, 37.3515
3.24, 6, 34.04, 52.2881, -10.9178, 92.2278, -71.1147, 37.3277
3.244, 6, 34.0287, 52.3058, -10.9026, 92.2032, -71.1923, 37.3039
3.248, 6, 34.0174, 52.3236, -10.8874, 92.1786, -71.2698, 37.2801
3.252, 6, 34.006, 52.3414, -10.8722, 92.154, -71.3473, 37.2564
3.255, 6, 33.9946, 52.3592, -10.857, 92.1294, -71.4249, 37.2326
3.26, 6, 33.9831, 52.3771, -10.8418, 92.1047, -71.5023, 37.209
3.264, 6, 33.9716, 52.3951, -10.8267, 92.08, -71.5798, 37.1853
3.268, 6, 33.9601, 52.4131, -10.8115, 92.0552, -71.6573, 37.1617
3.272, 6, 33.9485, 52.4312, -10.7964, 92.0305, -71.7348, 37.1381
3.276, 6, 33.9369, 52.4493, -10.7813, 92.0057, -71.8122, 37.1145
3.28, 6, 33.9252, 52.4675, -10.7662, 91.9808, -71.8897, 37.0909
3.284, 6, 33.9136, 52.4857, -10.7511, 91.956, -71.9671, 37.0674
3.288, 6, 33.9018, 52.5039, -10.7361, 91.9311, -72.0445, 37.0439
3.291, 6, 33.8901, 52.5223, -10.721, 91.9062, -72.1219, 37.0205
3.296, 6, 33.8783, 52.5406, -10.706, 91.8812, -72.1993, 36.9971
3.3, 6, 33.8664, 52.5591, -10.691, 91.8562, -72.2766, 36.9736
3.304, 6, 33.8545, 52.5775, -10.676, 91.8312, -72.354, 36.9503
3.308, 6, 33.8426, 52.596, -10.661, 91.8062, -72.4313, 36.9269
3.312, 6, 33.8307, 52.6146, -10.646, 91.7812, -72.5086, 36.9036
3.316, 6, 33.8187, 52.6332, -10.6311, 91.7561, -72.586, 36.8803
3.32, 6, 33.8066, 52.6519, -10.6161, 91.7309, -72.6633, 36.857
3.324, 6, 33.7946, 52.6706, -10.6012, 91.7058, -72.7405, 36.8338
3.328, 6, 33.7825, 52.6894, -10.5863, 91.6806, -72.8178, 36.8106
3.332, 6, 33.7703, 52.7083, -10.5714, 91.6554, -72.8951, 36.7874
3.336, 6, 33.7581, 52.7271, -10.5566, 91.6302, -72.9723, 36.7642
3.34, 6, 33.7459, 52.7461, -10.5417, 91.6049, -73.0496, 36.7411
3.344, 6, 33.7336, 52.765, -10.5269, 91.5797, -73.1268, 36.718
3.347, 6, 33.7213, 52.7841, -10.5121, 91.5543, -73.204, 36.6949
3.352, 6, 33.709, 52.8031, -10.4973, 91.529, -73.2812, 36.6719
3.356, 6, 33.6966, 52.8223, -10.4825, 91.5036, -73.3584, 36.6488
3.36, 6, 33.6842, 52.8415, -10.4677, 91.4782, -73.4356, 36.6258
3.364, 6, 33.6717, 52.8607, -10.453, 91.4528, -73.5127, 36.6029
3.368, 6, 33.6592, 52.88, -10.4382, 91.4274, -73.5899, 36.5799
3.372, 6, 33.6466, 52.8993, -10.4235, 91.4019, -73.667, 36.557
3.376, 6, 33.6341, 52.9187, -10.4088, 91.3764, -73.7441, 36.5341
3.38, 6, 33.6214, 52.9381, -10.3941, 91.3508, -73.8212, 36.5112
3.383, 6, 33.6088, 52.9576, -10.3794, 91.3253, -73.8983, 36.4884
3.388, 6, 33.5961, 52.9771, -10.3648, 91.2997, -73.9754, 36.4655
3.392, 6, 33.5833, 52.9967, -10.3501, 91.2741, -74.0525, 36.4428
3.396, 6, 33.5706, 53.0163, -10.3355, 91.2484, -74.1295, 36.42
3.4, 6, 33.5577, 53.036, -10.3209, 91.2228, -74.2066, 36.3972
3.403, 6, 33.5449, 53.0557, -10.3063, 91.1971, -74.2836, 36.3745
3.408, 6, 33.532, 53.0755, -10.2917, 91.1714, -74.3606, 36.3518
3.412, 6, 33.519, 53.0954, -10.2772, 91.1456, -74.4377, 36.3291
3.416, 6, 33.5061, 53.1152, -10.2626, 91.1198, -74.5146, 36.3065
3.42, 6, 33.493, 53.1352, -10.2481, 91.094, -74.5916, 36.2839
3.424, 6, 33.48, 53.1551, -10.2336, 91.0682, -74.6686, 36.2613
3.428, 6, 33.4669, 53.1752, -10.2191, 91.0424, -74.7456, 36.2387
3.432, 6, 33.4537, 53.1953, -10.2046, 91.0165, -74.8225, 36.2161
3.436, 6, 33.4406, 53.2154, -10.1902, 90.9906, -74.8995, 36.1936
3.439, 6, 33.4273, 53.2356, -10.1757, 90.9647, -74.9764, 36.1711
3.444, 6, 33.4141, 53.2558, -10.1613, 90.9387, -75.0533, 36.1486
3.448, 6, 33.4008, 53.2761, -10.1469, 90.9127, -75.1302, 36.1262
3.452, 6, 33.3874, 53.2964, -10.1325, 90.8867, -75.2071, 36.1037
3.456, 6, 33.3741, 53.3168, -10.1181, 90.8607, -75.284, 36.0813
3.46, 6, 33.3606, 53.3372, -10.1038, 90.8346, -75.3608, 36.0589
3.464, 6, 33.3472, 53.3577, -10.0894, 90.8085, -75.4377, 36.0366
3.468, 6, 33.3337, 53.3782, -10.0751, 90.7824, -75.5145, 36.0142
3.472, 6, 33.3201, 53.3988, -10.0608, 90.7563, -75.5914, 35.9919
3.476, 6, 33.3065, 53.4194, -10.0465, 90.7301, -75.6682, 35.9696
3.48, 6, 33.2929, 53.4401, -10.0322, 90.7039, -75.745, 35.9473
3.484, 6, 33.2792, 53.4608, -10.018, 90.6777, -75.8218, 35.9251
3.488, 6, 33.2655, 53.4815, -10.0038, 90.6514, -75.8986, 35.9029
3.492, 6, 33.2518, 53.5024, -9.98953, 90.6252, -75.9754, 35.8807
3.495, 6, 33.238, 53.5232, -9.97533, 90.5989, -76.0521, 35.8585
3.5, 6, 33.2242, 53.5441, -9.96114, 90.5726, -76.1289, 35.8363
3.504, 6, 33.2103, 53.5651, -9.94697, 90.5462, -76.2056, 35.8142
3.508, 6, 33.1964, 53.5861, -9.93283, 90.5199, -76.2823, 35.7921
3.512, 6, 33.1824, 53.6072, -9.91869, 90.4935, -76.3591, 35.77
3.516, 6, 33.1684, 53.6283, -9.90458, 90.467, -76.4358, 35.7479
3.52, 6, 33.1544, 53.6495, -9.89048, 90.4406, -76.5125, 35.7259
3.524, 6, 33.1403, 53.6707, -9.8764, 90.4141, -76.5892, 35.7038
3.528, 6, 33.1262, 53.6919, -9.86233, 90.3876, -76.6658, 35.6818
3.531, 6, 33.112, 53.7132, -9.84829, 90.3611, -76.7425, 35.6598
3.536, 6, 33.0978, 53.7346, -9.83426, 90.3346, -76.8192, 35.6379
3.54, 6, 33.0836, 53.756, -9.82025, 90.308, -76.8958, 35.6159
3.544, 6, 33.0693, 53.7774, -9.80626, 90.2814, -76.9724, 35.594
3.548, 6, 33.055, 53.7989, -9.79228, 90.2548, -77.0491, 35.5721
3.552, 6, 33.0406, 53.8205, -9.77833, 90.2281, -77.1257, 35.5502
3.556, 6, 33.0262, 53.8421, -9.76439, 90.2014, -77.2023, 35.5284
3.56, 6, 33.0118, 53.8637, -9.75047, 90.1747, -77.2789, 35.5065
3.564, 6, 32.9973, 53.8854, -9.73656, 90.148, -77.3555, 35.4847
3.568, 6, 32.9828, 53.9071, -9.72267, 90.1213, -77.432, 35.4629
3.572, 6, 32.9685, 53.9287, -9.7088, 90.0945, -77.5086, 35.4411
3.576, 6, 32.9546, 53.95, -9.69493, 90.0677, -77.5851, 35.4194
3.58, 6, 32.9412, 53.9708, -9.68107, 90.041, -77.6615, 35.3977
3.584, 6, 32.9286, 53.9907, -9.66724, 90.0143, -77.7376, 35.3761
3.587, 6, 32.9167, 54.0096, -9.65347, 89.9877, -77.8133, 35.3546
3.592, 6, 32.9055, 54.0275, -9.63981, 89.9614, -77.8882, 35.3334
3.596, 6, 32.8949, 54.0443, -9.62634, 89.9355, -77.9619, 35.3125
3.6, 6, 32.8848, 54.0602, -9.61315, 89.9101, -78.034, 35.2921
3.604, 6, 32.8751, 54.0753, -9.60034, 89.8855, -78.1039, 35.2724
3.608, 6, 32.8657, 54.0897, -9.58804, 89.8618, -78.1711, 35.2534
3.612, 6, 32.8566, 54.1035, -9.57634, 89.8392, -78.2351, 35.2353
3.616, 6, 32.848, 54.1167, -9.56534, 89.818, -78.2952, 35.2183
3.62, 6, 32.8397, 54.1293, -9.55516, 89.7983, -78.3509, 35.2026
3.624, 6, 32.8317, 54.1414, -9.54589, 89.7803, -78.4019, 35.1882
3.628, 6, 32.8239, 54.1532, -9.53758, 89.7641, -78.4478, 35.1753
3.632, 6, 32.8163, 54.1646, -9.53029, 89.7497, -78.4884, 35.1638
3.636, 6, 32.8088, 54.1757, -9.52403, 89.7372, -78.5237, 35.1539
3.64, 6, 32.8015, 54.1865, -9.51876, 89.7266, -78.5538, 35.1454
3.644, 6, 32.7945, 54.197, -9.51442, 89.7177, -78.579, 35.1383
3.648, 6, 32.7878, 54.207, -9.51094, 89.7103, -78.5995, 35.1325
3.652, 6, 32.7816, 54.2163, -9.50821, 89.7045, -78.6161, 35.1278
3.656, 6, 32.7758, 54.225, -9.50612, 89.6999, -78.629, 35.1242
3.66, 6, 32.7705, 54.2327, -9.50458, 89.6964, -78.6389, 35.1214
3.664, 6, 32.7656, 54.2395, -9.50347, 89.6938, -78.6463, 35.1193
3.668, 6, 32.7613, 54.2453, -9.5027, 89.6919, -78.6517, 35.1178
3.672, 6, 32.7576, 54.25, -9.50218, 89.6905, -78.6555, 35.1167
3.676, 7, 32.7545, 54.2536, -9.50183, 89.6895, -78.6582, 35.1159
3.679, 7, 32.7521, 54.2563, -9.50161, 89.6889, -78.6601, 35.1154
3.684, 7, 32.7504, 54.2582, -9.50146, 89.6884, -78.6613, 35.115
3.688, 7, 32.7491, 54.2595, -9.50136, 89.6881, -78.6622, 35.1148
3.692, 7, 32.7483, 54.2604, -9.5013, 89.6879, -78.6628, 35.1146
3.696, 7, 32.7477, 54.261, -9.50125, 89.6878, -78.6632, 35.1145
3.7, 7, 32.7473, 54.2614, -9.50122, 89.6877, -78.6634, 35.1144
3.704, 7, 32.7471, 54.2617, -9.5012, 89.6876, -78.6636, 35.1144
3.708, 7, 32.7469, 54.2619, -9.50118, 89.6876, -78.6637, 35.1144
3.712, 7, 32.7468, 54.262, -9.50117, 89.6876, -78.6638, 35.1143
3.716, 7, 32.7467, 54.2621, -9.50117, 89.6875, -78.6638, 35.1143
3.72, 7, 32.7466, 54.2622, -9.50116, 89.6875, -78.6639, 35.1143
3.724, 7, 32.7466, 54.2622, -9.50116, 89.6875, -78.6639, 35.1143
3.728, 7, 32.7466, 54.2623, -9.50116, 89.6875, -78.6639, 35.1143
3.732, 7, 32.7465, 54.2623, -9.50116, 89.6875, -78.6639, 35.1143
3.735, 7, 32.7465, 54.2623, -9.50116, 89.6875, -78.664, 35.1143
3.74, 7, 32.7465, 54.2623, -9.50116, 89.6875, -78.664, 35.1143
3.744, 7, 32.7465, 54.2623, -9.50116, 89.6875, -78.664, 35.1143
3.748, 7, 32.7465, 54.2623, -9.50116, 89.6875, -78.664, 35.1143
3.752, 7, 32.7465, 54.2623, -9.50115, 89.6875, -78.664, 35.1143
3.756, 7, 32.7465, 54.2623, -9.50115, 89.6875, -78.664, 35.1143
3.76, 7, 32.7465, 54.2623, -9.50115, 89.6875, -78.664, 35.1143
3.764, 7, 32.7465, 54.2623, -9.50115, 89.6875, -78.664, 35.1143
3.768, 7, 32.7465, 54.2623, -9.50115, 89.6875, -78.664, 35.1143
3.772, 7, 32.7465, 54.2623, -9.50115, 89.6875, -78.664, 35.1143
3.776, 7, 32.7465, 54.2623, -9.50115, 89.6875, -78.664, 35.1143
3.78, 7, 32.7465, 54.2623, -9.50115, 89.6875, -78.664, 35.1143
3.784, 7, 32.7465, 54.2623, -9.50115, 89.6875, -78.664, 35.1143
3.788, 7, 32.7465, 54.2623, -9.50115, 89.6875, -78.664, 35.1143
3.792, 7, 32.7465, 54.2623, -9.50115, 89.6875, -78.664, 35.1143
