hehonglu123/ABB_Primitive_Study/execution/movec+movel_smooth/curve_exe_v500_z1.csv
timestamp, cmd_num, J1, J2, J3, J4, J5, J6
0, -1, 32.7465, 54.2623, -9.50115, 89.6875, -78.664, 35.1143
0.003, -1, 32.7465, 54.2623, -9.50115, 89.6875, -78.664, 35.1143
0.006, -1, 32.7465, 54.2623, -9.50115, 89.6875, -78.664, 35.1143
0.008, -1, 32.7465, 54.2623, -9.50115, 89.6875, -78.664, 35.1143
0.011, -1, 32.7465, 54.2623, -9.50115, 89.6875, -78.664, 35.1143
0.016, -1, 32.7465, 54.2623, -9.50115, 89.6875, -78.664, 35.1143
0.02, -1, 32.7465, 54.2623, -9.50115, 89.6875, -78.664, 35.1143
0.024, -1, 32.7465, 54.2623, -9.50115, 89.6875, -78.664, 35.1143
0.028, -1, 32.7465, 54.2623, -9.50115, 89.6875, -78.664, 35.1143
0.032, -1, 32.7465, 54.2623, -9.50115, 89.6875, -78.664, 35.1143
0.036, -1, 32.7466, 54.2623, -9.50115, 89.6875, -78.664, 35.1143
0.04, -1, 32.7467, 54.2621, -9.50116, 89.6875, -78.664, 35.1143
0.044, -1, 32.7471, 54.2618, -9.50116, 89.6875, -78.6639, 35.1143
0.048, -1, 32.7479, 54.2611, -9.50118, 89.6876, -78.6638, 35.1144
0.052, -1, 32.7491, 54.2598, -9.50124, 89.6877, -78.6634, 35.1145
0.056, -1, 32.7507, 54.2577, -9.50136, 89.6879, -78.6626, 35.1147
0.06, -1, 32.7529, 54.2547, -9.50159, 89.6883, -78.6611, 35.1152
0.064, -1, 32.7556, 54.2507, -9.502, 89.689, -78.6586, 35.1161
0.068, -1, 32.7588, 54.2455, -9.50267, 89.6902, -78.6545, 35.1174
0.072, -1, 32.7625, 54.2391, -9.5037, 89.692, -78.6482, 35.1195
0.076, -1, 32.7668, 54.2314, -9.50521, 89.6946, -78.6391, 35.1225
0.08, -1, 32.7718, 54.2224, -9.50734, 89.6982, -78.6262, 35.1267
0.084, -1, 32.7776, 54.212, -9.51024, 89.7032, -78.6088, 35.1325
0.088, -1, 32.784, 54.2002, -9.5141, 89.7098, -78.5857, 35.1401
0.092, -1, 32.7912, 54.1873, -9.51908, 89.7183, -78.5559, 35.1499
0.096, -1, 32.7988, 54.1733, -9.52538, 89.729, -78.5183, 35.1622
0.1, -1, 32.8067, 54.1585, -9.53315, 89.7422, -78.472, 35.1774
0.104, -1, 32.815, 54.143, -9.54252, 89.7581, -78.4163, 35.1957
0.108, -1, 32.8235, 54.1267, -9.55357, 89.7769, -78.3507, 35.2173
0.112, -1, 32.8324, 54.1096, -9.56636, 89.7986, -78.2748, 35.2423
0.116, -1, 32.8415, 54.0916, -9.58087, 89.8232, -78.1888, 35.2705
0.12, -1, 32.8511, 54.0725, -9.59706, 89.8507, -78.0929, 35.3021
0.124, -1, 32.8611, 54.0525, -9.61485, 89.8808, -77.9875, 35.3367
0.128, -1, 32.8716, 54.0317, -9.63411, 89.9134, -77.8735, 35.3742
0.131, -1, 32.8823, 54.0101, -9.65471, 89.9483, -77.7516, 35.4142
0.136, -1, 32.8932, 53.9877, -9.67648, 89.9852, -77.6227, 35.4566
0.139, -1, 32.9045, 53.9644, -9.69923, 90.0237, -77.4881, 35.5008
0.144, -1, 32.9163, 53.9399, -9.72278, 90.0636, -77.3487, 35.5466
0.148, -1, 32.9288, 53.914, -9.74695, 90.1045, -77.2057, 35.5936
0.152, -1, 32.942, 53.8866, -9.77157, 90.1462, -77.0599, 35.6415
0.156, -1, 32.9561, 53.8575, -9.79651, 90.1885, -76.9123, 35.6901
0.16, -1, 32.9711, 53.8271, -9.82165, 90.231, -76.7634, 35.739
0.164, -1, 32.9869, 53.7955, -9.84692, 90.2739, -76.6137, 35.7882
0.168, -1, 33.0032, 53.7631, -9.87226, 90.3168, -76.4636, 35.8375
0.172, -1, 33.02, 53.7302, -9.89762, 90.3598, -76.3133, 35.8869
0.176, -1, 33.037, 53.6969, -9.92299, 90.4028, -76.163, 35.9363
0.18, -1, 33.0541, 53.6634, -9.94833, 90.4457, -76.0128, 35.9857
0.184, -1, 33.0714, 53.6298, -9.97365, 90.4886, -75.8628, 36.035
0.188, -1, 33.0888, 53.5962, -9.99894, 90.5315, -75.713, 36.0842
0.192, -1, 33.1061, 53.5625, -10.0242, 90.5743, -75.5634, 36.1334
0.196, -1, 33.1235, 53.5289, -10.0494, 90.617, -75.4141, 36.1825
0.2, -1, 33.1409, 53.4952, -10.0745, 90.6596, -75.265, 36.2315
0.204, -1, 33.1582, 53.4616, -10.0996, 90.7021, -75.1163, 36.2804
0.208, -1, 33.1755, 53.4281, -10.1247, 90.7446, -74.9678, 36.3292
0.212, -1, 33.1928, 53.3946, -10.1497, 90.787, -74.8197, 36.3779
0.216, -1, 33.2101, 53.3612, -10.1746, 90.8292, -74.6718, 36.4265
0.22, -1, 33.2273, 53.3278, -10.1995, 90.8714, -74.5242, 36.475
0.224, -1, 33.2446, 53.2945, -10.2244, 90.9136, -74.377, 36.5234
0.228, -1, 33.2617, 53.2613, -10.2492, 90.9556, -74.23, 36.5717
0.232, -1, 33.2789, 53.2282, -10.2739, 90.9975, -74.0834, 36.6199
0.236, -1, 33.296, 53.1951, -10.2986, 91.0394, -73.937, 36.668
0.24, -1, 33.313, 53.162, -10.3233, 91.0812, -73.7909, 36.716
0.244, -1, 33.3301, 53.1291, -10.3479, 91.1229, -73.6451, 36.7639
0.248, -1, 33.3471, 53.0962, -10.3724, 91.1645, -73.4996, 36.8117
0.252, -1, 33.364, 53.0633, -10.3969, 91.206, -73.3544, 36.8595
0.256, -1, 33.381, 53.0306, -10.4214, 91.2474, -73.2095, 36.9071
0.26, -1, 33.3979, 52.9979, -10.4458, 91.2888, -73.0649, 36.9546
0.264, -1, 33.4147, 52.9652, -10.4701, 91.3301, -72.9206, 37.0021
0.268, -1, 33.4316, 52.9327, -10.4944, 91.3713, -72.7765, 37.0494
0.272, -1, 33.4484, 52.9002, -10.5187, 91.4124, -72.6327, 37.0967
0.276, -1, 33.4651, 52.8677, -10.5429, 91.4534, -72.4893, 37.1438
0.28, -1, 33.4819, 52.8353, -10.5671, 91.4944, -72.346, 37.1909
0.284, -1, 33.4986, 52.803, -10.5912, 91.5353, -72.2031, 37.2379
0.288, -1, 33.5152, 52.7708, -10.6153, 91.5761, -72.0604, 37.2848
0.292, -1, 33.5319, 52.7386, -10.6393, 91.6168, -71.9181, 37.3316
0.296, -1, 33.5485, 52.7065, -10.6633, 91.6574, -71.776, 37.3783
0.3, -1, 33.5651, 52.6744, -10.6872, 91.698, -71.6341, 37.4249
0.304, -1, 33.5816, 52.6424, -10.7111, 91.7385, -71.4925, 37.4714
0.308, -1, 33.5981, 52.6104, -10.7349, 91.7789, -71.3513, 37.5179
0.312, -1, 33.6146, 52.5785, -10.7587, 91.8192, -71.2102, 37.5642
0.316, -1, 33.631, 52.5467, -10.7825, 91.8595, -71.0695, 37.6105
0.32, -1, 33.6474, 52.5149, -10.8062, 91.8997, -70.929, 37.6567
0.324, -1, 33.6638, 52.4832, -10.8299, 91.9398, -70.7887, 37.7028
0.328, -1, 33.6802, 52.4516, -10.8535, 91.9798, -70.6488, 37.7488
0.332, -1, 33.6965, 52.42, -10.8771, 92.0198, -70.509, 37.7947
0.336, -1, 33.7128, 52.3885, -10.9006, 92.0597, -70.3696, 37.8405
0.34, -1, 33.7291, 52.357, -10.9241, 92.0995, -70.2304, 37.8863
0.344, -1, 33.7453, 52.3256, -10.9475, 92.1392, -70.0914, 37.9319
0.348, -1, 33.7615, 52.2942, -10.9709, 92.1789, -69.9528, 37.9775
0.352, -1, 33.7777, 52.2629, -10.9943, 92.2185, -69.8143, 38.023
0.356, -1, 33.7938, 52.2317, -11.0176, 92.258, -69.6762, 38.0685
0.36, -1, 33.8099, 52.2005, -11.0409, 92.2974, -69.5382, 38.1138
0.364, -1, 33.826, 52.1694, -11.0641, 92.3368, -69.4006, 38.159
0.368, -1, 33.8421, 52.1383, -11.0873, 92.3761, -69.2631, 38.2042
0.372, -1, 33.8581, 52.1073, -11.1104, 92.4153, -69.126, 38.2493
0.376, -1, 33.8741, 52.0763, -11.1336, 92.4545, -68.989, 38.2943
0.38, -1, 33.8901, 52.0454, -11.1566, 92.4936, -68.8523, 38.3392
0.384, -1, 33.906, 52.0146, -11.1796, 92.5326, -68.7159, 38.3841
0.388, -1, 33.9219, 51.9838, -11.2026, 92.5716, -68.5797, 38.4288
0.392, -1, 33.9378, 51.953, -11.2256, 92.6104, -68.4437, 38.4735
0.396, -1, 33.9537, 51.9224, -11.2485, 92.6493, -68.308, 38.5181
0.4, -1, 33.9695, 51.8917, -11.2713, 92.688, -68.1725, 38.5627
0.404, -1, 33.9853, 51.8611, -11.2942, 92.7267, -68.0373, 38.6071
0.408, -1, 34.0011, 51.8306, -11.3169, 92.7653, -67.9023, 38.6515
0.412, -1, 34.0168, 51.8002, -11.3397, 92.8038, -67.7675, 38.6958
0.416, -1, 34.0326, 51.7697, -11.3624, 92.8423, -67.633, 38.74
0.42, -1, 34.0483, 51.7394, -11.385, 92.8807, -67.4987, 38.7842
0.424, -1, 34.0639, 51.7091, -11.4077, 92.9191, -67.3646, 38.8282
0.428, -1, 34.0796, 51.6788, -11.4302, 92.9574, -67.2307, 38.8722
0.432, -1, 34.0952, 51.6486, -11.4528, 92.9956, -67.0971, 38.9161
0.436, -1, 34.1108, 51.6184, -11.4753, 93.0337, -66.9637, 38.96
0.44, -1, 34.1263, 51.5883, -11.4978, 93.0718, -66.8306, 39.0038
0.444, -1, 34.1418, 51.5583, -11.5202, 93.1098, -66.6976, 39.0474
0.448, -1, 34.1573, 51.5282, -11.5426, 93.1478, -66.5649, 39.0911
0.452, -1, 34.1728, 51.4983, -11.565, 93.1857, -66.4324, 39.1346
0.456, -1, 34.1883, 51.4684, -11.5873, 93.2235, -66.3002, 39.1781
0.46, -1, 34.2037, 51.4385, -11.6096, 93.2613, -66.1681, 39.2215
0.464, -1, 34.2191, 51.4087, -11.6318, 93.299, -66.0363, 39.2648
0.468, -1, 34.2345, 51.379, -11.654, 93.3366, -65.9047, 39.3081
0.472, -1, 34.2498, 51.3493, -11.6762, 93.3742, -65.7733, 39.3513
0.476, -1, 34.2652, 51.3196, -11.6983, 93.4117, -65.6421, 39.3944
0.48, -1, 34.2805, 51.29, -11.7204, 93.4492, -65.5111, 39.4374
0.484, -1, 34.2957, 51.2604, -11.7425, 93.4865, -65.3804, 39.4804
0.488, -1, 34.311, 51.2309, -11.7645, 93.5239, -65.2498, 39.5233
0.492, -1, 34.3262, 51.2014, -11.7865, 93.5611, -65.1195, 39.5662
0.496, -1, 34.3414, 51.172, -11.8085, 93.5984, -64.9894, 39.6089
0.5, -1, 34.3566, 51.1426, -11.8304, 93.6355, -64.8595, 39.6516
0.504, -1, 34.3718, 51.1133, -11.8523, 93.6726, -64.7298, 39.6943
0.508, -1, 34.3869, 51.084, -11.8741, 93.7096, -64.6003, 39.7368
0.512, -1, 34.402, 51.0548, -11.8959, 93.7466, -64.471, 39.7793
0.516, -1, 34.4171, 51.0256, -11.9177, 93.7835, -64.3419, 39.8217
0.52, -1, 34.4321, 50.9965, -11.9395, 93.8204, -64.213, 39.8641
0.524, -1, 34.4472, 50.9674, -11.9612, 93.8572, -64.0844, 39.9064
0.528, -1, 34.4622, 50.9384, -11.9828, 93.8939, -63.9559, 39.9486
0.532, -1, 34.4771, 50.9094, -12.0045, 93.9306, -63.8276, 39.9908
0.536, -1, 34.4921, 50.8804, -12.0261, 93.9672, -63.6996, 40.0329
0.54, -1, 34.507, 50.8515, -12.0477, 94.0038, -63.5717, 40.0749
0.544, -1, 34.522, 50.8226, -12.0692, 94.0403, -63.444, 40.1169
0.548, -1, 34.5369, 50.7938, -12.0907, 94.0768, -63.3166, 40.1588
0.552, -1, 34.5517, 50.765, -12.1122, 94.1132, -63.1893, 40.2006
0.556, -1, 34.5666, 50.7363, -12.1337, 94.1495, -63.0622, 40.2424
0.56, -1, 34.5814, 50.7076, -12.1551, 94.1858, -62.9353, 40.2841
0.564, -1, 34.5962, 50.679, -12.1764, 94.2221, -62.8086, 40.3257
0.568, -1, 34.611, 50.6504, -12.1978, 94.2582, -62.6821, 40.3673
0.572, -1, 34.6257, 50.6218, -12.2191, 94.2943, -62.5558, 40.4088
0.576, -1, 34.6405, 50.5933, -12.2404, 94.3304, -62.4297, 40.4502
0.58, -1, 34.6552, 50.5648, -12.2616, 94.3664, -62.3038, 40.4916
0.584, -1, 34.6699, 50.5364, -12.2828, 94.4024, -62.1781, 40.533
0.588, -1, 34.6845, 50.508, -12.304, 94.4383, -62.0525, 40.5742
0.592, -1, 34.6992, 50.4797, -12.3252, 94.4741, -61.9272, 40.6154
0.596, -1, 34.7138, 50.4514, -12.3463, 94.5099, -61.802, 40.6566
0.6, -1, 34.7284, 50.4231, -12.3674, 94.5457, -61.677, 40.6977
0.604, -1, 34.743, 50.3949, -12.3884, 94.5814, -61.5522, 40.7387
0.608, -1, 34.7575, 50.3667, -12.4095, 94.617, -61.4276, 40.7796
0.612, -1, 34.7721, 50.3386, -12.4305, 94.6526, -61.3032, 40.8205
0.616, -1, 34.7866, 50.3105, -12.4514, 94.6881, -61.1789, 40.8614
0.62, -1, 34.8011, 50.2824, -12.4724, 94.7236, -61.0548, 40.9022
0.624, -1, 34.8155, 50.2544, -12.4933, 94.7591, -60.931, 40.9429
0.628, -1, 34.83, 50.2265, -12.5142, 94.7944, -60.8073, 40.9835
0.632, -1, 34.8444, 50.1985, -12.535, 94.8298, -60.6837, 41.0241
0.636, -1, 34.8588, 50.1707, -12.5558, 94.865, -60.5604, 41.0647
0.64, -1, 34.8732, 50.1428, -12.5766, 94.9003, -60.4372, 41.1052
0.644, -1, 34.8876, 50.115, -12.5973, 94.9354, -60.3142, 41.1456
0.648, -1, 34.9019, 50.0872, -12.6181, 94.9706, -60.1914, 41.1859
0.652, -1, 34.9163, 50.0595, -12.6388, 95.0056, -60.0688, 41.2263
0.656, -1, 34.9306, 50.0318, -12.6594, 95.0407, -59.9463, 41.2665
0.66, -1, 34.9449, 50.0042, -12.6801, 95.0756, -59.824, 41.3067
0.664, -1, 34.9591, 49.9766, -12.7007, 95.1106, -59.7019, 41.3468
0.668, -1, 34.9734, 49.949, -12.7212, 95.1454, -59.58, 41.3869
0.672, -1, 34.9876, 49.9215, -12.7418, 95.1803, -59.4582, 41.427
0.676, -1, 35.0018, 49.894, -12.7623, 95.215, -59.3366, 41.4669
0.68, -1, 35.016, 49.8665, -12.7828, 95.2498, -59.2151, 41.5068
0.684, -1, 35.0301, 49.8391, -12.8033, 95.2844, -59.0939, 41.5467
0.688, -1, 35.0443, 49.8117, -12.8237, 95.3191, -58.9728, 41.5865
0.692, -1, 35.0584, 49.7844, -12.8441, 95.3537, -58.8519, 41.6262
0.696, -1, 35.0725, 49.7571, -12.8645, 95.3882, -58.7311, 41.6659
0.7, -1, 35.0866, 49.7298, -12.8848, 95.4227, -58.6105, 41.7056
0.704, -1, 35.1007, 49.7026, -12.9051, 95.4571, -58.4901, 41.7451
0.708, -1, 35.1147, 49.6754, -12.9254, 95.4915, -58.3698, 41.7847
0.712, -1, 35.1288, 49.6482, -12.9457, 95.5259, -58.2497, 41.8241
0.716, -1, 35.1428, 49.6211, -12.9659, 95.5602, -58.1298, 41.8636
0.72, -1, 35.1568, 49.5941, -12.9862, 95.5944, -58.01, 41.9029
0.724, -1, 35.1707, 49.567, -13.0063, 95.6286, -57.8904, 41.9422
0.728, -1, 35.1847, 49.54, -13.0265, 95.6628, -57.771, 41.9815
0.732, -1, 35.1986, 49.513, -13.0466, 95.6969, -57.6517, 42.0207
0.736, -1, 35.2125, 49.4861, -13.0667, 95.731, -57.5326, 42.0599
0.74, -1, 35.2264, 49.4592, -13.0868, 95.765, -57.4136, 42.099
0.744, -1, 35.2403, 49.4324, -13.1068, 95.799, -57.2948, 42.138
0.748, -1, 35.2542, 49.4055, -13.1269, 95.8329, -57.1762, 42.177
0.752, -1, 35.268, 49.3787, -13.1468, 95.8668, -57.0577, 42.2159
0.756, -1, 35.2818, 49.352, -13.1668, 95.9006, -56.9394, 42.2548
0.76, -1, 35.2956, 49.3253, -13.1868, 95.9344, -56.8212, 42.2937
0.764, -1, 35.3094, 49.2986, -13.2067, 95.9682, -56.7032, 42.3325
0.768, -1, 35.3232, 49.272, -13.2266, 96.0019, -56.5854, 42.3712
0.772, -1, 35.3369, 49.2453, -13.2464, 96.0355, -56.4676, 42.4099
0.776, -1, 35.3507, 49.2188, -13.2663, 96.0692, -56.3501, 42.4485
0.78, -1, 35.3644, 49.1922, -13.2861, 96.1027, -56.2327, 42.4871
0.784, -1, 35.3781, 49.1657, -13.3058, 96.1363, -56.1155, 42.5257
0.788, -1, 35.3917, 49.1392, -13.3256, 96.1698, -55.9984, 42.5641
0.792, -1, 35.4054, 49.1128, -13.3453, 96.2032, -55.8814, 42.6026
0.796, -1, 35.4191, 49.0864, -13.365, 96.2366, -55.7646, 42.641
0.8, -1, 35.4327, 49.06, -13.3847, 96.27, -55.648, 42.6793
0.804, -1, 35.4463, 49.0337, -13.4044, 96.3033, -55.5315, 42.7176
0.808, -1, 35.4599, 49.0074, -13.424, 96.3365, -55.4151, 42.7558
0.812, -1, 35.4734, 48.9811, -13.4436, 96.3698, -55.2989, 42.794
0.816, -1, 35.487, 48.9549, -13.4632, 96.403, -55.1829, 42.8322
0.82, -1, 35.5005, 48.9287, -13.4828, 96.4361, -55.067, 42.8703
0.824, -1, 35.5141, 48.9025, -13.5023, 96.4692, -54.9512, 42.9083
0.828, -1, 35.5276, 48.8764, -13.5218, 96.5023, -54.8356, 42.9463
0.832, -1, 35.5411, 48.8503, -13.5413, 96.5353, -54.7201, 42.9843
0.836, -1, 35.5545, 48.8242, -13.5608, 96.5683, -54.6048, 43.0222
0.84, -1, 35.568, 48.7981, -13.5802, 96.6012, -54.4896, 43.06
0.844, -1, 35.5814, 48.7721, -13.5996, 96.6341, -54.3746, 43.0979
0.848, -1, 35.5949, 48.7461, -13.619, 96.667, -54.2597, 43.1356
0.852, -1, 35.6083, 48.7202, -13.6384, 96.6998, -54.1449, 43.1733
0.856, -1, 35.6216, 48.6943, -13.6577, 96.7326, -54.0303, 43.211
0.86, -1, 35.635, 48.6684, -13.677, 96.7654, -53.9158, 43.2486
0.864, -1, 35.6483, 48.6426, -13.6963, 96.798, -53.8015, 43.2862
0.868, -1, 35.6616, 48.6169, -13.7156, 96.8307, -53.6873, 43.3238
0.872, -1, 35.6747, 48.5912, -13.7348, 96.8633, -53.5732, 43.3612
0.876, -1, 35.6878, 48.5656, -13.754, 96.8959, -53.4594, 43.3987
0.88, -1, 35.7008, 48.5402, -13.7732, 96.9284, -53.3457, 43.436
0.884, -1, 35.7135, 48.515, -13.7924, 96.9608, -53.2323, 43.4733
0.888, -1, 35.726, 48.4902, -13.8115, 96.9932, -53.1192, 43.5105
0.892, -1, 35.738, 48.466, -13.8305, 97.0254, -53.0066, 43.5475
0.896, -1, 35.7494, 48.4426, -13.8494, 97.0574, -52.8946, 43.5843
0.9, -1, 35.7603, 48.4201, -13.8682, 97.0892, -52.7836, 43.6208
0.904, -1, 35.7705, 48.3986, -13.8867, 97.1205, -52.6741, 43.6568
0.908, -1, 35.7802, 48.3781, -13.9049, 97.1513, -52.5665, 43.6922
0.912, -1, 35.7894, 48.3586, -13.9227, 97.1813, -52.4615, 43.7267
0.916, -1, 35.7982, 48.3399, -13.9399, 97.2104, -52.3599, 43.7602
0.92, -1, 35.8067, 48.3221, -13.9564, 97.2383, -52.2624, 43.7923
0.924, -1, 35.8148, 48.3051, -13.9721, 97.2649, -52.1697, 43.8228
0.928, -1, 35.8225, 48.2891, -13.9869, 97.2898, -52.0824, 43.8514
0.932, -1, 35.8299, 48.274, -14.0006, 97.313, -52.0014, 43.8781
0.936, -1, 35.837, 48.2597, -14.0132, 97.3343, -51.927, 43.9026
0.94, -1, 35.8438, 48.2461, -14.0246, 97.3535, -51.8598, 43.9247
0.944, -1, 35.8505, 48.233, -14.0347, 97.3706, -51.8, 43.9443
0.948, -1, 35.8571, 48.2204, -14.0435, 97.3856, -51.7476, 43.9615
0.952, -1, 35.8636, 48.2083, -14.0511, 97.3985, -51.7026, 43.9763
0.956, -1, 35.8699, 48.1968, -14.0574, 97.4093, -51.6646, 43.9888
0.96, -1, 35.8759, 48.1861, -14.0627, 97.4183, -51.633, 43.9991
0.964, -1, 35.8815, 48.1763, -14.067, 97.4257, -51.6074, 44.0075
0.968, -1, 35.8866, 48.1676, -14.0704, 97.4315, -51.5869, 44.0143
0.972, -1, 35.8914, 48.16, -14.073, 97.436, -51.5709, 44.0195
0.976, -1, 35.8957, 48.1533, -14.075, 97.4395, -51.5587, 44.0235
0.98, -1, 35.8997, 48.1475, -14.0765, 97.4421, -51.5496, 44.0264
0.984, -1, 35.9032, 48.1427, -14.0776, 97.444, -51.543, 44.0286
0.988, 2, 35.9062, 48.1387, -14.0784, 97.4453, -51.5382, 44.0302
0.992, 2, 35.9087, 48.1355, -14.0789, 97.4463, -51.5349, 44.0312
0.996, 2, 35.9106, 48.1332, -14.0793, 97.4469, -51.5327, 44.032
1, 2, 35.912, 48.1315, -14.0795, 97.4474, -51.5311, 44.0325
1.004, 2, 35.913, 48.1303, -14.0797, 97.4477, -51.5301, 44.0328
1.008, 2, 35.9137, 48.1295, -14.0798, 97.4479, -51.5293, 44.033
1.012, 2, 35.9142, 48.1289, -14.0799, 97.448, -51.5289, 44.0332
1.016, 2, 35.9145, 48.1286, -14.0799, 97.4481, -51.5285, 44.0333
1.02, 2, 35.9147, 48.1283, -14.08, 97.4482, -51.5283, 44.0334
1.024, 2, 35.9148, 48.1281, -14.08, 97.4482, -51.5282, 44.0334
1.027, 2, 35.9149, 48.128, -14.08, 97.4482, -51.5281, 44.0335
1.032, 2, 35.915, 48.1279, -14.08, 97.4482, -51.528, 44.0335
1.036, 2, 35.915, 48.1279, -14.08, 97.4483, -51.5279, 44.0335
1.04, 2, 35.9151, 48.1279, -14.08, 97.4483, -51.5279, 44.0335
1.044, 2, 35.9151, 48.1278, -14.08, 97.4483, -51.5279, 44.0335
1.048, 2, 35.9151, 48.1278, -14.08, 97.4483, -51.5279, 44.0335
1.052, 2, 35.9151, 48.1278, -14.08, 97.4483, -51.5279, 44.0335
1.055, 2, 35.9151, 48.1278, -14.08, 97.4483, -51.5279, 44.0335
1.06, 2, 35.9151, 48.1278, -14.08, 97.4483, -51.5279, 44.0335
1.064, 2, 35.9151, 48.1278, -14.08, 97.4483, -51.5278, 44.0335
1.068, 2, 35.9151, 48.1278, -14.08, 97.4483, -51.5278, 44.0335
1.072, 2, 35.9151, 48.1278, -14.08, 97.4483, -51.5278, 44.0335
1.076, 2, 35.9151, 48.1278, -14.08, 97.4483, -51.5278, 44.0335
1.08, 2, 35.9151, 48.1278, -14.08, 97.4483, -51.5278, 44.0335
1.084, 2, 35.9151, 48.1278, -14.08, 97.4483, -51.5278, 44.0335
1.088, 2, 35.9151, 48.1278, -14.08, 97.4483, -51.5278, 44.0335
1.091, 2, 35.9151, 48.1278, -14.08, 97.4483, -51.5278, 44.0335
1.096, 2, 35.9151, 48.1278, -14.08, 97.4483, -51.5278, 44.0335
1.1, 2, 35.9151, 48.1278, -14.08, 97.4483, -51.5278, 44.0335
1.104, 2, 35.9151, 48.1278, -14.08, 97.4483, -51.5278, 44.0335
1.108, 2, 35.9151, 48.1278, -14.08, 97.4483, -51.5278, 44.0335
1.112, 2, 35.9151, 48.1278, -14.08, 97.4483, -51.5278, 44.0335
1.116, 2, 35.9151, 48.1278, -14.08, 97.4483, -51.5278, 44.0335
1.119, 2, 35.9151, 48.1278, -14.08, 97.4483, -51.5278, 44.0335
1.124, 2, 35.9151, 48.1278, -14.08, 97.4483, -51.5278, 44.0335
1.128, 2, 35.9151, 48.1278, -14.08, 97.4483, -51.5278, 44.0335
1.132, 2, 35.9151, 48.1278, -14.08, 97.4483, -51.5278, 44.0335
1.136, 2, 35.9151, 48.1278, -14.08, 97.4483, -51.5278, 44.0335
1.14, 2, 35.9151, 48.1278, -14.08, 97.4483, -51.5278, 44.0335
1.144, 2, 35.9151, 48.1278, -14.08, 97.4483, -51.5278, 44.0335
1.147, 2, 35.9151, 48.1278, -14.08, 97.4483, -51.5278, 44.0335
1.152, 2, 35.9151, 48.1278, -14.08, 97.4483, -51.5278, 44.0335
1.156, 2, 35.9151, 48.1278, -14.08, 97.4483, -51.5278, 44.0335
1.16, 2, 35.9151, 48.1278, -14.08, 97.4483, -51.5278, 44.0335
1.164, 2, 35.9151, 48.1278, -14.08, 97.4483, -51.5278, 44.0335
1.168, 2, 35.9151, 48.1278, -14.08, 97.4483, -51.5278, 44.0335
1.172, 2, 35.9151, 48.1278, -14.08, 97.4483, -51.5278, 44.0335
1.175, 2, 35.9151, 48.1278, -14.08, 97.4483, -51.5278, 44.0335
1.18, 2, 35.9151, 48.1278, -14.08, 97.4483, -51.5278, 44.0335
1.184, 2, 35.9151, 48.1278, -14.08, 97.4483, -51.5278, 44.0335
1.188, 2, 35.9151, 48.1278, -14.08, 97.4483, -51.5278, 44.0335
1.192, 2, 35.9151, 48.1278, -14.08, 97.4483, -51.5278, 44.0335
1.196, 2, 35.9151, 48.1278, -14.08, 97.4483, -51.5278, 44.0335
1.2, 2, 35.9151, 48.1278, -14.08, 97.4483, -51.5278, 44.0335
1.204, 2, 35.9151, 48.1278, -14.08, 97.4483, -51.5278, 44.0335
1.208, 2, 35.9151, 48.1278, -14.08, 97.4483, -51.5278, 44.0335
1.212, 2, 35.9151, 48.1278, -14.08, 97.4483, -51.5278, 44.0335
1.216, 2, 35.9151, 48.1278, -14.08, 97.4483, -51.5278, 44.0335
1.22, 2, 35.9151, 48.1278, -14.08, 97.4483, -51.5278, 44.0335
1.224, 2, 35.9151, 48.1278, -14.08, 97.4483, -51.5278, 44.0335
1.228, 2, 35.9151, 48.1278, -14.08, 97.4483, -51.5278, 44.0335
1.232, 2, 35.9151, 48.1278, -14.08, 97.4483, -51.5278, 44.0335
1.236, 2, 35.9151, 48.1278, -14.08, 97.4483, -51.5278, 44.0335
1.24, 2, 35.9151, 48.1278, -14.08, 97.4483, -51.5278, 44.0335
1.244, 2, 35.9151, 48.1278, -14.08, 97.4483, -51.5278, 44.0335
1.248, 2, 35.9151, 48.1278, -14.08, 97.4483, -51.5278, 44.0335
1.252, 2, 35.9151, 48.1278, -14.08, 97.4483, -51.5278, 44.0335
1.256, 2, 35.9151, 48.1278, -14.08, 97.4483, -51.5278, 44.0335
1.26, 2, 35.9151, 48.1278, -14.08, 97.4483, -51.5278, 44.0335
1.264, 2, 35.9151, 48.1278, -14.08, 97.4483, -51.5278, 44.0335
1.267, 2, 35.9151, 48.1278, -14.08, 97.4483, -51.5278, 44.0335
1.272, 2, 35.9151, 48.1278, -14.08, 97.4483, -51.5278, 44.0335
1.276, 2, 35.9151, 48.1278, -14.08, 97.4483, -51.5278, 44.0335
1.28, 2, 35.9151, 48.1278, -14.08, 97.4483, -51.5278, 44.0335
1.284, 2, 35.9151, 48.1278, -14.08, 97.4483, -51.5278, 44.0335
1.288, 2, 35.9151, 48.1278, -14.08, 97.4483, -51.5278, 44.0335
1.292, 2, 35.9151, 48.1278, -14.08, 97.4483, -51.5278, 44.0335
1.295, 2, 35.9151, 48.1278, -14.08, 97.4483, -51.5278, 44.0335
1.3, 2, 35.9151, 48.1278, -14.08, 97.4483, -51.5278, 44.0335
1.304, 2, 35.9151, 48.1278, -14.08, 97.4483, -51.5278, 44.0335
1.308, 2, 35.9151, 48.1278, -14.08, 97.4483, -51.5278, 44.0335
1.312, 2, 35.9151, 48.1278, -14.08, 97.4483, -51.5278, 44.0335
1.316, 2, 35.9151, 48.1278, -14.08, 97.4483, -51.5278, 44.0335
1.32, 2, 35.9151, 48.1278, -14.08, 97.4483, -51.5278, 44.0335
1.324, 2, 35.9151, 48.1278, -14.08, 97.4483, -51.5278, 44.0335
1.328, 2, 35.9151, 48.1278, -14.08, 97.4483, -51.5278, 44.0335
1.332, 2, 35.9151, 48.1278, -14.08, 97.4483, -51.5278, 44.0335
1.336, 2, 35.9151, 48.1278, -14.08, 97.4483, -51.5278, 44.0335
1.34, 2, 35.9151, 48.1278, -14.08, 97.4483, -51.5278, 44.0335
1.344, 2, 35.9151, 48.1278, -14.08, 97.4483, -51.5278, 44.0335
1.348, 2, 35.9151, 48.1278, -14.08, 97.4483, -51.5278, 44.0335
1.352, 2, 35.9151, 48.1278, -14.08, 97.4483, -51.5278, 44.0335
1.356, 2, 35.9151, 48.1278, -14.08, 97.4483, -51.5278, 44.0335
1.36, 2, 35.9151, 48.1278, -14.08, 97.4483, -51.5278, 44.0335
1.364, 2, 35.9151, 48.1278, -14.08, 97.4483, -51.5278, 44.0335
1.368, 2, 35.9151, 48.1278, -14.08, 97.4483, -51.5278, 44.0335
1.372, 2, 35.9151, 48.1278, -14.08, 97.4483, -51.5278, 44.0335
1.376, 2, 35.9151, 48.1278, -14.08, 97.4483, -51.5278, 44.0335
1.38, 2, 35.9151, 48.1278, -14.08, 97.4483, -51.5278, 44.0335
1.384, 2, 35.9151, 48.1278, -14.08, 97.4483, -51.5278, 44.0335
1.388, 2, 35.9151, 48.1278, -14.08, 97.4483, -51.5278, 44.0335
1.392, 2, 35.9151, 48.1278, -14.08, 97.4483, -51.5278, 44.0335
1.396, 2, 35.9151, 48.1278, -14.08, 97.4483, -51.5278, 44.0335
1.4, 2, 35.9151, 48.1278, -14.08, 97.4483, -51.5278, 44.0335
1.404, 2, 35.9151, 48.1278, -14.08, 97.4483, -51.5278, 44.0335
1.408, 2, 35.9151, 48.1278, -14.08, 97.4483, -51.5278, 44.0335
1.412, 2, 35.9151, 48.1278, -14.08, 97.4483, -51.5278, 44.0335
1.416, 2, 35.9151, 48.1278, -14.08, 97.4483, -51.5278, 44.0335
1.42, 2, 35.9151, 48.1278, -14.08, 97.4483, -51.5278, 44.0335
1.424, 2, 35.9151, 48.1278, -14.08, 97.4483, -51.5278, 44.0335
1.428, 2, 35.9151, 48.1278, -14.08, 97.4483, -51.5278, 44.0335
1.432, 2, 35.9151, 48.1278, -14.08, 97.4483, -51.5278, 44.0335
1.436, 2, 35.9151, 48.1278, -14.08, 97.4483, -51.5278, 44.0335
1.44, 2, 35.9151, 48.1278, -14.08, 97.4483, -51.5278, 44.0335
1.444, 2, 35.9151, 48.1278, -14.08, 97.4483, -51.5278, 44.0335
1.448, 2, 35.9151, 48.1278, -14.08, 97.4483, -51.5278, 44.0335
1.452, 2, 35.9151, 48.1278, -14.08, 97.4483, -51.5278, 44.0335
1.456, 2, 35.9151, 48.1278, -14.08, 97.4483, -51.5278, 44.0335
1.46, 2, 35.9151, 48.1278, -14.08, 97.4483, -51.5278, 44.0335
1.464, 2, 35.9151, 48.1278, -14.08, 97.4483, -51.5278, 44.0335
1.468, 2, 35.9151, 48.1278, -14.08, 97.4483, -51.5278, 44.0335
1.472, 2, 35.9151, 48.1278, -14.08, 97.4483, -51.5278, 44.0335
1.476, 2, 35.9151, 48.1278, -14.08, 97.4483, -51.5278, 44.0335
1.48, 2, 35.9151, 48.1278, -14.08, 97.4483, -51.5278, 44.0335
1.484, 2, 35.9151, 48.1278, -14.08, 97.4483, -51.5278, 44.0335
1.488, 2, 35.9151, 48.1278, -14.08, 97.4483, -51.5278, 44.0335
1.492, 2, 35.9151, 48.1278, -14.08, 97.4483, -51.5278, 44.0335
1.496, 2, 35.9151, 48.1278, -14.08, 97.4483, -51.5278, 44.0335
1.5, 2, 35.9151, 48.1278, -14.08, 97.4483, -51.5278, 44.0335
1.504, 2, 35.9151, 48.1278, -14.08, 97.4483, -51.5278, 44.0335
1.508, 2, 35.9151, 48.1278, -14.08, 97.4483, -51.5278, 44.0335
1.512, 2, 35.9151, 48.1278, -14.08, 97.4483, -51.5278, 44.0335
1.516, 2, 35.9151, 48.1278, -14.08, 97.4483, -51.5278, 44.0335
1.52, 2, 35.9151, 48.1278, -14.08, 97.4483, -51.5278, 44.0335
1.524, 2, 35.9151, 48.1278, -14.08, 97.4483, -51.5278, 44.0335
1.528, 2, 35.9151, 48.1278, -14.08, 97.4483, -51.5278, 44.0335
1.532, 2, 35.9151, 48.1278, -14.08, 97.4483, -51.5278, 44.0335
1.536, 2, 35.9151, 48.1278, -14.08, 97.4483, -51.5278, 44.0335
1.54, 2, 35.9151, 48.1278, -14.08, 97.4483, -51.5278, 44.0335
1.544, 2, 35.9151, 48.1278, -14.08, 97.4483, -51.5278, 44.0335
1.548, 2, 35.9151, 48.1278, -14.08, 97.4483, -51.5278, 44.0335
1.552, 2, 35.9151, 48.1278, -14.08, 97.4483, -51.5278, 44.0335
1.556, 2, 35.9151, 48.1278, -14.08, 97.4483, -51.5278, 44.0335
1.56, 2, 35.9151, 48.1278, -14.08, 97.4483, -51.5278, 44.0335
1.564, 2, 35.9151, 48.1278, -14.08, 97.4483, -51.5278, 44.0335
1.568, 2, 35.9151, 48.1278, -14.08, 97.4483, -51.5278, 44.0335
1.572, 2, 35.9151, 48.1278, -14.08, 97.4483, -51.5278, 44.0335
1.576, 2, 35.9151, 48.1278, -14.08, 97.4483, -51.5278, 44.0335
1.58, 2, 35.9151, 48.1278, -14.08, 97.4483, -51.5278, 44.0335
1.584, 2, 35.9151, 48.1278, -14.08, 97.4483, -51.5278, 44.0335
1.588, 2, 35.9151, 48.1278, -14.08, 97.4483, -51.5278, 44.0335
1.592, 2, 35.9151, 48.1278, -14.08, 97.4483, -51.5278, 44.0335
1.596, 2, 35.9151, 48.1278, -14.08, 97.4483, -51.5278, 44.0335
1.6, 2, 35.9151, 48.1278, -14.08, 97.4483, -51.5278, 44.0335
1.604, 2, 35.9151, 48.1278, -14.08, 97.4483, -51.5278, 44.0335
1.608, 2, 35.9151, 48.1278, -14.08, 97.4483, -51.5278, 44.0335
1.612, 2, 35.9151, 48.1278, -14.08, 97.4483, -51.5278, 44.0335
1.616, 2, 35.9151, 48.1278, -14.08, 97.4483, -51.5278, 44.0335
1.62, 2, 35.9151, 48.1278, -14.08, 97.4483, -51.5278, 44.0335
1.624, 2, 35.9151, 48.1278, -14.08, 97.4483, -51.5278, 44.0335
1.628, 2, 35.9151, 48.1278, -14.08, 97.4483, -51.5278, 44.0335
1.632, 2, 35.9151, 48.1278, -14.08, 97.4483, -51.5278, 44.0335
1.636, 2, 35.9151, 48.1278, -14.08, 97.4483, -51.5278, 44.0335
1.64, 2, 35.9151, 48.1278, -14.08, 97.4483, -51.5278, 44.0335
1.644, 2, 35.9151, 48.1278, -14.08, 97.4483, -51.5278, 44.0335
1.648, 2, 35.9151, 48.1278, -14.08, 97.4483, -51.5278, 44.0335
1.652, 2, 35.9151, 48.1278, -14.08, 97.4483, -51.5278, 44.0335
1.656, 2, 35.9151, 48.1278, -14.08, 97.4483, -51.5278, 44.0335
1.66, 2, 35.9151, 48.1278, -14.08, 97.4483, -51.5278, 44.0335
1.664, 2, 35.9151, 48.1278, -14.08, 97.4483, -51.5278, 44.0335
1.668, 2, 35.9151, 48.1278, -14.08, 97.4483, -51.5278, 44.0335
1.672, 2, 35.9151, 48.1278, -14.08, 97.4483, -51.5278, 44.0335
1.676, 2, 35.9151, 48.1278, -14.08, 97.4483, -51.5278, 44.0335
1.68, 2, 35.9151, 48.1278, -14.08, 97.4483, -51.5278, 44.0335
1.684, 2, 35.9151, 48.1278, -14.08, 97.4483, -51.5278, 44.0335
1.688, 2, 35.9151, 48.1278, -14.08, 97.4483, -51.5278, 44.0335
1.692, 2, 35.9151, 48.1278, -14.08, 97.4483, -51.5278, 44.0335
1.696, 2, 35.9151, 48.1278, -14.08, 97.4483, -51.5278, 44.0335
1.7, 2, 35.9151, 48.1278, -14.08, 97.4483, -51.5278, 44.0335
1.704, 2, 35.9151, 48.1278, -14.08, 97.4483, -51.5278, 44.0335
1.708, 2, 35.9151, 48.1278, -14.08, 97.4483, -51.5278, 44.0335
1.712, 2, 35.9151, 48.1278, -14.08, 97.4483, -51.5278, 44.0335
1.716, 2, 35.9151, 48.1278, -14.08, 97.4483, -51.5278, 44.0335
1.72, 2, 35.9151, 48.1278, -14.08, 97.4483, -51.5278, 44.0335
1.724, 2, 35.9151, 48.1278, -14.08, 97.4483, -51.5278, 44.0335
1.728, 2, 35.9151, 48.1278, -14.08, 97.4483, -51.5278, 44.0335
1.732, 2, 35.9151, 48.1278, -14.08, 97.4483, -51.5278, 44.0335
1.736, 2, 35.9151, 48.1278, -14.08, 97.4483, -51.5278, 44.0335
1.74, 2, 35.9151, 48.1278, -14.08, 97.4483, -51.5278, 44.0335
1.744, 2, 35.9151, 48.1278, -14.08, 97.4483, -51.5278, 44.0335
1.748, 2, 35.9151, 48.1278, -14.08, 97.4483, -51.5278, 44.0335
1.752, 2, 35.9151, 48.1278, -14.08, 97.4483, -51.5278, 44.0335
1.756, 2, 35.9151, 48.1278, -14.08, 97.4483, -51.5278, 44.0335
1.76, 2, 35.9151, 48.1278, -14.08, 97.4483, -51.5278, 44.0335
1.764, 2, 35.9151, 48.1278, -14.08, 97.4483, -51.5278, 44.0335
1.768, 2, 35.9151, 48.1278, -14.08, 97.4483, -51.5278, 44.0335
1.772, 2, 35.9151, 48.1278, -14.08, 97.4483, -51.5278, 44.0335
1.776, 2, 35.9151, 48.1278, -14.08, 97.4483, -51.5278, 44.0335
1.78, 2, 35.9151, 48.1278, -14.08, 97.4483, -51.5278, 44.0335
1.784, 2, 35.9151, 48.1278, -14.08, 97.4483, -51.5278, 44.0335
1.788, 2, 35.9151, 48.1278, -14.08, 97.4483, -51.5278, 44.0335
1.792, 2, 35.9151, 48.1278, -14.08, 97.4483, -51.5278, 44.0335
1.796, 2, 35.9151, 48.1278, -14.08, 97.4483, -51.5278, 44.0335
1.8, 2, 35.9151, 48.1278, -14.08, 97.4483, -51.5278, 44.0335
1.804, 2, 35.9151, 48.1278, -14.08, 97.4483, -51.5278, 44.0335
1.808, 2, 35.9151, 48.1278, -14.08, 97.4483, -51.5278, 44.0335
1.812, 2, 35.9151, 48.1278, -14.08, 97.4483, -51.5278, 44.0335
1.816, 2, 35.9151, 48.1278, -14.08, 97.4483, -51.5278, 44.0335
1.82, 2, 35.9151, 48.1278, -14.08, 97.4483, -51.5278, 44.0335
1.824, 2, 35.9151, 48.1278, -14.08, 97.4483, -51.5278, 44.0335
1.828, 2, 35.9151, 48.1278, -14.08, 97.4483, -51.5278, 44.0335
1.832, 2, 35.9151, 48.1278, -14.08, 97.4483, -51.5278, 44.0335
1.836, 2, 35.9151, 48.1278, -14.08, 97.4483, -51.5278, 44.0335
1.84, 2, 35.9151, 48.1278, -14.08, 97.4483, -51.5278, 44.0335
1.844, 2, 35.9151, 48.1278, -14.08, 97.4483, -51.5278, 44.0335
1.848, 2, 35.9151, 48.1278, -14.08, 97.4483, -51.5278, 44.0335
1.852, 2, 35.9151, 48.1278, -14.08, 97.4483, -51.5278, 44.0335
1.856, 2, 35.9151, 48.1278, -14.08, 97.4483, -51.5278, 44.0335
1.86, 2, 35.9151, 48.1278, -14.08, 97.4483, -51.5278, 44.0335
1.864, 2, 35.9151, 48.1278, -14.08, 97.4483, -51.5278, 44.0335
1.868, 2, 35.9151, 48.1278, -14.08, 97.4483, -51.5278, 44.0335
1.872, 2, 35.9151, 48.1278, -14.08, 97.4483, -51.5278, 44.0335
1.876, 2, 35.9151, 48.1278, -14.08, 97.4483, -51.5278, 44.0335
1.88, 2, 35.9151, 48.1278, -14.08, 97.4483, -51.5278, 44.0335
1.884, 2, 35.9151, 48.1278, -14.08, 97.4483, -51.5278, 44.0335
1.888, 2, 35.9151, 48.1278, -14.08, 97.4483, -51.5278, 44.0335
1.892, 2, 35.9151, 48.1278, -14.08, 97.4483, -51.5278, 44.0335
1.896, 2, 35.9151, 48.1278, -14.08, 97.4483, -51.5278, 44.0335
1.9, 2, 35.9151, 48.1278, -14.08, 97.4483, -51.5278, 44.0335
1.904, 2, 35.9151, 48.1278, -14.08, 97.4483, -51.5278, 44.0335
1.908, 2, 35.9151, 48.1278, -14.08, 97.4483, -51.5278, 44.0335
1.912, 2, 35.9151, 48.1278, -14.08, 97.4483, -51.5278, 44.0335
1.916, 2, 35.9151, 48.1278, -14.08, 97.4483, -51.5278, 44.0335
1.92, 2, 35.9151, 48.1278, -14.08, 97.4483, -51.5278, 44.0335
1.924, 2, 35.9151, 48.1278, -14.08, 97.4483, -51.5278, 44.0335
1.928, 2, 35.9151, 48.1278, -14.08, 97.4483, -51.5278, 44.0335
1.932, 2, 35.9151, 48.1278, -14.08, 97.4483, -51.5278, 44.0335
1.936, 2, 35.9151, 48.1278, -14.08, 97.4483, -51.5278, 44.0335
1.94, 2, 35.9151, 48.1278, -14.08, 97.4483, -51.5278, 44.0335
1.944, 2, 35.9151, 48.1278, -14.08, 97.4483, -51.5278, 44.0335
1.948, 2, 35.9151, 48.1278, -14.08, 97.4483, -51.5278, 44.0335
1.952, 2, 35.9151, 48.1278, -14.08, 97.4483, -51.5278, 44.0335
1.956, 2, 35.9151, 48.1278, -14.08, 97.4483, -51.5278, 44.0335
1.96, 2, 35.9151, 48.1278, -14.08, 97.4483, -51.5278, 44.0335
1.964, 2, 35.9151, 48.1278, -14.08, 97.4483, -51.5278, 44.0335
1.968, 2, 35.9151, 48.1278, -14.08, 97.4483, -51.5278, 44.0335
1.972, 2, 35.9151, 48.1278, -14.08, 97.4483, -51.5278, 44.0335
1.976, 2, 35.9151, 48.1278, -14.08, 97.4483, -51.5278, 44.0335
1.98, 2, 35.9151, 48.1278, -14.08, 97.4483, -51.5278, 44.0335
1.984, 2, 35.9151, 48.1278, -14.08, 97.4483, -51.5278, 44.0335
1.988, 2, 35.9151, 48.1278, -14.08, 97.4483, -51.5278, 44.0335
1.992, 2, 35.9151, 48.1278, -14.08, 97.4483, -51.5278, 44.0335
1.996, 2, 35.9151, 48.1278, -14.08, 97.4483, -51.5278, 44.0335
1.999, 2, 35.9151, 48.1278, -14.08, 97.4483, -51.5278, 44.0335
2.004, 2, 35.9151, 48.1278, -14.08, 97.4483, -51.5278, 44.0335
2.008, 2, 35.9151, 48.1278, -14.08, 97.4483, -51.5278, 44.0335
2.012, 2, 35.9151, 48.1278, -14.08, 97.4483, -51.5278, 44.0335
2.015, 2, 35.9151, 48.1278, -14.08, 97.4483, -51.5278, 44.0335
2.019, 2, 35.9151, 48.1278, -14.08, 97.4483, -51.5278, 44.0335
2.024, 2, 35.9151, 48.1278, -14.08, 97.4483, -51.5278, 44.0335
2.028, 2, 35.9151, 48.1278, -14.08, 97.4483, -51.5278, 44.0335
2.031, 2, 35.9151, 48.1278, -14.08, 97.4483, -51.5278, 44.0335
2.036, 2, 35.9151, 48.1278, -14.08, 97.4483, -51.5278, 44.0335
2.04, 2, 35.9151, 48.1278, -14.08, 97.4483, -51.5278, 44.0335
2.044, 4, 35.9151, 48.1278, -14.08, 97.4483, -51.5278, 44.0335
2.048, 4, 35.9151, 48.1278, -14.08, 97.4483, -51.5278, 44.0335
2.051, 4, 35.9151, 48.1278, -14.08, 97.4483, -51.5278, 44.0335
2.055, 4, 35.9151, 48.1278, -14.08, 97.4483, -51.5278, 44.0335
2.06, 4, 35.9151, 48.1278, -14.08, 97.4483, -51.5278, 44.0335
2.064, 4, 35.9151, 48.1278, -14.08, 97.4483, -51.5278, 44.0335
2.068, 4, 35.9151, 48.1278, -14.08, 97.4483, -51.5278, 44.0335
2.071, 4, 35.9151, 48.1278, -14.08, 97.4483, -51.5278, 44.0335
2.076, 4, 35.9151, 48.1278, -14.08, 97.4483, -51.5278, 44.0335
2.08, 4, 35.9151, 48.1278, -14.08, 97.4483, -51.5278, 44.0335
2.084, 4, 35.9151, 48.1278, -14.08, 97.4483, -51.5278, 44.0335
2.087, 4, 35.9151, 48.1278, -14.08, 97.4483, -51.5278, 44.0335
2.092, 4, 35.9151, 48.1278, -14.08, 97.4483, -51.5278, 44.0335
2.096, 4, 35.9151, 48.1278, -14.08, 97.4483, -51.5278, 44.0335
2.1, 4, 35.9151, 48.1278, -14.08, 97.4483, -51.5278, 44.0335
2.104, 4, 35.9151, 48.1278, -14.08, 97.4483, -51.5278, 44.0335
2.107, 4, 35.9151, 48.1278, -14.08, 97.4483, -51.5278, 44.0335
2.111, 4, 35.9151, 48.1278, -14.08, 97.4483, -51.5278, 44.0335
2.116, 4, 35.9151, 48.1278, -14.08, 97.4483, -51.5278, 44.0335
2.12, 4, 35.9151, 48.1278, -14.08, 97.4483, -51.5278, 44.0335
2.124, 4, 35.9151, 48.1278, -14.08, 97.4483, -51.5278, 44.0335
2.127, 4, 35.9151, 48.1278, -14.08, 97.4483, -51.5278, 44.0335
2.132, 4, 35.9151, 48.1278, -14.08, 97.4483, -51.5278, 44.0335
2.136, 4, 35.9151, 48.1278, -14.08, 97.4483, -51.5278, 44.0335
2.14, 4, 35.9151, 48.1278, -14.08, 97.4483, -51.5278, 44.0335
2.143, 4, 35.9151, 48.1278, -14.08, 97.4483, -51.5278, 44.0335
2.148, 4, 35.9151, 48.1278, -14.08, 97.4483, -51.5278, 44.0335
2.154, 4, 35.9151, 48.1278, -14.08, 97.4483, -51.5278, 44.0335
2.156, 4, 35.9151, 48.1278, -14.08, 97.4483, -51.5278, 44.0335
2.16, 4, 35.9151, 48.1278, -14.08, 97.4483, -51.5278, 44.0335
2.163, 4, 35.9151, 48.1278, -14.08, 97.4483, -51.5278, 44.0335
2.168, 4, 35.9151, 48.1278, -14.08, 97.4483, -51.5278, 44.0335
2.172, 4, 35.9151, 48.1278, -14.08, 97.4483, -51.5278, 44.0335
2.176, 4, 35.9151, 48.1278, -14.08, 97.4483, -51.5278, 44.0335
2.179, 4, 35.9151, 48.1278, -14.08, 97.4483, -51.5278, 44.0335
2.184, 4, 35.915, 48.128, -14.08, 97.4483, -51.5279, 44.0335
2.188, 4, 35.9148, 48.1283, -14.08, 97.4483, -51.5279, 44.0335
2.192, 4, 35.9144, 48.1291, -14.08, 97.4483, -51.5281, 44.0334
2.196, 4, 35.9137, 48.1303, -14.08, 97.4482, -51.5284, 44.0333
2.199, 4, 35.9128, 48.1322, -14.0799, 97.4481, -51.5292, 44.033
2.204, 4, 35.9115, 48.1347, -14.0798, 97.4478, -51.5306, 44.0325
2.208, 4, 35.9099, 48.1381, -14.0797, 97.4474, -51.533, 44.0316
2.212, 4, 35.9081, 48.1423, -14.0795, 97.4468, -51.5369, 44.0301
2.216, 5, 35.906, 48.1477, -14.0792, 97.4458, -51.5428, 44.0278
2.219, 5, 35.9036, 48.1542, -14.0787, 97.4444, -51.5514, 44.0246
2.224, 5, 35.9009, 48.1621, -14.0781, 97.4424, -51.5635, 44.02
2.228, 5, 35.8978, 48.1715, -14.0772, 97.4396, -51.5798, 44.0138
2.232, 5, 35.8945, 48.1825, -14.0761, 97.436, -51.6013, 44.0056
2.235, 5, 35.891, 48.1948, -14.0746, 97.4313, -51.6289, 43.9951
2.24, 5, 35.8873, 48.2084, -14.0728, 97.4253, -51.6635, 43.9819
2.244, 5, 35.8836, 48.2229, -14.0705, 97.418, -51.7058, 43.9658
2.248, 5, 35.8799, 48.2385, -14.0678, 97.4092, -51.7567, 43.9465
2.252, 5, 35.8762, 48.255, -14.0646, 97.3988, -51.8163, 43.9239
2.255, 5, 35.8725, 48.2724, -14.0608, 97.3868, -51.885, 43.8978
2.259, 5, 35.8687, 48.291, -14.0565, 97.3731, -51.9626, 43.8684
2.264, 5, 35.8648, 48.3107, -14.0516, 97.3578, -52.049, 43.8358
2.268, 5, 35.8609, 48.3316, -14.0462, 97.341, -52.1435, 43.8
2.272, 5, 35.8568, 48.3537, -14.0403, 97.3227, -52.2457, 43.7615
2.275, 5, 35.8526, 48.3769, -14.0338, 97.303, -52.3547, 43.7204
2.28, 5, 35.8482, 48.4011, -14.0269, 97.2821, -52.4697, 43.6771
2.284, 5, 35.8435, 48.4265, -14.0195, 97.2601, -52.5897, 43.632
2.288, 5, 35.8386, 48.453, -14.0117, 97.2372, -52.7139, 43.5855
2.291, 5, 35.8332, 48.4809, -14.0035, 97.2135, -52.8413, 43.5378
2.296, 5, 35.8274, 48.51, -13.9949, 97.1892, -52.9711, 43.4892
2.3, 5, 35.8211, 48.5402, -13.986, 97.1643, -53.1027, 43.4402
2.304, 5, 35.8143, 48.5715, -13.9768, 97.139, -53.2355, 43.3907
2.308, 5, 35.8071, 48.6037, -13.9673, 97.1133, -53.3691, 43.3411
2.311, 5, 35.7997, 48.6364, -13.9575, 97.0873, -53.5033, 43.2914
2.316, 5, 35.7919, 48.6694, -13.9475, 97.061, -53.6377, 43.2416
2.32, 5, 35.784, 48.7026, -13.9373, 97.0344, -53.7724, 43.1919
2.324, 5, 35.7759, 48.7359, -13.9267, 97.0076, -53.9071, 43.1423
2.328, 5, 35.7677, 48.7692, -13.916, 96.9805, -54.0419, 43.0927
2.331, 5, 35.7594, 48.8025, -13.9049, 96.9532, -54.1767, 43.0432
2.336, 5, 35.751, 48.8357, -13.8937, 96.9256, -54.3114, 42.9939
2.34, 5, 35.7425, 48.8689, -13.8822, 96.8979, -54.4462, 42.9446
2.344, 5, 35.7339, 48.9019, -13.8704, 96.8699, -54.5808, 42.8955
2.347, 5, 35.7252, 48.9348, -13.8584, 96.8417, -54.7154, 42.8465
2.352, 5, 35.7164, 48.9676, -13.8462, 96.8132, -54.8499, 42.7976
2.356, 5, 35.7076, 49.0002, -13.8337, 96.7846, -54.9843, 42.7488
2.36, 5, 35.6987, 49.0328, -13.821, 96.7558, -55.1187, 42.7001
2.364, 5, 35.6897, 49.0652, -13.808, 96.7267, -55.2529, 42.6516
2.367, 5, 35.6806, 49.0974, -13.7948, 96.6974, -55.3871, 42.6032
2.372, 5, 35.6714, 49.1295, -13.7813, 96.668, -55.5212, 42.5548
2.376, 5, 35.6622, 49.1615, -13.7676, 96.6383, -55.6552, 42.5067
2.38, 5, 35.6529, 49.1933, -13.7537, 96.6084, -55.7892, 42.4586
2.383, 5, 35.6435, 49.225, -13.7395, 96.5783, -55.923, 42.4106
2.388, 5, 35.634, 49.2566, -13.725, 96.548, -56.0568, 42.3627
2.392, 5, 35.6245, 49.288, -13.7103, 96.5175, -56.1904, 42.315
2.396, 5, 35.6148, 49.3193, -13.6954, 96.4868, -56.324, 42.2673
2.4, 5, 35.6051, 49.3504, -13.6802, 96.4559, -56.4575, 42.2198
2.403, 5, 35.5953, 49.3814, -13.6648, 96.4248, -56.591, 42.1724
2.408, 5, 35.5855, 49.4123, -13.6492, 96.3936, -56.7243, 42.1251
2.412, 5, 35.5756, 49.443, -13.6333, 96.3621, -56.8576, 42.0778
2.416, 5, 35.5656, 49.4735, -13.6171, 96.3304, -56.9907, 42.0307
2.42, 5, 35.5555, 49.504, -13.6007, 96.2986, -57.1238, 41.9837
2.423, 5, 35.5453, 49.5342, -13.5841, 96.2665, -57.2568, 41.9368
2.428, 5, 35.5351, 49.5644, -13.5672, 96.2342, -57.3897, 41.89
2.432, 5, 35.5248, 49.5944, -13.5501, 96.2018, -57.5226, 41.8432
2.436, 5, 35.5144, 49.6242, -13.5328, 96.1692, -57.6553, 41.7966
2.439, 5, 35.5039, 49.6539, -13.5152, 96.1364, -57.788, 41.7501
2.444, 5, 35.4934, 49.6835, -13.4973, 96.1034, -57.9206, 41.7036
2.448, 5, 35.4828, 49.7129, -13.4792, 96.0702, -58.0531, 41.6573
2.452, 5, 35.4721, 49.7422, -13.4609, 96.0368, -58.1855, 41.611
2.456, 5, 35.4613, 49.7713, -13.4424, 96.0033, -58.3179, 41.5648
2.459, 5, 35.4505, 49.8003, -13.4235, 95.9696, -58.4501, 41.5188
2.464, 5, 35.4395, 49.8291, -13.4045, 95.9357, -58.5823, 41.4728
2.468, 5, 35.4286, 49.8578, -13.3852, 95.9016, -58.7144, 41.4269
2.472, 5, 35.4175, 49.8864, -13.3657, 95.8673, -58.8465, 41.3811
2.476, 5, 35.4063, 49.9147, -13.3459, 95.8329, -58.9784, 41.3353
2.479, 5, 35.3951, 49.943, -13.3259, 95.7983, -59.1103, 41.2897
2.484, 5, 35.3838, 49.9711, -13.3056, 95.7635, -59.2421, 41.2441
2.488, 5, 35.3725, 49.9991, -13.2851, 95.7285, -59.3738, 41.1986
2.492, 5, 35.361, 50.0269, -13.2643, 95.6934, -59.5054, 41.1532
2.495, 5, 35.3495, 50.0545, -13.2434, 95.6581, -59.6369, 41.1078
2.5, 5, 35.3379, 50.082, -13.2221, 95.6226, -59.7684, 41.0626
2.504, 5, 35.3263, 50.1094, -13.2006, 95.5869, -59.8998, 41.0174
2.508, 5, 35.3145, 50.1366, -13.1789, 95.5511, -60.0311, 40.9723
2.512, 5, 35.3027, 50.1637, -13.157, 95.5151, -60.1623, 40.9273
2.515, 5, 35.2909, 50.1906, -13.1348, 95.4789, -60.2934, 40.8823
2.52, 5, 35.2789, 50.2174, -13.1123, 95.4426, -60.4245, 40.8374
2.524, 5, 35.2669, 50.244, -13.0896, 95.4061, -60.5555, 40.7926
2.528, 5, 35.2548, 50.2704, -13.0667, 95.3695, -60.6864, 40.7478
2.531, 5, 35.2426, 50.2968, -13.0435, 95.3327, -60.8172, 40.7032
2.536, 5, 35.2303, 50.3229, -13.0201, 95.2957, -60.948, 40.6586
2.54, 5, 35.218, 50.3489, -12.9965, 95.2585, -61.0787, 40.614
2.544, 5, 35.2056, 50.3748, -12.9726, 95.2212, -61.2093, 40.5695
2.548, 5, 35.1931, 50.4005, -12.9484, 95.1838, -61.3398, 40.5251
2.551, 5, 35.1806, 50.426, -12.9241, 95.1462, -61.4702, 40.4807
2.556, 5, 35.168, 50.4514, -12.8994, 95.1084, -61.6006, 40.4364
2.56, 5, 35.1553, 50.4767, -12.8746, 95.0704, -61.7309, 40.3922
2.564, 5, 35.1425, 50.5018, -12.8494, 95.0323, -61.8611, 40.348
2.568, 5, 35.1297, 50.5267, -12.8241, 94.9941, -61.9912, 40.3039
2.571, 5, 35.1167, 50.5515, -12.7985, 94.9557, -62.1213, 40.2598
2.576, 5, 35.1038, 50.5761, -12.7726, 94.9171, -62.2513, 40.2158
2.58, 5, 35.0907, 50.6006, -12.7465, 94.8784, -62.3812, 40.1719
2.584, 5, 35.0776, 50.6249, -12.7202, 94.8396, -62.511, 40.128
2.587, 5, 35.0644, 50.6491, -12.6936, 94.8006, -62.6407, 40.0841
2.592, 5, 35.0511, 50.6731, -12.6668, 94.7614, -62.7704, 40.0404
2.596, 5, 35.0377, 50.6969, -12.6397, 94.7221, -62.9, 39.9966
2.6, 5, 35.0243, 50.7206, -12.6124, 94.6826, -63.0295, 39.9529
2.604, 5, 35.0108, 50.7441, -12.5849, 94.643, -63.159, 39.9093
2.607, 5, 34.9972, 50.7675, -12.5571, 94.6033, -63.2883, 39.8657
2.612, 5, 34.9836, 50.7907, -12.529, 94.5634, -63.4176, 39.8221
2.616, 5, 34.9699, 50.8138, -12.5007, 94.5234, -63.5468, 39.7786
2.62, 5, 34.9562, 50.8366, -12.4722, 94.4832, -63.676, 39.7352
2.624, 5, 34.9424, 50.8594, -12.4434, 94.4429, -63.805, 39.6918
2.627, 5, 34.9286, 50.882, -12.4145, 94.4024, -63.934, 39.6484
2.632, 5, 34.9149, 50.9045, -12.3853, 94.3619, -64.0628, 39.6051
2.636, 5, 34.9011, 50.927, -12.356, 94.3213, -64.1916, 39.5618
2.64, 6, 34.8873, 50.9495, -12.3265, 94.2807, -64.3204, 39.5186
2.643, 6, 34.8734, 50.9719, -12.297, 94.2401, -64.4491, 39.4754
2.648, 6, 34.8594, 50.9944, -12.2675, 94.1996, -64.5777, 39.4322
2.652, 6, 34.8452, 51.0169, -12.238, 94.1593, -64.7064, 39.389
2.656, 6, 34.8309, 51.0394, -12.2086, 94.1192, -64.8352, 39.3459
2.66, 6, 34.8165, 51.062, -12.1793, 94.0793, -64.964, 39.3027
2.663, 6, 34.8019, 51.0846, -12.1501, 94.0397, -65.0929, 39.2596
2.668, 6, 34.7873, 51.1074, -12.1212, 94.0004, -65.222, 39.2164
2.672, 6, 34.7725, 51.1302, -12.0925, 93.9614, -65.3512, 39.1733
2.676, 6, 34.7577, 51.1532, -12.064, 93.9226, -65.4806, 39.1302
2.679, 6, 34.7427, 51.1763, -12.0358, 93.8841, -65.6102, 39.087
2.684, 6, 34.7276, 51.1995, -12.0078, 93.8459, -65.74, 39.0439
2.688, 6, 34.7125, 51.2228, -11.98, 93.8078, -65.8699, 39.0008
2.692, 6, 34.6973, 51.2462, -11.9524, 93.7699, -66, 38.9577
2.696, 6, 34.6821, 51.2698, -11.925, 93.7321, -66.1303, 38.9147
2.699, 6, 34.6669, 51.2935, -11.8977, 93.6944, -66.2606, 38.8717
2.704, 6, 34.6516, 51.3174, -11.8705, 93.6566, -66.391, 38.8287
2.708, 6, 34.6364, 51.3414, -11.8435, 93.6188, -66.5215, 38.7859
2.712, 6, 34.6211, 51.3657, -11.8165, 93.5809, -66.652, 38.743
2.716, 6, 34.6057, 51.3901, -11.7896, 93.543, -66.7826, 38.7003
2.719, 6, 34.5902, 51.4146, -11.7627, 93.505, -66.9131, 38.6577
2.724, 6, 34.5746, 51.4394, -11.7359, 93.4669, -67.0436, 38.6151
2.728, 6, 34.5589, 51.4643, -11.7091, 93.4287, -67.1741, 38.5727
2.732, 6, 34.5432, 51.4893, -11.6824, 93.3904, -67.3046, 38.5303
2.735, 6, 34.5273, 51.5145, -11.6558, 93.352, -67.435, 38.488
2.74, 6, 34.5113, 51.5399, -11.6291, 93.3136, -67.5654, 38.4459
2.744, 6, 34.4952, 51.5654, -11.6026, 93.275, -67.6958, 38.4038
2.748, 6, 34.479, 51.5911, -11.576, 93.2364, -67.8261, 38.3618
2.752, 6, 34.4628, 51.6169, -11.5495, 93.1976, -67.9564, 38.3199
2.755, 6, 34.4464, 51.6429, -11.5231, 93.1588, -68.0866, 38.2781
2.76, 6, 34.4299, 51.669, -11.4967, 93.1199, -68.2168, 38.2364
2.764, 6, 34.4133, 51.6953, -11.4704, 93.0809, -68.3469, 38.1948
2.768, 6, 34.3967, 51.7217, -11.444, 93.0417, -68.4771, 38.1533
2.772, 6, 34.3799, 51.7483, -11.4178, 93.0025, -68.6071, 38.1118
2.775, 6, 34.363, 51.775, -11.3915, 92.9633, -68.7371, 38.0705
2.78, 6, 34.346, 51.8019, -11.3654, 92.9239, -68.8671, 38.0293
2.784, 6, 34.3289, 51.8289, -11.3392, 92.8844, -68.9971, 37.9881
2.788, 6, 34.3118, 51.8561, -11.3131, 92.8449, -69.127, 37.9471
2.791, 6, 34.2945, 51.8834, -11.2871, 92.8052, -69.2568, 37.9061
2.796, 6, 34.2771, 51.9108, -11.2611, 92.7655, -69.3867, 37.8652
2.8, 6, 34.2596, 51.9384, -11.2351, 92.7256, -69.5164, 37.8244
2.804, 6, 34.242, 51.9662, -11.2092, 92.6857, -69.6462, 37.7837
2.808, 6, 34.2243, 51.9941, -11.1833, 92.6457, -69.7759, 37.7431
2.811, 6, 34.2065, 52.0221, -11.1575, 92.6057, -69.9056, 37.7026
2.816, 6, 34.1886, 52.0503, -11.1317, 92.5655, -70.0352, 37.6621
2.82, 6, 34.1706, 52.0786, -11.106, 92.5252, -70.1648, 37.6218
2.824, 6, 34.1525, 52.1071, -11.0802, 92.4849, -70.2943, 37.5815
2.828, 6, 34.1343, 52.1357, -11.0546, 92.4445, -70.4238, 37.5413
2.831, 6, 34.116, 52.1645, -11.029, 92.4039, -70.5533, 37.5012
2.836, 6, 34.0976, 52.1934, -11.0034, 92.3633, -70.6827, 37.4612
2.84, 6, 34.0791, 52.2224, -10.9779, 92.3227, -70.8121, 37.4213
2.844, 6, 34.0605, 52.2516, -10.9524, 92.2819, -70.9414, 37.3814
2.847, 6, 34.0417, 52.281, -10.927, 92.241, -71.0707, 37.3417
2.852, 6, 34.0229, 52.3104, -10.9016, 92.2001, -71.2, 37.302
2.856, 6, 34.004, 52.3401, -10.8762, 92.1591, -71.3292, 37.2624
2.86, 6, 33.9849, 52.3698, -10.8509, 92.118, -71.4584, 37.2229
2.864, 6, 33.9658, 52.3997, -10.8257, 92.0768, -71.5876, 37.1834
2.867, 6, 33.9465, 52.4298, -10.8004, 92.0356, -71.7167, 37.144
2.872, 6, 33.9272, 52.46, -10.7753, 91.9942, -71.8458, 37.1048
2.876, 6, 33.9077, 52.4903, -10.7501, 91.9528, -71.9748, 37.0656
2.88, 6, 33.8881, 52.5208, -10.725, 91.9113, -72.1039, 37.0264
2.883, 6, 33.8684, 52.5514, -10.7, 91.8697, -72.2328, 36.9874
2.888, 6, 33.8487, 52.5822, -10.675, 91.828, -72.3618, 36.9484
2.892, 6, 33.8288, 52.6131, -10.6501, 91.7863, -72.4906, 36.9095
2.896, 6, 33.8088, 52.6441, -10.6251, 91.7445, -72.6195, 36.8707
2.9, 6, 33.7887, 52.6753, -10.6003, 91.7026, -72.7483, 36.8319
2.903, 6, 33.7684, 52.7066, -10.5755, 91.6606, -72.8771, 36.7933
2.908, 6, 33.7481, 52.7381, -10.5507, 91.6185, -73.0059, 36.7547
2.912, 6, 33.7277, 52.7697, -10.526, 91.5764, -73.1346, 36.7161
2.916, 6, 33.7071, 52.8014, -10.5013, 91.5342, -73.2633, 36.6777
2.92, 6, 33.6865, 52.8333, -10.4766, 91.4919, -73.3919, 36.6393
2.923, 6, 33.6657, 52.8654, -10.452, 91.4496, -73.5205, 36.601
2.928, 6, 33.6448, 52.8975, -10.4275, 91.4071, -73.6491, 36.5628
2.932, 6, 33.6239, 52.9298, -10.403, 91.3646, -73.7776, 36.5246
2.936, 6, 33.6028, 52.9623, -10.3785, 91.322, -73.9061, 36.4865
2.939, 6, 33.5816, 52.9949, -10.3541, 91.2794, -74.0346, 36.4485
2.944, 6, 33.5602, 53.0276, -10.3298, 91.2366, -74.163, 36.4105
2.948, 6, 33.5388, 53.0605, -10.3054, 91.1938, -74.2914, 36.3726
2.952, 6, 33.5173, 53.0935, -10.2812, 91.1509, -74.4198, 36.3348
2.956, 6, 33.4956, 53.1266, -10.2569, 91.108, -74.5481, 36.2971
2.959, 6, 33.4739, 53.1599, -10.2327, 91.0649, -74.6764, 36.2594
2.964, 6, 33.452, 53.1933, -10.2086, 91.0218, -74.8047, 36.2218
2.968, 6, 33.43, 53.2268, -10.1845, 90.9787, -74.9329, 36.1842
2.972, 6, 33.4079, 53.2605, -10.1605, 90.9354, -75.0611, 36.1468
2.976, 6, 33.3857, 53.2943, -10.1365, 90.8921, -75.1893, 36.1094
2.98, 6, 33.3634, 53.3283, -10.1125, 90.8487, -75.3174, 36.072
2.984, 6, 33.341, 53.3624, -10.0886, 90.8052, -75.4455, 36.0347
2.988, 6, 33.3185, 53.3967, -10.0647, 90.7617, -75.5736, 35.9975
2.992, 6, 33.2958, 53.431, -10.0409, 90.7181, -75.7016, 35.9603
2.995, 6, 33.273, 53.4655, -10.0172, 90.6744, -75.8296, 35.9232
3, 6, 33.2502, 53.5002, -9.99345, 90.6306, -75.9576, 35.8862
3.004, 6, 33.2272, 53.535, -9.96978, 90.5868, -76.0855, 35.8492
3.008, 6, 33.2041, 53.5699, -9.94616, 90.5429, -76.2134, 35.8123
3.012, 6, 33.181, 53.6048, -9.92258, 90.4989, -76.3413, 35.7755
3.015, 6, 33.158, 53.6398, -9.89905, 90.4549, -76.4691, 35.7387
3.02, 6, 33.1354, 53.6745, -9.87556, 90.4108, -76.5969, 35.702
3.024, 6, 33.1133, 53.7088, -9.85212, 90.3667, -76.7244, 35.6654
3.028, 6, 33.0919, 53.7424, -9.82874, 90.3227, -76.8517, 35.6289
3.031, 6, 33.0713, 53.7751, -9.80546, 90.2787, -76.9784, 35.5927
3.036, 6, 33.0514, 53.8066, -9.78232, 90.2349, -77.1043, 35.5567
3.04, 6, 33.0323, 53.8367, -9.75942, 90.1916, -77.2289, 35.5211
3.044, 6, 33.0139, 53.8657, -9.73684, 90.1488, -77.3516, 35.4861
3.048, 6, 32.996, 53.8935, -9.71471, 90.1068, -77.4719, 35.4519
3.051, 6, 32.9785, 53.9203, -9.69318, 90.0659, -77.589, 35.4186
3.056, 6, 32.9617, 53.9463, -9.67238, 90.0263, -77.7021, 35.3865
3.06, 6, 32.9453, 53.9713, -9.65247, 89.9883, -77.8105, 35.3557
3.064, 6, 32.9296, 53.9955, -9.63358, 89.9522, -77.9135, 35.3265
3.068, 6, 32.9144, 54.0187, -9.61584, 89.9181, -78.0104, 35.299
3.071, 6, 32.8999, 54.0408, -9.59937, 89.8864, -78.1006, 35.2735
3.076, 6, 32.8861, 54.0619, -9.58426, 89.8572, -78.1835, 35.25
3.08, 6, 32.8728, 54.0819, -9.57059, 89.8307, -78.259, 35.2287
3.084, 6, 32.8601, 54.101, -9.5584, 89.8068, -78.3266, 35.2095
3.087, 6, 32.8479, 54.1191, -9.5477, 89.7857, -78.3865, 35.1926
3.092, 6, 32.8362, 54.1364, -9.53846, 89.7672, -78.4387, 35.1779
3.096, 6, 32.8251, 54.1526, -9.5306, 89.7514, -78.4835, 35.1652
3.1, 6, 32.8148, 54.1676, -9.52402, 89.738, -78.5215, 35.1545
3.104, 6, 32.8052, 54.1815, -9.51861, 89.7268, -78.5531, 35.1456
3.107, 6, 32.7966, 54.1941, -9.51423, 89.7176, -78.5791, 35.1382
3.112, 6, 32.7889, 54.2055, -9.51075, 89.7101, -78.6001, 35.1323
3.116, 6, 32.7821, 54.2158, -9.50804, 89.7042, -78.6168, 35.1276
3.12, 6, 32.7759, 54.2249, -9.50598, 89.6997, -78.6297, 35.124
3.124, 6, 32.7703, 54.2329, -9.50447, 89.6962, -78.6395, 35.1212
3.128, 6, 32.7654, 54.2399, -9.50339, 89.6936, -78.6468, 35.1191
3.132, 6, 32.761, 54.2456, -9.50264, 89.6917, -78.6521, 35.1177
3.136, 7, 32.7573, 54.2503, -9.50214, 89.6904, -78.6558, 35.1166
3.14, 7, 32.7543, 54.2539, -9.50181, 89.6895, -78.6584, 35.1159
3.143, 7, 32.7519, 54.2565, -9.50159, 89.6888, -78.6602, 35.1153
3.148, 7, 32.7502, 54.2583, -9.50145, 89.6884, -78.6614, 35.115
3.152, 7, 32.749, 54.2596, -9.50136, 89.6881, -78.6622, 35.1148
3.156, 7, 32.7482, 54.2605, -9.50129, 89.6879, -78.6628, 35.1146
3.16, 7, 32.7477, 54.2611, -9.50125, 89.6878, -78.6632, 35.1145
3.163, 7, 32.7473, 54.2615, -9.50122, 89.6877, -78.6634, 35.1144
3.168, 7, 32.747, 54.2617, -9.5012, 89.6876, -78.6636, 35.1144
3.172, 7, 32.7469, 54.2619, -9.50118, 89.6876, -78.6637, 35.1143
3.176, 7, 32.7467, 54.2621, -9.50117, 89.6876, -78.6638, 35.1143
3.179, 7, 32.7467, 54.2621, -9.50117, 89.6875, -78.6639, 35.1143
3.184, 7, 32.7466, 54.2622, -9.50116, 89.6875, -78.6639, 35.1143
3.188, 7, 32.7466, 54.2622, -9.50116, 89.6875, -78.6639, 35.1143
3.192, 7, 32.7466, 54.2623, -9.50116, 89.6875, -78.6639, 35.1143
3.196, 7, 32.7465, 54.2623, -9.50116, 89.6875, -78.6639, 35.1143
3.199, 7, 32.7465, 54.2623, -9.50116, 89.6875, -78.664, 35.1143
3.204, 7, 32.7465, 54.2623, -9.50116, 89.6875, -78.664, 35.1143
3.208, 7, 32.7465, 54.2623, -9.50116, 89.6875, -78.664, 35.1143
3.212, 7, 32.7465, 54.2623, -9.50116, 89.6875, -78.664, 35.1143
3.216, 7, 32.7465, 54.2623, -9.50115, 89.6875, -78.664, 35.1143
3.22, 7, 32.7465, 54.2623, -9.50115, 89.6875, -78.664, 35.1143
3.224, 7, 32.7465, 54.2623, -9.50115, 89.6875, -78.664, 35.1143
3.228, 7, 32.7465, 54.2623, -9.50115, 89.6875, -78.664, 35.1143
3.232, 7, 32.7465, 54.2623, -9.50115, 89.6875, -78.664, 35.1143
3.235, 7, 32.7465, 54.2623, -9.50115, 89.6875, -78.664, 35.1143
3.24, 7, 32.7465, 54.2623, -9.50115, 89.6875, -78.664, 35.1143
3.244, 7, 32.7465, 54.2623, -9.50115, 89.6875, -78.664, 35.1143
3.248, 7, 32.7465, 54.2623, -9.50115, 89.6875, -78.664, 35.1143
3.252, 7, 32.7465, 54.2623, -9.50115, 89.6875, -78.664, 35.1143
