hehonglu123/ABB_Primitive_Study/execution/movec+movel_smooth/curve_exe_v500_fine.csv
timestamp, cmd_num, J1, J2, J3, J4, J5, J6
0, -1, -18.207, 47.3635, 5.48559, -15.7778, -84.3589, 10.9302
0.002, -1, -18.207, 47.3635, 5.48559, -15.7778, -84.3589, 10.9302
0.006, -1, -18.207, 47.3635, 5.48559, -15.7778, -84.3589, 10.9302
0.008, -1, -18.207, 47.3635, 5.48559, -15.7778, -84.3589, 10.9302
0.011, -1, -18.207, 47.3635, 5.48559, -15.7778, -84.3589, 10.9302
0.016, -1, -18.207, 47.3635, 5.48559, -15.7778, -84.3589, 10.9302
0.02, -1, -18.207, 47.3635, 5.48559, -15.7778, -84.3589, 10.9302
0.024, -1, -18.207, 47.3635, 5.48559, -15.7778, -84.3589, 10.9302
0.028, -1, -18.207, 47.3635, 5.48559, -15.7778, -84.3589, 10.9302
0.032, -1, -18.207, 47.3635, 5.48559, -15.7778, -84.3589, 10.9302
0.036, -1, -18.207, 47.3635, 5.4856, -15.7778, -84.3589, 10.9302
0.04, -1, -18.2067, 47.3634, 5.48563, -15.7778, -84.3589, 10.9302
0.044, -1, -18.2061, 47.3631, 5.48571, -15.7778, -84.3588, 10.9302
0.048, -1, -18.205, 47.3624, 5.48588, -15.7778, -84.3588, 10.9301
0.052, -1, -18.2032, 47.3613, 5.48617, -15.7776, -84.3587, 10.93
0.056, -1, -18.2007, 47.3595, 5.48662, -15.7774, -84.3584, 10.9298
0.06, -1, -18.1974, 47.357, 5.48729, -15.7769, -84.3579, 10.9294
0.064, -1, -18.1933, 47.3537, 5.48823, -15.7759, -84.3569, 10.9287
0.068, -1, -18.1882, 47.3495, 5.4895, -15.7744, -84.3554, 10.9275
0.072, -1, -18.1822, 47.3444, 5.49118, -15.7721, -84.3531, 10.9257
0.076, -1, -18.1749, 47.3383, 5.49337, -15.7688, -84.3496, 10.9231
0.08, -1, -18.1662, 47.331, 5.49615, -15.764, -84.3447, 10.9194
0.084, -1, -18.1559, 47.3226, 5.49964, -15.7575, -84.3381, 10.9145
0.088, -1, -18.1438, 47.3127, 5.50393, -15.7489, -84.3292, 10.9079
0.092, -1, -18.1297, 47.3013, 5.50913, -15.7378, -84.3177, 10.8994
0.096, -1, -18.1137, 47.2882, 5.5153, -15.7236, -84.3032, 10.8886
0.1, -1, -18.0955, 47.2733, 5.52256, -15.706, -84.285, 10.8752
0.104, -1, -18.0752, 47.2564, 5.531, -15.6845, -84.2629, 10.8589
0.108, -1, -18.0524, 47.2375, 5.54073, -15.6587, -84.2363, 10.8393
0.112, -1, -18.0272, 47.2162, 5.55183, -15.6283, -84.2049, 10.8163
0.116, -1, -17.9995, 47.1926, 5.56437, -15.5928, -84.1684, 10.7894
0.12, -1, -17.9692, 47.1667, 5.57839, -15.5521, -84.1264, 10.7586
0.124, -1, -17.9365, 47.1384, 5.59391, -15.5058, -84.0787, 10.7236
0.128, -1, -17.9013, 47.1077, 5.61096, -15.454, -84.0252, 10.6844
0.131, -1, -17.8637, 47.0746, 5.62953, -15.3964, -83.9658, 10.6409
0.136, -1, -17.8236, 47.0392, 5.64964, -15.3333, -83.9007, 10.5932
0.139, -1, -17.7808, 47.0012, 5.67128, -15.2646, -83.8298, 10.5413
0.144, -1, -17.7353, 46.9608, 5.69444, -15.1907, -83.7536, 10.4855
0.148, -1, -17.687, 46.9179, 5.71908, -15.1117, -83.6721, 10.4258
0.152, -1, -17.6362, 46.8726, 5.74513, -15.0281, -83.5858, 10.3627
0.156, -1, -17.5829, 46.8251, 5.7725, -14.9401, -83.495, 10.2962
0.16, -1, -17.5272, 46.7755, 5.80108, -14.848, -83.4, 10.2267
0.164, -1, -17.4693, 46.724, 5.8308, -14.7524, -83.3014, 10.1545
0.168, -1, -17.4092, 46.6706, 5.86157, -14.6536, -83.1994, 10.0799
0.172, -1, -17.347, 46.6155, 5.8933, -14.552, -83.0945, 10.0031
0.176, -1, -17.2829, 46.5588, 5.92592, -14.4479, -82.9872, 9.92453
0.18, -1, -17.2168, 46.5007, 5.95933, -14.3418, -82.8777, 9.84438
0.184, -1, -17.1491, 46.4412, 5.99344, -14.234, -82.7664, 9.7629
0.188, -1, -17.0801, 46.3807, 6.02814, -14.1246, -82.6537, 9.68032
0.192, -1, -17.0101, 46.3193, 6.06334, -14.0141, -82.5396, 9.5968
0.196, -1, -16.9392, 46.257, 6.09894, -13.9026, -82.4246, 9.51254
0.2, -1, -16.8676, 46.1941, 6.13488, -13.7903, -82.3087, 9.42765
0.204, -1, -16.7953, 46.1305, 6.17111, -13.6773, -82.1922, 9.34228
0.208, -1, -16.7223, 46.0663, 6.20759, -13.5638, -82.0751, 9.25654
0.212, -1, -16.6486, 46.0014, 6.24427, -13.45, -81.9577, 9.17052
0.216, -1, -16.5742, 45.936, 6.28112, -13.3359, -81.84, 9.08428
0.22, -1, -16.4992, 45.8702, 6.3181, -13.2216, -81.7221, 8.9979
0.224, -1, -16.4238, 45.8041, 6.35519, -13.1072, -81.604, 8.9114
0.228, -1, -16.3479, 45.7377, 6.39235, -12.9927, -81.4859, 8.82482
0.232, -1, -16.2719, 45.6711, 6.42957, -12.878, -81.3676, 8.73817
0.236, -1, -16.1956, 45.6044, 6.46682, -12.7633, -81.2493, 8.65147
0.24, -1, -16.1192, 45.5377, 6.5041, -12.6486, -81.1309, 8.56473
0.244, -1, -16.0428, 45.4708, 6.54141, -12.5338, -81.0125, 8.47795
0.248, -1, -15.9662, 45.404, 6.57873, -12.419, -80.8941, 8.39115
0.252, -1, -15.8896, 45.337, 6.61607, -12.3041, -80.7756, 8.30432
0.256, -1, -15.813, 45.2701, 6.65342, -12.1892, -80.6571, 8.21747
0.26, -1, -15.7363, 45.2031, 6.69079, -12.0743, -80.5385, 8.1306
0.264, -1, -15.6596, 45.1362, 6.72816, -11.9593, -80.4199, 8.04371
0.268, -1, -15.5829, 45.0692, 6.76553, -11.8444, -80.3013, 7.95681
0.272, -1, -15.5062, 45.0022, 6.80292, -11.7294, -80.1827, 7.86989
0.276, -1, -15.4295, 44.9351, 6.8403, -11.6144, -80.0641, 7.78296
0.28, -1, -15.3527, 44.8681, 6.8777, -11.4994, -79.9455, 7.69602
0.284, -1, -15.276, 44.8011, 6.9151, -11.3843, -79.8268, 7.60907
0.288, -1, -15.1992, 44.734, 6.9525, -11.2693, -79.7081, 7.52211
0.292, -1, -15.1224, 44.667, 6.98991, -11.1543, -79.5895, 7.43514
0.296, -1, -15.0456, 44.5999, 7.02731, -11.0392, -79.4708, 7.34817
0.3, -1, -14.9688, 44.5328, 7.06472, -10.9241, -79.3521, 7.26119
0.304, -1, -14.8921, 44.4658, 7.10214, -10.8091, -79.2334, 7.17421
0.308, -1, -14.8153, 44.3987, 7.13955, -10.694, -79.1147, 7.08723
0.312, -1, -14.7385, 44.3316, 7.17696, -10.5789, -78.996, 7.00025
0.316, -1, -14.6617, 44.2646, 7.21437, -10.4639, -78.8773, 6.91327
0.32, -1, -14.5849, 44.1975, 7.25178, -10.3488, -78.7586, 6.82628
0.324, -1, -14.5081, 44.1304, 7.28919, -10.2338, -78.6399, 6.73931
0.328, -1, -14.4313, 44.0634, 7.3266, -10.1187, -78.5212, 6.65234
0.332, -1, -14.3545, 43.9963, 7.36401, -10.0037, -78.4025, 6.56537
0.336, -1, -14.2777, 43.9293, 7.40141, -9.88862, -78.2839, 6.47841
0.34, -1, -14.2009, 43.8623, 7.43881, -9.77359, -78.1652, 6.39146
0.344, -1, -14.1242, 43.7952, 7.47621, -9.65857, -78.0466, 6.30451
0.348, -1, -14.0474, 43.7282, 7.5136, -9.54357, -77.9279, 6.21758
0.352, -1, -13.9706, 43.6612, 7.55098, -9.42859, -77.8093, 6.13066
0.356, -1, -13.8939, 43.5942, 7.58836, -9.31362, -77.6907, 6.04375
0.36, -1, -13.8172, 43.5272, 7.62574, -9.19866, -77.5721, 5.95686
0.364, -1, -13.7404, 43.4602, 7.66311, -9.08373, -77.4536, 5.86998
0.368, -1, -13.6637, 43.3933, 7.70047, -8.96882, -77.335, 5.78311
0.372, -1, -13.587, 43.3263, 7.73782, -8.85394, -77.2165, 5.69627
0.376, -1, -13.5104, 43.2594, 7.77517, -8.73907, -77.098, 5.60944
0.38, -1, -13.4337, 43.1925, 7.81251, -8.62424, -76.9796, 5.52263
0.384, -1, -13.357, 43.1256, 7.84983, -8.50943, -76.8611, 5.43584
0.388, -1, -13.2804, 43.0587, 7.88715, -8.39465, -76.7427, 5.34908
0.392, -1, -13.2038, 42.9918, 7.92446, -8.2799, -76.6244, 5.26234
0.396, -1, -13.1272, 42.925, 7.96176, -8.16518, -76.506, 5.17562
0.4, -1, -13.0507, 42.8582, 7.99905, -8.05049, -76.3877, 5.08893
0.404, -1, -12.9741, 42.7913, 8.03633, -7.93585, -76.2695, 5.00226
0.408, -1, -12.8976, 42.7246, 8.07359, -7.82123, -76.1512, 4.91562
0.412, -1, -12.8211, 42.6578, 8.11084, -7.70666, -76.033, 4.82901
0.416, -1, -12.7447, 42.591, 8.14808, -7.59213, -75.9149, 4.74243
0.42, -1, -12.6683, 42.5243, 8.18531, -7.47763, -75.7968, 4.65589
0.424, -1, -12.5918, 42.4576, 8.22252, -7.36318, -75.6787, 4.56937
0.428, -1, -12.5155, 42.391, 8.25971, -7.24878, -75.5607, 4.48289
0.432, -1, -12.4391, 42.3243, 8.2969, -7.13442, -75.4427, 4.39644
0.436, -1, -12.3628, 42.2577, 8.33406, -7.02011, -75.3248, 4.31003
0.44, -1, -12.2865, 42.1911, 8.37121, -6.90585, -75.2069, 4.22366
0.444, -1, -12.2103, 42.1246, 8.40835, -6.79164, -75.0891, 4.13732
0.448, -1, -12.1341, 42.0581, 8.44546, -6.67748, -74.9714, 4.05103
0.452, -1, -12.0579, 41.9916, 8.48256, -6.56337, -74.8537, 3.96477
0.456, -1, -11.9818, 41.9251, 8.51965, -6.44932, -74.736, 3.87856
0.46, -1, -11.9056, 41.8587, 8.55671, -6.33533, -74.6184, 3.79239
0.464, -1, -11.8296, 41.7923, 8.59375, -6.22139, -74.5009, 3.70626
0.468, -1, -11.7536, 41.7259, 8.63078, -6.10751, -74.3834, 3.62018
0.472, -1, -11.6776, 41.6596, 8.66779, -5.9937, -74.266, 3.53414
0.476, -1, -11.6016, 41.5933, 8.70477, -5.87994, -74.1487, 3.44815
0.48, -1, -11.5257, 41.5271, 8.74174, -5.76625, -74.0314, 3.36221
0.484, -1, -11.4499, 41.4608, 8.77868, -5.65263, -73.9142, 3.27632
0.488, -1, -11.3741, 41.3947, 8.8156, -5.53907, -73.797, 3.19048
0.492, -1, -11.2983, 41.3285, 8.8525, -5.42558, -73.68, 3.10469
0.496, -1, -11.2226, 41.2624, 8.88938, -5.31216, -73.563, 3.01895
0.5, -1, -11.1469, 41.1964, 8.92623, -5.19881, -73.446, 2.93327
0.504, -1, -11.0713, 41.1304, 8.96306, -5.08554, -73.3292, 2.84764
0.508, -1, -10.9957, 41.0644, 8.99987, -4.97233, -73.2124, 2.76206
0.512, -1, -10.9201, 40.9985, 9.03665, -4.8592, -73.0957, 2.67655
0.516, -1, -10.8447, 40.9326, 9.07341, -4.74615, -72.9791, 2.59109
0.52, -1, -10.7692, 40.8667, 9.11014, -4.63318, -72.8626, 2.50569
0.524, -1, -10.6939, 40.8009, 9.14685, -4.52028, -72.7461, 2.42035
0.528, -1, -10.6185, 40.7352, 9.18353, -4.40747, -72.6297, 2.33507
0.532, -1, -10.5433, 40.6695, 9.22018, -4.29474, -72.5134, 2.24985
0.536, -1, -10.4681, 40.6038, 9.25681, -4.18209, -72.3972, 2.1647
0.54, -1, -10.3929, 40.5382, 9.29341, -4.06952, -72.2811, 2.07961
0.544, -1, -10.3178, 40.4727, 9.32998, -3.95704, -72.1651, 1.99458
0.548, -1, -10.2428, 40.4072, 9.36652, -3.84465, -72.0491, 1.90962
0.552, -1, -10.1678, 40.3417, 9.40304, -3.73235, -71.9333, 1.82473
0.556, -1, -10.0929, 40.2763, 9.43952, -3.62013, -71.8175, 1.7399
0.56, -1, -10.018, 40.211, 9.47598, -3.50801, -71.7019, 1.65514
0.564, -1, -9.94319, 40.1457, 9.5124, -3.39597, -71.5863, 1.57045
0.568, -1, -9.86845, 40.0804, 9.5488, -3.28403, -71.4708, 1.48583
0.572, -1, -9.79377, 40.0153, 9.58517, -3.17219, -71.3555, 1.40129
0.576, -1, -9.71915, 39.9501, 9.6215, -3.06044, -71.2402, 1.31681
0.58, -1, -9.6446, 39.885, 9.6578, -2.94878, -71.125, 1.23241
0.584, -1, -9.57011, 39.82, 9.69408, -2.83723, -71.0099, 1.14808
0.588, -1, -9.49568, 39.7551, 9.73032, -2.72577, -70.8949, 1.06383
0.592, -1, -9.42132, 39.6902, 9.76652, -2.61441, -70.7801, 0.979649
0.596, -1, -9.34703, 39.6253, 9.8027, -2.50315, -70.6653, 0.895546
0.6, -1, -9.27281, 39.5605, 9.83884, -2.392, -70.5506, 0.811521
0.604, -1, -9.19865, 39.4958, 9.87495, -2.28094, -70.4361, 0.727572
0.608, -1, -9.12456, 39.4311, 9.91103, -2.16999, -70.3216, 0.643702
0.612, -1, -9.05054, 39.3665, 9.94707, -2.05915, -70.2073, 0.55991
0.616, -1, -8.97659, 39.302, 9.98308, -1.94841, -70.093, 0.476198
0.62, -1, -8.90271, 39.2375, 10.019, -1.83777, -69.9789, 0.392566
0.624, -1, -8.82889, 39.1731, 10.055, -1.72724, -69.8649, 0.309014
0.628, -1, -8.75516, 39.1087, 10.0909, -1.61682, -69.751, 0.225543
0.632, -1, -8.68149, 39.0444, 10.1268, -1.50651, -69.6372, 0.142154
0.636, -1, -8.60789, 38.9802, 10.1626, -1.3963, -69.5235, 0.0588477
0.64, -1, -8.53437, 38.916, 10.1984, -1.28621, -69.41, -0.0243762
0.644, -1, -8.46092, 38.8519, 10.2342, -1.17622, -69.2965, -0.107517
0.648, -1, -8.38755, 38.7878, 10.2699, -1.06635, -69.1832, -0.190573
0.652, -1, -8.31425, 38.7238, 10.3056, -0.956587, -69.0699, -0.273545
0.656, -1, -8.24102, 38.6599, 10.3412, -0.846937, -68.9568, -0.356432
0.66, -1, -8.16787, 38.5961, 10.3768, -0.737401, -68.8438, -0.439234
0.664, -1, -8.0948, 38.5323, 10.4124, -0.627978, -68.7309, -0.52195
0.668, -1, -8.0218, 38.4686, 10.448, -0.51867, -68.6182, -0.604579
0.672, -1, -7.94888, 38.4049, 10.4835, -0.409477, -68.5055, -0.687121
0.676, -1, -7.87604, 38.3414, 10.5189, -0.300399, -68.393, -0.769575
0.68, -1, -7.80327, 38.2778, 10.5544, -0.191438, -68.2806, -0.851942
0.684, -1, -7.73058, 38.2144, 10.5898, -0.0825946, -68.1684, -0.93422
0.688, -1, -7.65797, 38.151, 10.6251, 0.0261317, -68.0562, -1.01641
0.692, -1, -7.58544, 38.0877, 10.6604, 0.13474, -67.9442, -1.09851
0.696, -1, -7.51299, 38.0245, 10.6957, 0.243229, -67.8322, -1.18052
0.7, -1, -7.44061, 37.9613, 10.7309, 0.351598, -67.7205, -1.26244
0.704, -1, -7.36832, 37.8982, 10.7661, 0.459848, -67.6088, -1.34427
0.708, -1, -7.29611, 37.8352, 10.8013, 0.567976, -67.4972, -1.426
0.712, -1, -7.22398, 37.7722, 10.8364, 0.675984, -67.3858, -1.50765
0.716, -1, -7.15193, 37.7093, 10.8715, 0.78387, -67.2745, -1.5892
0.72, -1, -7.07996, 37.6465, 10.9065, 0.891633, -67.1634, -1.67067
0.724, -1, -7.00807, 37.5838, 10.9415, 0.999274, -67.0523, -1.75203
0.728, -1, -6.93627, 37.5211, 10.9765, 1.10679, -66.9414, -1.83331
0.732, -1, -6.86454, 37.4585, 11.0114, 1.21418, -66.8306, -1.91449
0.736, -1, -6.7929, 37.396, 11.0463, 1.32145, -66.72, -1.99558
0.74, -1, -6.72135, 37.3335, 11.0811, 1.4286, -66.6095, -2.07657
0.744, -1, -6.64988, 37.2711, 11.1159, 1.53561, -66.4991, -2.15747
0.748, -1, -6.57849, 37.2088, 11.1507, 1.64251, -66.3888, -2.23827
0.752, -1, -6.50718, 37.1466, 11.1854, 1.74927, -66.2787, -2.31898
0.756, -1, -6.43596, 37.0844, 11.2201, 1.85591, -66.1687, -2.39959
0.76, -1, -6.36483, 37.0223, 11.2547, 1.96242, -66.0588, -2.4801
0.764, -1, -6.29378, 36.9603, 11.2893, 2.0688, -65.9491, -2.56052
0.768, -1, -6.22282, 36.8984, 11.3238, 2.17506, -65.8394, -2.64084
0.772, -1, -6.15194, 36.8365, 11.3584, 2.28118, -65.73, -2.72107
0.776, -1, -6.08115, 36.7747, 11.3928, 2.38718, -65.6206, -2.80119
0.78, -1, -6.01044, 36.713, 11.4272, 2.49305, -65.5114, -2.88122
0.784, -1, -5.93982, 36.6514, 11.4616, 2.59878, -65.4023, -2.96115
0.788, -1, -5.86929, 36.5898, 11.496, 2.70439, -65.2934, -3.04098
0.792, -1, -5.79885, 36.5283, 11.5303, 2.80986, -65.1846, -3.12071
0.796, -1, -5.72849, 36.4669, 11.5645, 2.91521, -65.0759, -3.20034
0.8, -1, -5.65822, 36.4056, 11.5987, 3.02042, -64.9674, -3.27988
0.804, -1, -5.58804, 36.3443, 11.6329, 3.1255, -64.859, -3.35931
0.808, -1, -5.51795, 36.2832, 11.667, 3.23045, -64.7507, -3.43864
0.812, -1, -5.44794, 36.2221, 11.7011, 3.33526, -64.6426, -3.51787
0.816, -1, -5.37803, 36.161, 11.7351, 3.43994, -64.5346, -3.59701
0.82, -1, -5.3082, 36.1001, 11.7691, 3.54449, -64.4268, -3.67604
0.824, -1, -5.23846, 36.0392, 11.8031, 3.6489, -64.3191, -3.75497
0.828, -1, -5.16882, 35.9784, 11.837, 3.75318, -64.2115, -3.83379
0.832, -1, -5.09926, 35.9177, 11.8709, 3.85733, -64.1041, -3.91252
0.836, -1, -5.02979, 35.8571, 11.9047, 3.96134, -63.9968, -3.99114
0.84, -1, -4.96041, 35.7965, 11.9385, 4.06521, -63.8896, -4.06967
0.844, -1, -4.89112, 35.7361, 11.9722, 4.16895, -63.7826, -4.14809
0.848, -1, -4.82193, 35.6757, 12.0059, 4.27256, -63.6757, -4.2264
0.852, -1, -4.75282, 35.6154, 12.0395, 4.37602, -63.569, -4.30462
0.856, -1, -4.6838, 35.5551, 12.0731, 4.47936, -63.4624, -4.38273
0.86, -1, -4.61488, 35.495, 12.1067, 4.58255, -63.356, -4.46073
0.864, -1, -4.54605, 35.4349, 12.1402, 4.68561, -63.2497, -4.53864
0.868, -1, -4.4773, 35.3749, 12.1737, 4.78853, -63.1435, -4.61644
0.872, -1, -4.40865, 35.315, 12.2071, 4.89131, -63.0375, -4.69414
0.876, -1, -4.34009, 35.2551, 12.2405, 4.99396, -62.9316, -4.77173
0.88, -1, -4.27163, 35.1954, 12.2738, 5.09646, -62.8258, -4.84922
0.884, -1, -4.20325, 35.1357, 12.3071, 5.19883, -62.7202, -4.9266
0.888, -1, -4.13496, 35.0761, 12.3403, 5.30107, -62.6148, -5.00388
0.892, -1, -4.06677, 35.0166, 12.3735, 5.40316, -62.5095, -5.08106
0.896, -1, -3.99867, 34.9572, 12.4067, 5.50512, -62.4043, -5.15813
0.9, -1, -3.93065, 34.8978, 12.4398, 5.60693, -62.2993, -5.23509
0.904, -1, -3.86273, 34.8385, 12.4728, 5.70861, -62.1944, -5.31196
0.908, -1, -3.79491, 34.7793, 12.5059, 5.81015, -62.0896, -5.38872
0.912, -1, -3.72717, 34.7202, 12.5388, 5.91156, -61.985, -5.46537
0.916, -1, -3.65952, 34.6612, 12.5718, 6.01282, -61.8806, -5.54192
0.92, -1, -3.59197, 34.6022, 12.6046, 6.11395, -61.7762, -5.61837
0.924, -1, -3.52451, 34.5433, 12.6375, 6.21494, -61.6721, -5.69471
0.928, -1, -3.45714, 34.4845, 12.6703, 6.3158, -61.568, -5.77095
0.932, -1, -3.38986, 34.4258, 12.703, 6.41651, -61.4641, -5.84708
0.936, -1, -3.32267, 34.3672, 12.7357, 6.5171, -61.3604, -5.92311
0.94, -1, -3.25558, 34.3086, 12.7684, 6.61754, -61.2568, -5.99904
0.944, -1, -3.18857, 34.2502, 12.801, 6.71784, -61.1533, -6.07486
0.948, -1, -3.12166, 34.1918, 12.8336, 6.81801, -61.05, -6.15059
0.952, -1, -3.05484, 34.1334, 12.8661, 6.91805, -60.9468, -6.2262
0.956, -1, -2.98811, 34.0752, 12.8986, 7.01794, -60.8437, -6.30172
0.96, -1, -2.92147, 34.0171, 12.931, 7.1177, -60.7408, -6.37713
0.964, -1, -2.85492, 33.959, 12.9634, 7.21733, -60.638, -6.45244
0.968, -1, -2.78846, 33.901, 12.9958, 7.31682, -60.5354, -6.52765
0.972, -1, -2.72209, 33.843, 13.0281, 7.41617, -60.4329, -6.60275
0.976, -1, -2.65581, 33.7852, 13.0604, 7.51539, -60.3306, -6.67775
0.98, -1, -2.58963, 33.7274, 13.0926, 7.61447, -60.2284, -6.75265
0.984, -1, -2.52353, 33.6698, 13.1248, 7.71342, -60.1263, -6.82745
0.988, -1, -2.45752, 33.6122, 13.1569, 7.81223, -60.0244, -6.90214
0.992, -1, -2.3916, 33.5546, 13.189, 7.91091, -59.9226, -6.97674
0.996, -1, -2.32578, 33.4972, 13.221, 8.00945, -59.8209, -7.05123
1, -1, -2.26004, 33.4398, 13.253, 8.10786, -59.7194, -7.12562
1.004, -1, -2.19439, 33.3825, 13.285, 8.20613, -59.618, -7.19991
1.008, -1, -2.12884, 33.3253, 13.3169, 8.30427, -59.5168, -7.27409
1.012, -1, -2.06337, 33.2682, 13.3488, 8.40228, -59.4157, -7.34818
1.016, -1, -1.99799, 33.2111, 13.3806, 8.50015, -59.3147, -7.42216
1.02, -1, -1.9327, 33.1541, 13.4124, 8.59789, -59.2139, -7.49605
1.024, -1, -1.8675, 33.0972, 13.4441, 8.69549, -59.1132, -7.56983
1.027, -1, -1.80239, 33.0404, 13.4758, 8.79297, -59.0127, -7.64351
1.032, -1, -1.73736, 32.9837, 13.5075, 8.89031, -58.9123, -7.71709
1.036, -1, -1.67243, 32.927, 13.5391, 8.98751, -58.812, -7.79057
1.04, -1, -1.60758, 32.8704, 13.5706, 9.08458, -58.7119, -7.86395
1.044, -1, -1.54283, 32.8139, 13.6022, 9.18152, -58.6119, -7.93723
1.048, -1, -1.47816, 32.7574, 13.6336, 9.27833, -58.512, -8.01041
1.052, -1, -1.41358, 32.7011, 13.6651, 9.37501, -58.4123, -8.08349
1.055, -1, -1.34909, 32.6448, 13.6965, 9.47155, -58.3127, -8.15647
1.06, -1, -1.28468, 32.5886, 13.7278, 9.56796, -58.2132, -8.22935
1.064, -1, -1.22037, 32.5325, 13.7591, 9.66424, -58.1139, -8.30213
1.068, -1, -1.15614, 32.4764, 13.7904, 9.76039, -58.0147, -8.37481
1.072, -1, -1.092, 32.4204, 13.8216, 9.85641, -57.9157, -8.4474
1.076, -1, -1.02795, 32.3645, 13.8528, 9.95229, -57.8168, -8.51988
1.08, -1, -0.963982, 32.3087, 13.8839, 10.048, -57.718, -8.59226
1.084, -1, -0.900104, 32.253, 13.915, 10.1437, -57.6193, -8.66455
1.088, -1, -0.836313, 32.1973, 13.9461, 10.2392, -57.5208, -8.73674
1.091, -1, -0.772609, 32.1417, 13.9771, 10.3345, -57.4225, -8.80882
1.096, -1, -0.708992, 32.0862, 14.0081, 10.4298, -57.3242, -8.88081
1.1, -1, -0.645461, 32.0307, 14.039, 10.5249, -57.2261, -8.95271
1.104, -1, -0.582018, 31.9753, 14.0699, 10.6198, -57.1281, -9.0245
1.108, -1, -0.518661, 31.9201, 14.1007, 10.7147, -57.0303, -9.0962
1.112, -1, -0.45539, 31.8648, 14.1315, 10.8094, -56.9326, -9.16779
1.116, -1, -0.392205, 31.8097, 14.1623, 10.904, -56.835, -9.23929
1.119, -1, -0.329107, 31.7546, 14.193, 10.9984, -56.7376, -9.3107
1.124, -1, -0.266094, 31.6996, 14.2237, 11.0928, -56.6403, -9.382
1.128, -1, -0.203168, 31.6447, 14.2543, 11.187, -56.5431, -9.45321
1.132, -1, -0.140327, 31.5899, 14.2849, 11.281, -56.4461, -9.52432
1.136, -1, -0.0775713, 31.5351, 14.3154, 11.375, -56.3492, -9.59534
1.14, -1, -0.0149012, 31.4804, 14.346, 11.4688, -56.2524, -9.66626
1.144, -1, 0.0476836, 31.4258, 14.3764, 11.5625, -56.1557, -9.73708
1.147, -1, 0.110183, 31.3712, 14.4068, 11.6561, -56.0592, -9.8078
1.152, -1, 0.172598, 31.3168, 14.4372, 11.7495, -55.9628, -9.87843
1.156, -1, 0.234928, 31.2624, 14.4676, 11.8428, -55.8666, -9.94897
1.16, -1, 0.297173, 31.2081, 14.4979, 11.936, -55.7705, -10.0194
1.164, -1, 0.359334, 31.1538, 14.5281, 12.029, -55.6745, -10.0897
1.168, -1, 0.42141, 31.0996, 14.5583, 12.122, -55.5786, -10.16
1.172, -1, 0.483402, 31.0455, 14.5885, 12.2148, -55.4829, -10.2301
1.175, -1, 0.54531, 30.9915, 14.6187, 12.3074, -55.3873, -10.3002
1.18, -1, 0.607133, 30.9376, 14.6488, 12.4, -55.2918, -10.3702
1.184, -1, 0.668873, 30.8837, 14.6788, 12.4924, -55.1965, -10.44
1.188, -1, 0.73053, 30.8299, 14.7088, 12.5847, -55.1013, -10.5098
1.192, -1, 0.792102, 30.7761, 14.7388, 12.6769, -55.0062, -10.5795
1.196, -1, 0.853591, 30.7225, 14.7687, 12.7689, -54.9112, -10.649
1.2, -1, 0.914997, 30.6689, 14.7986, 12.8608, -54.8164, -10.7185
1.204, -1, 0.97632, 30.6154, 14.8285, 12.9526, -54.7217, -10.7879
1.208, -1, 1.03756, 30.5619, 14.8583, 13.0443, -54.6272, -10.8572
1.212, -1, 1.09872, 30.5085, 14.8881, 13.1359, -54.5327, -10.9264
1.216, -1, 1.15979, 30.4552, 14.9178, 13.2273, -54.4384, -10.9955
1.22, -1, 1.22079, 30.402, 14.9475, 13.3186, -54.3442, -11.0646
1.224, -1, 1.2817, 30.3489, 14.9771, 13.4098, -54.2502, -11.1335
1.228, -1, 1.34253, 30.2958, 15.0067, 13.5008, -54.1562, -11.2023
1.232, -1, 1.40328, 30.2428, 15.0363, 13.5918, -54.0624, -11.2711
1.236, -1, 1.46394, 30.1898, 15.0658, 13.6826, -53.9688, -11.3397
1.24, -1, 1.52453, 30.1369, 15.0953, 13.7733, -53.8752, -11.4083
1.244, -1, 1.58503, 30.0841, 15.1248, 13.8638, -53.7818, -11.4767
1.248, -1, 1.64545, 30.0314, 15.1542, 13.9543, -53.6885, -11.5451
1.252, -1, 1.7058, 29.9788, 15.1836, 14.0446, -53.5953, -11.6134
1.256, -1, 1.76606, 29.9262, 15.2129, 14.1348, -53.5022, -11.6816
1.26, -1, 1.82624, 29.8736, 15.2422, 14.2249, -53.4093, -11.7497
1.264, -1, 1.88635, 29.8212, 15.2715, 14.3149, -53.3165, -11.8177
1.267, -1, 1.94637, 29.7688, 15.3007, 14.4047, -53.2238, -11.8856
1.272, -1, 2.00631, 29.7165, 15.3298, 14.4944, -53.1313, -11.9534
1.276, -1, 2.06617, 29.6643, 15.359, 14.584, -53.0388, -12.0212
1.28, -1, 2.12596, 29.6121, 15.3881, 14.6735, -52.9465, -12.0888
1.284, -1, 2.18567, 29.56, 15.4172, 14.7629, -52.8543, -12.1564
1.288, -1, 2.24529, 29.5079, 15.4462, 14.8522, -52.7623, -12.2238
1.292, -1, 2.30484, 29.456, 15.4752, 14.9413, -52.6703, -12.2912
1.295, -1, 2.36431, 29.4041, 15.5041, 15.0303, -52.5785, -12.3585
1.3, -1, 2.42371, 29.3523, 15.533, 15.1192, -52.4868, -12.4257
1.304, -1, 2.48302, 29.3005, 15.5619, 15.208, -52.3952, -12.4928
1.308, -1, 2.54226, 29.2488, 15.5907, 15.2967, -52.3037, -12.5599
1.312, -1, 2.60142, 29.1972, 15.6195, 15.3853, -52.2123, -12.6268
1.316, -1, 2.66051, 29.1456, 15.6483, 15.4737, -52.1211, -12.6937
1.32, -1, 2.71952, 29.0941, 15.677, 15.562, -52.03, -12.7604
1.324, -1, 2.77845, 29.0427, 15.7057, 15.6502, -51.939, -12.8271
1.328, -1, 2.83731, 28.9913, 15.7344, 15.7383, -51.8481, -12.8937
1.332, -1, 2.89609, 28.94, 15.763, 15.8263, -51.7573, -12.9602
1.336, -1, 2.95479, 28.8888, 15.7915, 15.9142, -51.6667, -13.0267
1.34, -1, 3.01342, 28.8376, 15.8201, 16.002, -51.5762, -13.093
1.344, -1, 3.07198, 28.7865, 15.8486, 16.0896, -51.4857, -13.1593
1.348, -1, 3.13046, 28.7355, 15.8771, 16.1772, -51.3954, -13.2254
1.352, -1, 3.18887, 28.6845, 15.9055, 16.2646, -51.3053, -13.2915
1.356, -1, 3.2472, 28.6336, 15.9339, 16.3519, -51.2152, -13.3575
1.36, -1, 3.30545, 28.5828, 15.9622, 16.4391, -51.1252, -13.4235
1.364, -1, 3.36364, 28.532, 15.9906, 16.5262, -51.0354, -13.4893
1.368, -1, 3.42175, 28.4813, 16.0189, 16.6132, -50.9457, -13.5551
1.372, -1, 3.47978, 28.4306, 16.0471, 16.7001, -50.856, -13.6207
1.376, -1, 3.53775, 28.38, 16.0753, 16.7868, -50.7665, -13.6863
1.38, -1, 3.59564, 28.3295, 16.1035, 16.8735, -50.6771, -13.7518
1.384, -1, 3.65346, 28.2791, 16.1316, 16.96, -50.5879, -13.8172
1.388, -1, 3.7112, 28.2287, 16.1598, 17.0465, -50.4987, -13.8826
1.392, -1, 3.76887, 28.1783, 16.1878, 17.1328, -50.4096, -13.9478
1.396, -1, 3.82648, 28.1281, 16.2159, 17.219, -50.3207, -14.013
1.4, -1, 3.884, 28.0779, 16.2439, 17.3052, -50.2319, -14.0781
1.404, -1, 3.94146, 28.0277, 16.2718, 17.3912, -50.1431, -14.1431
1.408, -1, 3.99885, 27.9776, 16.2998, 17.4771, -50.0545, -14.2081
1.412, -1, 4.05616, 27.9276, 16.3277, 17.5629, -49.966, -14.2729
1.416, -1, 4.11341, 27.8777, 16.3555, 17.6485, -49.8776, -14.3377
1.42, -1, 4.17058, 27.8278, 16.3834, 17.7341, -49.7893, -14.4024
1.424, -1, 4.22768, 27.7779, 16.4112, 17.8196, -49.7012, -14.467
1.428, -1, 4.28471, 27.7282, 16.4389, 17.905, -49.6131, -14.5315
1.432, -1, 4.34168, 27.6785, 16.4667, 17.9902, -49.5251, -14.596
1.436, -1, 4.39857, 27.6288, 16.4944, 18.0754, -49.4373, -14.6604
1.44, -1, 4.45539, 27.5792, 16.522, 18.1605, -49.3495, -14.7247
1.444, -1, 4.51214, 27.5297, 16.5496, 18.2454, -49.2619, -14.7889
1.448, -1, 4.56883, 27.4802, 16.5772, 18.3303, -49.1744, -14.853
1.452, -1, 4.62544, 27.4308, 16.6048, 18.415, -49.087, -14.9171
1.456, -1, 4.68199, 27.3815, 16.6323, 18.4997, -48.9996, -14.9811
1.46, -1, 4.73846, 27.3322, 16.6598, 18.5842, -48.9124, -15.045
1.464, -1, 4.79487, 27.283, 16.6873, 18.6686, -48.8253, -15.1088
1.468, -1, 4.85121, 27.2338, 16.7147, 18.753, -48.7383, -15.1726
1.472, -1, 4.90749, 27.1847, 16.7421, 18.8372, -48.6514, -15.2363
1.476, -1, 4.96369, 27.1356, 16.7694, 18.9214, -48.5647, -15.2999
1.48, -1, 5.01983, 27.0866, 16.7968, 19.0054, -48.478, -15.3634
1.484, -1, 5.0759, 27.0377, 16.8241, 19.0893, -48.3914, -15.4268
1.488, -1, 5.1319, 26.9888, 16.8513, 19.1732, -48.3049, -15.4902
1.492, -1, 5.18783, 26.94, 16.8786, 19.2569, -48.2185, -15.5535
1.496, -1, 5.2437, 26.8913, 16.9058, 19.3405, -48.1323, -15.6167
1.5, -1, 5.2995, 26.8426, 16.9329, 19.424, -48.0461, -15.6798
1.504, -1, 5.35524, 26.7939, 16.96, 19.5075, -47.96, -15.7429
1.508, -1, 5.41091, 26.7453, 16.9871, 19.5908, -47.8741, -15.8059
1.512, -1, 5.46651, 26.6968, 17.0142, 19.674, -47.7882, -15.8688
1.516, -1, 5.52205, 26.6484, 17.0412, 19.7572, -47.7025, -15.9317
1.52, -1, 5.57752, 26.5999, 17.0682, 19.8402, -47.6168, -15.9944
1.524, -1, 5.63292, 26.5516, 17.0952, 19.9232, -47.5312, -16.0571
1.528, -1, 5.68826, 26.5033, 17.1222, 20.006, -47.4458, -16.1198
1.532, -1, 5.74354, 26.4551, 17.1491, 20.0887, -47.3604, -16.1823
1.536, -1, 5.79875, 26.4069, 17.1759, 20.1714, -47.2752, -16.2448
1.54, -1, 5.85389, 26.3587, 17.2028, 20.2539, -47.19, -16.3072
1.544, -1, 5.90897, 26.3107, 17.2296, 20.3364, -47.105, -16.3695
1.548, -1, 5.96399, 26.2627, 17.2564, 20.4187, -47.02, -16.4318
1.552, -1, 6.01894, 26.2147, 17.2831, 20.501, -46.9352, -16.494
1.556, -1, 6.07383, 26.1668, 17.3099, 20.5832, -46.8504, -16.5561
1.56, -1, 6.12866, 26.119, 17.3365, 20.6652, -46.7657, -16.6181
1.564, -1, 6.18342, 26.0712, 17.3632, 20.7472, -46.6812, -16.6801
1.568, -1, 6.23812, 26.0234, 17.3898, 20.8291, -46.5967, -16.742
1.572, -1, 6.29276, 25.9758, 17.4164, 20.9109, -46.5123, -16.8038
1.576, -1, 6.34733, 25.9281, 17.443, 20.9926, -46.4281, -16.8655
1.58, -1, 6.40184, 25.8806, 17.4695, 21.0742, -46.3439, -16.9272
1.584, -1, 6.45629, 25.833, 17.496, 21.1557, -46.2598, -16.9888
1.588, -1, 6.51068, 25.7856, 17.5225, 21.2371, -46.1758, -17.0504
1.592, -1, 6.565, 25.7382, 17.5489, 21.3184, -46.092, -17.1118
1.596, -1, 6.61926, 25.6908, 17.5754, 21.3996, -46.0082, -17.1732
1.6, -1, 6.67346, 25.6435, 17.6017, 21.4807, -45.9245, -17.2346
1.604, -1, 6.7276, 25.5963, 17.6281, 21.5618, -45.8409, -17.2958
1.608, -1, 6.78168, 25.5491, 17.6544, 21.6427, -45.7574, -17.357
1.612, -1, 6.8357, 25.502, 17.6807, 21.7236, -45.674, -17.4181
1.616, -1, 6.88965, 25.4549, 17.707, 21.8043, -45.5907, -17.4792
1.62, -1, 6.94354, 25.4078, 17.7332, 21.885, -45.5075, -17.5402
1.624, -1, 6.99738, 25.3609, 17.7594, 21.9656, -45.4244, -17.6011
1.628, -1, 7.05115, 25.3139, 17.7856, 22.0461, -45.3413, -17.6619
1.632, -1, 7.10486, 25.2671, 17.8117, 22.1265, -45.2584, -17.7227
1.636, -1, 7.15851, 25.2203, 17.8378, 22.2068, -45.1755, -17.7834
1.64, -1, 7.21211, 25.1735, 17.8639, 22.287, -45.0928, -17.844
1.644, -1, 7.26564, 25.1268, 17.89, 22.3671, -45.0101, -17.9046
1.648, -1, 7.31911, 25.0801, 17.916, 22.4472, -44.9276, -17.9651
1.652, -1, 7.37253, 25.0335, 17.942, 22.5271, -44.8451, -18.0255
1.656, -1, 7.42588, 24.9869, 17.968, 22.607, -44.7627, -18.0859
1.66, -1, 7.47918, 24.9404, 17.9939, 22.6867, -44.6804, -18.1462
1.664, -1, 7.53241, 24.894, 18.0198, 22.7664, -44.5982, -18.2065
1.668, -1, 7.58559, 24.8476, 18.0457, 22.846, -44.5161, -18.2666
1.672, -1, 7.63871, 24.8012, 18.0716, 22.9255, -44.4341, -18.3267
1.676, -1, 7.69177, 24.7549, 18.0974, 23.005, -44.3522, -18.3868
1.68, -1, 7.74478, 24.7087, 18.1232, 23.0843, -44.2703, -18.4467
1.684, -1, 7.79772, 24.6625, 18.149, 23.1636, -44.1886, -18.5067
1.688, -1, 7.85061, 24.6163, 18.1747, 23.2427, -44.1069, -18.5665
1.692, -1, 7.90344, 24.5702, 18.2004, 23.3218, -44.0253, -18.6263
1.696, -1, 7.95622, 24.5242, 18.2261, 23.4008, -43.9439, -18.686
1.7, -1, 8.00894, 24.4782, 18.2518, 23.4797, -43.8624, -18.7456
1.704, -1, 8.0616, 24.4322, 18.2774, 23.5585, -43.7811, -18.8052
1.708, -1, 8.1142, 24.3863, 18.303, 23.6373, -43.6999, -18.8648
1.712, -1, 8.16675, 24.3404, 18.3286, 23.7159, -43.6188, -18.9242
1.716, -1, 8.21924, 24.2946, 18.3542, 23.7945, -43.5377, -18.9836
1.72, -1, 8.27168, 24.2489, 18.3797, 23.873, -43.4567, -19.0429
1.724, -1, 8.32406, 24.2032, 18.4052, 23.9514, -43.3759, -19.1022
1.728, -1, 8.37639, 24.1575, 18.4306, 24.0297, -43.2951, -19.1614
1.732, -1, 8.42866, 24.1119, 18.4561, 24.108, -43.2144, -19.2206
1.736, -1, 8.48087, 24.0663, 18.4815, 24.1861, -43.1337, -19.2796
1.74, -1, 8.53303, 24.0208, 18.5069, 24.2642, -43.0532, -19.3387
1.744, -1, 8.58514, 23.9753, 18.5323, 24.3422, -42.9727, -19.3976
1.748, -1, 8.63719, 23.9299, 18.5576, 24.4201, -42.8924, -19.4565
1.752, -1, 8.68919, 23.8845, 18.5829, 24.4979, -42.8121, -19.5154
1.756, -1, 8.74113, 23.8392, 18.6082, 24.5757, -42.7319, -19.5741
1.76, -1, 8.79302, 23.7939, 18.6334, 24.6534, -42.6518, -19.6328
1.764, -1, 8.84485, 23.7487, 18.6587, 24.731, -42.5717, -19.6915
1.768, -1, 8.89663, 23.7035, 18.6839, 24.8085, -42.4918, -19.7501
1.772, -1, 8.94836, 23.6584, 18.7091, 24.8859, -42.4119, -19.8086
1.776, -1, 9.00004, 23.6133, 18.7342, 24.9632, -42.3321, -19.8671
1.78, -1, 9.05166, 23.5682, 18.7593, 25.0405, -42.2524, -19.9255
1.784, -1, 9.10323, 23.5232, 18.7845, 25.1177, -42.1728, -19.9839
1.788, -1, 9.15475, 23.4783, 18.8095, 25.1948, -42.0932, -20.0421
1.792, -1, 9.20621, 23.4333, 18.8346, 25.2719, -42.0137, -20.1004
1.796, -1, 9.25762, 23.3885, 18.8596, 25.3488, -41.9344, -20.1586
1.8, -1, 9.30898, 23.3437, 18.8846, 25.4257, -41.8551, -20.2167
1.804, -1, 9.36029, 23.2989, 18.9096, 25.5025, -41.7758, -20.2747
1.808, -1, 9.41155, 23.2542, 18.9345, 25.5792, -41.6967, -20.3327
1.812, -1, 9.46275, 23.2095, 18.9595, 25.6559, -41.6176, -20.3907
1.816, -1, 9.51391, 23.1648, 18.9844, 25.7324, -41.5386, -20.4485
1.82, -1, 9.56501, 23.1202, 19.0092, 25.8089, -41.4597, -20.5064
1.824, -1, 9.61606, 23.0757, 19.0341, 25.8853, -41.3809, -20.5641
1.828, -1, 9.66706, 23.0312, 19.0589, 25.9617, -41.3021, -20.6218
1.832, -1, 9.71801, 22.9867, 19.0837, 26.038, -41.2235, -20.6795
1.836, -1, 9.76891, 22.9423, 19.1085, 26.1141, -41.1449, -20.7371
1.84, -1, 9.81976, 22.8979, 19.1332, 26.1903, -41.0664, -20.7946
1.844, -1, 9.87056, 22.8536, 19.158, 26.2663, -40.9879, -20.8521
1.848, -1, 9.92131, 22.8093, 19.1827, 26.3423, -40.9096, -20.9095
1.852, -1, 9.97201, 22.7651, 19.2073, 26.4181, -40.8313, -20.9669
1.856, -1, 10.0227, 22.7209, 19.232, 26.494, -40.7531, -21.0242
1.86, -1, 10.0733, 22.6767, 19.2566, 26.5697, -40.6749, -21.0815
1.864, -1, 10.1238, 22.6326, 19.2812, 26.6454, -40.5969, -21.1387
1.868, -1, 10.1743, 22.5885, 19.3058, 26.721, -40.5189, -21.1958
1.872, -1, 10.2248, 22.5445, 19.3304, 26.7965, -40.441, -21.2529
1.876, -1, 10.2752, 22.5005, 19.3549, 26.8719, -40.3632, -21.3099
1.88, -1, 10.3255, 22.4566, 19.3794, 26.9473, -40.2854, -21.3669
1.884, -1, 10.3758, 22.4127, 19.4039, 27.0226, -40.2078, -21.4238
1.888, -1, 10.4261, 22.3688, 19.4284, 27.0978, -40.1301, -21.4807
1.892, -1, 10.4763, 22.325, 19.4528, 27.173, -40.0526, -21.5375
1.896, -1, 10.5265, 22.2812, 19.4772, 27.2481, -39.9752, -21.5943
1.9, -1, 10.5766, 22.2375, 19.5016, 27.3231, -39.8978, -21.651
1.904, -1, 10.6266, 22.1938, 19.526, 27.398, -39.8205, -21.7076
1.908, -1, 10.6767, 22.1502, 19.5503, 27.4729, -39.7432, -21.7642
1.912, -1, 10.7266, 22.1066, 19.5747, 27.5477, -39.6661, -21.8207
1.916, -1, 10.7765, 22.063, 19.599, 27.6224, -39.589, -21.8772
1.92, -1, 10.8264, 22.0195, 19.6232, 27.6971, -39.512, -21.9337
1.924, -1, 10.8763, 21.976, 19.6475, 27.7717, -39.4351, -21.9901
1.928, -1, 10.926, 21.9325, 19.6717, 27.8462, -39.3582, -22.0464
1.932, -1, 10.9758, 21.8891, 19.6959, 27.9206, -39.2814, -22.1027
1.936, -1, 11.0255, 21.8458, 19.7201, 27.995, -39.2047, -22.1589
1.94, -1, 11.0751, 21.8025, 19.7443, 28.0693, -39.128, -22.215
1.944, -1, 11.1247, 21.7592, 19.7684, 28.1435, -39.0514, -22.2712
1.948, -1, 11.1742, 21.7159, 19.7926, 28.2177, -38.9749, -22.3272
1.952, -1, 11.2237, 21.6727, 19.8166, 28.2918, -38.8985, -22.3832
1.956, -1, 11.2732, 21.6296, 19.8407, 28.3658, -38.8221, -22.4392
1.96, -1, 11.3226, 21.5865, 19.8648, 28.4398, -38.7458, -22.4951
1.964, -1, 11.372, 21.5434, 19.8888, 28.5137, -38.6696, -22.551
1.968, -1, 11.4213, 21.5004, 19.9128, 28.5875, -38.5935, -22.6068
1.972, -1, 11.4706, 21.4574, 19.9368, 28.6613, -38.5174, -22.6625
1.976, -1, 11.5198, 21.4144, 19.9608, 28.735, -38.4414, -22.7182
1.98, -1, 11.569, 21.3715, 19.9847, 28.8086, -38.3654, -22.7739
1.984, -1, 11.6181, 21.3286, 20.0086, 28.8821, -38.2895, -22.8295
1.988, -1, 11.6672, 21.2858, 20.0325, 28.9556, -38.2137, -22.885
1.992, -1, 11.7163, 21.2429, 20.0564, 29.029, -38.138, -22.9405
1.996, -1, 11.7653, 21.2002, 20.0802, 29.1024, -38.0623, -22.996
1.999, -1, 11.8142, 21.1575, 20.1041, 29.1757, -37.9867, -23.0514
2.004, -1, 11.8631, 21.1148, 20.1279, 29.2489, -37.9112, -23.1067
2.008, -1, 11.912, 21.0721, 20.1517, 29.3221, -37.8357, -23.162
2.012, -1, 11.9608, 21.0295, 20.1754, 29.3952, -37.7603, -23.2173
2.015, -1, 12.0096, 20.9869, 20.1992, 29.4682, -37.685, -23.2725
2.019, -1, 12.0584, 20.9444, 20.2229, 29.5411, -37.6097, -23.3276
2.024, -1, 12.1071, 20.9019, 20.2466, 29.614, -37.5345, -23.3827
2.028, -1, 12.1557, 20.8595, 20.2703, 29.6869, -37.4594, -23.4378
2.031, -1, 12.2043, 20.817, 20.294, 29.7596, -37.3844, -23.4928
2.036, -1, 12.2529, 20.7747, 20.3176, 29.8323, -37.3094, -23.5478
2.04, -1, 12.3014, 20.7323, 20.3412, 29.905, -37.2344, -23.6027
2.044, -1, 12.3499, 20.69, 20.3648, 29.9775, -37.1596, -23.6575
2.048, -1, 12.3983, 20.6477, 20.3884, 30.05, -37.0848, -23.7123
2.051, -1, 12.4467, 20.6055, 20.412, 30.1225, -37.0101, -23.7671
2.055, -1, 12.4951, 20.5633, 20.4355, 30.1948, -36.9354, -23.8218
2.06, -1, 12.5434, 20.5211, 20.459, 30.2672, -36.8608, -23.8765
2.064, -1, 12.5917, 20.479, 20.4825, 30.3394, -36.7863, -23.9311
2.068, -1, 12.6399, 20.4369, 20.506, 30.4116, -36.7118, -23.9857
2.071, -1, 12.6881, 20.3949, 20.5294, 30.4837, -36.6374, -24.0402
2.076, -1, 12.7362, 20.3529, 20.5529, 30.5558, -36.5631, -24.0947
2.08, -1, 12.7843, 20.3109, 20.5763, 30.6278, -36.4888, -24.1491
2.084, -1, 12.8324, 20.269, 20.5997, 30.6997, -36.4146, -24.2035
2.087, -1, 12.8804, 20.2271, 20.6231, 30.7716, -36.3404, -24.2578
2.092, -1, 12.9284, 20.1852, 20.6464, 30.8434, -36.2663, -24.3121
2.096, -1, 12.9763, 20.1434, 20.6698, 30.9152, -36.1923, -24.3663
2.1, -1, 13.0242, 20.1016, 20.6931, 30.9869, -36.1184, -24.4205
2.104, -1, 13.0721, 20.0598, 20.7164, 31.0585, -36.0445, -24.4747
2.107, -1, 13.1199, 20.0181, 20.7396, 31.1301, -35.9706, -24.5288
2.111, -1, 13.1676, 19.9764, 20.7629, 31.2016, -35.8969, -24.5828
2.116, -1, 13.2154, 19.9347, 20.7861, 31.273, -35.8232, -24.6368
2.12, -1, 13.2631, 19.8931, 20.8093, 31.3444, -35.7495, -24.6908
2.124, -1, 13.3107, 19.8515, 20.8325, 31.4158, -35.6759, -24.7447
2.127, -1, 13.3583, 19.81, 20.8557, 31.487, -35.6024, -24.7986
2.132, -1, 13.4059, 19.7685, 20.8789, 31.5583, -35.529, -24.8524
2.136, -1, 13.4534, 19.727, 20.902, 31.6294, -35.4556, -24.9062
2.14, -1, 13.5009, 19.6855, 20.9251, 31.7005, -35.3822, -24.96
2.143, -1, 13.5484, 19.6441, 20.9482, 31.7715, -35.3089, -25.0137
2.148, -1, 13.5958, 19.6027, 20.9713, 31.8425, -35.2357, -25.0673
2.152, -1, 13.6432, 19.5614, 20.9944, 31.9134, -35.1626, -25.1209
2.156, -1, 13.6905, 19.5201, 21.0174, 31.9843, -35.0895, -25.1745
2.16, -1, 13.7378, 19.4788, 21.0404, 32.0551, -35.0164, -25.228
2.163, -1, 13.7851, 19.4376, 21.0634, 32.1258, -34.9435, -25.2815
2.168, -1, 13.8323, 19.3963, 21.0864, 32.1965, -34.8705, -25.3349
2.172, -1, 13.8795, 19.3552, 21.1094, 32.2672, -34.7977, -25.3883
2.176, -1, 13.9266, 19.314, 21.1324, 32.3377, -34.7249, -25.4417
2.179, -1, 13.9737, 19.2729, 21.1553, 32.4082, -34.6521, -25.495
2.184, -1, 14.0208, 19.2318, 21.1782, 32.4787, -34.5795, -25.5482
2.188, -1, 14.0678, 19.1908, 21.2011, 32.5491, -34.5068, -25.6015
2.192, -1, 14.1148, 19.1498, 21.224, 32.6194, -34.4343, -25.6546
2.196, -1, 14.1618, 19.1088, 21.2468, 32.6897, -34.3618, -25.7078
2.199, -1, 14.2087, 19.0679, 21.2697, 32.76, -34.2893, -25.7609
2.204, -1, 14.2556, 19.027, 21.2925, 32.8301, -34.2169, -25.8139
2.208, -1, 14.3024, 18.9861, 21.3153, 32.9003, -34.1446, -25.8669
2.212, -1, 14.3492, 18.9452, 21.3381, 32.9703, -34.0723, -25.9199
2.216, -1, 14.396, 18.9044, 21.3608, 33.0403, -34.0001, -25.9728
2.219, -1, 14.4427, 18.8636, 21.3836, 33.1103, -33.9279, -26.0257
2.224, -1, 14.4894, 18.8229, 21.4063, 33.1802, -33.8558, -26.0785
2.228, -1, 14.5361, 18.7822, 21.429, 33.25, -33.7838, -26.1313
2.232, -1, 14.5827, 18.7415, 21.4517, 33.3198, -33.7118, -26.1841
2.235, -1, 14.6293, 18.7008, 21.4744, 33.3896, -33.6399, -26.2368
2.24, -1, 14.6758, 18.6602, 21.4971, 33.4592, -33.568, -26.2894
2.244, -1, 14.7223, 18.6196, 21.5197, 33.5289, -33.4962, -26.3421
2.248, -1, 14.7688, 18.5791, 21.5423, 33.5984, -33.4244, -26.3947
2.252, -1, 14.8153, 18.5385, 21.5649, 33.6679, -33.3527, -26.4472
2.255, -1, 14.8617, 18.498, 21.5875, 33.7374, -33.281, -26.4997
2.259, -1, 14.908, 18.4576, 21.6101, 33.8068, -33.2094, -26.5522
2.264, -1, 14.9544, 18.4171, 21.6326, 33.8762, -33.1379, -26.6046
2.268, -1, 15.0007, 18.3767, 21.6552, 33.9455, -33.0664, -26.657
2.272, -1, 15.0469, 18.3364, 21.6777, 34.0147, -32.995, -26.7094
2.275, -1, 15.0931, 18.296, 21.7002, 34.0839, -32.9236, -26.7617
2.28, -1, 15.1393, 18.2557, 21.7227, 34.1531, -32.8522, -26.8139
2.284, -1, 15.1855, 18.2154, 21.7452, 34.2222, -32.781, -26.8662
2.288, -1, 15.2316, 18.1752, 21.7676, 34.2912, -32.7098, -26.9184
2.291, -1, 15.2777, 18.135, 21.79, 34.3602, -32.6386, -26.9705
2.296, -1, 15.3237, 18.0948, 21.8125, 34.4291, -32.5675, -27.0226
2.3, -1, 15.3698, 18.0546, 21.8349, 34.498, -32.4964, -27.0747
2.304, -1, 15.4157, 18.0145, 21.8572, 34.5668, -32.4254, -27.1267
2.308, -1, 15.4617, 17.9744, 21.8796, 34.6356, -32.3545, -27.1787
2.311, -1, 15.5076, 17.9343, 21.902, 34.7044, -32.2836, -27.2307
2.316, -1, 15.5535, 17.8943, 21.9243, 34.773, -32.2127, -27.2826
2.32, -1, 15.5993, 17.8543, 21.9466, 34.8417, -32.1419, -27.3345
2.324, -1, 15.6451, 17.8143, 21.9689, 34.9102, -32.0712, -27.3863
2.328, -1, 15.6909, 17.7744, 21.9912, 34.9788, -32.0005, -27.4381
2.331, -1, 15.7367, 17.7344, 22.0135, 35.0472, -31.9299, -27.4899
2.336, -1, 15.7824, 17.6945, 22.0357, 35.1157, -31.8593, -27.5416
2.34, -1, 15.828, 17.6547, 22.0579, 35.184, -31.7888, -27.5933
2.344, -1, 15.8737, 17.6149, 22.0802, 35.2523, -31.7183, -27.6449
2.347, -1, 15.9193, 17.5751, 22.1024, 35.3206, -31.6479, -27.6965
2.352, -1, 15.9649, 17.5353, 22.1246, 35.3888, -31.5775, -27.7481
2.356, -1, 16.0104, 17.4955, 22.1467, 35.457, -31.5072, -27.7996
2.36, -1, 16.0559, 17.4558, 22.1689, 35.5251, -31.4369, -27.8511
2.364, -1, 16.1014, 17.4161, 22.191, 35.5932, -31.3667, -27.9026
2.367, -1, 16.1468, 17.3765, 22.2131, 35.6612, -31.2965, -27.954
2.372, -1, 16.1922, 17.3369, 22.2352, 35.7292, -31.2264, -28.0054
2.376, -1, 16.2376, 17.2972, 22.2573, 35.7971, -31.1563, -28.0567
2.38, -1, 16.283, 17.2577, 22.2794, 35.865, -31.0863, -28.1081
2.383, -1, 16.3283, 17.2181, 22.3015, 35.9328, -31.0163, -28.1593
2.388, -1, 16.3735, 17.1786, 22.3235, 36.0006, -30.9464, -28.2106
2.392, -1, 16.4188, 17.1391, 22.3455, 36.0684, -30.8765, -28.2618
2.396, -1, 16.464, 17.0997, 22.3675, 36.136, -30.8067, -28.3129
2.4, -1, 16.5092, 17.0602, 22.3895, 36.2037, -30.7369, -28.3641
2.403, -1, 16.5543, 17.0208, 22.4115, 36.2713, -30.6672, -28.4151
2.408, -1, 16.5995, 16.9815, 22.4335, 36.3388, -30.5975, -28.4662
2.412, -1, 16.6445, 16.9421, 22.4554, 36.4063, -30.5279, -28.5172
2.416, -1, 16.6896, 16.9028, 22.4774, 36.4737, -30.4583, -28.5682
2.42, -1, 16.7346, 16.8635, 22.4993, 36.5411, -30.3888, -28.6192
2.423, -1, 16.7796, 16.8242, 22.5212, 36.6085, -30.3193, -28.6701
2.428, -1, 16.8246, 16.785, 22.5431, 36.6758, -30.2499, -28.7209
2.432, -1, 16.8695, 16.7458, 22.5649, 36.7431, -30.1805, -28.7718
2.436, -1, 16.9144, 16.7066, 22.5868, 36.8103, -30.1112, -28.8226
2.439, -1, 16.9593, 16.6675, 22.6086, 36.8774, -30.0419, -28.8734
2.444, -1, 17.0041, 16.6283, 22.6305, 36.9445, -29.9727, -28.9241
2.448, -1, 17.0489, 16.5892, 22.6523, 37.0116, -29.9035, -28.9748
2.452, -1, 17.0937, 16.5502, 22.6741, 37.0786, -29.8344, -29.0255
2.456, -1, 17.1382, 16.5112, 22.6958, 37.1456, -29.7653, -29.0761
2.459, -1, 17.1825, 16.4724, 22.7175, 37.2125, -29.6962, -29.1267
2.464, -1, 17.2262, 16.434, 22.7391, 37.2794, -29.6273, -29.1772
2.468, -1, 17.2691, 16.3961, 22.7605, 37.346, -29.5586, -29.2276
2.472, -1, 17.311, 16.3588, 22.7817, 37.4124, -29.4901, -29.2778
2.476, -1, 17.3517, 16.3225, 22.8026, 37.4784, -29.4221, -29.3277
2.479, -1, 17.3912, 16.2871, 22.8231, 37.5437, -29.3548, -29.3771
2.484, -1, 17.4295, 16.253, 22.8431, 37.608, -29.2885, -29.4257
2.488, -1, 17.4665, 16.2202, 22.8626, 37.671, -29.2236, -29.4734
2.492, -1, 17.5021, 16.1888, 22.8815, 37.7323, -29.1605, -29.5197
2.495, -1, 17.5362, 16.1591, 22.8996, 37.7914, -29.0996, -29.5644
2.5, -1, 17.5687, 16.1312, 22.9169, 37.848, -29.0413, -29.6072
2.504, -1, 17.5994, 16.105, 22.9332, 37.9015, -28.9862, -29.6477
2.508, -1, 17.6283, 16.0805, 22.9486, 37.9516, -28.9346, -29.6856
2.512, -1, 17.6555, 16.0574, 22.9628, 37.9978, -28.887, -29.7205
2.515, -1, 17.6812, 16.0355, 22.976, 38.0399, -28.8436, -29.7524
2.52, -1, 17.7053, 16.0146, 22.988, 38.0776, -28.8048, -29.7809
2.524, -1, 17.7278, 15.9948, 22.9989, 38.1108, -28.7704, -29.806
2.528, -1, 17.7489, 15.976, 23.0086, 38.1396, -28.7407, -29.8278
2.531, -1, 17.7682, 15.9585, 23.0172, 38.1642, -28.7153, -29.8463
2.536, -1, 17.7858, 15.9425, 23.0247, 38.1847, -28.6941, -29.8618
2.54, -1, 17.8015, 15.9283, 23.0311, 38.2015, -28.6766, -29.8745
2.544, -1, 17.8154, 15.9158, 23.0365, 38.2151, -28.6626, -29.8847
2.548, -1, 17.8278, 15.905, 23.041, 38.2257, -28.6516, -29.8927
2.551, -1, 17.8387, 15.8958, 23.0447, 38.2338, -28.6431, -29.8988
2.556, -1, 17.8481, 15.8883, 23.0477, 38.2399, -28.6368, -29.9034
2.56, -1, 17.8562, 15.8821, 23.0501, 38.2443, -28.6322, -29.9067
2.564, -1, 17.8629, 15.8772, 23.0519, 38.2474, -28.6288, -29.909
2.568, -1, 17.8682, 15.8735, 23.0532, 38.2496, -28.6265, -29.9107
2.571, 2, 17.8723, 15.8707, 23.0542, 38.2512, -28.6249, -29.9118
2.576, 2, 17.8752, 15.8687, 23.0549, 38.2522, -28.6238, -29.9126
2.58, 2, 17.8773, 15.8674, 23.0554, 38.2529, -28.6231, -29.9131
2.584, 2, 17.8786, 15.8665, 23.0557, 38.2534, -28.6226, -29.9135
2.587, 2, 17.8796, 15.8659, 23.0559, 38.2537, -28.6222, -29.9137
2.592, 2, 17.8802, 15.8654, 23.0561, 38.2539, -28.622, -29.9139
2.596, 2, 17.8807, 15.8651, 23.0562, 38.2541, -28.6218, -29.914
2.6, 2, 17.881, 15.865, 23.0562, 38.2542, -28.6217, -29.9141
2.604, 2, 17.8812, 15.8648, 23.0563, 38.2542, -28.6217, -29.9141
2.607, 2, 17.8813, 15.8647, 23.0563, 38.2543, -28.6216, -29.9142
2.612, 2, 17.8814, 15.8647, 23.0563, 38.2543, -28.6216, -29.9142
2.616, 2, 17.8814, 15.8646, 23.0564, 38.2543, -28.6216, -29.9142
2.62, 2, 17.8815, 15.8646, 23.0564, 38.2543, -28.6215, -29.9142
2.624, 2, 17.8815, 15.8646, 23.0564, 38.2543, -28.6215, -29.9142
2.627, 2, 17.8815, 15.8646, 23.0564, 38.2544, -28.6215, -29.9142
2.632, 2, 17.8815, 15.8646, 23.0564, 38.2544, -28.6215, -29.9142
2.636, 2, 17.8816, 15.8646, 23.0564, 38.2544, -28.6215, -29.9142
2.64, 2, 17.8816, 15.8646, 23.0564, 38.2544, -28.6215, -29.9142
2.643, 2, 17.8816, 15.8646, 23.0564, 38.2544, -28.6215, -29.9142
2.648, 2, 17.8816, 15.8646, 23.0564, 38.2544, -28.6215, -29.9142
2.652, 2, 17.8816, 15.8646, 23.0564, 38.2544, -28.6215, -29.9142
2.656, 2, 17.8816, 15.8646, 23.0564, 38.2544, -28.6215, -29.9142
2.66, 2, 17.8816, 15.8645, 23.0564, 38.2544, -28.6215, -29.9142
2.663, 2, 17.8816, 15.8645, 23.0564, 38.2544, -28.6215, -29.9142
2.668, 2, 17.8816, 15.8645, 23.0564, 38.2544, -28.6215, -29.9142
2.672, 2, 17.8816, 15.8645, 23.0564, 38.2544, -28.6215, -29.9142
2.676, 2, 17.8816, 15.8645, 23.0564, 38.2544, -28.6215, -29.9142
2.679, 2, 17.8816, 15.8645, 23.0564, 38.2544, -28.6215, -29.9142
2.684, 2, 17.8816, 15.8645, 23.0564, 38.2544, -28.6215, -29.9142
2.688, 2, 17.8816, 15.8645, 23.0564, 38.2544, -28.6215, -29.9142
2.692, 2, 17.8816, 15.8645, 23.0564, 38.2544, -28.6215, -29.9142
2.696, 2, 17.8816, 15.8645, 23.0564, 38.2544, -28.6215, -29.9142
2.699, 2, 17.8816, 15.8645, 23.0564, 38.2544, -28.6215, -29.9142
2.704, 2, 17.8816, 15.8645, 23.0564, 38.2544, -28.6215, -29.9142
2.708, 2, 17.8816, 15.8645, 23.0564, 38.2544, -28.6215, -29.9142
2.712, 2, 17.8816, 15.8645, 23.0564, 38.2544, -28.6215, -29.9142
2.716, 2, 17.8816, 15.8645, 23.0564, 38.2544, -28.6215, -29.9142
2.719, 2, 17.8816, 15.8645, 23.0564, 38.2544, -28.6215, -29.9142
2.724, 2, 17.8816, 15.8645, 23.0564, 38.2544, -28.6215, -29.9142
2.728, 2, 17.8816, 15.8645, 23.0564, 38.2544, -28.6215, -29.9142
2.732, 2, 17.8816, 15.8645, 23.0564, 38.2544, -28.6215, -29.9142
2.735, 2, 17.8816, 15.8645, 23.0564, 38.2544, -28.6215, -29.9142
2.74, 2, 17.8816, 15.8645, 23.0564, 38.2544, -28.6215, -29.9142
2.744, 2, 17.8816, 15.8645, 23.0564, 38.2544, -28.6215, -29.9142
2.748, 2, 17.8816, 15.8645, 23.0564, 38.2544, -28.6215, -29.9142
2.752, 2, 17.8816, 15.8645, 23.0564, 38.2544, -28.6215, -29.9142
2.755, 2, 17.8816, 15.8645, 23.0564, 38.2544, -28.6215, -29.9142
2.76, 2, 17.8816, 15.8645, 23.0564, 38.2544, -28.6215, -29.9142
2.764, 2, 17.8816, 15.8645, 23.0564, 38.2544, -28.6215, -29.9142
2.768, 2, 17.8816, 15.8645, 23.0564, 38.2544, -28.6215, -29.9142
2.772, 2, 17.8816, 15.8645, 23.0564, 38.2544, -28.6215, -29.9142
2.775, 2, 17.8816, 15.8645, 23.0564, 38.2544, -28.6215, -29.9142
2.78, 2, 17.8816, 15.8645, 23.0564, 38.2544, -28.6215, -29.9142
2.784, 2, 17.8816, 15.8645, 23.0564, 38.2544, -28.6215, -29.9142
2.788, 2, 17.8816, 15.8645, 23.0564, 38.2544, -28.6215, -29.9142
2.791, 2, 17.8816, 15.8645, 23.0564, 38.2544, -28.6215, -29.9142
2.796, 2, 17.8816, 15.8645, 23.0564, 38.2544, -28.6215, -29.9142
2.8, 2, 17.8816, 15.8645, 23.0564, 38.2544, -28.6215, -29.9142
2.804, 2, 17.8816, 15.8645, 23.0564, 38.2544, -28.6215, -29.9142
2.808, 2, 17.8816, 15.8645, 23.0564, 38.2544, -28.6215, -29.9142
2.811, 2, 17.8816, 15.8645, 23.0564, 38.2544, -28.6215, -29.9142
2.816, 2, 17.8816, 15.8645, 23.0564, 38.2544, -28.6215, -29.9142
2.82, 2, 17.8816, 15.8645, 23.0564, 38.2544, -28.6215, -29.9142
2.824, 2, 17.8816, 15.8645, 23.0564, 38.2544, -28.6215, -29.9142
2.828, 2, 17.8816, 15.8645, 23.0564, 38.2544, -28.6215, -29.9142
2.831, 2, 17.8816, 15.8645, 23.0564, 38.2544, -28.6215, -29.9142
2.836, 2, 17.8816, 15.8645, 23.0564, 38.2544, -28.6215, -29.9142
2.84, 2, 17.8816, 15.8645, 23.0564, 38.2544, -28.6215, -29.9142
2.844, 2, 17.8816, 15.8645, 23.0564, 38.2544, -28.6215, -29.9142
2.847, 2, 17.8816, 15.8645, 23.0564, 38.2544, -28.6215, -29.9142
2.852, 2, 17.8816, 15.8645, 23.0564, 38.2544, -28.6215, -29.9142
2.856, 2, 17.8816, 15.8645, 23.0564, 38.2544, -28.6215, -29.9142
2.86, 2, 17.8816, 15.8645, 23.0564, 38.2544, -28.6215, -29.9142
2.864, 2, 17.8816, 15.8645, 23.0564, 38.2544, -28.6215, -29.9142
2.867, 2, 17.8816, 15.8645, 23.0564, 38.2544, -28.6215, -29.9142
2.872, 2, 17.8816, 15.8645, 23.0564, 38.2544, -28.6215, -29.9142
2.876, 2, 17.8816, 15.8645, 23.0564, 38.2544, -28.6215, -29.9142
2.88, 2, 17.8816, 15.8645, 23.0564, 38.2544, -28.6215, -29.9142
2.883, 2, 17.8816, 15.8645, 23.0564, 38.2544, -28.6215, -29.9142
2.888, 2, 17.8816, 15.8645, 23.0564, 38.2544, -28.6215, -29.9142
2.892, 2, 17.8816, 15.8645, 23.0564, 38.2544, -28.6215, -29.9142
2.896, 2, 17.8816, 15.8645, 23.0564, 38.2544, -28.6215, -29.9142
2.9, 2, 17.8816, 15.8645, 23.0564, 38.2544, -28.6215, -29.9142
2.903, 2, 17.8816, 15.8645, 23.0564, 38.2544, -28.6215, -29.9142
2.908, 2, 17.8816, 15.8645, 23.0564, 38.2544, -28.6215, -29.9142
2.912, 2, 17.8816, 15.8645, 23.0564, 38.2544, -28.6215, -29.9142
2.916, 2, 17.8816, 15.8645, 23.0564, 38.2544, -28.6215, -29.9142
2.92, 2, 17.8816, 15.8645, 23.0564, 38.2544, -28.6215, -29.9142
2.923, 2, 17.8816, 15.8645, 23.0564, 38.2544, -28.6215, -29.9142
2.928, 2, 17.8816, 15.8645, 23.0564, 38.2544, -28.6215, -29.9142
2.932, 2, 17.8816, 15.8645, 23.0564, 38.2544, -28.6215, -29.9142
2.936, 2, 17.8816, 15.8645, 23.0564, 38.2544, -28.6215, -29.9142
2.939, 2, 17.8816, 15.8645, 23.0564, 38.2544, -28.6215, -29.9142
2.944, 2, 17.8816, 15.8645, 23.0564, 38.2544, -28.6215, -29.9142
2.948, 2, 17.8816, 15.8645, 23.0564, 38.2544, -28.6215, -29.9142
2.952, 2, 17.8816, 15.8645, 23.0564, 38.2544, -28.6215, -29.9142
2.956, 2, 17.8816, 15.8645, 23.0564, 38.2544, -28.6215, -29.9142
2.959, 2, 17.8816, 15.8645, 23.0564, 38.2544, -28.6215, -29.9142
2.964, 2, 17.8816, 15.8645, 23.0564, 38.2544, -28.6215, -29.9142
2.968, 2, 17.8816, 15.8645, 23.0564, 38.2544, -28.6215, -29.9142
2.972, 2, 17.8816, 15.8645, 23.0564, 38.2544, -28.6215, -29.9142
2.976, 2, 17.8816, 15.8645, 23.0564, 38.2544, -28.6215, -29.9142
2.98, 2, 17.8816, 15.8645, 23.0564, 38.2544, -28.6215, -29.9142
2.984, 2, 17.8816, 15.8645, 23.0564, 38.2544, -28.6215, -29.9142
2.988, 2, 17.8816, 15.8645, 23.0564, 38.2544, -28.6215, -29.9142
2.992, 2, 17.8816, 15.8645, 23.0564, 38.2544, -28.6215, -29.9142
2.995, 2, 17.8816, 15.8645, 23.0564, 38.2544, -28.6215, -29.9142
3, 2, 17.8816, 15.8645, 23.0564, 38.2544, -28.6215, -29.9142
3.004, 2, 17.8816, 15.8645, 23.0564, 38.2544, -28.6215, -29.9142
3.008, 2, 17.8816, 15.8645, 23.0564, 38.2544, -28.6215, -29.9142
3.012, 2, 17.8816, 15.8645, 23.0564, 38.2544, -28.6215, -29.9142
3.015, 2, 17.8816, 15.8645, 23.0564, 38.2544, -28.6215, -29.9142
3.02, 2, 17.8816, 15.8645, 23.0564, 38.2544, -28.6215, -29.9142
3.024, 2, 17.8816, 15.8645, 23.0564, 38.2544, -28.6215, -29.9142
3.028, 2, 17.8816, 15.8645, 23.0564, 38.2544, -28.6215, -29.9142
3.031, 2, 17.8816, 15.8645, 23.0564, 38.2544, -28.6215, -29.9142
3.036, 2, 17.8816, 15.8645, 23.0564, 38.2544, -28.6215, -29.9142
3.04, 2, 17.8816, 15.8645, 23.0564, 38.2544, -28.6215, -29.9142
3.044, 2, 17.8816, 15.8645, 23.0564, 38.2544, -28.6215, -29.9142
3.048, 2, 17.8816, 15.8645, 23.0564, 38.2544, -28.6215, -29.9142
3.051, 2, 17.8816, 15.8645, 23.0564, 38.2544, -28.6215, -29.9142
3.056, 2, 17.8816, 15.8645, 23.0564, 38.2544, -28.6215, -29.9142
3.06, 2, 17.8816, 15.8645, 23.0564, 38.2544, -28.6215, -29.9142
3.064, 2, 17.8816, 15.8645, 23.0564, 38.2544, -28.6215, -29.9142
3.068, 2, 17.8816, 15.8645, 23.0564, 38.2544, -28.6215, -29.9142
3.071, 2, 17.8816, 15.8645, 23.0564, 38.2544, -28.6215, -29.9142
3.076, 2, 17.8816, 15.8645, 23.0564, 38.2544, -28.6215, -29.9142
3.08, 2, 17.8816, 15.8645, 23.0564, 38.2544, -28.6215, -29.9142
3.084, 2, 17.8816, 15.8645, 23.0564, 38.2544, -28.6215, -29.9142
3.087, 2, 17.8816, 15.8645, 23.0564, 38.2544, -28.6215, -29.9142
3.092, 2, 17.8816, 15.8645, 23.0564, 38.2544, -28.6215, -29.9142
3.096, 2, 17.8816, 15.8645, 23.0564, 38.2544, -28.6215, -29.9142
3.1, 2, 17.8816, 15.8645, 23.0564, 38.2544, -28.6215, -29.9142
3.104, 2, 17.8816, 15.8645, 23.0564, 38.2544, -28.6215, -29.9142
3.107, 2, 17.8816, 15.8645, 23.0564, 38.2544, -28.6215, -29.9142
3.112, 2, 17.8816, 15.8645, 23.0564, 38.2544, -28.6215, -29.9142
3.116, 2, 17.8816, 15.8645, 23.0564, 38.2544, -28.6215, -29.9142
3.12, 2, 17.8816, 15.8645, 23.0564, 38.2544, -28.6215, -29.9142
3.124, 2, 17.8816, 15.8645, 23.0564, 38.2544, -28.6215, -29.9142
3.128, 2, 17.8816, 15.8645, 23.0564, 38.2544, -28.6215, -29.9142
3.132, 2, 17.8816, 15.8645, 23.0564, 38.2544, -28.6215, -29.9142
3.136, 2, 17.8816, 15.8645, 23.0564, 38.2544, -28.6215, -29.9142
3.14, 2, 17.8816, 15.8645, 23.0564, 38.2544, -28.6215, -29.9142
3.143, 2, 17.8816, 15.8645, 23.0564, 38.2544, -28.6215, -29.9142
3.148, 2, 17.8816, 15.8645, 23.0564, 38.2544, -28.6215, -29.9142
3.152, 2, 17.8816, 15.8645, 23.0564, 38.2544, -28.6215, -29.9142
3.156, 2, 17.8816, 15.8645, 23.0564, 38.2544, -28.6215, -29.9142
3.16, 2, 17.8816, 15.8645, 23.0564, 38.2544, -28.6215, -29.9142
3.163, 2, 17.8816, 15.8645, 23.0564, 38.2544, -28.6215, -29.9142
3.168, 2, 17.8816, 15.8645, 23.0564, 38.2544, -28.6215, -29.9142
3.172, 2, 17.8816, 15.8645, 23.0564, 38.2544, -28.6215, -29.9142
3.176, 2, 17.8816, 15.8645, 23.0564, 38.2544, -28.6215, -29.9142
3.179, 2, 17.8816, 15.8645, 23.0564, 38.2544, -28.6215, -29.9142
3.184, 2, 17.8816, 15.8645, 23.0564, 38.2544, -28.6215, -29.9142
3.188, 2, 17.8816, 15.8645, 23.0564, 38.2544, -28.6215, -29.9142
3.192, 2, 17.8816, 15.8645, 23.0564, 38.2544, -28.6215, -29.9142
3.196, 2, 17.8816, 15.8645, 23.0564, 38.2544, -28.6215, -29.9142
3.199, 2, 17.8816, 15.8645, 23.0564, 38.2544, -28.6215, -29.9142
3.204, 2, 17.8816, 15.8645, 23.0564, 38.2544, -28.6215, -29.9142
3.208, 2, 17.8816, 15.8645, 23.0564, 38.2544, -28.6215, -29.9142
3.212, 2, 17.8816, 15.8645, 23.0564, 38.2544, -28.6215, -29.9142
3.216, 2, 17.8816, 15.8645, 23.0564, 38.2544, -28.6215, -29.9142
3.22, 2, 17.8816, 15.8645, 23.0564, 38.2544, -28.6215, -29.9142
3.224, 2, 17.8816, 15.8645, 23.0564, 38.2544, -28.6215, -29.9142
3.228, 2, 17.8816, 15.8645, 23.0564, 38.2544, -28.6215, -29.9142
3.232, 2, 17.8816, 15.8645, 23.0564, 38.2544, -28.6215, -29.9142
3.235, 2, 17.8816, 15.8645, 23.0564, 38.2544, -28.6215, -29.9142
3.24, 2, 17.8816, 15.8645, 23.0564, 38.2544, -28.6215, -29.9142
3.244, 2, 17.8816, 15.8645, 23.0564, 38.2544, -28.6215, -29.9142
3.248, 2, 17.8816, 15.8645, 23.0564, 38.2544, -28.6215, -29.9142
3.252, 2, 17.8816, 15.8645, 23.0564, 38.2544, -28.6215, -29.9142
3.255, 2, 17.8816, 15.8645, 23.0564, 38.2544, -28.6215, -29.9142
3.26, 2, 17.8816, 15.8645, 23.0564, 38.2544, -28.6215, -29.9142
3.264, 2, 17.8816, 15.8645, 23.0564, 38.2544, -28.6215, -29.9142
3.268, 2, 17.8816, 15.8645, 23.0564, 38.2544, -28.6215, -29.9142
3.272, 2, 17.8816, 15.8645, 23.0564, 38.2544, -28.6215, -29.9142
3.276, 2, 17.8816, 15.8645, 23.0564, 38.2544, -28.6215, -29.9142
3.28, 2, 17.8816, 15.8645, 23.0564, 38.2544, -28.6215, -29.9142
3.284, 2, 17.8816, 15.8645, 23.0564, 38.2544, -28.6215, -29.9142
3.288, 2, 17.8816, 15.8645, 23.0564, 38.2544, -28.6215, -29.9142
3.291, 2, 17.8816, 15.8645, 23.0564, 38.2544, -28.6215, -29.9142
3.296, 2, 17.8816, 15.8645, 23.0564, 38.2544, -28.6215, -29.9142
3.3, 2, 17.8816, 15.8645, 23.0564, 38.2544, -28.6215, -29.9142
3.304, 2, 17.8816, 15.8645, 23.0564, 38.2544, -28.6215, -29.9142
3.308, 2, 17.8816, 15.8645, 23.0564, 38.2544, -28.6215, -29.9142
3.312, 2, 17.8816, 15.8645, 23.0564, 38.2544, -28.6215, -29.9142
3.316, 2, 17.8816, 15.8645, 23.0564, 38.2544, -28.6215, -29.9142
3.32, 2, 17.8816, 15.8645, 23.0564, 38.2544, -28.6215, -29.9142
3.324, 2, 17.8816, 15.8645, 23.0564, 38.2544, -28.6215, -29.9142
3.328, 2, 17.8816, 15.8645, 23.0564, 38.2544, -28.6215, -29.9142
3.332, 2, 17.8816, 15.8645, 23.0564, 38.2544, -28.6215, -29.9142
3.336, 2, 17.8816, 15.8645, 23.0564, 38.2544, -28.6215, -29.9142
3.34, 2, 17.8816, 15.8645, 23.0564, 38.2544, -28.6215, -29.9142
3.344, 2, 17.8816, 15.8645, 23.0564, 38.2544, -28.6215, -29.9142
3.347, 2, 17.8816, 15.8645, 23.0564, 38.2544, -28.6215, -29.9142
3.352, 2, 17.8816, 15.8645, 23.0564, 38.2544, -28.6215, -29.9142
3.356, 2, 17.8816, 15.8645, 23.0564, 38.2544, -28.6215, -29.9142
3.36, 2, 17.8816, 15.8645, 23.0564, 38.2544, -28.6215, -29.9142
3.364, 2, 17.8816, 15.8645, 23.0564, 38.2544, -28.6215, -29.9142
3.368, 2, 17.8816, 15.8645, 23.0564, 38.2544, -28.6215, -29.9142
3.372, 2, 17.8816, 15.8645, 23.0564, 38.2544, -28.6215, -29.9142
3.376, 2, 17.8816, 15.8645, 23.0564, 38.2544, -28.6215, -29.9142
3.38, 2, 17.8816, 15.8645, 23.0564, 38.2544, -28.6215, -29.9142
3.383, 2, 17.8816, 15.8645, 23.0564, 38.2544, -28.6215, -29.9142
3.388, 2, 17.8816, 15.8645, 23.0564, 38.2544, -28.6215, -29.9142
3.392, 2, 17.8816, 15.8645, 23.0564, 38.2544, -28.6215, -29.9142
3.396, 2, 17.8816, 15.8645, 23.0564, 38.2544, -28.6215, -29.9142
3.4, 2, 17.8816, 15.8645, 23.0564, 38.2544, -28.6215, -29.9142
3.403, 2, 17.8816, 15.8645, 23.0564, 38.2544, -28.6215, -29.9142
3.408, 2, 17.8816, 15.8645, 23.0564, 38.2544, -28.6215, -29.9142
3.412, 2, 17.8816, 15.8645, 23.0564, 38.2544, -28.6215, -29.9142
3.416, 2, 17.8816, 15.8645, 23.0564, 38.2544, -28.6215, -29.9142
3.42, 2, 17.8816, 15.8645, 23.0564, 38.2544, -28.6215, -29.9142
3.424, 2, 17.8816, 15.8645, 23.0564, 38.2544, -28.6215, -29.9142
3.428, 2, 17.8816, 15.8645, 23.0564, 38.2544, -28.6215, -29.9142
3.432, 2, 17.8816, 15.8645, 23.0564, 38.2544, -28.6215, -29.9142
3.436, 2, 17.8816, 15.8645, 23.0564, 38.2544, -28.6215, -29.9142
3.439, 2, 17.8816, 15.8645, 23.0564, 38.2544, -28.6215, -29.9142
3.444, 2, 17.8816, 15.8645, 23.0564, 38.2544, -28.6215, -29.9142
3.448, 2, 17.8816, 15.8645, 23.0564, 38.2544, -28.6215, -29.9142
3.452, 2, 17.8816, 15.8645, 23.0564, 38.2544, -28.6215, -29.9142
3.456, 2, 17.8816, 15.8645, 23.0564, 38.2544, -28.6215, -29.9142
3.46, 2, 17.8816, 15.8645, 23.0564, 38.2544, -28.6215, -29.9142
3.464, 2, 17.8816, 15.8645, 23.0564, 38.2544, -28.6215, -29.9142
3.468, 2, 17.8816, 15.8645, 23.0564, 38.2544, -28.6215, -29.9142
3.472, 2, 17.8816, 15.8645, 23.0564, 38.2544, -28.6215, -29.9142
3.476, 2, 17.8816, 15.8645, 23.0564, 38.2544, -28.6215, -29.9142
3.48, 2, 17.8816, 15.8645, 23.0564, 38.2544, -28.6215, -29.9142
3.484, 2, 17.8816, 15.8645, 23.0564, 38.2544, -28.6215, -29.9142
3.488, 2, 17.8816, 15.8645, 23.0564, 38.2544, -28.6215, -29.9142
3.492, 2, 17.8816, 15.8645, 23.0564, 38.2544, -28.6215, -29.9142
3.495, 2, 17.8816, 15.8645, 23.0564, 38.2544, -28.6215, -29.9142
3.5, 2, 17.8816, 15.8645, 23.0564, 38.2544, -28.6215, -29.9142
3.504, 2, 17.8816, 15.8645, 23.0564, 38.2544, -28.6215, -29.9142
3.508, 2, 17.8816, 15.8645, 23.0564, 38.2544, -28.6215, -29.9142
3.512, 2, 17.8816, 15.8645, 23.0564, 38.2544, -28.6215, -29.9142
3.516, 2, 17.8816, 15.8645, 23.0564, 38.2544, -28.6215, -29.9142
3.52, 2, 17.8816, 15.8645, 23.0564, 38.2544, -28.6215, -29.9142
3.524, 2, 17.8816, 15.8645, 23.0564, 38.2544, -28.6215, -29.9142
3.528, 2, 17.8816, 15.8645, 23.0564, 38.2544, -28.6215, -29.9142
3.531, 2, 17.8816, 15.8645, 23.0564, 38.2544, -28.6215, -29.9142
3.536, 2, 17.8816, 15.8645, 23.0564, 38.2544, -28.6215, -29.9142
3.54, 2, 17.8816, 15.8645, 23.0564, 38.2544, -28.6215, -29.9142
3.544, 2, 17.8816, 15.8645, 23.0564, 38.2544, -28.6215, -29.9142
3.548, 2, 17.8816, 15.8645, 23.0564, 38.2544, -28.6215, -29.9142
3.552, 2, 17.8816, 15.8645, 23.0564, 38.2544, -28.6215, -29.9142
3.556, 2, 17.8816, 15.8645, 23.0564, 38.2544, -28.6215, -29.9142
3.56, 2, 17.8816, 15.8645, 23.0564, 38.2544, -28.6215, -29.9142
3.564, 2, 17.8816, 15.8645, 23.0564, 38.2544, -28.6215, -29.9142
3.568, 2, 17.8816, 15.8645, 23.0564, 38.2544, -28.6215, -29.9142
3.572, 2, 17.8816, 15.8645, 23.0564, 38.2544, -28.6215, -29.9142
3.576, 2, 17.8816, 15.8645, 23.0564, 38.2544, -28.6215, -29.9142
3.58, 2, 17.8816, 15.8645, 23.0564, 38.2544, -28.6215, -29.9142
3.584, 2, 17.8816, 15.8645, 23.0564, 38.2544, -28.6215, -29.9142
3.587, 2, 17.8816, 15.8645, 23.0564, 38.2544, -28.6215, -29.9142
3.592, 2, 17.8816, 15.8645, 23.0564, 38.2544, -28.6215, -29.9142
3.596, 2, 17.8816, 15.8645, 23.0564, 38.2544, -28.6215, -29.9142
3.6, 2, 17.8816, 15.8645, 23.0564, 38.2544, -28.6215, -29.9142
3.604, 2, 17.8816, 15.8645, 23.0564, 38.2544, -28.6215, -29.9142
3.608, 2, 17.8816, 15.8645, 23.0564, 38.2544, -28.6215, -29.9142
3.612, 2, 17.8816, 15.8645, 23.0564, 38.2544, -28.6215, -29.9142
3.616, 2, 17.8816, 15.8645, 23.0564, 38.2544, -28.6215, -29.9142
3.62, 2, 17.8816, 15.8645, 23.0564, 38.2544, -28.6215, -29.9142
3.624, 2, 17.8816, 15.8645, 23.0564, 38.2544, -28.6215, -29.9142
3.628, 2, 17.8816, 15.8645, 23.0564, 38.2544, -28.6215, -29.9142
3.632, 2, 17.8816, 15.8645, 23.0564, 38.2544, -28.6215, -29.9142
3.636, 2, 17.8816, 15.8645, 23.0564, 38.2544, -28.6215, -29.9142
3.64, 2, 17.8816, 15.8645, 23.0564, 38.2544, -28.6215, -29.9142
3.644, 4, 17.8816, 15.8645, 23.0564, 38.2544, -28.6215, -29.9142
3.648, 4, 17.8816, 15.8645, 23.0564, 38.2544, -28.6215, -29.9142
3.652, 4, 17.8816, 15.8645, 23.0564, 38.2544, -28.6215, -29.9142
3.656, 4, 17.8816, 15.8645, 23.0564, 38.2544, -28.6215, -29.9142
3.66, 4, 17.8816, 15.8645, 23.0564, 38.2544, -28.6215, -29.9142
3.664, 4, 17.8816, 15.8645, 23.0564, 38.2544, -28.6215, -29.9142
3.668, 4, 17.8816, 15.8645, 23.0564, 38.2544, -28.6215, -29.9142
3.672, 4, 17.8816, 15.8645, 23.0564, 38.2544, -28.6215, -29.9142
3.676, 4, 17.8816, 15.8645, 23.0564, 38.2544, -28.6215, -29.9142
3.679, 4, 17.8816, 15.8645, 23.0564, 38.2544, -28.6215, -29.9142
3.684, 4, 17.8816, 15.8645, 23.0564, 38.2544, -28.6215, -29.9142
3.688, 4, 17.8816, 15.8645, 23.0564, 38.2544, -28.6215, -29.9142
3.692, 4, 17.8816, 15.8645, 23.0564, 38.2544, -28.6215, -29.9142
3.696, 4, 17.8816, 15.8645, 23.0564, 38.2544, -28.6215, -29.9142
3.7, 4, 17.8816, 15.8645, 23.0564, 38.2544, -28.6215, -29.9142
3.704, 4, 17.8816, 15.8645, 23.0564, 38.2544, -28.6215, -29.9142
3.708, 4, 17.8816, 15.8645, 23.0564, 38.2544, -28.6215, -29.9142
3.712, 4, 17.8816, 15.8645, 23.0564, 38.2544, -28.6215, -29.9142
3.716, 4, 17.8816, 15.8645, 23.0564, 38.2544, -28.6215, -29.9142
3.72, 4, 17.8816, 15.8645, 23.0564, 38.2544, -28.6215, -29.9142
3.724, 4, 17.8816, 15.8645, 23.0564, 38.2544, -28.6215, -29.9142
3.728, 4, 17.8816, 15.8645, 23.0564, 38.2544, -28.6215, -29.9142
3.732, 4, 17.8816, 15.8645, 23.0564, 38.2544, -28.6215, -29.9142
3.735, 4, 17.8816, 15.8645, 23.0564, 38.2544, -28.6215, -29.9142
3.74, 4, 17.8816, 15.8645, 23.0564, 38.2544, -28.6215, -29.9142
3.744, 4, 17.8816, 15.8645, 23.0564, 38.2544, -28.6215, -29.9142
3.75, 4, 17.8816, 15.8645, 23.0564, 38.2544, -28.6215, -29.9142
3.752, 4, 17.8816, 15.8645, 23.0564, 38.2544, -28.6215, -29.9142
3.756, 4, 17.8816, 15.8645, 23.0564, 38.2544, -28.6215, -29.9142
3.76, 4, 17.8816, 15.8645, 23.0564, 38.2544, -28.6215, -29.9142
3.764, 4, 17.8816, 15.8645, 23.0564, 38.2544, -28.6215, -29.9142
3.768, 4, 17.8816, 15.8645, 23.0564, 38.2544, -28.6215, -29.9142
3.772, 4, 17.8816, 15.8645, 23.0564, 38.2544, -28.6215, -29.9142
3.776, 4, 17.8816, 15.8646, 23.0564, 38.2544, -28.6215, -29.9142
3.78, 4, 17.8815, 15.8646, 23.0564, 38.2544, -28.6215, -29.9142
3.784, 4, 17.8813, 15.8647, 23.0563, 38.2543, -28.6215, -29.9142
3.788, 4, 17.8808, 15.8651, 23.0563, 38.2543, -28.6215, -29.9142
3.792, 4, 17.8799, 15.8658, 23.0561, 38.2541, -28.6216, -29.914
3.796, 4, 17.8784, 15.867, 23.0557, 38.2537, -28.6217, -29.9137
3.8, 4, 17.8763, 15.869, 23.0552, 38.2529, -28.622, -29.913
3.804, 4, 17.8734, 15.8718, 23.0543, 38.2514, -28.6225, -29.9118
3.808, 4, 17.8697, 15.8758, 23.053, 38.2487, -28.6234, -29.9096
3.812, 4, 17.8651, 15.8812, 23.0512, 38.2445, -28.6248, -29.906
3.816, 5, 17.8594, 15.8885, 23.0486, 38.2381, -28.6269, -29.9006
3.82, 5, 17.8526, 15.8978, 23.0452, 38.2288, -28.6299, -29.8927
3.824, 5, 17.8445, 15.9094, 23.0407, 38.2157, -28.6342, -29.8817
3.828, 5, 17.8347, 15.9237, 23.0348, 38.198, -28.6401, -29.8667
3.832, 5, 17.8233, 15.9405, 23.0274, 38.1745, -28.6478, -29.8468
3.836, 5, 17.8102, 15.9598, 23.0182, 38.1443, -28.6577, -29.8211
3.84, 5, 17.7955, 15.9816, 23.0071, 38.1062, -28.6703, -29.7887
3.844, 5, 17.7792, 16.0059, 22.9939, 38.0593, -28.6857, -29.7488
3.848, 5, 17.7612, 16.0327, 22.9784, 38.0026, -28.7045, -29.7006
3.852, 5, 17.7416, 16.0622, 22.9605, 37.9355, -28.7267, -29.6435
3.856, 5, 17.7202, 16.0947, 22.9401, 37.8576, -28.7525, -29.5771
3.86, 5, 17.697, 16.1301, 22.9171, 37.7685, -28.7821, -29.5013
3.864, 5, 17.6719, 16.1686, 22.8916, 37.6683, -28.8155, -29.416
3.868, 5, 17.6449, 16.21, 22.8635, 37.5572, -28.8526, -29.3215
3.872, 5, 17.6162, 16.2541, 22.8329, 37.4357, -28.8934, -29.218
3.876, 5, 17.5857, 16.3008, 22.8, 37.3043, -28.9376, -29.1063
3.88, 5, 17.5535, 16.3499, 22.7651, 37.164, -28.9849, -28.9869
3.884, 5, 17.5196, 16.4015, 22.7281, 37.0156, -29.0352, -28.8608
3.888, 5, 17.484, 16.4557, 22.6893, 36.8602, -29.0881, -28.7287
3.892, 5, 17.4466, 16.5124, 22.649, 36.6988, -29.1432, -28.5918
3.896, 5, 17.4074, 16.5718, 22.6073, 36.5327, -29.2002, -28.4507
3.9, 5, 17.3666, 16.6336, 22.5645, 36.3626, -29.2589, -28.3065
3.904, 5, 17.3243, 16.6976, 22.5207, 36.1894, -29.3189, -28.1597
3.908, 5, 17.2806, 16.7634, 22.4762, 36.014, -29.3799, -28.0111
3.912, 5, 17.2359, 16.8307, 22.4311, 35.8369, -29.4419, -27.8613
3.916, 5, 17.1901, 16.8991, 22.3856, 35.6587, -29.5046, -27.7105
3.92, 5, 17.1435, 16.9684, 22.3398, 35.4798, -29.5678, -27.5593
3.924, 5, 17.0961, 17.0385, 22.2938, 35.3005, -29.6316, -27.4079
3.928, 5, 17.0481, 17.109, 22.2476, 35.1212, -29.6957, -27.2565
3.932, 5, 16.9995, 17.18, 22.2014, 34.9419, -29.7601, -27.1052
3.936, 5, 16.9505, 17.2511, 22.1552, 34.7628, -29.8248, -26.9543
3.94, 5, 16.9012, 17.3224, 22.109, 34.5841, -29.8897, -26.8037
3.944, 5, 16.8517, 17.3936, 22.0629, 34.4057, -29.9549, -26.6536
3.948, 5, 16.8019, 17.4649, 22.0169, 34.2278, -30.0202, -26.5039
3.952, 5, 16.7519, 17.5361, 21.971, 34.0503, -30.0858, -26.3547
3.956, 5, 16.7018, 17.6071, 21.9252, 33.8733, -30.1515, -26.206
3.96, 5, 16.6516, 17.6781, 21.8795, 33.6967, -30.2175, -26.0577
3.964, 5, 16.6012, 17.749, 21.834, 33.5206, -30.2836, -25.91
3.968, 5, 16.5507, 17.8197, 21.7886, 33.3451, -30.3499, -25.7628
3.972, 5, 16.5001, 17.8903, 21.7432, 33.17, -30.4164, -25.6161
3.976, 5, 16.4494, 17.9607, 21.6981, 32.9954, -30.483, -25.4699
3.98, 5, 16.3985, 18.0311, 21.653, 32.8213, -30.5499, -25.3242
3.984, 5, 16.3476, 18.1012, 21.6081, 32.6477, -30.6169, -25.179
3.988, 5, 16.2965, 18.1713, 21.5633, 32.4746, -30.684, -25.0344
3.992, 5, 16.2453, 18.2412, 21.5187, 32.3019, -30.7514, -24.8902
3.996, 5, 16.1941, 18.3109, 21.4742, 32.1298, -30.819, -24.7466
3.999, 5, 16.1427, 18.3805, 21.4298, 31.9582, -30.8867, -24.6034
4.004, 5, 16.0912, 18.4499, 21.3856, 31.787, -30.9546, -24.4608
4.008, 5, 16.0396, 18.5193, 21.3415, 31.6164, -31.0226, -24.3187
4.012, 5, 15.9879, 18.5884, 21.2976, 31.4462, -31.0909, -24.177
4.016, 5, 15.9361, 18.6574, 21.2537, 31.2765, -31.1593, -24.0359
4.02, 5, 15.8842, 18.7263, 21.2101, 31.1073, -31.2279, -23.8952
4.024, 5, 15.8322, 18.795, 21.1665, 30.9386, -31.2967, -23.7551
4.028, 5, 15.7801, 18.8636, 21.1231, 30.7704, -31.3656, -23.6154
4.032, 5, 15.7279, 18.932, 21.0799, 30.6026, -31.4347, -23.4763
4.036, 5, 15.6756, 19.0003, 21.0368, 30.4353, -31.504, -23.3376
4.04, 5, 15.6232, 19.0684, 20.9938, 30.2686, -31.5735, -23.1994
4.044, 5, 15.5707, 19.1364, 20.951, 30.1022, -31.6431, -23.0618
4.048, 5, 15.5181, 19.2042, 20.9084, 29.9364, -31.713, -22.9245
4.052, 5, 15.4654, 19.2719, 20.8658, 29.771, -31.783, -22.7878
4.056, 5, 15.4126, 19.3395, 20.8235, 29.6061, -31.8531, -22.6516
4.06, 5, 15.3598, 19.4069, 20.7812, 29.4417, -31.9235, -22.5158
4.064, 5, 15.3068, 19.4741, 20.7391, 29.2778, -31.994, -22.3805
4.068, 5, 15.2537, 19.5412, 20.6972, 29.1143, -32.0647, -22.2457
4.072, 5, 15.2005, 19.6082, 20.6554, 28.9513, -32.1356, -22.1114
4.076, 5, 15.1473, 19.675, 20.6138, 28.7887, -32.2066, -21.9776
4.08, 5, 15.0939, 19.7416, 20.5723, 28.6267, -32.2778, -21.8442
4.084, 5, 15.0404, 19.8081, 20.5309, 28.4651, -32.3492, -21.7113
4.088, 5, 14.9869, 19.8745, 20.4897, 28.3039, -32.4208, -21.5788
4.092, 5, 14.9333, 19.9407, 20.4487, 28.1432, -32.4925, -21.4468
4.096, 5, 14.8795, 20.0068, 20.4078, 27.983, -32.5644, -21.3153
4.1, 5, 14.8257, 20.0727, 20.3671, 27.8232, -32.6365, -21.1843
4.104, 5, 14.7718, 20.1385, 20.3265, 27.6639, -32.7087, -21.0537
4.108, 5, 14.7178, 20.2041, 20.286, 27.5051, -32.7812, -20.9236
4.112, 5, 14.6637, 20.2696, 20.2457, 27.3467, -32.8537, -20.7939
4.116, 5, 14.6095, 20.3349, 20.2056, 27.1887, -32.9265, -20.6647
4.12, 5, 14.5552, 20.4001, 20.1656, 27.0312, -32.9995, -20.5359
4.124, 5, 14.5009, 20.4651, 20.1258, 26.8742, -33.0726, -20.4076
4.128, 5, 14.4464, 20.53, 20.0861, 26.7176, -33.1458, -20.2798
4.132, 5, 14.3919, 20.5947, 20.0466, 26.5614, -33.2193, -20.1524
4.136, 5, 14.3372, 20.6593, 20.0072, 26.4057, -33.2929, -20.0254
4.14, 5, 14.2825, 20.7238, 19.968, 26.2505, -33.3667, -19.8989
4.144, 5, 14.2277, 20.7881, 19.9289, 26.0957, -33.4407, -19.7729
4.148, 5, 14.1728, 20.8522, 19.89, 25.9413, -33.5148, -19.6473
4.152, 5, 14.1179, 20.9162, 19.8513, 25.7874, -33.5891, -19.5221
4.156, 5, 14.0628, 20.9801, 19.8127, 25.6339, -33.6636, -19.3974
4.16, 5, 14.0077, 21.0438, 19.7742, 25.4808, -33.7382, -19.2731
4.164, 5, 13.9524, 21.1073, 19.7359, 25.3282, -33.813, -19.1492
4.168, 5, 13.8971, 21.1708, 19.6978, 25.1761, -33.888, -19.0258
4.172, 5, 13.8417, 21.234, 19.6598, 25.0243, -33.9632, -18.9028
4.176, 5, 13.7862, 21.2971, 19.622, 24.873, -34.0385, -18.7802
4.18, 5, 13.7307, 21.3601, 19.5844, 24.7221, -34.114, -18.6581
4.184, 5, 13.675, 21.4229, 19.5469, 24.5717, -34.1897, -18.5364
4.188, 5, 13.6193, 21.4856, 19.5096, 24.4217, -34.2655, -18.4152
4.192, 5, 13.5635, 21.5482, 19.4724, 24.2721, -34.3416, -18.2943
4.196, 5, 13.5076, 21.6105, 19.4354, 24.1229, -34.4178, -18.1739
4.2, 5, 13.4516, 21.6728, 19.3985, 23.9742, -34.4941, -18.0539
4.204, 5, 13.3956, 21.7349, 19.3618, 23.8259, -34.5706, -17.9343
4.208, 5, 13.3395, 21.7968, 19.3253, 23.678, -34.6473, -17.8152
4.212, 5, 13.2833, 21.8586, 19.289, 23.5305, -34.7242, -17.6965
4.216, 5, 13.227, 21.9203, 19.2528, 23.3835, -34.8013, -17.5782
4.22, 5, 13.1706, 21.9818, 19.2168, 23.2368, -34.8785, -17.4603
4.224, 5, 13.1142, 22.0431, 19.1809, 23.0906, -34.9559, -17.3428
4.228, 5, 13.0577, 22.1043, 19.1452, 22.9449, -35.0334, -17.2257
4.232, 5, 13.0011, 22.1654, 19.1097, 22.7995, -35.1112, -17.1091
4.236, 5, 12.9444, 22.2263, 19.0743, 22.6546, -35.1891, -16.9929
4.24, 5, 12.8876, 22.287, 19.0391, 22.51, -35.2672, -16.877
4.244, 5, 12.8308, 22.3476, 19.0041, 22.3659, -35.3454, -16.7616
4.248, 5, 12.7739, 22.4081, 18.9693, 22.2222, -35.4238, -16.6466
4.252, 5, 12.717, 22.4684, 18.9346, 22.0789, -35.5024, -16.532
4.256, 5, 12.6599, 22.5286, 18.9001, 21.9361, -35.5812, -16.4178
4.26, 5, 12.6028, 22.5886, 18.8658, 21.7936, -35.6601, -16.304
4.264, 5, 12.5456, 22.6484, 18.8316, 21.6516, -35.7392, -16.1906
4.268, 5, 12.4884, 22.7082, 18.7976, 21.5099, -35.8185, -16.0776
4.272, 5, 12.431, 22.7677, 18.7638, 21.3687, -35.8979, -15.9651
4.276, 5, 12.3736, 22.8271, 18.7302, 21.2278, -35.9776, -15.8529
4.28, 5, 12.3161, 22.8864, 18.6967, 21.0874, -36.0574, -15.7411
4.284, 5, 12.2586, 22.9455, 18.6634, 20.9474, -36.1373, -15.6297
4.288, 5, 12.201, 23.0045, 18.6303, 20.8078, -36.2174, -15.5187
4.292, 5, 12.1433, 23.0633, 18.5974, 20.6686, -36.2977, -15.4081
4.296, 5, 12.0856, 23.122, 18.5646, 20.5298, -36.3782, -15.2979
4.3, 5, 12.0277, 23.1805, 18.532, 20.3914, -36.4588, -15.1881
4.304, 5, 11.9698, 23.2389, 18.4996, 20.2534, -36.5397, -15.0786
4.308, 5, 11.9119, 23.2971, 18.4673, 20.1158, -36.6206, -14.9696
4.312, 5, 11.8539, 23.3552, 18.4353, 19.9786, -36.7018, -14.861
4.316, 5, 11.7958, 23.4131, 18.4034, 19.8418, -36.7831, -14.7527
4.32, 5, 11.7376, 23.4709, 18.3717, 19.7053, -36.8646, -14.6448
4.324, 5, 11.6794, 23.5285, 18.3402, 19.5693, -36.9463, -14.5373
4.328, 5, 11.6211, 23.586, 18.3088, 19.4337, -37.0281, -14.4302
4.332, 5, 11.5628, 23.6433, 18.2777, 19.2985, -37.1101, -14.3235
4.336, 5, 11.5043, 23.7005, 18.2467, 19.1636, -37.1923, -14.2171
4.34, 5, 11.4459, 23.7575, 18.2159, 19.0292, -37.2746, -14.1112
4.344, 5, 11.3873, 23.8144, 18.1853, 18.8951, -37.3571, -14.0056
4.348, 5, 11.3287, 23.8711, 18.1548, 18.7615, -37.4398, -13.9004
4.352, 5, 11.27, 23.9277, 18.1245, 18.6282, -37.5226, -13.7955
4.356, 5, 11.2113, 23.9841, 18.0945, 18.4953, -37.6056, -13.6911
4.36, 5, 11.1525, 24.0404, 18.0646, 18.3628, -37.6888, -13.587
4.364, 5, 11.0936, 24.0965, 18.0348, 18.2307, -37.7722, -13.4833
4.368, 5, 11.0347, 24.1525, 18.0053, 18.0989, -37.8557, -13.3799
4.372, 5, 10.9757, 24.2083, 17.9759, 17.9676, -37.9394, -13.277
4.376, 5, 10.9167, 24.264, 17.9468, 17.8366, -38.0232, -13.1744
4.38, 5, 10.8576, 24.3195, 17.9178, 17.706, -38.1072, -13.0721
4.384, 5, 10.7984, 24.3749, 17.889, 17.5758, -38.1914, -12.9703
4.388, 5, 10.7392, 24.4302, 17.8604, 17.446, -38.2758, -12.8688
4.392, 5, 10.6799, 24.4853, 17.8319, 17.3165, -38.3603, -12.7676
4.396, 5, 10.6206, 24.5402, 17.8037, 17.1874, -38.445, -12.6668
4.4, 5, 10.5612, 24.595, 17.7756, 17.0587, -38.5298, -12.5664
4.404, 5, 10.5017, 24.6496, 17.7477, 16.9304, -38.6148, -12.4664
4.408, 5, 10.4422, 24.7041, 17.72, 16.8025, -38.7, -12.3667
4.412, 5, 10.3826, 24.7585, 17.6925, 16.6749, -38.7854, -12.2674
4.416, 5, 10.323, 24.8127, 17.6651, 16.5477, -38.8709, -12.1684
4.42, 5, 10.2633, 24.8667, 17.638, 16.4209, -38.9566, -12.0698
4.424, 5, 10.2035, 24.9206, 17.611, 16.2944, -39.0425, -11.9715
4.428, 5, 10.1437, 24.9744, 17.5843, 16.1683, -39.1285, -11.8736
4.432, 5, 10.0838, 25.028, 17.5577, 16.0426, -39.2147, -11.776
4.436, 5, 10.0239, 25.0815, 17.5313, 15.9173, -39.3011, -11.6788
4.44, 5, 9.96395, 25.1348, 17.5051, 15.7923, -39.3876, -11.582
4.444, 5, 9.90392, 25.1879, 17.479, 15.6676, -39.4743, -11.4855
4.448, 5, 9.84384, 25.241, 17.4532, 15.5434, -39.5612, -11.3893
4.452, 5, 9.7837, 25.2938, 17.4276, 15.4195, -39.6482, -11.2935
4.456, 5, 9.72351, 25.3465, 17.4021, 15.296, -39.7354, -11.198
4.46, 5, 9.66327, 25.3991, 17.3769, 15.1728, -39.8228, -11.1029
4.464, 5, 9.60297, 25.4515, 17.3518, 15.05, -39.9103, -11.0081
4.468, 5, 9.54262, 25.5038, 17.3269, 14.9275, -39.998, -10.9137
4.472, 5, 9.48222, 25.5559, 17.3022, 14.8054, -40.0859, -10.8196
4.476, 5, 9.42176, 25.6079, 17.2777, 14.6837, -40.174, -10.7259
4.48, 5, 9.36126, 25.6597, 17.2534, 14.5623, -40.2622, -10.6325
4.484, 5, 9.3007, 25.7114, 17.2293, 14.4413, -40.3506, -10.5394
4.488, 5, 9.24009, 25.763, 17.2054, 14.3206, -40.4391, -10.4466
4.492, 5, 9.17943, 25.8143, 17.1816, 14.2003, -40.5278, -10.3542
4.496, 5, 9.11873, 25.8656, 17.1581, 14.0804, -40.6167, -10.2622
4.5, 5, 9.05797, 25.9167, 17.1348, 13.9608, -40.7058, -10.1704
4.504, 5, 8.99717, 25.9676, 17.1116, 13.8415, -40.795, -10.079
4.508, 5, 8.93631, 26.0184, 17.0887, 13.7226, -40.8844, -9.98797
4.512, 5, 8.87541, 26.0691, 17.0659, 13.604, -40.9739, -9.89723
4.516, 5, 8.81446, 26.1196, 17.0434, 13.4858, -41.0636, -9.80682
4.52, 5, 8.75347, 26.1699, 17.021, 13.3679, -41.1535, -9.71673
4.524, 5, 8.69242, 26.2201, 16.9988, 13.2504, -41.2436, -9.62698
4.528, 5, 8.63134, 26.2702, 16.9769, 13.1332, -41.3338, -9.53755
4.532, 5, 8.57021, 26.3201, 16.9551, 13.0164, -41.4242, -9.44844
4.536, 5, 8.50903, 26.3699, 16.9335, 12.8999, -41.5147, -9.35966
4.54, 5, 8.44781, 26.4195, 16.9121, 12.7837, -41.6054, -9.2712
4.544, 5, 8.38655, 26.4689, 16.8909, 12.6679, -41.6963, -9.18306
4.548, 5, 8.32524, 26.5183, 16.87, 12.5525, -41.7873, -9.09525
4.552, 5, 8.26389, 26.5674, 16.8492, 12.4373, -41.8785, -9.00775
4.556, 5, 8.20249, 26.6165, 16.8286, 12.3225, -41.9699, -8.92058
4.56, 5, 8.14106, 26.6653, 16.8082, 12.2081, -42.0614, -8.83372
4.564, 5, 8.07958, 26.7141, 16.788, 12.094, -42.1531, -8.74718
4.568, 5, 8.01806, 26.7626, 16.768, 11.9802, -42.245, -8.66095
4.572, 5, 7.9565, 26.8111, 16.7482, 11.8667, -42.337, -8.57504
4.576, 5, 7.8949, 26.8594, 16.7286, 11.7536, -42.4292, -8.48945
4.58, 5, 7.83325, 26.9075, 16.7093, 11.6408, -42.5215, -8.40416
4.584, 5, 7.77157, 26.9555, 16.6901, 11.5284, -42.614, -8.31919
4.588, 5, 7.70985, 27.0033, 16.6711, 11.4163, -42.7067, -8.23454
4.592, 5, 7.64808, 27.051, 16.6523, 11.3045, -42.7996, -8.15019
4.596, 5, 7.58628, 27.0986, 16.6337, 11.193, -42.8926, -8.06615
4.6, 5, 7.52444, 27.146, 16.6154, 11.0819, -42.9857, -7.98242
4.604, 5, 7.46256, 27.1933, 16.5972, 10.9711, -43.0791, -7.899
4.608, 5, 7.40064, 27.2404, 16.5792, 10.8606, -43.1725, -7.81589
4.612, 5, 7.33869, 27.2873, 16.5614, 10.7505, -43.2662, -7.73309
4.616, 5, 7.2767, 27.3341, 16.5439, 10.6407, -43.36, -7.65059
4.62, 5, 7.21467, 27.3808, 16.5265, 10.5312, -43.454, -7.56839
4.624, 5, 7.1526, 27.4273, 16.5093, 10.422, -43.5481, -7.4865
4.628, 5, 7.0905, 27.4737, 16.4924, 10.3132, -43.6424, -7.40491
4.632, 5, 7.02836, 27.5199, 16.4756, 10.2047, -43.7369, -7.32362
4.636, 5, 6.96619, 27.566, 16.4591, 10.0965, -43.8315, -7.24264
4.64, 5, 6.90398, 27.6119, 16.4427, 9.98861, -43.9263, -7.16196
4.644, 5, 6.84173, 27.6577, 16.4266, 9.88107, -44.0213, -7.08157
4.648, 5, 6.77946, 27.7034, 16.4107, 9.77384, -44.1164, -7.00149
4.652, 5, 6.71714, 27.7489, 16.3949, 9.66693, -44.2116, -6.9217
4.656, 5, 6.6548, 27.7942, 16.3794, 9.56034, -44.3071, -6.84222
4.66, 5, 6.59241, 27.8394, 16.3641, 9.45407, -44.4027, -6.76302
4.664, 5, 6.53, 27.8845, 16.349, 9.34812, -44.4984, -6.68413
4.668, 5, 6.46755, 27.9294, 16.3341, 9.24248, -44.5943, -6.60553
4.672, 5, 6.40508, 27.9741, 16.3194, 9.13716, -44.6904, -6.52722
4.676, 5, 6.34256, 28.0188, 16.3049, 9.03216, -44.7866, -6.44921
4.68, 5, 6.28002, 28.0632, 16.2906, 8.92747, -44.883, -6.3715
4.684, 5, 6.21744, 28.1075, 16.2765, 8.8231, -44.9796, -6.29407
4.688, 5, 6.15484, 28.1517, 16.2627, 8.71904, -45.0763, -6.21694
4.692, 5, 6.0922, 28.1957, 16.249, 8.6153, -45.1732, -6.14009
4.696, 5, 6.02953, 28.2396, 16.2355, 8.51187, -45.2702, -6.06354
4.7, 5, 5.96683, 28.2834, 16.2223, 8.40875, -45.3674, -5.98728
4.704, 5, 5.90409, 28.327, 16.2093, 8.30594, -45.4648, -5.9113
4.708, 5, 5.84133, 28.3704, 16.1964, 8.20344, -45.5623, -5.83562
4.712, 5, 5.77854, 28.4137, 16.1838, 8.10125, -45.6599, -5.76022
4.716, 5, 5.71572, 28.4568, 16.1714, 7.99938, -45.7578, -5.68511
4.72, 5, 5.65287, 28.4999, 16.1592, 7.8978, -45.8558, -5.61028
4.724, 5, 5.58999, 28.5427, 16.1472, 7.79654, -45.9539, -5.53574
4.728, 5, 5.52709, 28.5854, 16.1354, 7.69558, -46.0522, -5.46148
4.732, 5, 5.46415, 28.628, 16.1239, 7.59493, -46.1507, -5.3875
4.736, 5, 5.40119, 28.6704, 16.1125, 7.49458, -46.2493, -5.31381
4.74, 5, 5.33821, 28.7127, 16.1014, 7.39454, -46.3481, -5.24039
4.744, 5, 5.27519, 28.7548, 16.0904, 7.29479, -46.4471, -5.16726
4.748, 5, 5.21215, 28.7968, 16.0797, 7.19535, -46.5462, -5.0944
4.752, 5, 5.14909, 28.8387, 16.0692, 7.09621, -46.6455, -5.02182
4.756, 5, 5.086, 28.8804, 16.0589, 6.99736, -46.7449, -4.94952
4.76, 5, 5.02288, 28.9219, 16.0488, 6.89882, -46.8445, -4.87749
4.764, 5, 4.95974, 28.9633, 16.0389, 6.80057, -46.9442, -4.80574
4.768, 5, 4.89657, 29.0046, 16.0292, 6.70261, -47.0442, -4.73426
4.772, 5, 4.83337, 29.0457, 16.0198, 6.60495, -47.1442, -4.66305
4.776, 5, 4.77016, 29.0867, 16.0105, 6.50759, -47.2444, -4.59212
4.78, 5, 4.70692, 29.1275, 16.0015, 6.41052, -47.3448, -4.52145
4.784, 5, 4.64365, 29.1682, 15.9927, 6.31374, -47.4454, -4.45106
4.788, 5, 4.58036, 29.2087, 15.9841, 6.21725, -47.5461, -4.38093
4.792, 5, 4.51705, 29.2491, 15.9757, 6.12106, -47.6469, -4.31108
4.796, 5, 4.45372, 29.2894, 15.9675, 6.02515, -47.7479, -4.24149
4.8, 5, 4.39036, 29.3295, 15.9595, 5.92953, -47.8491, -4.17216
4.804, 5, 4.32698, 29.3695, 15.9518, 5.8342, -47.9504, -4.1031
4.808, 5, 4.26358, 29.4093, 15.9442, 5.73915, -48.0519, -4.03431
4.812, 5, 4.20016, 29.449, 15.9369, 5.64439, -48.1536, -3.96578
4.816, 5, 4.13672, 29.4885, 15.9298, 5.54992, -48.2554, -3.89752
4.82, 5, 4.07326, 29.5279, 15.9229, 5.45573, -48.3573, -3.82951
4.824, 5, 4.00978, 29.5672, 15.9162, 5.36182, -48.4594, -3.76177
4.828, 5, 3.94628, 29.6063, 15.9097, 5.2682, -48.5617, -3.69429
4.832, 5, 3.88276, 29.6453, 15.9034, 5.17486, -48.6641, -3.62707
4.836, 5, 3.81922, 29.6841, 15.8974, 5.0818, -48.7667, -3.5601
4.84, 5, 3.75567, 29.7228, 15.8916, 4.98902, -48.8694, -3.4934
4.844, 5, 3.69209, 29.7613, 15.8859, 4.89652, -48.9723, -3.42695
4.848, 5, 3.6285, 29.7997, 15.8805, 4.8043, -49.0753, -3.36076
4.852, 5, 3.56489, 29.838, 15.8753, 4.71235, -49.1785, -3.29483
4.856, 5, 3.50126, 29.8761, 15.8703, 4.62069, -49.2818, -3.22915
4.86, 5, 3.43762, 29.9141, 15.8656, 4.5293, -49.3853, -3.16373
4.864, 5, 3.37396, 29.9519, 15.861, 4.43819, -49.4889, -3.09856
4.868, 5, 3.31029, 29.9896, 15.8567, 4.34735, -49.5927, -3.03365
4.872, 5, 3.2466, 30.0272, 15.8526, 4.25679, -49.6967, -2.96899
4.876, 5, 3.18289, 30.0646, 15.8487, 4.1665, -49.8008, -2.90458
4.88, 5, 3.11918, 30.1019, 15.845, 4.07648, -49.905, -2.84042
4.884, 5, 3.05544, 30.139, 15.8415, 3.98674, -50.0095, -2.77651
4.888, 5, 2.99169, 30.176, 15.8383, 3.89727, -50.114, -2.71285
4.892, 5, 2.92793, 30.2128, 15.8352, 3.80807, -50.2187, -2.64944
4.896, 5, 2.86416, 30.2495, 15.8324, 3.71914, -50.3236, -2.58629
4.9, 5, 2.80037, 30.2861, 15.8298, 3.63048, -50.4286, -2.52338
4.904, 5, 2.73657, 30.3225, 15.8274, 3.54209, -50.5337, -2.46071
4.908, 5, 2.67276, 30.3588, 15.8252, 3.45398, -50.6391, -2.3983
4.912, 5, 2.60893, 30.395, 15.8232, 3.36612, -50.7445, -2.33613
4.916, 5, 2.54509, 30.431, 15.8215, 3.27854, -50.8501, -2.27421
4.92, 5, 2.48124, 30.4668, 15.82, 3.19122, -50.9559, -2.21253
4.924, 5, 2.41738, 30.5025, 15.8187, 3.10417, -51.0618, -2.1511
4.928, 5, 2.35351, 30.5381, 15.8176, 3.01739, -51.1679, -2.08991
4.932, 5, 2.28963, 30.5736, 15.8167, 2.93087, -51.2741, -2.02897
4.936, 5, 2.22574, 30.6089, 15.816, 2.84462, -51.3805, -1.96826
4.94, 5, 2.16184, 30.644, 15.8156, 2.75863, -51.487, -1.90781
4.944, 5, 2.09793, 30.679, 15.8154, 2.67291, -51.5936, -1.84759
4.948, 5, 2.03401, 30.7139, 15.8154, 2.58744, -51.7004, -1.78762
4.952, 5, 1.97008, 30.7486, 15.8156, 2.50225, -51.8074, -1.72788
4.956, 5, 1.90614, 30.7832, 15.816, 2.41731, -51.9145, -1.66839
4.96, 5, 1.8422, 30.8177, 15.8167, 2.33263, -52.0218, -1.60914
4.964, 5, 1.77825, 30.852, 15.8176, 2.24822, -52.1292, -1.55012
4.968, 5, 1.71429, 30.8862, 15.8187, 2.16406, -52.2368, -1.49135
4.972, 5, 1.65032, 30.9202, 15.82, 2.08017, -52.3445, -1.43281
4.976, 5, 1.58634, 30.9541, 15.8215, 1.99653, -52.4523, -1.37451
4.98, 5, 1.52236, 30.9879, 15.8233, 1.91315, -52.5603, -1.31645
4.984, 5, 1.45837, 31.0215, 15.8252, 1.83002, -52.6685, -1.25862
4.988, 5, 1.39438, 31.055, 15.8274, 1.74715, -52.7768, -1.20102
4.992, 5, 1.33039, 31.0883, 15.8299, 1.66454, -52.8852, -1.14366
4.996, 5, 1.26646, 31.1215, 15.8325, 1.58218, -52.9938, -1.08654
5, 5, 1.20271, 31.1545, 15.8354, 1.50007, -53.1026, -1.02964
5.004, 5, 1.13937, 31.1873, 15.8385, 1.41822, -53.2115, -0.972993
5.008, 5, 1.07665, 31.2197, 15.8419, 1.33667, -53.3204, -0.9166
5.012, 5, 1.01475, 31.2516, 15.8456, 1.25544, -53.4294, -0.860498
5.016, 5, 0.953814, 31.283, 15.8495, 1.17463, -53.5383, -0.804744
5.02, 5, 0.893997, 31.3138, 15.8538, 1.09435, -53.6469, -0.749425
5.024, 5, 0.835417, 31.3438, 15.8584, 1.01479, -53.755, -0.694659
5.028, 5, 0.778169, 31.373, 15.8633, 0.936173, -53.8623, -0.640604
5.032, 5, 0.722363, 31.4013, 15.8684, 0.858783, -53.9683, -0.587452
5.036, 5, 0.668152, 31.4285, 15.8737, 0.782958, -54.0725, -0.535429
5.04, 5, 0.615704, 31.4547, 15.8791, 0.709077, -54.1744, -0.484791
5.044, 5, 0.565149, 31.4799, 15.8846, 0.637553, -54.2734, -0.435815
5.048, 5, 0.516563, 31.5039, 15.8901, 0.568815, -54.3688, -0.388785
5.052, 5, 0.46998, 31.5268, 15.8954, 0.503285, -54.4601, -0.343983
5.056, 5, 0.425444, 31.5487, 15.9005, 0.441357, -54.5466, -0.30167
5.06, 5, 0.383037, 31.5695, 15.9052, 0.383376, -54.6278, -0.262076
5.064, 5, 0.342879, 31.5892, 15.9096, 0.329627, -54.7033, -0.225386
5.068, 5, 0.305073, 31.6076, 15.9136, 0.28032, -54.7727, -0.19174
5.072, 5, 0.269669, 31.6249, 15.9171, 0.235588, -54.8359, -0.161222
5.076, 5, 0.236666, 31.6411, 15.9202, 0.195484, -54.8926, -0.133863
5.08, 5, 0.206039, 31.6561, 15.9227, 0.159973, -54.9429, -0.109635
5.084, 5, 0.177757, 31.6699, 15.9247, 0.128937, -54.987, -0.0884535
5.088, 5, 0.151809, 31.6826, 15.9263, 0.102174, -55.0251, -0.0701795
5.092, 5, 0.128226, 31.6942, 15.9274, 0.0794096, -55.0575, -0.0546259
5.096, 5, 0.107068, 31.7046, 15.9282, 0.0603139, -55.0848, -0.0415688
5.1, 5, 0.0883704, 31.7138, 15.9287, 0.0445212, -55.1074, -0.0307608
5.104, 5, 0.0720886, 31.7219, 15.9289, 0.031653, -55.1258, -0.0219458
5.108, 5, 0.0580592, 31.7288, 15.929, 0.0213353, -55.1406, -0.0148699
5.112, 5, 0.0460095, 31.7346, 15.9289, 0.0132099, -55.1523, -0.00928944
5.116, 5, 0.035629, 31.7396, 15.9288, 0.00693864, -55.1613, -0.00497384
5.12, 5, 0.0266656, 31.7438, 15.9285, 0.00220444, -55.1681, -0.00170748
5.124, 5, 0.01897, 31.7472, 15.9282, -0.00128666, -55.1731, 0.00070911
5.128, 5, 0.0124649, 31.7501, 15.9279, -0.00380124, -55.1768, 0.00245645
5.132, 5, 0.0070997, 31.7523, 15.9276, -0.00557323, -55.1793, 0.00369294
5.136, 5, 0.00283012, 31.754, 15.9274, -0.0067995, -55.1811, 0.00455209
5.14, 5, -0.000421196, 31.7553, 15.9272, -0.00763764, -55.1823, 0.00514121
5.144, 5, -0.00283458, 31.7562, 15.927, -0.00820714, -55.1831, 0.00554256
5.148, 5, -0.00472126, 31.7569, 15.9269, -0.00859577, -55.1837, 0.00581772
5.152, 5, -0.00646017, 31.7576, 15.9268, -0.00887128, -55.1841, 0.00601513
5.156, 5, -0.00839667, 31.7582, 15.9267, -0.00909622, -55.1844, 0.00617966
5.16, 5, -0.0107931, 31.7591, 15.9265, -0.00934234, -55.1848, 0.00636192
5.164, 5, -0.0138391, 31.7603, 15.9262, -0.00970218, -55.1853, 0.00662609
5.168, 5, -0.0176728, 31.762, 15.9259, -0.0102973, -55.1862, 0.00705562
5.172, 5, -0.022403, 31.7643, 15.9256, -0.0112839, -55.1877, 0.00775707
5.176, 5, -0.0281475, 31.7673, 15.9252, -0.0128564, -55.1899, 0.00886267
5.18, 5, -0.0350764, 31.7711, 15.9248, -0.0152494, -55.1934, 0.010532
5.184, 6, -0.0434298, 31.776, 15.9243, -0.0187398, -55.1985, 0.0129527
5.188, 6, -0.0534933, 31.7819, 15.924, -0.0236472, -55.2057, 0.0163413
5.192, 6, -0.0655292, 31.7889, 15.9236, -0.0303335, -55.2154, 0.0209422
5.196, 6, -0.0796977, 31.797, 15.9234, -0.0391981, -55.2282, 0.0270235
5.2, 6, -0.0960352, 31.8061, 15.9234, -0.0506648, -55.2449, 0.0348678
5.204, 6, -0.114516, 31.816, 15.9237, -0.065159, -55.266, 0.044758
5.208, 6, -0.135135, 31.8267, 15.9244, -0.0830816, -55.292, 0.0569603
5.212, 6, -0.157941, 31.8383, 15.9255, -0.104786, -55.3235, 0.0717091
5.216, 6, -0.183015, 31.8509, 15.927, -0.13056, -55.361, 0.0891953
5.22, 6, -0.21044, 31.8645, 15.9291, -0.160616, -55.4048, 0.109559
5.224, 6, -0.240286, 31.8792, 15.9317, -0.195086, -55.455, 0.132884
5.228, 6, -0.272584, 31.8951, 15.9347, -0.234013, -55.5118, 0.159197
5.232, 6, -0.307312, 31.912, 15.9383, -0.277355, -55.575, 0.188465
5.236, 6, -0.344389, 31.93, 15.9422, -0.324986, -55.6447, 0.220598
5.24, 6, -0.383727, 31.9489, 15.9466, -0.376692, -55.7204, 0.255448
5.244, 6, -0.425294, 31.9688, 15.9512, -0.432181, -55.8017, 0.292817
5.248, 6, -0.469131, 31.9896, 15.9561, -0.491097, -55.8882, 0.332461
5.252, 6, -0.51529, 32.0115, 15.9611, -0.553039, -55.9793, 0.374112
5.256, 6, -0.56375, 32.0345, 15.9661, -0.617587, -56.0745, 0.417485
5.26, 6, -0.614389, 32.0588, 15.971, -0.684326, -56.173, 0.462301
5.264, 6, -0.667006, 32.0842, 15.9758, -0.75286, -56.2744, 0.50829
5.268, 6, -0.721373, 32.1108, 15.9804, -0.822825, -56.3782, 0.555207
5.272, 6, -0.777275, 32.1386, 15.9848, -0.893893, -56.4838, 0.602829
5.276, 6, -0.834535, 32.1675, 15.9889, -0.965777, -56.5908, 0.650962
5.28, 6, -0.89301, 32.1973, 15.9927, -1.03823, -56.699, 0.699438
5.284, 6, -0.952593, 32.2279, 15.9962, -1.11105, -56.8079, 0.748119
5.288, 6, -1.01319, 32.2593, 15.9993, -1.18407, -56.9175, 0.796895
5.292, 6, -1.07469, 32.2913, 16.0022, -1.25716, -57.0273, 0.845679
5.296, 6, -1.13692, 32.3238, 16.0047, -1.33024, -57.1375, 0.894409
5.3, 6, -1.1997, 32.3567, 16.0069, -1.40323, -57.2477, 0.943041
5.304, 6, -1.26287, 32.39, 16.0088, -1.47611, -57.3581, 0.991546
5.308, 6, -1.3263, 32.4236, 16.0104, -1.54883, -57.4685, 1.0399
5.312, 6, -1.38989, 32.4574, 16.0117, -1.62138, -57.5788, 1.0881
5.316, 6, -1.4536, 32.4914, 16.0128, -1.69374, -57.6892, 1.13613
5.32, 6, -1.51739, 32.5256, 16.0136, -1.76591, -57.7995, 1.18398
5.324, 6, -1.58122, 32.56, 16.014, -1.83789, -57.9098, 1.23166
5.328, 6, -1.64508, 32.5946, 16.0143, -1.90966, -58.0201, 1.27916
5.332, 6, -1.70896, 32.6293, 16.0142, -1.98123, -58.1303, 1.32649
5.336, 6, -1.77285, 32.6643, 16.0139, -2.0526, -58.2404, 1.37363
5.34, 6, -1.83674, 32.6994, 16.0133, -2.12377, -58.3505, 1.42059
5.344, 6, -1.90062, 32.7346, 16.0124, -2.19473, -58.4605, 1.46738
5.348, 6, -1.96451, 32.7701, 16.0112, -2.26549, -58.5704, 1.51399
5.352, 6, -2.02838, 32.8056, 16.0098, -2.33605, -58.6803, 1.56042
5.356, 6, -2.09225, 32.8414, 16.0081, -2.40641, -58.7901, 1.60668
5.36, 6, -2.15611, 32.8773, 16.0061, -2.47656, -58.8999, 1.65276
5.364, 6, -2.21996, 32.9134, 16.0038, -2.54651, -59.0095, 1.69868
5.368, 6, -2.2838, 32.9496, 16.0013, -2.61627, -59.1192, 1.74442
5.372, 6, -2.34763, 32.986, 15.9985, -2.68583, -59.2287, 1.78999
5.376, 6, -2.41145, 33.0226, 15.9954, -2.75519, -59.3382, 1.8354
5.38, 6, -2.47525, 33.0593, 15.992, -2.82435, -59.4476, 1.88064
5.384, 6, -2.53904, 33.0961, 15.9884, -2.89332, -59.5569, 1.92571
5.388, 6, -2.60282, 33.1331, 15.9845, -2.96209, -59.6662, 1.97062
5.392, 6, -2.66659, 33.1703, 15.9803, -3.03067, -59.7754, 2.01537
5.396, 6, -2.73035, 33.2077, 15.9759, -3.09905, -59.8845, 2.05995
5.4, 6, -2.79409, 33.2451, 15.9712, -3.16724, -59.9935, 2.10437
5.404, 6, -2.85781, 33.2828, 15.9662, -3.23524, -60.1025, 2.14864
5.408, 6, -2.92153, 33.3206, 15.9609, -3.30305, -60.2114, 2.19274
5.412, 6, -2.98522, 33.3586, 15.9554, -3.37067, -60.3202, 2.23669
5.416, 6, -3.04891, 33.3967, 15.9496, -3.4381, -60.429, 2.28049
5.42, 6, -3.11258, 33.4349, 15.9435, -3.50534, -60.5376, 2.32413
5.424, 6, -3.17623, 33.4733, 15.9372, -3.5724, -60.6462, 2.36761
5.428, 6, -3.23987, 33.5119, 15.9305, -3.63926, -60.7547, 2.41095
5.432, 6, -3.30349, 33.5506, 15.9236, -3.70595, -60.8632, 2.45413
5.436, 6, -3.3671, 33.5895, 15.9165, -3.77244, -60.9715, 2.49717
5.44, 6, -3.43069, 33.6285, 15.909, -3.83875, -61.0798, 2.54005
5.444, 6, -3.49426, 33.6677, 15.9013, -3.90488, -61.188, 2.58279
5.448, 6, -3.55782, 33.707, 15.8933, -3.97083, -61.2961, 2.62538
5.452, 6, -3.62135, 33.7465, 15.8851, -4.03659, -61.4041, 2.66783
5.456, 6, -3.68488, 33.7861, 15.8766, -4.10217, -61.5121, 2.71014
5.46, 6, -3.74838, 33.8259, 15.8678, -4.16757, -61.62, 2.7523
5.464, 6, -3.81186, 33.8658, 15.8587, -4.23279, -61.7277, 2.79432
5.468, 6, -3.87533, 33.9059, 15.8494, -4.29783, -61.8354, 2.8362
5.472, 6, -3.93878, 33.9461, 15.8397, -4.36269, -61.9431, 2.87794
5.476, 6, -4.00221, 33.9865, 15.8299, -4.42737, -62.0506, 2.91955
5.48, 6, -4.06562, 34.027, 15.8197, -4.49188, -62.158, 2.96101
5.484, 6, -4.12901, 34.0677, 15.8093, -4.55621, -62.2654, 3.00234
5.488, 6, -4.19238, 34.1085, 15.7986, -4.62037, -62.3727, 3.04354
5.492, 6, -4.25573, 34.1495, 15.7876, -4.68434, -62.4799, 3.0846
5.496, 6, -4.31907, 34.1906, 15.7764, -4.74815, -62.587, 3.12553
5.5, 6, -4.38238, 34.2318, 15.7649, -4.81178, -62.694, 3.16633
5.504, 6, -4.44567, 34.2732, 15.7531, -4.87524, -62.8009, 3.20699
5.508, 6, -4.50893, 34.3148, 15.741, -4.93852, -62.9077, 3.24753
5.512, 6, -4.57218, 34.3564, 15.7287, -5.00164, -63.0145, 3.28794
5.516, 6, -4.63541, 34.3983, 15.7161, -5.06458, -63.1211, 3.32822
5.52, 6, -4.69861, 34.4403, 15.7032, -5.12735, -63.2277, 3.36838
5.524, 6, -4.7618, 34.4824, 15.6901, -5.18995, -63.3342, 3.40841
5.528, 6, -4.82496, 34.5247, 15.6767, -5.25239, -63.4405, 3.44831
5.532, 6, -4.88809, 34.5671, 15.663, -5.31465, -63.5468, 3.48809
5.536, 6, -4.95121, 34.6096, 15.6491, -5.37675, -63.653, 3.52775
5.54, 6, -5.0143, 34.6523, 15.6348, -5.43867, -63.7591, 3.56729
5.544, 6, -5.07737, 34.6952, 15.6203, -5.50044, -63.8651, 3.60671
5.548, 6, -5.14041, 34.7381, 15.6056, -5.56203, -63.971, 3.64601
5.552, 6, -5.20343, 34.7813, 15.5905, -5.62346, -64.0768, 3.68519
5.556, 6, -5.26643, 34.8245, 15.5752, -5.68473, -64.1825, 3.72425
5.56, 6, -5.3294, 34.8679, 15.5597, -5.74583, -64.2882, 3.7632
5.564, 6, -5.39235, 34.9115, 15.5438, -5.80677, -64.3937, 3.80203
5.568, 6, -5.45527, 34.9552, 15.5277, -5.86754, -64.4991, 3.84075
5.572, 6, -5.51817, 34.999, 15.5113, -5.92815, -64.6044, 3.87935
5.576, 6, -5.58104, 35.043, 15.4946, -5.9886, -64.7097, 3.91784
5.58, 6, -5.64389, 35.0871, 15.4777, -6.04889, -64.8148, 3.95622
5.584, 6, -5.70671, 35.1313, 15.4605, -6.10901, -64.9198, 3.99449
5.588, 6, -5.76951, 35.1757, 15.443, -6.16898, -65.0247, 4.03265
5.592, 6, -5.83228, 35.2203, 15.4252, -6.22879, -65.1296, 4.0707
5.596, 6, -5.89502, 35.2649, 15.4072, -6.28844, -65.2343, 4.10864
5.6, 6, -5.95773, 35.3098, 15.3889, -6.34793, -65.3389, 4.14647
5.604, 6, -6.02042, 35.3547, 15.3703, -6.40726, -65.4434, 4.1842
5.608, 6, -6.08308, 35.3998, 15.3515, -6.46643, -65.5478, 4.22182
5.612, 6, -6.14572, 35.445, 15.3324, -6.52545, -65.6522, 4.25934
5.616, 6, -6.20832, 35.4904, 15.313, -6.58431, -65.7564, 4.29676
5.62, 6, -6.2709, 35.5359, 15.2933, -6.64301, -65.8605, 4.33407
5.624, 6, -6.33345, 35.5815, 15.2734, -6.70156, -65.9645, 4.37128
5.628, 6, -6.39597, 35.6273, 15.2532, -6.75995, -66.0683, 4.40839
5.632, 6, -6.45846, 35.6732, 15.2327, -6.81819, -66.1721, 4.4454
5.636, 6, -6.52093, 35.7193, 15.2119, -6.87627, -66.2758, 4.48231
5.64, 6, -6.58336, 35.7654, 15.1909, -6.93421, -66.3794, 4.51913
5.644, 6, -6.64577, 35.8118, 15.1696, -6.99198, -66.4828, 4.55584
5.648, 6, -6.70814, 35.8582, 15.148, -7.04961, -66.5862, 4.59246
5.652, 6, -6.77049, 35.9048, 15.1262, -7.10708, -66.6894, 4.62898
5.656, 6, -6.8328, 35.9515, 15.1041, -7.16441, -66.7926, 4.66541
5.66, 6, -6.89509, 35.9984, 15.0817, -7.22158, -66.8956, 4.70175
5.664, 6, -6.95734, 36.0454, 15.059, -7.2786, -66.9985, 4.73799
5.668, 6, -7.01956, 36.0925, 15.0361, -7.33547, -67.1013, 4.77414
5.672, 6, -7.08175, 36.1398, 15.0128, -7.39219, -67.204, 4.8102
5.676, 6, -7.14391, 36.1872, 14.9893, -7.44877, -67.3065, 4.84617
5.68, 6, -7.20603, 36.2348, 14.9656, -7.50519, -67.409, 4.88204
5.684, 6, -7.26813, 36.2824, 14.9415, -7.56147, -67.5114, 4.91783
5.688, 6, -7.33019, 36.3302, 14.9172, -7.6176, -67.6136, 4.95353
5.692, 6, -7.39221, 36.3782, 14.8926, -7.67358, -67.7157, 4.98915
5.696, 6, -7.45421, 36.4262, 14.8678, -7.72941, -67.8177, 5.02468
5.7, 6, -7.51617, 36.4745, 14.8426, -7.7851, -67.9196, 5.06012
5.704, 6, -7.57809, 36.5228, 14.8172, -7.84064, -68.0214, 5.09548
5.708, 6, -7.63999, 36.5713, 14.7915, -7.89604, -68.123, 5.13075
5.712, 6, -7.70185, 36.6199, 14.7655, -7.95129, -68.2245, 5.16595
5.716, 6, -7.76367, 36.6686, 14.7393, -8.00639, -68.326, 5.20106
5.72, 6, -7.82546, 36.7174, 14.7128, -8.06135, -68.4272, 5.23609
5.724, 6, -7.88722, 36.7664, 14.686, -8.11617, -68.5284, 5.27104
5.728, 6, -7.94894, 36.8156, 14.6589, -8.17084, -68.6295, 5.30591
5.732, 6, -8.01063, 36.8648, 14.6315, -8.22537, -68.7304, 5.3407
5.736, 6, -8.07229, 36.9142, 14.6039, -8.27975, -68.8312, 5.37541
5.74, 6, -8.1339, 36.9637, 14.576, -8.33399, -68.9319, 5.41005
5.744, 6, -8.19549, 37.0133, 14.5479, -8.38809, -69.0325, 5.44462
5.748, 6, -8.25703, 37.0631, 14.5194, -8.44204, -69.1329, 5.47911
5.752, 6, -8.31854, 37.113, 14.4907, -8.49586, -69.2332, 5.51352
5.756, 6, -8.38001, 37.163, 14.4617, -8.54953, -69.3334, 5.54786
5.76, 6, -8.44145, 37.2132, 14.4324, -8.60306, -69.4335, 5.58213
5.764, 6, -8.50285, 37.2635, 14.4029, -8.65644, -69.5335, 5.61633
5.768, 6, -8.56421, 37.3139, 14.3731, -8.70969, -69.6333, 5.65045
5.772, 6, -8.62553, 37.3644, 14.343, -8.76279, -69.733, 5.68451
5.776, 6, -8.68682, 37.415, 14.3126, -8.81576, -69.8326, 5.7185
5.78, 6, -8.74807, 37.4658, 14.282, -8.86858, -69.932, 5.75242
5.784, 6, -8.80928, 37.5167, 14.2511, -8.92127, -70.0314, 5.78627
5.788, 6, -8.87045, 37.5677, 14.2199, -8.97381, -70.1306, 5.82005
5.792, 6, -8.93158, 37.6189, 14.1885, -9.02621, -70.2296, 5.85377
5.796, 6, -8.99268, 37.6702, 14.1568, -9.07848, -70.3286, 5.88742
5.8, 6, -9.05374, 37.7215, 14.1248, -9.1306, -70.4274, 5.92101
5.804, 6, -9.11475, 37.7731, 14.0925, -9.18259, -70.5261, 5.95453
5.808, 6, -9.17573, 37.8247, 14.06, -9.23444, -70.6247, 5.98799
5.812, 6, -9.23667, 37.8765, 14.0271, -9.28615, -70.7231, 6.02139
5.816, 6, -9.29757, 37.9284, 13.9941, -9.33772, -70.8214, 6.05473
5.82, 6, -9.35843, 37.9804, 13.9607, -9.38915, -70.9196, 6.088
5.824, 6, -9.41925, 38.0325, 13.9271, -9.44044, -71.0177, 6.12122
5.828, 6, -9.48003, 38.0848, 13.8932, -9.4916, -71.1156, 6.15438
5.832, 6, -9.54077, 38.1371, 13.859, -9.54262, -71.2134, 6.18747
5.836, 6, -9.60147, 38.1896, 13.8246, -9.59351, -71.311, 6.22051
5.84, 6, -9.66213, 38.2422, 13.7899, -9.64425, -71.4086, 6.2535
5.844, 6, -9.72275, 38.295, 13.7549, -9.69486, -71.506, 6.28642
5.848, 6, -9.78333, 38.3478, 13.7196, -9.74534, -71.6032, 6.31929
5.852, 6, -9.84387, 38.4008, 13.6841, -9.79567, -71.7004, 6.35211
5.856, 6, -9.90436, 38.4539, 13.6483, -9.84588, -71.7974, 6.38487
5.86, 6, -9.96482, 38.5071, 13.6122, -9.89594, -71.8943, 6.41758
5.864, 6, -10.0252, 38.5604, 13.5759, -9.94587, -71.991, 6.45023
5.868, 6, -10.0856, 38.6138, 13.5393, -9.99567, -72.0876, 6.48283
5.872, 6, -10.1459, 38.6674, 13.5024, -10.0453, -72.1841, 6.51538
5.876, 6, -10.2062, 38.7211, 13.4653, -10.0948, -72.2805, 6.54788
5.88, 6, -10.2665, 38.7749, 13.4279, -10.1442, -72.3767, 6.58033
5.884, 6, -10.3267, 38.8288, 13.3902, -10.1935, -72.4727, 6.61273
5.888, 6, -10.3868, 38.8828, 13.3522, -10.2426, -72.5687, 6.64509
5.892, 6, -10.4469, 38.937, 13.314, -10.2916, -72.6645, 6.67739
5.896, 6, -10.507, 38.9912, 13.2755, -10.3405, -72.7602, 6.70965
5.9, 6, -10.567, 39.0456, 13.2367, -10.3892, -72.8557, 6.74186
5.904, 6, -10.627, 39.1001, 13.1977, -10.4378, -72.9511, 6.77402
5.908, 6, -10.687, 39.1547, 13.1583, -10.4862, -73.0464, 6.80614
5.912, 6, -10.7469, 39.2094, 13.1188, -10.5345, -73.1415, 6.83822
5.916, 6, -10.8067, 39.2642, 13.0789, -10.5827, -73.2365, 6.87025
5.92, 6, -10.8665, 39.3192, 13.0388, -10.6308, -73.3313, 6.90223
5.924, 6, -10.9263, 39.3742, 12.9984, -10.6787, -73.426, 6.93418
5.928, 6, -10.986, 39.4294, 12.9577, -10.7265, -73.5206, 6.96608
