hehonglu123/ABB_Primitive_Study/execution/moveljl_30_car/curve_exe_v1000_z1.csv
timestamp, cmd_num, J1, J2, J3, J4, J5, J6
0, -1, -13.4393, 43.6787, 12.5946, -11.6275, -87.029, 7.42441
0.002, -1, -13.4393, 43.6787, 12.5946, -11.6275, -87.029, 7.42441
0.006, -1, -13.4393, 43.6787, 12.5946, -11.6275, -87.029, 7.42441
0.008, -1, -13.4393, 43.6787, 12.5946, -11.6275, -87.029, 7.42441
0.011, -1, -13.4393, 43.6787, 12.5946, -11.6275, -87.029, 7.42441
0.016, -1, -13.4393, 43.6787, 12.5946, -11.6275, -87.029, 7.42441
0.02, -1, -13.4393, 43.6787, 12.5946, -11.6275, -87.029, 7.42441
0.024, -1, -13.4393, 43.6787, 12.5946, -11.6275, -87.029, 7.42441
0.028, -1, -13.4393, 43.6787, 12.5946, -11.6275, -87.029, 7.42441
0.032, -1, -13.4393, 43.6787, 12.5946, -11.6275, -87.029, 7.42441
0.036, -1, -13.4392, 43.6786, 12.5946, -11.6275, -87.029, 7.42441
0.04, -1, -13.439, 43.6785, 12.5946, -11.6275, -87.029, 7.42441
0.044, -1, -13.4384, 43.678, 12.5947, -11.6275, -87.029, 7.42439
0.048, -1, -13.4372, 43.6772, 12.5949, -11.6274, -87.0289, 7.42434
0.052, -1, -13.4355, 43.6758, 12.5951, -11.6273, -87.0287, 7.42422
0.056, -1, -13.433, 43.6738, 12.5955, -11.627, -87.0284, 7.42397
0.06, -1, -13.4296, 43.671, 12.5961, -11.6264, -87.0277, 7.42349
0.064, -1, -13.4254, 43.6675, 12.5969, -11.6253, -87.0264, 7.42266
0.068, -1, -13.4203, 43.6631, 12.598, -11.6236, -87.0244, 7.42132
0.072, -1, -13.4141, 43.6579, 12.5994, -11.6209, -87.0213, 7.41928
0.076, -1, -13.4066, 43.6516, 12.6011, -11.617, -87.0167, 7.4163
0.08, -1, -13.3977, 43.6442, 12.6034, -11.6115, -87.0103, 7.41213
0.084, -1, -13.3869, 43.6352, 12.6062, -11.604, -87.0016, 7.40644
0.088, -1, -13.3743, 43.6247, 12.6097, -11.5941, -86.9899, 7.39892
0.092, -1, -13.3596, 43.6124, 12.6138, -11.5812, -86.9748, 7.38918
0.096, -1, -13.3427, 43.5982, 12.6186, -11.5648, -86.9557, 7.37685
0.1, -1, -13.3235, 43.582, 12.6243, -11.5444, -86.9319, 7.36155
0.104, -1, -13.3019, 43.5636, 12.6308, -11.5196, -86.9029, 7.3429
0.108, -1, -13.2776, 43.5427, 12.6382, -11.4899, -86.868, 7.32054
0.112, -1, -13.2505, 43.5193, 12.6467, -11.4547, -86.8269, 7.29416
0.116, -1, -13.2206, 43.4932, 12.6562, -11.4137, -86.7789, 7.26346
0.12, -1, -13.1877, 43.4644, 12.6669, -11.3667, -86.7238, 7.22818
0.124, -1, -13.1519, 43.4328, 12.6786, -11.3132, -86.6612, 7.18814
0.128, -1, -13.113, 43.3984, 12.6916, -11.2532, -86.591, 7.14319
0.131, -1, -13.071, 43.3611, 12.7056, -11.1865, -86.5129, 7.09326
0.136, -1, -13.026, 43.321, 12.7209, -11.1131, -86.4269, 7.03835
0.139, -1, -12.9779, 43.2779, 12.7373, -11.0331, -86.3333, 6.9785
0.144, -1, -12.9267, 43.232, 12.7548, -10.9467, -86.2321, 6.91384
0.148, -1, -12.8726, 43.1833, 12.7734, -10.854, -86.1236, 6.84454
0.152, -1, -12.8155, 43.132, 12.7932, -10.7555, -86.0082, 6.77084
0.156, -1, -12.7557, 43.0781, 12.8139, -10.6514, -85.8863, 6.69301
0.16, -1, -12.6932, 43.0219, 12.8355, -10.5422, -85.7585, 6.61137
0.164, -1, -12.6282, 42.9633, 12.8581, -10.4284, -85.6253, 6.52627
0.168, -1, -12.5607, 42.9025, 12.8815, -10.3105, -85.4872, 6.43809
0.172, -1, -12.4909, 42.8396, 12.9056, -10.189, -85.3449, 6.34721
0.176, -1, -12.4189, 42.7749, 12.9305, -10.0644, -85.1989, 6.25399
0.18, -1, -12.345, 42.7085, 12.956, -9.93711, -85.0499, 6.15879
0.184, -1, -12.2694, 42.6406, 12.9821, -9.80765, -84.8983, 6.06194
0.188, -1, -12.1925, 42.5714, 13.0086, -9.6764, -84.7446, 5.96375
0.192, -1, -12.1142, 42.5011, 13.0356, -9.54373, -84.5892, 5.86449
0.196, -1, -12.0348, 42.4297, 13.0629, -9.40995, -84.4326, 5.76439
0.2, -1, -11.9542, 42.3573, 13.0906, -9.27534, -84.2749, 5.66366
0.204, -1, -11.8724, 42.2841, 13.1185, -9.14011, -84.1166, 5.56246
0.208, -1, -11.7897, 42.21, 13.1466, -9.00443, -83.9577, 5.46092
0.212, -1, -11.7061, 42.1354, 13.1749, -8.86843, -83.7985, 5.35913
0.216, -1, -11.6218, 42.0602, 13.2033, -8.7322, -83.6389, 5.25717
0.22, -1, -11.5371, 41.9847, 13.2318, -8.5958, -83.4792, 5.15507
0.224, -1, -11.452, 41.909, 13.2603, -8.45928, -83.3194, 5.05288
0.228, -1, -11.3667, 41.8332, 13.2889, -8.32266, -83.1594, 4.95062
0.232, -1, -11.2813, 41.7572, 13.3176, -8.18597, -82.9993, 4.8483
0.236, -1, -11.1957, 41.6811, 13.3462, -8.04922, -82.8392, 4.74595
0.24, -1, -11.11, 41.605, 13.3749, -7.91243, -82.679, 4.64355
0.244, -1, -11.0243, 41.5288, 13.4035, -7.77561, -82.5188, 4.54114
0.248, -1, -10.9386, 41.4526, 13.4322, -7.63876, -82.3586, 4.4387
0.252, -1, -10.8528, 41.3764, 13.4609, -7.50189, -82.1983, 4.33625
0.256, -1, -10.767, 41.3002, 13.4896, -7.36501, -82.0381, 4.2338
0.26, -1, -10.6811, 41.2239, 13.5183, -7.22813, -81.8778, 4.13133
0.264, -1, -10.5953, 41.1477, 13.547, -7.09125, -81.7175, 4.02887
0.268, -1, -10.5094, 41.0714, 13.5757, -6.95436, -81.5572, 3.92641
0.272, -1, -10.4236, 40.9952, 13.6044, -6.81749, -81.397, 3.82396
0.276, -1, -10.3378, 40.9189, 13.6331, -6.68063, -81.2367, 3.72151
0.28, -1, -10.252, 40.8427, 13.6618, -6.54379, -81.0765, 3.61908
0.284, -1, -10.1661, 40.7665, 13.6904, -6.40697, -80.9163, 3.51666
0.288, -1, -10.0803, 40.6903, 13.7191, -6.27017, -80.7561, 3.41427
0.292, -1, -9.99456, 40.6141, 13.7478, -6.13341, -80.596, 3.31189
0.296, -1, -9.9088, 40.538, 13.7764, -5.99668, -80.4359, 3.20955
0.3, -1, -9.82306, 40.4618, 13.8051, -5.85999, -80.2758, 3.10723
0.304, -1, -9.73734, 40.3857, 13.8337, -5.72334, -80.1158, 3.00494
0.308, -1, -9.65166, 40.3096, 13.8624, -5.58674, -79.9558, 2.90269
0.312, -1, -9.566, 40.2336, 13.891, -5.45019, -79.796, 2.80048
0.316, -1, -9.48038, 40.1575, 13.9196, -5.31369, -79.6361, 2.69831
0.32, -1, -9.3948, 40.0815, 13.9482, -5.17726, -79.4764, 2.59618
0.324, -1, -9.30925, 40.0055, 13.9768, -5.04089, -79.3167, 2.4941
0.328, -1, -9.22375, 39.9296, 14.0054, -4.90458, -79.1571, 2.39207
0.332, -1, -9.13829, 39.8537, 14.0339, -4.76835, -78.9976, 2.2901
0.336, -1, -9.05287, 39.7778, 14.0625, -4.63219, -78.8382, 2.18818
0.34, -1, -8.9675, 39.702, 14.091, -4.49612, -78.6788, 2.08632
0.344, -1, -8.88219, 39.6262, 14.1195, -4.36012, -78.5196, 1.98452
0.348, -1, -8.79692, 39.5505, 14.148, -4.22421, -78.3604, 1.88279
0.352, -1, -8.71172, 39.4748, 14.1765, -4.0884, -78.2014, 1.78113
0.356, -1, -8.62657, 39.3992, 14.2049, -3.95267, -78.0425, 1.67953
0.36, -1, -8.54148, 39.3236, 14.2334, -3.81705, -77.8837, 1.57801
0.364, -1, -8.45646, 39.2481, 14.2618, -3.68152, -77.725, 1.47657
0.368, -1, -8.3715, 39.1727, 14.2902, -3.54611, -77.5664, 1.3752
0.372, -1, -8.28661, 39.0973, 14.3185, -3.4108, -77.408, 1.27392
0.376, -1, -8.20179, 39.0219, 14.3469, -3.2756, -77.2497, 1.17272
0.38, -1, -8.11704, 38.9467, 14.3752, -3.14052, -77.0915, 1.07161
0.384, -1, -8.03237, 38.8715, 14.4035, -3.00557, -76.9335, 0.970588
0.388, -1, -7.94777, 38.7963, 14.4318, -2.87073, -76.7756, 0.869659
0.392, -1, -7.86325, 38.7212, 14.46, -2.73602, -76.6179, 0.768825
0.396, -1, -7.77881, 38.6463, 14.4882, -2.60145, -76.4603, 0.668089
0.4, -1, -7.69446, 38.5713, 14.5164, -2.467, -76.3029, 0.567454
0.404, -1, -7.61019, 38.4965, 14.5446, -2.3327, -76.1456, 0.466921
0.408, -1, -7.526, 38.4217, 14.5727, -2.19854, -75.9885, 0.366494
0.412, -1, -7.44191, 38.347, 14.6008, -2.06452, -75.8316, 0.266176
0.416, -1, -7.35791, 38.2724, 14.6288, -1.93064, -75.6748, 0.165968
0.42, -1, -7.274, 38.1979, 14.6569, -1.79692, -75.5183, 0.0658724
0.424, -1, -7.19019, 38.1235, 14.6849, -1.66336, -75.3619, -0.0341072
0.428, -1, -7.10648, 38.0491, 14.7128, -1.52995, -75.2057, -0.133969
0.432, -1, -7.02287, 37.9748, 14.7408, -1.3967, -75.0496, -0.233711
0.436, -1, -6.93935, 37.9007, 14.7687, -1.26362, -74.8938, -0.33333
0.44, -1, -6.85595, 37.8266, 14.7965, -1.1307, -74.7382, -0.432824
0.444, -1, -6.77264, 37.7526, 14.8244, -0.99795, -74.5827, -0.532191
0.448, -1, -6.68945, 37.6787, 14.8522, -0.865375, -74.4275, -0.631429
0.452, -1, -6.60636, 37.6049, 14.8799, -0.732975, -74.2725, -0.730535
0.456, -1, -6.52339, 37.5312, 14.9077, -0.600755, -74.1176, -0.829507
0.46, -1, -6.44053, 37.4576, 14.9353, -0.468716, -73.963, -0.928344
0.464, -1, -6.35778, 37.3842, 14.963, -0.336861, -73.8086, -1.02704
0.468, -1, -6.27515, 37.3108, 14.9906, -0.205193, -73.6545, -1.1256
0.472, -1, -6.19264, 37.2375, 15.0181, -0.0737153, -73.5005, -1.22402
0.476, -1, -6.11024, 37.1643, 15.0457, 0.0575699, -73.3468, -1.32229
0.48, -1, -6.02797, 37.0912, 15.0732, 0.18866, -73.1933, -1.42042
0.484, -1, -5.94582, 37.0183, 15.1006, 0.319552, -73.04, -1.51839
0.488, -1, -5.8638, 36.9454, 15.128, 0.450244, -72.887, -1.61622
0.492, -1, -5.7819, 36.8727, 15.1554, 0.580734, -72.7342, -1.7139
0.496, -1, -5.70012, 36.8001, 15.1827, 0.711018, -72.5817, -1.81142
0.5, -1, -5.61848, 36.7276, 15.2099, 0.841096, -72.4294, -1.90879
0.504, -1, -5.53697, 36.6552, 15.2372, 0.970964, -72.2773, -2.006
0.508, -1, -5.45558, 36.5829, 15.2644, 1.10062, -72.1255, -2.10306
0.512, -1, -5.37433, 36.5108, 15.2915, 1.23006, -71.9739, -2.19995
0.516, -1, -5.29321, 36.4387, 15.3186, 1.35929, -71.8226, -2.29668
0.52, -1, -5.21223, 36.3668, 15.3456, 1.4883, -71.6715, -2.39325
0.524, -1, -5.13138, 36.295, 15.3726, 1.6171, -71.5207, -2.48966
0.528, -1, -5.05067, 36.2233, 15.3996, 1.74567, -71.3702, -2.5859
0.532, -1, -4.97009, 36.1518, 15.4265, 1.87402, -71.2199, -2.68198
0.536, -1, -4.88966, 36.0803, 15.4534, 2.00215, -71.0698, -2.77789
0.54, -1, -4.80936, 36.009, 15.4802, 2.13005, -70.9201, -2.87363
0.544, -1, -4.7292, 35.9378, 15.507, 2.25773, -70.7706, -2.9692
0.548, -1, -4.64919, 35.8668, 15.5337, 2.38518, -70.6213, -3.0646
0.552, -1, -4.56931, 35.7959, 15.5604, 2.51241, -70.4724, -3.15984
0.556, -1, -4.48958, 35.725, 15.587, 2.6394, -70.3237, -3.2549
0.56, -1, -4.41, 35.6544, 15.6136, 2.76617, -70.1752, -3.34979
0.564, -1, -4.33056, 35.5838, 15.6401, 2.8927, -70.0271, -3.44451
0.568, -1, -4.25126, 35.5134, 15.6666, 3.01901, -69.8792, -3.53905
0.572, -1, -4.17211, 35.4431, 15.693, 3.14508, -69.7316, -3.63342
0.576, -1, -4.0931, 35.373, 15.7194, 3.27092, -69.5842, -3.72761
0.58, -1, -4.01424, 35.3029, 15.7458, 3.39652, -69.4372, -3.82163
0.584, -1, -3.93553, 35.233, 15.772, 3.52189, -69.2904, -3.91547
0.588, -1, -3.85696, 35.1633, 15.7983, 3.64702, -69.1438, -4.00914
0.592, -1, -3.77855, 35.0936, 15.8245, 3.77191, -68.9976, -4.10263
0.596, -1, -3.70028, 35.0241, 15.8506, 3.89657, -68.8516, -4.19594
0.6, -1, -3.62216, 34.9548, 15.8767, 4.02099, -68.7059, -4.28908
0.604, -1, -3.54419, 34.8855, 15.9027, 4.14517, -68.5605, -4.38203
0.608, -1, -3.46637, 34.8164, 15.9287, 4.26911, -68.4154, -4.47481
0.612, -1, -3.3887, 34.7474, 15.9547, 4.39281, -68.2706, -4.5674
0.616, -1, -3.31118, 34.6786, 15.9806, 4.51628, -68.126, -4.65982
0.62, -1, -3.23382, 34.6099, 16.0064, 4.63949, -67.9817, -4.75205
0.624, -1, -3.1566, 34.5413, 16.0322, 4.76247, -67.8377, -4.84411
0.628, -1, -3.07954, 34.4729, 16.0579, 4.88521, -67.694, -4.93598
0.632, -1, -3.00262, 34.4046, 16.0836, 5.0077, -67.5506, -5.02767
0.636, -1, -2.92586, 34.3364, 16.1092, 5.12995, -67.4074, -5.11918
0.64, -1, -2.84926, 34.2684, 16.1348, 5.25195, -67.2646, -5.2105
0.644, -1, -2.7728, 34.2005, 16.1604, 5.37371, -67.122, -5.30165
0.648, -1, -2.6965, 34.1328, 16.1858, 5.49523, -66.9797, -5.39261
0.652, -1, -2.62035, 34.0652, 16.2113, 5.6165, -66.8377, -5.48338
0.656, -1, -2.54436, 33.9977, 16.2366, 5.73753, -66.696, -5.57398
0.66, -1, -2.46852, 33.9303, 16.262, 5.85831, -66.5546, -5.66439
0.664, -1, -2.39283, 33.8631, 16.2872, 5.97884, -66.4135, -5.75461
0.668, -1, -2.3173, 33.7961, 16.3125, 6.09913, -66.2726, -5.84465
0.672, -1, -2.24192, 33.7291, 16.3376, 6.21917, -66.1321, -5.93451
0.676, -1, -2.1667, 33.6623, 16.3628, 6.33897, -65.9918, -6.02418
0.68, -1, -2.09163, 33.5957, 16.3878, 6.45851, -65.8518, -6.11367
0.684, -1, -2.01672, 33.5292, 16.4129, 6.57781, -65.7121, -6.20297
0.688, -1, -1.94196, 33.4628, 16.4378, 6.69687, -65.5727, -6.29208
0.692, -1, -1.86736, 33.3965, 16.4627, 6.81567, -65.4336, -6.38101
0.696, -1, -1.79291, 33.3304, 16.4876, 6.93423, -65.2948, -6.46976
0.7, -1, -1.71862, 33.2645, 16.5124, 7.05254, -65.1562, -6.55832
0.704, -1, -1.64448, 33.1986, 16.5372, 7.1706, -65.018, -6.64669
0.708, -1, -1.5705, 33.1329, 16.5619, 7.28841, -64.8801, -6.73488
0.712, -1, -1.49668, 33.0674, 16.5865, 7.40597, -64.7424, -6.82288
0.716, -1, -1.42301, 33.002, 16.6111, 7.52329, -64.605, -6.9107
0.72, -1, -1.34949, 32.9367, 16.6357, 7.64036, -64.468, -6.99833
0.724, -1, -1.27614, 32.8715, 16.6602, 7.75718, -64.3312, -7.08577
0.728, -1, -1.20293, 32.8065, 16.6846, 7.87375, -64.1947, -7.17303
0.732, -1, -1.12989, 32.7417, 16.709, 7.99007, -64.0585, -7.2601
0.736, -1, -1.057, 32.677, 16.7333, 8.10615, -63.9226, -7.34699
0.74, -1, -0.984259, 32.6124, 16.7576, 8.22197, -63.7869, -7.43369
0.744, -1, -0.911678, 32.5479, 16.7819, 8.33755, -63.6516, -7.52021
0.748, -1, -0.839252, 32.4836, 16.8061, 8.45288, -63.5166, -7.60653
0.752, -1, -0.766981, 32.4194, 16.8302, 8.56796, -63.3818, -7.69268
0.756, -1, -0.694864, 32.3554, 16.8543, 8.6828, -63.2474, -7.77864
0.76, -1, -0.622901, 32.2915, 16.8783, 8.79738, -63.1132, -7.86441
0.764, -1, -0.551092, 32.2277, 16.9023, 8.91172, -62.9793, -7.95
0.768, -1, -0.479437, 32.1641, 16.9262, 9.02582, -62.8457, -8.0354
0.772, -1, -0.407935, 32.1006, 16.9501, 9.13966, -62.7124, -8.12062
0.776, -1, -0.336586, 32.0373, 16.9739, 9.25326, -62.5794, -8.20566
0.78, -1, -0.26539, 31.9741, 16.9977, 9.36662, -62.4467, -8.29051
0.784, -1, -0.194346, 31.911, 17.0214, 9.47973, -62.3142, -8.37518
0.788, -1, -0.123455, 31.848, 17.0451, 9.5926, -62.182, -8.45966
0.792, -1, -0.0527154, 31.7852, 17.0687, 9.70522, -62.0502, -8.54397
0.796, -1, 0.0178725, 31.7226, 17.0923, 9.81761, -61.9186, -8.62809
0.8, -1, 0.0883091, 31.66, 17.1158, 9.92975, -61.7873, -8.71204
0.804, -1, 0.158595, 31.5976, 17.1393, 10.0417, -61.6562, -8.7958
0.808, -1, 0.22873, 31.5353, 17.1627, 10.1533, -61.5255, -8.87938
0.812, -1, 0.298716, 31.4732, 17.186, 10.2647, -61.395, -8.96279
0.816, -1, 0.368552, 31.4112, 17.2094, 10.3759, -61.2648, -9.04602
0.82, -1, 0.438239, 31.3493, 17.2326, 10.4869, -61.1349, -9.12907
0.824, -1, 0.507778, 31.2876, 17.2559, 10.5976, -61.0053, -9.21194
0.828, -1, 0.577169, 31.226, 17.279, 10.7081, -60.8759, -9.29464
0.832, -1, 0.646413, 31.1645, 17.3021, 10.8183, -60.7468, -9.37716
0.836, -1, 0.71551, 31.1031, 17.3252, 10.9283, -60.618, -9.45951
0.84, -1, 0.78446, 31.0419, 17.3482, 11.0381, -60.4895, -9.54168
0.844, -1, 0.853266, 30.9808, 17.3712, 11.1476, -60.3612, -9.62368
0.848, -1, 0.921925, 30.9199, 17.3941, 11.2569, -60.2332, -9.7055
0.852, -1, 0.990441, 30.859, 17.417, 11.366, -60.1055, -9.78716
0.856, -1, 1.05881, 30.7983, 17.4398, 11.4749, -59.9781, -9.86864
0.86, -1, 1.12704, 30.7378, 17.4626, 11.5835, -59.8509, -9.94995
0.864, -1, 1.19512, 30.6773, 17.4854, 11.6919, -59.7239, -10.0311
0.868, -1, 1.26307, 30.617, 17.508, 11.8001, -59.5973, -10.1121
0.872, -1, 1.33087, 30.5568, 17.5307, 11.908, -59.4709, -10.1929
0.876, -1, 1.39853, 30.4967, 17.5533, 12.0157, -59.3448, -10.2735
0.88, -1, 1.46604, 30.4368, 17.5758, 12.1232, -59.2189, -10.354
0.884, -1, 1.53342, 30.377, 17.5983, 12.2305, -59.0933, -10.4343
0.888, -1, 1.60066, 30.3173, 17.6208, 12.3375, -58.9679, -10.5144
0.892, -1, 1.66775, 30.2577, 17.6432, 12.4444, -58.8429, -10.5943
0.896, -1, 1.73471, 30.1982, 17.6655, 12.551, -58.718, -10.6741
0.9, -1, 1.80153, 30.1389, 17.6878, 12.6574, -58.5935, -10.7538
0.904, -1, 1.86821, 30.0797, 17.7101, 12.7635, -58.4692, -10.8332
0.908, -1, 1.93476, 30.0206, 17.7323, 12.8695, -58.3451, -10.9125
0.912, -1, 2.00117, 29.9617, 17.7545, 12.9752, -58.2213, -10.9917
0.916, -1, 2.06744, 29.9028, 17.7766, 13.0807, -58.0978, -11.0707
0.92, -1, 2.13357, 29.8441, 17.7987, 13.186, -57.9745, -11.1495
0.924, -1, 2.19957, 29.7855, 17.8207, 13.2911, -57.8514, -11.2281
0.928, -1, 2.26543, 29.727, 17.8427, 13.3959, -57.7287, -11.3066
0.932, -1, 2.33116, 29.6687, 17.8647, 13.5006, -57.6061, -11.385
0.936, -1, 2.39676, 29.6104, 17.8866, 13.605, -57.4838, -11.4631
0.94, -1, 2.46222, 29.5523, 17.9084, 13.7092, -57.3618, -11.5412
0.944, -1, 2.52755, 29.4943, 17.9303, 13.8133, -57.24, -11.619
0.948, -1, 2.59275, 29.4364, 17.952, 13.9171, -57.1185, -11.6967
0.952, -1, 2.65781, 29.3787, 17.9738, 14.0206, -56.9972, -11.7743
0.956, -1, 2.72274, 29.321, 17.9954, 14.124, -56.8761, -11.8516
0.96, -1, 2.78755, 29.2635, 18.0171, 14.2272, -56.7553, -11.9289
0.964, -1, 2.85222, 29.2061, 18.0387, 14.3302, -56.6348, -12.0059
0.968, -1, 2.91676, 29.1488, 18.0602, 14.4329, -56.5144, -12.0829
0.972, -1, 2.98117, 29.0916, 18.0817, 14.5355, -56.3944, -12.1596
0.976, -1, 3.04545, 29.0345, 18.1032, 14.6378, -56.2745, -12.2362
0.98, -1, 3.10961, 28.9775, 18.1246, 14.7399, -56.1549, -12.3127
0.984, -1, 3.17363, 28.9207, 18.146, 14.8419, -56.0356, -12.389
0.988, -1, 3.23753, 28.864, 18.1673, 14.9436, -55.9165, -12.4651
0.992, -1, 3.3013, 28.8074, 18.1886, 15.0451, -55.7976, -12.5411
0.996, -1, 3.36494, 28.7508, 18.2099, 15.1465, -55.6789, -12.617
1, -1, 3.42846, 28.6945, 18.2311, 15.2476, -55.5605, -12.6927
1.004, -1, 3.49185, 28.6382, 18.2523, 15.3485, -55.4423, -12.7682
1.008, -1, 3.55512, 28.582, 18.2734, 15.4492, -55.3244, -12.8436
1.012, -1, 3.61826, 28.5259, 18.2945, 15.5498, -55.2067, -12.9189
1.016, -1, 3.68127, 28.47, 18.3155, 15.6501, -55.0892, -12.994
1.02, -1, 3.74416, 28.4142, 18.3365, 15.7502, -54.972, -13.0689
1.024, -1, 3.80693, 28.3584, 18.3575, 15.8502, -54.855, -13.1437
1.027, -1, 3.86958, 28.3028, 18.3784, 15.9499, -54.7382, -13.2184
1.032, -1, 3.9321, 28.2473, 18.3993, 16.0494, -54.6216, -13.2929
1.036, -1, 3.9945, 28.1919, 18.4201, 16.1488, -54.5053, -13.3673
1.04, -1, 4.05678, 28.1366, 18.4409, 16.2479, -54.3892, -13.4415
1.044, -1, 4.11893, 28.0814, 18.4616, 16.3469, -54.2733, -13.5156
1.048, -1, 4.18097, 28.0263, 18.4824, 16.4457, -54.1577, -13.5895
1.052, -1, 4.24289, 27.9714, 18.503, 16.5442, -54.0422, -13.6633
1.055, -1, 4.30468, 27.9165, 18.5237, 16.6426, -53.927, -13.7369
1.06, -1, 4.36636, 27.8617, 18.5443, 16.7408, -53.8121, -13.8104
1.064, -1, 4.42792, 27.8071, 18.5648, 16.8388, -53.6973, -13.8838
1.068, -1, 4.48936, 27.7525, 18.5853, 16.9366, -53.5828, -13.957
1.072, -1, 4.55068, 27.6981, 18.6058, 17.0343, -53.4685, -14.0301
1.076, -1, 4.61188, 27.6438, 18.6262, 17.1317, -53.3544, -14.103
1.08, -1, 4.67297, 27.5895, 18.6466, 17.229, -53.2405, -14.1758
1.084, -1, 4.73394, 27.5354, 18.667, 17.326, -53.1268, -14.2485
1.088, -1, 4.7948, 27.4814, 18.6873, 17.4229, -53.0134, -14.321
1.091, -1, 4.85554, 27.4274, 18.7076, 17.5196, -52.9002, -14.3934
1.096, -1, 4.91617, 27.3736, 18.7278, 17.6161, -52.7871, -14.4656
1.1, -1, 4.97668, 27.3199, 18.7481, 17.7125, -52.6743, -14.5378
1.104, -1, 5.03708, 27.2663, 18.7682, 17.8086, -52.5618, -14.6097
1.108, -1, 5.09737, 27.2127, 18.7883, 17.9046, -52.4494, -14.6816
1.112, -1, 5.15754, 27.1593, 18.8084, 18.0004, -52.3372, -14.7533
1.116, -1, 5.2176, 27.106, 18.8285, 18.096, -52.2253, -14.8249
1.119, -1, 5.27755, 27.0528, 18.8485, 18.1915, -52.1135, -14.8963
1.124, -1, 5.33739, 26.9996, 18.8685, 18.2867, -52.0019, -14.9676
1.128, -1, 5.39712, 26.9466, 18.8884, 18.3818, -51.8906, -15.0388
1.132, -1, 5.45673, 26.8937, 18.9083, 18.4767, -51.7795, -15.1098
1.136, -1, 5.51624, 26.8408, 18.9282, 18.5715, -51.6685, -15.1807
1.14, -1, 5.57564, 26.7881, 18.948, 18.666, -51.5578, -15.2515
1.144, -1, 5.63493, 26.7355, 18.9678, 18.7604, -51.4473, -15.3222
1.147, -1, 5.69412, 26.6829, 18.9876, 18.8547, -51.337, -15.3927
1.152, -1, 5.75319, 26.6305, 19.0073, 18.9487, -51.2268, -15.4631
1.156, -1, 5.81216, 26.5781, 19.027, 19.0426, -51.1169, -15.5334
1.16, -1, 5.87103, 26.5259, 19.0467, 19.1363, -51.0072, -15.6035
1.164, -1, 5.92979, 26.4737, 19.0663, 19.2298, -50.8976, -15.6736
1.168, -1, 5.98844, 26.4216, 19.0859, 19.3232, -50.7883, -15.7435
1.172, -1, 6.04699, 26.3696, 19.1054, 19.4164, -50.6792, -15.8132
1.175, -1, 6.10543, 26.3177, 19.1249, 19.5095, -50.5702, -15.8829
1.18, -1, 6.16377, 26.266, 19.1444, 19.6024, -50.4614, -15.9524
1.184, -1, 6.22201, 26.2142, 19.1639, 19.6951, -50.3529, -16.0218
1.188, -1, 6.28015, 26.1626, 19.1833, 19.7876, -50.2445, -16.0911
1.192, -1, 6.33818, 26.1111, 19.2027, 19.88, -50.1363, -16.1603
1.196, -1, 6.39611, 26.0597, 19.222, 19.9723, -50.0283, -16.2293
1.2, -1, 6.45394, 26.0083, 19.2413, 20.0643, -49.9205, -16.2982
1.204, -1, 6.51167, 25.9571, 19.2606, 20.1562, -49.8129, -16.367
1.208, -1, 6.5693, 25.9059, 19.2798, 20.248, -49.7055, -16.4357
1.212, -1, 6.62683, 25.8548, 19.299, 20.3396, -49.5982, -16.5042
1.216, -1, 6.68426, 25.8038, 19.3182, 20.431, -49.4912, -16.5727
1.22, -1, 6.74159, 25.7529, 19.3374, 20.5223, -49.3843, -16.641
1.224, -1, 6.79882, 25.7021, 19.3565, 20.6134, -49.2776, -16.7092
1.228, -1, 6.85596, 25.6514, 19.3756, 20.7044, -49.1711, -16.7773
1.232, -1, 6.91299, 25.6008, 19.3946, 20.7952, -49.0648, -16.8453
1.236, -1, 6.96993, 25.5502, 19.4136, 20.8858, -48.9586, -16.9131
1.24, -1, 7.02678, 25.4997, 19.4326, 20.9763, -48.8526, -16.9809
1.244, -1, 7.08352, 25.4494, 19.4515, 21.0667, -48.7469, -17.0485
1.248, -1, 7.14018, 25.3991, 19.4705, 21.1569, -48.6413, -17.116
1.252, -1, 7.19673, 25.3488, 19.4893, 21.2469, -48.5358, -17.1834
1.256, -1, 7.25319, 25.2987, 19.5082, 21.3368, -48.4306, -17.2507
1.26, -1, 7.30956, 25.2487, 19.527, 21.4266, -48.3255, -17.3179
1.264, -1, 7.36583, 25.1987, 19.5458, 21.5161, -48.2206, -17.385
1.267, -1, 7.42201, 25.1488, 19.5646, 21.6056, -48.1158, -17.4519
1.272, -1, 7.4781, 25.099, 19.5833, 21.6949, -48.0113, -17.5188
1.276, -1, 7.53409, 25.0493, 19.602, 21.784, -47.9069, -17.5855
1.28, -1, 7.58999, 24.9997, 19.6207, 21.873, -47.8027, -17.6521
1.284, -1, 7.6458, 24.9501, 19.6393, 21.9619, -47.6986, -17.7186
1.288, -1, 7.70152, 24.9007, 19.6579, 22.0506, -47.5948, -17.785
1.292, -1, 7.75715, 24.8513, 19.6765, 22.1392, -47.4911, -17.8513
1.295, -1, 7.81268, 24.802, 19.695, 22.2276, -47.3875, -17.9175
1.3, -1, 7.86813, 24.7528, 19.7135, 22.3159, -47.2842, -17.9836
1.304, -1, 7.92348, 24.7036, 19.732, 22.404, -47.181, -18.0496
1.308, -1, 7.97875, 24.6545, 19.7505, 22.492, -47.0779, -18.1154
1.312, -1, 8.03393, 24.6055, 19.7689, 22.5798, -46.9751, -18.1812
1.316, -1, 8.08901, 24.5566, 19.7873, 22.6675, -46.8724, -18.2468
1.32, -1, 8.14401, 24.5078, 19.8057, 22.7551, -46.7699, -18.3124
1.324, -1, 8.19893, 24.4591, 19.824, 22.8425, -46.6675, -18.3778
1.328, -1, 8.25375, 24.4104, 19.8423, 22.9298, -46.5653, -18.4432
1.332, -1, 8.30849, 24.3618, 19.8606, 23.017, -46.4632, -18.5084
1.336, -1, 8.36314, 24.3133, 19.8788, 23.104, -46.3614, -18.5735
1.34, -1, 8.4177, 24.2648, 19.8971, 23.1909, -46.2596, -18.6386
1.344, -1, 8.47218, 24.2165, 19.9153, 23.2776, -46.1581, -18.7035
1.348, -1, 8.52657, 24.1682, 19.9334, 23.3642, -46.0567, -18.7683
1.352, -1, 8.58088, 24.1199, 19.9515, 23.4507, -45.9554, -18.833
1.356, -1, 8.6351, 24.0718, 19.9697, 23.537, -45.8543, -18.8976
1.36, -1, 8.68923, 24.0237, 19.9877, 23.6232, -45.7534, -18.9622
1.364, -1, 8.74328, 23.9757, 20.0058, 23.7092, -45.6526, -19.0266
1.368, -1, 8.79725, 23.9278, 20.0238, 23.7952, -45.552, -19.0909
1.372, -1, 8.85114, 23.88, 20.0418, 23.881, -45.4516, -19.1551
1.376, -1, 8.90494, 23.8322, 20.0598, 23.9666, -45.3513, -19.2192
1.38, -1, 8.95866, 23.7845, 20.0777, 24.0521, -45.2511, -19.2833
1.384, -1, 9.01229, 23.7369, 20.0956, 24.1375, -45.1511, -19.3472
1.388, -1, 9.06584, 23.6894, 20.1135, 24.2228, -45.0513, -19.411
1.392, -1, 9.11932, 23.6419, 20.1314, 24.3079, -44.9516, -19.4747
1.396, -1, 9.1727, 23.5945, 20.1492, 24.393, -44.8521, -19.5384
1.4, -1, 9.22601, 23.5472, 20.167, 24.4778, -44.7527, -19.6019
1.404, -1, 9.27924, 23.4999, 20.1848, 24.5626, -44.6535, -19.6653
1.408, -1, 9.33239, 23.4527, 20.2025, 24.6472, -44.5544, -19.7287
1.412, -1, 9.38546, 23.4056, 20.2202, 24.7317, -44.4554, -19.7919
1.416, -1, 9.43844, 23.3585, 20.2379, 24.8161, -44.3567, -19.8551
1.42, -1, 9.49135, 23.3116, 20.2556, 24.9003, -44.258, -19.9181
1.424, -1, 9.54418, 23.2647, 20.2732, 24.9844, -44.1595, -19.9811
1.428, -1, 9.59693, 23.2178, 20.2908, 25.0684, -44.0612, -20.044
1.432, -1, 9.6496, 23.1711, 20.3084, 25.1523, -43.963, -20.1067
1.436, -1, 9.7022, 23.1244, 20.326, 25.236, -43.865, -20.1694
1.44, -1, 9.75472, 23.0777, 20.3435, 25.3196, -43.767, -20.232
1.444, -1, 9.80716, 23.0312, 20.361, 25.4031, -43.6693, -20.2945
1.448, -1, 9.85952, 22.9847, 20.3785, 25.4865, -43.5717, -20.3569
1.452, -1, 9.91181, 22.9383, 20.396, 25.5697, -43.4742, -20.4192
1.456, -1, 9.96403, 22.8919, 20.4134, 25.6528, -43.3769, -20.4814
1.46, -1, 10.0162, 22.8456, 20.4308, 25.7358, -43.2797, -20.5436
1.464, -1, 10.0682, 22.7994, 20.4482, 25.8187, -43.1826, -20.6056
1.468, -1, 10.1202, 22.7533, 20.4656, 25.9015, -43.0857, -20.6676
1.472, -1, 10.1721, 22.7072, 20.4829, 25.9841, -42.989, -20.7294
1.476, -1, 10.224, 22.6612, 20.5002, 26.0666, -42.8923, -20.7912
1.48, -1, 10.2757, 22.6152, 20.5175, 26.149, -42.7958, -20.8529
1.484, -1, 10.3274, 22.5693, 20.5348, 26.2313, -42.6995, -20.9145
1.488, -1, 10.379, 22.5235, 20.552, 26.3135, -42.6033, -20.976
1.492, -1, 10.4306, 22.4777, 20.5692, 26.3956, -42.5072, -21.0374
1.496, -1, 10.482, 22.432, 20.5864, 26.4775, -42.4113, -21.0987
1.5, -1, 10.5334, 22.3864, 20.6035, 26.5593, -42.3154, -21.16
1.504, -1, 10.5848, 22.3408, 20.6207, 26.641, -42.2198, -21.2212
1.508, -1, 10.636, 22.2953, 20.6378, 26.7226, -42.1242, -21.2822
1.512, -1, 10.6872, 22.2499, 20.6549, 26.8041, -42.0288, -21.3432
1.516, -1, 10.7383, 22.2045, 20.6719, 26.8855, -41.9336, -21.4041
1.52, -1, 10.7893, 22.1592, 20.689, 26.9667, -41.8384, -21.4649
1.524, -1, 10.8403, 22.114, 20.706, 27.0479, -41.7434, -21.5257
1.528, -1, 10.8912, 22.0688, 20.723, 27.1289, -41.6485, -21.5863
1.532, -1, 10.942, 22.0237, 20.74, 27.2098, -41.5538, -21.6469
1.536, -1, 10.9928, 21.9786, 20.7569, 27.2906, -41.4592, -21.7074
1.54, -1, 11.0435, 21.9336, 20.7738, 27.3713, -41.3647, -21.7678
1.544, -1, 11.0941, 21.8887, 20.7908, 27.4519, -41.2703, -21.8281
1.548, -1, 11.1446, 21.8438, 20.8076, 27.5324, -41.1761, -21.8884
1.552, -1, 11.1951, 21.799, 20.8245, 27.6127, -41.082, -21.9485
1.556, -1, 11.2455, 21.7542, 20.8413, 27.693, -40.988, -22.0086
1.56, -1, 11.2959, 21.7095, 20.8581, 27.7732, -40.8941, -22.0686
1.564, -1, 11.3462, 21.6649, 20.8749, 27.8532, -40.8004, -22.1285
1.568, -1, 11.3964, 21.6203, 20.8917, 27.9331, -40.7068, -22.1884
1.572, -1, 11.4465, 21.5758, 20.9084, 28.013, -40.6133, -22.2481
1.576, -1, 11.4966, 21.5313, 20.9251, 28.0927, -40.52, -22.3078
1.58, -1, 11.5466, 21.4869, 20.9418, 28.1723, -40.4268, -22.3674
1.584, -1, 11.5965, 21.4426, 20.9585, 28.2518, -40.3336, -22.4269
1.588, -1, 11.6464, 21.3983, 20.9752, 28.3313, -40.2407, -22.4864
1.592, -1, 11.6962, 21.3541, 20.9918, 28.4106, -40.1478, -22.5457
1.596, -1, 11.746, 21.3099, 21.0084, 28.4898, -40.0551, -22.605
1.6, -1, 11.7957, 21.2658, 21.025, 28.5689, -39.9624, -22.6642
1.604, -1, 11.8453, 21.2217, 21.0416, 28.6479, -39.8699, -22.7234
1.608, -1, 11.8948, 21.1778, 21.0581, 28.7268, -39.7776, -22.7824
1.612, -1, 11.9443, 21.1338, 21.0747, 28.8055, -39.6853, -22.8414
1.616, -1, 11.9938, 21.0899, 21.0912, 28.8842, -39.5932, -22.9003
1.62, -1, 12.0431, 21.0461, 21.1076, 28.9628, -39.5011, -22.9591
1.624, -1, 12.0924, 21.0023, 21.1241, 29.0413, -39.4092, -23.0179
1.628, -1, 12.1417, 20.9586, 21.1405, 29.1197, -39.3174, -23.0765
1.632, -1, 12.1908, 20.915, 21.157, 29.198, -39.2258, -23.1352
1.636, -1, 12.2399, 20.8714, 21.1734, 29.2762, -39.1342, -23.1937
1.64, -1, 12.289, 20.8278, 21.1897, 29.3543, -39.0428, -23.2521
1.644, -1, 12.338, 20.7843, 21.2061, 29.4323, -38.9515, -23.3105
1.648, -1, 12.3869, 20.7409, 21.2224, 29.5102, -38.8603, -23.3688
1.652, -1, 12.4358, 20.6975, 21.2388, 29.588, -38.7692, -23.4271
1.656, -1, 12.4846, 20.6542, 21.2551, 29.6657, -38.6782, -23.4852
1.66, -1, 12.5333, 20.6109, 21.2713, 29.7433, -38.5873, -23.5433
1.664, -1, 12.582, 20.5677, 21.2876, 29.8208, -38.4966, -23.6013
1.668, -1, 12.6306, 20.5245, 21.3038, 29.8982, -38.4059, -23.6593
1.672, -1, 12.6792, 20.4814, 21.32, 29.9755, -38.3154, -23.7171
1.676, -1, 12.7277, 20.4384, 21.3362, 30.0527, -38.225, -23.7749
1.68, -1, 12.7761, 20.3953, 21.3524, 30.1298, -38.1347, -23.8327
1.684, -1, 12.8245, 20.3524, 21.3686, 30.2069, -38.0445, -23.8903
1.688, -1, 12.8728, 20.3095, 21.3847, 30.2838, -37.9544, -23.9479
1.692, -1, 12.9211, 20.2666, 21.4008, 30.3606, -37.8644, -24.0054
1.696, -1, 12.9693, 20.2238, 21.4169, 30.4374, -37.7746, -24.0629
1.7, -1, 13.0174, 20.1811, 21.433, 30.514, -37.6848, -24.1203
1.704, -1, 13.0655, 20.1384, 21.449, 30.5906, -37.5951, -24.1776
1.708, -1, 13.1136, 20.0958, 21.4651, 30.6671, -37.5056, -24.2348
1.712, -1, 13.1615, 20.0532, 21.4811, 30.7435, -37.4162, -24.292
1.716, -1, 13.2094, 20.0106, 21.4971, 30.8197, -37.3269, -24.3491
1.72, -1, 13.2573, 19.9681, 21.5131, 30.8959, -37.2376, -24.4061
1.724, -1, 13.3051, 19.9257, 21.529, 30.972, -37.1485, -24.4631
1.728, -1, 13.3528, 19.8833, 21.545, 31.0481, -37.0595, -24.52
1.732, -1, 13.4005, 19.841, 21.5609, 31.124, -36.9706, -24.5768
1.736, -1, 13.4482, 19.7987, 21.5768, 31.1998, -36.8818, -24.6336
1.74, -1, 13.4957, 19.7565, 21.5927, 31.2756, -36.7931, -24.6903
1.744, -1, 13.5433, 19.7143, 21.6086, 31.3512, -36.7045, -24.7469
1.748, -1, 13.5907, 19.6721, 21.6244, 31.4268, -36.6161, -24.8035
1.752, -1, 13.6381, 19.63, 21.6402, 31.5023, -36.5277, -24.86
1.756, -1, 13.6855, 19.588, 21.6561, 31.5776, -36.4394, -24.9164
1.76, -1, 13.7328, 19.546, 21.6719, 31.6529, -36.3512, -24.9728
1.764, -1, 13.78, 19.5041, 21.6876, 31.7282, -36.2632, -25.0291
1.768, -1, 13.8272, 19.4622, 21.7034, 31.8033, -36.1752, -25.0853
1.772, -1, 13.8743, 19.4203, 21.7191, 31.8783, -36.0873, -25.1415
1.776, -1, 13.9214, 19.3785, 21.7348, 31.9533, -35.9996, -25.1976
1.78, -1, 13.9684, 19.3368, 21.7505, 32.0281, -35.9119, -25.2536
1.784, -1, 14.0154, 19.2951, 21.7662, 32.1029, -35.8243, -25.3096
1.788, -1, 14.0623, 19.2534, 21.7819, 32.1776, -35.7369, -25.3655
1.792, -1, 14.1092, 19.2118, 21.7975, 32.2522, -35.6495, -25.4214
1.796, -1, 14.156, 19.1703, 21.8132, 32.3268, -35.5622, -25.4772
1.8, -1, 14.2027, 19.1288, 21.8288, 32.4012, -35.4751, -25.5329
1.804, -1, 14.2494, 19.0873, 21.8444, 32.4756, -35.388, -25.5886
1.808, -1, 14.2961, 19.0459, 21.86, 32.5498, -35.301, -25.6442
1.812, -1, 14.3427, 19.0045, 21.8755, 32.624, -35.2142, -25.6997
1.816, -1, 14.3892, 18.9632, 21.8911, 32.6981, -35.1274, -25.7552
1.82, -1, 14.4357, 18.9219, 21.9066, 32.7722, -35.0407, -25.8106
1.824, -1, 14.4822, 18.8807, 21.9221, 32.8461, -34.9541, -25.8659
1.828, -1, 14.5286, 18.8395, 21.9376, 32.92, -34.8676, -25.9212
1.832, -1, 14.5749, 18.7983, 21.9531, 32.9938, -34.7813, -25.9764
1.836, -1, 14.6212, 18.7572, 21.9685, 33.0675, -34.695, -26.0316
1.84, -1, 14.6674, 18.7162, 21.984, 33.1411, -34.6088, -26.0867
1.844, -1, 14.7136, 18.6752, 21.9994, 33.2146, -34.5227, -26.1418
1.848, -1, 14.7598, 18.6342, 22.0148, 33.2881, -34.4367, -26.1967
1.852, -1, 14.8058, 18.5933, 22.0302, 33.3614, -34.3507, -26.2517
1.856, -1, 14.8519, 18.5524, 22.0456, 33.4347, -34.2649, -26.3065
1.86, -1, 14.8979, 18.5116, 22.0609, 33.5079, -34.1792, -26.3613
1.864, -1, 14.9438, 18.4708, 22.0762, 33.5811, -34.0936, -26.4161
1.868, -1, 14.9897, 18.4301, 22.0916, 33.6541, -34.008, -26.4708
1.872, -1, 15.0355, 18.3894, 22.1069, 33.7271, -33.9226, -26.5254
1.876, -1, 15.0813, 18.3487, 22.1222, 33.8, -33.8372, -26.58
1.88, -1, 15.127, 18.3081, 22.1374, 33.8728, -33.7519, -26.6345
1.884, -1, 15.1727, 18.2676, 22.1527, 33.9456, -33.6668, -26.6889
1.888, -1, 15.2184, 18.227, 22.1679, 34.0182, -33.5817, -26.7433
1.892, -1, 15.264, 18.1866, 22.1832, 34.0908, -33.4967, -26.7976
1.896, -1, 15.3095, 18.1461, 22.1984, 34.1633, -33.4118, -26.8519
1.9, -1, 15.355, 18.1057, 22.2136, 34.2358, -33.3269, -26.9062
1.904, -1, 15.4004, 18.0654, 22.2287, 34.3081, -33.2422, -26.9603
1.908, -1, 15.4458, 18.0251, 22.2439, 34.3804, -33.1576, -27.0144
1.912, -1, 15.4912, 17.9848, 22.259, 34.4526, -33.073, -27.0685
1.916, -1, 15.5365, 17.9446, 22.2742, 34.5248, -32.9886, -27.1225
1.92, -1, 15.5818, 17.9044, 22.2893, 34.5968, -32.9042, -27.1764
1.924, -1, 15.627, 17.8643, 22.3044, 34.6688, -32.8199, -27.2303
1.928, -1, 15.6721, 17.8242, 22.3195, 34.7407, -32.7357, -27.2841
1.932, -1, 15.7173, 17.7841, 22.3345, 34.8126, -32.6516, -27.3379
1.936, -1, 15.7623, 17.7441, 22.3496, 34.8843, -32.5676, -27.3916
1.94, -1, 15.8073, 17.7041, 22.3646, 34.956, -32.4836, -27.4453
1.944, -1, 15.8523, 17.6642, 22.3796, 35.0276, -32.3997, -27.4989
1.948, -1, 15.8973, 17.6243, 22.3946, 35.0992, -32.316, -27.5524
1.952, -1, 15.9422, 17.5844, 22.4096, 35.1707, -32.2323, -27.6059
1.956, -1, 15.987, 17.5446, 22.4246, 35.2421, -32.1487, -27.6594
1.96, -1, 16.0318, 17.5048, 22.4396, 35.3134, -32.0652, -27.7128
1.964, -1, 16.0765, 17.4651, 22.4545, 35.3846, -31.9817, -27.7661
1.968, -1, 16.1212, 17.4254, 22.4694, 35.4558, -31.8984, -27.8194
1.972, -1, 16.1659, 17.3858, 22.4844, 35.5269, -31.8151, -27.8726
1.976, -1, 16.2105, 17.3461, 22.4993, 35.598, -31.7319, -27.9258
1.98, -1, 16.2551, 17.3066, 22.5141, 35.6689, -31.6488, -27.9789
1.984, -1, 16.2996, 17.267, 22.529, 35.7398, -31.5658, -28.032
1.988, -1, 16.3441, 17.2275, 22.5439, 35.8107, -31.4829, -28.085
1.992, -1, 16.3886, 17.1881, 22.5587, 35.8814, -31.4, -28.138
1.996, -1, 16.433, 17.1487, 22.5735, 35.9521, -31.3173, -28.1909
1.999, -1, 16.4773, 17.1093, 22.5883, 36.0228, -31.2346, -28.2438
2.004, -1, 16.5216, 17.0699, 22.6031, 36.0933, -31.1519, -28.2966
2.008, -1, 16.5659, 17.0306, 22.6179, 36.1638, -31.0694, -28.3493
2.012, -1, 16.6101, 16.9914, 22.6327, 36.2342, -30.987, -28.4021
2.015, -1, 16.6543, 16.9521, 22.6474, 36.3046, -30.9046, -28.4547
2.019, -1, 16.6984, 16.9129, 22.6622, 36.3748, -30.8223, -28.5073
2.024, -1, 16.7425, 16.8738, 22.6769, 36.445, -30.7401, -28.5599
2.028, -1, 16.7866, 16.8347, 22.6916, 36.5152, -30.658, -28.6124
2.031, -1, 16.8306, 16.7956, 22.7063, 36.5853, -30.5759, -28.6648
2.036, -1, 16.8746, 16.7566, 22.721, 36.6553, -30.4939, -28.7172
2.04, -1, 16.9185, 16.7176, 22.7357, 36.7252, -30.412, -28.7696
2.044, -1, 16.9624, 16.6786, 22.7503, 36.7951, -30.3302, -28.8219
2.048, -1, 17.0062, 16.6397, 22.765, 36.8649, -30.2485, -28.8742
2.051, -1, 17.05, 16.6008, 22.7796, 36.9346, -30.1668, -28.9264
2.055, -1, 17.0938, 16.5619, 22.7942, 37.0043, -30.0852, -28.9785
2.06, -1, 17.1375, 16.5231, 22.8088, 37.0739, -30.0037, -29.0306
2.064, -1, 17.1811, 16.4844, 22.8234, 37.1435, -29.9223, -29.0827
2.068, -1, 17.2244, 16.4458, 22.8379, 37.2129, -29.841, -29.1347
2.071, -1, 17.2671, 16.4077, 22.8523, 37.2823, -29.7597, -29.1866
2.076, -1, 17.3088, 16.3701, 22.8666, 37.3515, -29.6787, -29.2384
2.08, -1, 17.3495, 16.3335, 22.8807, 37.4204, -29.5981, -29.29
2.084, -1, 17.3888, 16.2979, 22.8945, 37.4888, -29.518, -29.3412
2.087, -1, 17.4267, 16.2635, 22.9079, 37.5564, -29.4389, -29.3918
2.092, -1, 17.4632, 16.2306, 22.921, 37.6229, -29.3611, -29.4417
2.096, -1, 17.4983, 16.1992, 22.9337, 37.6879, -29.2851, -29.4903
2.1, -1, 17.5321, 16.1694, 22.9459, 37.7508, -29.2115, -29.5374
2.104, -1, 17.5644, 16.1411, 22.9576, 37.8112, -29.1408, -29.5827
2.107, -1, 17.5951, 16.1145, 22.9686, 37.8686, -29.0737, -29.6257
2.111, -1, 17.624, 16.0896, 22.9791, 37.9226, -29.0106, -29.6661
2.116, -1, 17.6513, 16.0662, 22.9888, 37.9726, -28.9521, -29.7035
2.12, -1, 17.6768, 16.044, 22.9978, 38.0183, -28.8986, -29.7378
2.124, -1, 17.7009, 16.023, 23.0061, 38.0595, -28.8504, -29.7686
2.127, -1, 17.7234, 16.0029, 23.0137, 38.0959, -28.8078, -29.7958
2.132, -1, 17.7446, 15.9838, 23.0205, 38.1275, -28.7707, -29.8195
2.136, -1, 17.7642, 15.9657, 23.0267, 38.1546, -28.739, -29.8397
2.14, -1, 17.7823, 15.9489, 23.0321, 38.1772, -28.7125, -29.8566
2.143, -1, 17.7986, 15.9337, 23.0368, 38.1957, -28.6907, -29.8705
2.148, -1, 17.8131, 15.9202, 23.0409, 38.2106, -28.6732, -29.8816
2.152, -1, 17.8259, 15.9085, 23.0443, 38.2223, -28.6594, -29.8904
2.156, -1, 17.8371, 15.8987, 23.0471, 38.2313, -28.6488, -29.8971
2.16, -1, 17.8467, 15.8905, 23.0494, 38.2381, -28.6409, -29.9021
2.163, -1, 17.855, 15.8838, 23.0513, 38.243, -28.635, -29.9058
2.168, -1, 17.8619, 15.8785, 23.0527, 38.2465, -28.6308, -29.9084
2.172, -1, 17.8674, 15.8744, 23.0538, 38.249, -28.6279, -29.9103
2.176, 2, 17.8716, 15.8714, 23.0546, 38.2507, -28.6258, -29.9115
2.179, 2, 17.8747, 15.8692, 23.0552, 38.2519, -28.6245, -29.9124
2.184, 2, 17.8769, 15.8677, 23.0556, 38.2527, -28.6235, -29.913
2.188, 2, 17.8784, 15.8667, 23.0558, 38.2532, -28.6229, -29.9134
2.192, 2, 17.8794, 15.866, 23.056, 38.2536, -28.6224, -29.9137
2.196, 2, 17.8801, 15.8655, 23.0561, 38.2538, -28.6221, -29.9138
2.199, 2, 17.8806, 15.8652, 23.0562, 38.254, -28.6219, -29.914
2.204, 2, 17.8809, 15.865, 23.0563, 38.2541, -28.6218, -29.9141
2.208, 2, 17.8811, 15.8649, 23.0563, 38.2542, -28.6217, -29.9141
2.212, 2, 17.8813, 15.8648, 23.0563, 38.2543, -28.6217, -29.9141
2.216, 2, 17.8814, 15.8647, 23.0564, 38.2543, -28.6216, -29.9142
2.219, 2, 17.8814, 15.8646, 23.0564, 38.2543, -28.6216, -29.9142
2.224, 2, 17.8815, 15.8646, 23.0564, 38.2543, -28.6216, -29.9142
2.228, 2, 17.8815, 15.8646, 23.0564, 38.2543, -28.6215, -29.9142
2.232, 2, 17.8815, 15.8646, 23.0564, 38.2543, -28.6215, -29.9142
2.235, 2, 17.8815, 15.8646, 23.0564, 38.2544, -28.6215, -29.9142
2.24, 2, 17.8815, 15.8646, 23.0564, 38.2544, -28.6215, -29.9142
2.244, 2, 17.8816, 15.8646, 23.0564, 38.2544, -28.6215, -29.9142
2.248, 2, 17.8816, 15.8646, 23.0564, 38.2544, -28.6215, -29.9142
2.252, 2, 17.8816, 15.8646, 23.0564, 38.2544, -28.6215, -29.9142
2.255, 2, 17.8816, 15.8646, 23.0564, 38.2544, -28.6215, -29.9142
2.259, 2, 17.8816, 15.8646, 23.0564, 38.2544, -28.6215, -29.9142
2.264, 2, 17.8816, 15.8645, 23.0564, 38.2544, -28.6215, -29.9142
2.268, 2, 17.8816, 15.8645, 23.0564, 38.2544, -28.6215, -29.9142
2.272, 2, 17.8816, 15.8645, 23.0564, 38.2544, -28.6215, -29.9142
2.275, 2, 17.8816, 15.8645, 23.0564, 38.2544, -28.6215, -29.9142
2.28, 2, 17.8816, 15.8645, 23.0564, 38.2544, -28.6215, -29.9142
2.284, 2, 17.8816, 15.8645, 23.0564, 38.2544, -28.6215, -29.9142
2.288, 2, 17.8816, 15.8645, 23.0564, 38.2544, -28.6215, -29.9142
2.291, 2, 17.8816, 15.8645, 23.0564, 38.2544, -28.6215, -29.9142
2.296, 2, 17.8816, 15.8645, 23.0564, 38.2544, -28.6215, -29.9142
2.3, 2, 17.8816, 15.8645, 23.0564, 38.2544, -28.6215, -29.9142
2.304, 2, 17.8816, 15.8645, 23.0564, 38.2544, -28.6215, -29.9142
2.308, 2, 17.8816, 15.8645, 23.0564, 38.2544, -28.6215, -29.9142
2.311, 2, 17.8816, 15.8645, 23.0564, 38.2544, -28.6215, -29.9142
2.316, 2, 17.8816, 15.8645, 23.0564, 38.2544, -28.6215, -29.9142
2.32, 2, 17.8816, 15.8645, 23.0564, 38.2544, -28.6215, -29.9142
2.324, 2, 17.8816, 15.8645, 23.0564, 38.2544, -28.6215, -29.9142
2.328, 2, 17.8816, 15.8645, 23.0564, 38.2544, -28.6215, -29.9142
2.331, 2, 17.8816, 15.8645, 23.0564, 38.2544, -28.6215, -29.9142
2.336, 2, 17.8816, 15.8645, 23.0564, 38.2544, -28.6215, -29.9142
2.34, 2, 17.8816, 15.8645, 23.0564, 38.2544, -28.6215, -29.9142
2.344, 2, 17.8816, 15.8645, 23.0564, 38.2544, -28.6215, -29.9142
2.347, 2, 17.8816, 15.8645, 23.0564, 38.2544, -28.6215, -29.9142
2.352, 2, 17.8816, 15.8645, 23.0564, 38.2544, -28.6215, -29.9142
2.356, 2, 17.8816, 15.8645, 23.0564, 38.2544, -28.6215, -29.9142
2.36, 2, 17.8816, 15.8645, 23.0564, 38.2544, -28.6215, -29.9142
2.364, 2, 17.8816, 15.8645, 23.0564, 38.2544, -28.6215, -29.9142
2.367, 2, 17.8816, 15.8645, 23.0564, 38.2544, -28.6215, -29.9142
2.372, 2, 17.8816, 15.8645, 23.0564, 38.2544, -28.6215, -29.9142
2.376, 2, 17.8816, 15.8645, 23.0564, 38.2544, -28.6215, -29.9142
2.38, 2, 17.8816, 15.8645, 23.0564, 38.2544, -28.6215, -29.9142
2.383, 2, 17.8816, 15.8645, 23.0564, 38.2544, -28.6215, -29.9142
2.388, 2, 17.8816, 15.8645, 23.0564, 38.2544, -28.6215, -29.9142
2.392, 2, 17.8816, 15.8645, 23.0564, 38.2544, -28.6215, -29.9142
2.396, 2, 17.8816, 15.8645, 23.0564, 38.2544, -28.6215, -29.9142
2.4, 2, 17.8816, 15.8645, 23.0564, 38.2544, -28.6215, -29.9142
2.403, 2, 17.8816, 15.8645, 23.0564, 38.2544, -28.6215, -29.9142
2.408, 2, 17.8816, 15.8645, 23.0564, 38.2544, -28.6215, -29.9142
2.412, 2, 17.8816, 15.8645, 23.0564, 38.2544, -28.6215, -29.9142
2.416, 2, 17.8816, 15.8645, 23.0564, 38.2544, -28.6215, -29.9142
2.42, 2, 17.8816, 15.8645, 23.0564, 38.2544, -28.6215, -29.9142
2.423, 2, 17.8816, 15.8645, 23.0564, 38.2544, -28.6215, -29.9142
2.428, 2, 17.8816, 15.8645, 23.0564, 38.2544, -28.6215, -29.9142
2.432, 2, 17.8816, 15.8645, 23.0564, 38.2544, -28.6215, -29.9142
2.436, 2, 17.8816, 15.8645, 23.0564, 38.2544, -28.6215, -29.9142
2.439, 2, 17.8816, 15.8645, 23.0564, 38.2544, -28.6215, -29.9142
2.444, 2, 17.8816, 15.8645, 23.0564, 38.2544, -28.6215, -29.9142
2.448, 2, 17.8816, 15.8645, 23.0564, 38.2544, -28.6215, -29.9142
2.452, 2, 17.8816, 15.8645, 23.0564, 38.2544, -28.6215, -29.9142
2.456, 2, 17.8816, 15.8645, 23.0564, 38.2544, -28.6215, -29.9142
2.459, 2, 17.8816, 15.8645, 23.0564, 38.2544, -28.6215, -29.9142
2.464, 2, 17.8816, 15.8645, 23.0564, 38.2544, -28.6215, -29.9142
2.468, 2, 17.8816, 15.8645, 23.0564, 38.2544, -28.6215, -29.9142
2.472, 2, 17.8816, 15.8645, 23.0564, 38.2544, -28.6215, -29.9142
2.476, 2, 17.8816, 15.8645, 23.0564, 38.2544, -28.6215, -29.9142
2.479, 2, 17.8816, 15.8645, 23.0564, 38.2544, -28.6215, -29.9142
2.484, 2, 17.8816, 15.8645, 23.0564, 38.2544, -28.6215, -29.9142
2.488, 2, 17.8816, 15.8645, 23.0564, 38.2544, -28.6215, -29.9142
2.492, 2, 17.8816, 15.8645, 23.0564, 38.2544, -28.6215, -29.9142
2.495, 2, 17.8816, 15.8645, 23.0564, 38.2544, -28.6215, -29.9142
2.5, 2, 17.8816, 15.8645, 23.0564, 38.2544, -28.6215, -29.9142
2.504, 2, 17.8816, 15.8645, 23.0564, 38.2544, -28.6215, -29.9142
2.508, 2, 17.8816, 15.8645, 23.0564, 38.2544, -28.6215, -29.9142
2.512, 2, 17.8816, 15.8645, 23.0564, 38.2544, -28.6215, -29.9142
2.515, 2, 17.8816, 15.8645, 23.0564, 38.2544, -28.6215, -29.9142
2.52, 2, 17.8816, 15.8645, 23.0564, 38.2544, -28.6215, -29.9142
2.524, 2, 17.8816, 15.8645, 23.0564, 38.2544, -28.6215, -29.9142
2.528, 2, 17.8816, 15.8645, 23.0564, 38.2544, -28.6215, -29.9142
2.531, 2, 17.8816, 15.8645, 23.0564, 38.2544, -28.6215, -29.9142
2.536, 2, 17.8816, 15.8645, 23.0564, 38.2544, -28.6215, -29.9142
2.54, 2, 17.8816, 15.8645, 23.0564, 38.2544, -28.6215, -29.9142
2.544, 2, 17.8816, 15.8645, 23.0564, 38.2544, -28.6215, -29.9142
2.548, 2, 17.8816, 15.8645, 23.0564, 38.2544, -28.6215, -29.9142
2.551, 2, 17.8816, 15.8645, 23.0564, 38.2544, -28.6215, -29.9142
2.556, 2, 17.8816, 15.8645, 23.0564, 38.2544, -28.6215, -29.9142
2.56, 2, 17.8816, 15.8645, 23.0564, 38.2544, -28.6215, -29.9142
2.564, 2, 17.8816, 15.8645, 23.0564, 38.2544, -28.6215, -29.9142
2.568, 2, 17.8816, 15.8645, 23.0564, 38.2544, -28.6215, -29.9142
2.571, 2, 17.8816, 15.8645, 23.0564, 38.2544, -28.6215, -29.9142
2.576, 2, 17.8816, 15.8645, 23.0564, 38.2544, -28.6215, -29.9142
2.58, 2, 17.8816, 15.8645, 23.0564, 38.2544, -28.6215, -29.9142
2.584, 2, 17.8816, 15.8645, 23.0564, 38.2544, -28.6215, -29.9142
2.587, 2, 17.8816, 15.8645, 23.0564, 38.2544, -28.6215, -29.9142
2.592, 2, 17.8816, 15.8645, 23.0564, 38.2544, -28.6215, -29.9142
2.596, 2, 17.8816, 15.8645, 23.0564, 38.2544, -28.6215, -29.9142
2.6, 2, 17.8816, 15.8645, 23.0564, 38.2544, -28.6215, -29.9142
2.604, 2, 17.8816, 15.8645, 23.0564, 38.2544, -28.6215, -29.9142
2.607, 2, 17.8816, 15.8645, 23.0564, 38.2544, -28.6215, -29.9142
2.612, 2, 17.8816, 15.8645, 23.0564, 38.2544, -28.6215, -29.9142
2.616, 2, 17.8816, 15.8645, 23.0564, 38.2544, -28.6215, -29.9142
2.62, 2, 17.8816, 15.8645, 23.0564, 38.2544, -28.6215, -29.9142
2.624, 2, 17.8816, 15.8645, 23.0564, 38.2544, -28.6215, -29.9142
2.627, 2, 17.8816, 15.8645, 23.0564, 38.2544, -28.6215, -29.9142
2.632, 2, 17.8816, 15.8645, 23.0564, 38.2544, -28.6215, -29.9142
2.636, 2, 17.8816, 15.8645, 23.0564, 38.2544, -28.6215, -29.9142
2.64, 2, 17.8816, 15.8645, 23.0564, 38.2544, -28.6215, -29.9142
2.643, 2, 17.8816, 15.8645, 23.0564, 38.2544, -28.6215, -29.9142
2.648, 2, 17.8816, 15.8645, 23.0564, 38.2544, -28.6215, -29.9142
2.652, 2, 17.8816, 15.8645, 23.0564, 38.2544, -28.6215, -29.9142
2.656, 2, 17.8816, 15.8645, 23.0564, 38.2544, -28.6215, -29.9142
2.66, 2, 17.8816, 15.8645, 23.0564, 38.2544, -28.6215, -29.9142
2.663, 2, 17.8816, 15.8645, 23.0564, 38.2544, -28.6215, -29.9142
2.668, 2, 17.8816, 15.8645, 23.0564, 38.2544, -28.6215, -29.9142
2.672, 2, 17.8816, 15.8645, 23.0564, 38.2544, -28.6215, -29.9142
2.676, 2, 17.8816, 15.8645, 23.0564, 38.2544, -28.6215, -29.9142
2.679, 2, 17.8816, 15.8645, 23.0564, 38.2544, -28.6215, -29.9142
2.684, 2, 17.8816, 15.8645, 23.0564, 38.2544, -28.6215, -29.9142
2.688, 2, 17.8816, 15.8645, 23.0564, 38.2544, -28.6215, -29.9142
2.692, 2, 17.8816, 15.8645, 23.0564, 38.2544, -28.6215, -29.9142
2.696, 2, 17.8816, 15.8645, 23.0564, 38.2544, -28.6215, -29.9142
2.699, 2, 17.8816, 15.8645, 23.0564, 38.2544, -28.6215, -29.9142
2.704, 2, 17.8816, 15.8645, 23.0564, 38.2544, -28.6215, -29.9142
2.708, 2, 17.8816, 15.8645, 23.0564, 38.2544, -28.6215, -29.9142
2.712, 2, 17.8816, 15.8645, 23.0564, 38.2544, -28.6215, -29.9142
2.716, 2, 17.8816, 15.8645, 23.0564, 38.2544, -28.6215, -29.9142
2.719, 2, 17.8816, 15.8645, 23.0564, 38.2544, -28.6215, -29.9142
2.724, 2, 17.8816, 15.8645, 23.0564, 38.2544, -28.6215, -29.9142
2.728, 2, 17.8816, 15.8645, 23.0564, 38.2544, -28.6215, -29.9142
2.732, 2, 17.8816, 15.8645, 23.0564, 38.2544, -28.6215, -29.9142
2.735, 2, 17.8816, 15.8645, 23.0564, 38.2544, -28.6215, -29.9142
2.74, 2, 17.8816, 15.8645, 23.0564, 38.2544, -28.6215, -29.9142
2.744, 2, 17.8816, 15.8645, 23.0564, 38.2544, -28.6215, -29.9142
2.748, 2, 17.8816, 15.8645, 23.0564, 38.2544, -28.6215, -29.9142
2.752, 2, 17.8816, 15.8645, 23.0564, 38.2544, -28.6215, -29.9142
2.755, 2, 17.8816, 15.8645, 23.0564, 38.2544, -28.6215, -29.9142
2.76, 2, 17.8816, 15.8645, 23.0564, 38.2544, -28.6215, -29.9142
2.764, 2, 17.8816, 15.8645, 23.0564, 38.2544, -28.6215, -29.9142
2.768, 2, 17.8816, 15.8645, 23.0564, 38.2544, -28.6215, -29.9142
2.772, 2, 17.8816, 15.8645, 23.0564, 38.2544, -28.6215, -29.9142
2.775, 2, 17.8816, 15.8645, 23.0564, 38.2544, -28.6215, -29.9142
2.78, 2, 17.8816, 15.8645, 23.0564, 38.2544, -28.6215, -29.9142
2.784, 2, 17.8816, 15.8645, 23.0564, 38.2544, -28.6215, -29.9142
2.788, 2, 17.8816, 15.8645, 23.0564, 38.2544, -28.6215, -29.9142
2.791, 2, 17.8816, 15.8645, 23.0564, 38.2544, -28.6215, -29.9142
2.796, 2, 17.8816, 15.8645, 23.0564, 38.2544, -28.6215, -29.9142
2.8, 2, 17.8816, 15.8645, 23.0564, 38.2544, -28.6215, -29.9142
2.804, 2, 17.8816, 15.8645, 23.0564, 38.2544, -28.6215, -29.9142
2.808, 2, 17.8816, 15.8645, 23.0564, 38.2544, -28.6215, -29.9142
2.811, 2, 17.8816, 15.8645, 23.0564, 38.2544, -28.6215, -29.9142
2.816, 2, 17.8816, 15.8645, 23.0564, 38.2544, -28.6215, -29.9142
2.82, 2, 17.8816, 15.8645, 23.0564, 38.2544, -28.6215, -29.9142
2.824, 2, 17.8816, 15.8645, 23.0564, 38.2544, -28.6215, -29.9142
2.828, 2, 17.8816, 15.8645, 23.0564, 38.2544, -28.6215, -29.9142
2.831, 2, 17.8816, 15.8645, 23.0564, 38.2544, -28.6215, -29.9142
2.836, 2, 17.8816, 15.8645, 23.0564, 38.2544, -28.6215, -29.9142
2.84, 2, 17.8816, 15.8645, 23.0564, 38.2544, -28.6215, -29.9142
2.844, 2, 17.8816, 15.8645, 23.0564, 38.2544, -28.6215, -29.9142
2.847, 2, 17.8816, 15.8645, 23.0564, 38.2544, -28.6215, -29.9142
2.852, 2, 17.8816, 15.8645, 23.0564, 38.2544, -28.6215, -29.9142
2.856, 2, 17.8816, 15.8645, 23.0564, 38.2544, -28.6215, -29.9142
2.86, 2, 17.8816, 15.8645, 23.0564, 38.2544, -28.6215, -29.9142
2.864, 2, 17.8816, 15.8645, 23.0564, 38.2544, -28.6215, -29.9142
2.867, 2, 17.8816, 15.8645, 23.0564, 38.2544, -28.6215, -29.9142
2.872, 2, 17.8816, 15.8645, 23.0564, 38.2544, -28.6215, -29.9142
2.876, 2, 17.8816, 15.8645, 23.0564, 38.2544, -28.6215, -29.9142
2.88, 2, 17.8816, 15.8645, 23.0564, 38.2544, -28.6215, -29.9142
2.883, 2, 17.8816, 15.8645, 23.0564, 38.2544, -28.6215, -29.9142
2.888, 2, 17.8816, 15.8645, 23.0564, 38.2544, -28.6215, -29.9142
2.892, 2, 17.8816, 15.8645, 23.0564, 38.2544, -28.6215, -29.9142
2.896, 2, 17.8816, 15.8645, 23.0564, 38.2544, -28.6215, -29.9142
2.9, 2, 17.8816, 15.8645, 23.0564, 38.2544, -28.6215, -29.9142
2.903, 2, 17.8816, 15.8645, 23.0564, 38.2544, -28.6215, -29.9142
2.908, 2, 17.8816, 15.8645, 23.0564, 38.2544, -28.6215, -29.9142
2.912, 2, 17.8816, 15.8645, 23.0564, 38.2544, -28.6215, -29.9142
2.916, 2, 17.8816, 15.8645, 23.0564, 38.2544, -28.6215, -29.9142
2.92, 2, 17.8816, 15.8645, 23.0564, 38.2544, -28.6215, -29.9142
2.923, 2, 17.8816, 15.8645, 23.0564, 38.2544, -28.6215, -29.9142
2.928, 2, 17.8816, 15.8645, 23.0564, 38.2544, -28.6215, -29.9142
2.932, 2, 17.8816, 15.8645, 23.0564, 38.2544, -28.6215, -29.9142
2.936, 2, 17.8816, 15.8645, 23.0564, 38.2544, -28.6215, -29.9142
2.939, 2, 17.8816, 15.8645, 23.0564, 38.2544, -28.6215, -29.9142
2.944, 2, 17.8816, 15.8645, 23.0564, 38.2544, -28.6215, -29.9142
2.948, 2, 17.8816, 15.8645, 23.0564, 38.2544, -28.6215, -29.9142
2.952, 2, 17.8816, 15.8645, 23.0564, 38.2544, -28.6215, -29.9142
2.956, 2, 17.8816, 15.8645, 23.0564, 38.2544, -28.6215, -29.9142
2.959, 2, 17.8816, 15.8645, 23.0564, 38.2544, -28.6215, -29.9142
2.964, 2, 17.8816, 15.8645, 23.0564, 38.2544, -28.6215, -29.9142
2.968, 2, 17.8816, 15.8645, 23.0564, 38.2544, -28.6215, -29.9142
2.972, 2, 17.8816, 15.8645, 23.0564, 38.2544, -28.6215, -29.9142
2.976, 2, 17.8816, 15.8645, 23.0564, 38.2544, -28.6215, -29.9142
2.98, 2, 17.8816, 15.8645, 23.0564, 38.2544, -28.6215, -29.9142
2.984, 2, 17.8816, 15.8645, 23.0564, 38.2544, -28.6215, -29.9142
2.988, 2, 17.8816, 15.8645, 23.0564, 38.2544, -28.6215, -29.9142
2.992, 2, 17.8816, 15.8645, 23.0564, 38.2544, -28.6215, -29.9142
2.995, 2, 17.8816, 15.8645, 23.0564, 38.2544, -28.6215, -29.9142
3, 2, 17.8816, 15.8645, 23.0564, 38.2544, -28.6215, -29.9142
3.004, 2, 17.8816, 15.8645, 23.0564, 38.2544, -28.6215, -29.9142
3.008, 2, 17.8816, 15.8645, 23.0564, 38.2544, -28.6215, -29.9142
3.012, 2, 17.8816, 15.8645, 23.0564, 38.2544, -28.6215, -29.9142
3.015, 2, 17.8816, 15.8645, 23.0564, 38.2544, -28.6215, -29.9142
3.02, 2, 17.8816, 15.8645, 23.0564, 38.2544, -28.6215, -29.9142
3.024, 2, 17.8816, 15.8645, 23.0564, 38.2544, -28.6215, -29.9142
3.028, 2, 17.8816, 15.8645, 23.0564, 38.2544, -28.6215, -29.9142
3.031, 2, 17.8816, 15.8645, 23.0564, 38.2544, -28.6215, -29.9142
3.036, 2, 17.8816, 15.8645, 23.0564, 38.2544, -28.6215, -29.9142
3.04, 2, 17.8816, 15.8645, 23.0564, 38.2544, -28.6215, -29.9142
3.044, 2, 17.8816, 15.8645, 23.0564, 38.2544, -28.6215, -29.9142
3.048, 2, 17.8816, 15.8645, 23.0564, 38.2544, -28.6215, -29.9142
3.051, 2, 17.8816, 15.8645, 23.0564, 38.2544, -28.6215, -29.9142
3.056, 2, 17.8816, 15.8645, 23.0564, 38.2544, -28.6215, -29.9142
3.06, 2, 17.8816, 15.8645, 23.0564, 38.2544, -28.6215, -29.9142
3.064, 2, 17.8816, 15.8645, 23.0564, 38.2544, -28.6215, -29.9142
3.068, 2, 17.8816, 15.8645, 23.0564, 38.2544, -28.6215, -29.9142
3.071, 2, 17.8816, 15.8645, 23.0564, 38.2544, -28.6215, -29.9142
3.076, 2, 17.8816, 15.8645, 23.0564, 38.2544, -28.6215, -29.9142
3.08, 2, 17.8816, 15.8645, 23.0564, 38.2544, -28.6215, -29.9142
3.084, 2, 17.8816, 15.8645, 23.0564, 38.2544, -28.6215, -29.9142
3.087, 2, 17.8816, 15.8645, 23.0564, 38.2544, -28.6215, -29.9142
3.092, 2, 17.8816, 15.8645, 23.0564, 38.2544, -28.6215, -29.9142
3.096, 2, 17.8816, 15.8645, 23.0564, 38.2544, -28.6215, -29.9142
3.1, 2, 17.8816, 15.8645, 23.0564, 38.2544, -28.6215, -29.9142
3.104, 2, 17.8816, 15.8645, 23.0564, 38.2544, -28.6215, -29.9142
3.107, 2, 17.8816, 15.8645, 23.0564, 38.2544, -28.6215, -29.9142
3.112, 2, 17.8816, 15.8645, 23.0564, 38.2544, -28.6215, -29.9142
3.116, 2, 17.8816, 15.8645, 23.0564, 38.2544, -28.6215, -29.9142
3.12, 2, 17.8816, 15.8645, 23.0564, 38.2544, -28.6215, -29.9142
3.124, 2, 17.8816, 15.8645, 23.0564, 38.2544, -28.6215, -29.9142
3.128, 2, 17.8816, 15.8645, 23.0564, 38.2544, -28.6215, -29.9142
3.132, 2, 17.8816, 15.8645, 23.0564, 38.2544, -28.6215, -29.9142
3.136, 2, 17.8816, 15.8645, 23.0564, 38.2544, -28.6215, -29.9142
3.14, 2, 17.8816, 15.8645, 23.0564, 38.2544, -28.6215, -29.9142
3.143, 2, 17.8816, 15.8645, 23.0564, 38.2544, -28.6215, -29.9142
3.148, 2, 17.8816, 15.8645, 23.0564, 38.2544, -28.6215, -29.9142
3.152, 2, 17.8816, 15.8645, 23.0564, 38.2544, -28.6215, -29.9142
3.156, 2, 17.8816, 15.8645, 23.0564, 38.2544, -28.6215, -29.9142
3.16, 2, 17.8816, 15.8645, 23.0564, 38.2544, -28.6215, -29.9142
3.163, 2, 17.8816, 15.8645, 23.0564, 38.2544, -28.6215, -29.9142
3.168, 2, 17.8816, 15.8645, 23.0564, 38.2544, -28.6215, -29.9142
3.172, 2, 17.8816, 15.8645, 23.0564, 38.2544, -28.6215, -29.9142
3.176, 2, 17.8816, 15.8645, 23.0564, 38.2544, -28.6215, -29.9142
3.179, 2, 17.8816, 15.8645, 23.0564, 38.2544, -28.6215, -29.9142
3.184, 2, 17.8816, 15.8645, 23.0564, 38.2544, -28.6215, -29.9142
3.188, 2, 17.8816, 15.8645, 23.0564, 38.2544, -28.6215, -29.9142
3.192, 2, 17.8816, 15.8645, 23.0564, 38.2544, -28.6215, -29.9142
3.196, 2, 17.8816, 15.8645, 23.0564, 38.2544, -28.6215, -29.9142
3.199, 2, 17.8816, 15.8645, 23.0564, 38.2544, -28.6215, -29.9142
3.204, 2, 17.8816, 15.8645, 23.0564, 38.2544, -28.6215, -29.9142
3.208, 2, 17.8816, 15.8645, 23.0564, 38.2544, -28.6215, -29.9142
3.212, 2, 17.8816, 15.8645, 23.0564, 38.2544, -28.6215, -29.9142
3.216, 2, 17.8816, 15.8645, 23.0564, 38.2544, -28.6215, -29.9142
3.22, 2, 17.8816, 15.8645, 23.0564, 38.2544, -28.6215, -29.9142
3.224, 2, 17.8816, 15.8645, 23.0564, 38.2544, -28.6215, -29.9142
3.228, 2, 17.8816, 15.8645, 23.0564, 38.2544, -28.6215, -29.9142
3.232, 2, 17.8816, 15.8645, 23.0564, 38.2544, -28.6215, -29.9142
3.235, 2, 17.8816, 15.8645, 23.0564, 38.2544, -28.6215, -29.9142
3.24, 2, 17.8816, 15.8645, 23.0564, 38.2544, -28.6215, -29.9142
3.244, 2, 17.8816, 15.8645, 23.0564, 38.2544, -28.6215, -29.9142
3.248, 4, 17.8816, 15.8645, 23.0564, 38.2544, -28.6215, -29.9142
3.252, 4, 17.8816, 15.8645, 23.0564, 38.2544, -28.6215, -29.9142
3.255, 4, 17.8816, 15.8645, 23.0564, 38.2544, -28.6215, -29.9142
3.26, 4, 17.8816, 15.8645, 23.0564, 38.2544, -28.6215, -29.9142
3.264, 4, 17.8816, 15.8645, 23.0564, 38.2544, -28.6215, -29.9142
3.268, 4, 17.8816, 15.8645, 23.0564, 38.2544, -28.6215, -29.9142
3.272, 4, 17.8816, 15.8645, 23.0564, 38.2544, -28.6215, -29.9142
3.276, 4, 17.8816, 15.8645, 23.0564, 38.2544, -28.6215, -29.9142
3.28, 4, 17.8816, 15.8645, 23.0564, 38.2544, -28.6215, -29.9142
3.284, 4, 17.8816, 15.8645, 23.0564, 38.2544, -28.6215, -29.9142
3.288, 4, 17.8816, 15.8645, 23.0564, 38.2544, -28.6215, -29.9142
3.291, 4, 17.8816, 15.8645, 23.0564, 38.2544, -28.6215, -29.9142
3.296, 4, 17.8816, 15.8645, 23.0564, 38.2544, -28.6215, -29.9142
3.3, 4, 17.8816, 15.8645, 23.0564, 38.2544, -28.6215, -29.9142
3.304, 4, 17.8816, 15.8645, 23.0564, 38.2544, -28.6215, -29.9142
3.308, 4, 17.8816, 15.8645, 23.0564, 38.2544, -28.6215, -29.9142
3.312, 4, 17.8816, 15.8645, 23.0564, 38.2544, -28.6215, -29.9142
3.316, 4, 17.8816, 15.8645, 23.0564, 38.2544, -28.6215, -29.9142
3.32, 4, 17.8816, 15.8645, 23.0564, 38.2544, -28.6215, -29.9142
3.324, 4, 17.8816, 15.8645, 23.0564, 38.2544, -28.6215, -29.9142
3.328, 4, 17.8816, 15.8645, 23.0564, 38.2544, -28.6215, -29.9142
3.332, 4, 17.8816, 15.8645, 23.0564, 38.2544, -28.6215, -29.9142
3.336, 4, 17.8816, 15.8645, 23.0564, 38.2544, -28.6215, -29.9142
3.34, 4, 17.8816, 15.8645, 23.0564, 38.2544, -28.6215, -29.9142
3.344, 4, 17.8816, 15.8645, 23.0564, 38.2544, -28.6215, -29.9142
3.347, 4, 17.8816, 15.8645, 23.0564, 38.2544, -28.6215, -29.9142
3.354, 4, 17.8816, 15.8645, 23.0564, 38.2544, -28.6215, -29.9142
3.358, 4, 17.8816, 15.8645, 23.0564, 38.2544, -28.6215, -29.9142
3.362, 4, 17.8816, 15.8645, 23.0564, 38.2544, -28.6215, -29.9142
3.366, 4, 17.8816, 15.8645, 23.0564, 38.2544, -28.6215, -29.9142
3.37, 4, 17.8816, 15.8645, 23.0564, 38.2544, -28.6215, -29.9142
3.372, 4, 17.8816, 15.8645, 23.0564, 38.2544, -28.6215, -29.9142
3.376, 4, 17.8816, 15.8645, 23.0564, 38.2544, -28.6215, -29.9142
3.38, 4, 17.8816, 15.8645, 23.0564, 38.2544, -28.6215, -29.9142
3.383, 4, 17.8816, 15.8645, 23.0564, 38.2544, -28.6215, -29.9142
3.388, 4, 17.8816, 15.8645, 23.0564, 38.2544, -28.6215, -29.9142
3.392, 4, 17.8816, 15.8645, 23.0564, 38.2544, -28.6215, -29.9142
3.396, 4, 17.8816, 15.8645, 23.0564, 38.2544, -28.6215, -29.9142
3.4, 4, 17.8815, 15.8645, 23.0564, 38.2544, -28.6215, -29.9142
3.403, 4, 17.8812, 15.8645, 23.0564, 38.2543, -28.6215, -29.9142
3.408, 4, 17.8806, 15.8645, 23.0565, 38.2542, -28.6216, -29.9141
3.412, 4, 17.8793, 15.8645, 23.0566, 38.2539, -28.6217, -29.9139
3.416, 4, 17.8773, 15.8644, 23.0569, 38.2532, -28.6219, -29.9133
3.42, 4, 17.8745, 15.8643, 23.0576, 38.2517, -28.6225, -29.912
3.424, 4, 17.8706, 15.864, 23.0586, 38.2489, -28.6235, -29.9095
3.428, 4, 17.8657, 15.8636, 23.0603, 38.2441, -28.6252, -29.9053
3.432, 4, 17.8595, 15.863, 23.063, 38.2364, -28.628, -29.8984
3.436, 4, 17.8518, 15.862, 23.067, 38.2246, -28.6323, -29.8881
3.439, 4, 17.8424, 15.8607, 23.0727, 38.2075, -28.6384, -29.873
3.444, 5, 17.831, 15.8589, 23.0804, 38.1836, -28.647, -29.8519
3.448, 5, 17.817, 15.8565, 23.0909, 38.1512, -28.6587, -29.8232
3.452, 5, 17.8002, 15.8533, 23.1045, 38.1085, -28.6742, -29.7854
3.456, 5, 17.7803, 15.8493, 23.122, 38.0534, -28.6942, -29.7368
3.46, 5, 17.7571, 15.8443, 23.1439, 37.984, -28.7195, -29.6754
3.464, 5, 17.7302, 15.8382, 23.1708, 37.8982, -28.7509, -29.5995
3.468, 5, 17.6995, 15.8309, 23.2033, 37.7942, -28.7892, -29.5075
3.472, 5, 17.6645, 15.8222, 23.242, 37.6701, -28.8351, -29.3978
3.476, 5, 17.6249, 15.8121, 23.2873, 37.5243, -28.8894, -29.2689
3.48, 5, 17.5804, 15.8005, 23.3398, 37.3556, -28.9527, -29.1198
3.484, 5, 17.5307, 15.7874, 23.3998, 37.1628, -29.0257, -28.9496
3.488, 5, 17.4756, 15.7727, 23.4674, 36.9452, -29.1088, -28.7576
3.492, 5, 17.4153, 15.7565, 23.543, 36.7023, -29.2024, -28.5434
3.495, 5, 17.3496, 15.7387, 23.6265, 36.434, -29.3069, -28.3069
3.5, 5, 17.2788, 15.7194, 23.718, 36.1405, -29.4226, -28.0486
3.504, 5, 17.2029, 15.6986, 23.8172, 35.8227, -29.5493, -27.769
3.508, 5, 17.122, 15.6766, 23.9238, 35.4816, -29.6871, -27.4693
3.512, 5, 17.0363, 15.6533, 24.0374, 35.1189, -29.8355, -27.1509
3.516, 5, 16.9462, 15.629, 24.1575, 34.7366, -29.9942, -26.8157
3.52, 5, 16.8522, 15.6038, 24.2835, 34.3368, -30.1624, -26.4657
3.524, 5, 16.7548, 15.5779, 24.4144, 33.9224, -30.3393, -26.1033
3.528, 5, 16.655, 15.5515, 24.5496, 33.4962, -30.524, -25.7311
3.531, 5, 16.5533, 15.5248, 24.6879, 33.0612, -30.7153, -25.3518
3.536, 5, 16.4501, 15.4981, 24.8283, 32.621, -30.9119, -24.9685
3.54, 5, 16.3461, 15.4715, 24.9698, 32.1789, -31.1123, -24.5841
3.544, 5, 16.2412, 15.4453, 25.1113, 31.7385, -31.3149, -24.2017
3.548, 5, 16.136, 15.4198, 25.2517, 31.3032, -31.5182, -23.8244
3.552, 5, 16.0304, 15.3952, 25.39, 30.8762, -31.7205, -23.4548
3.556, 5, 15.9246, 15.3717, 25.5252, 30.4603, -31.9205, -23.0955
3.56, 5, 15.8189, 15.3495, 25.6566, 30.058, -32.1167, -22.7484
3.564, 5, 15.7133, 15.3288, 25.7837, 29.671, -32.3082, -22.4151
3.568, 6, 15.6078, 15.3097, 25.9059, 29.3003, -32.4941, -22.0963
3.572, 6, 15.5024, 15.2922, 26.0234, 28.9462, -32.6743, -21.7923
3.576, 6, 15.3969, 15.2764, 26.136, 28.6082, -32.8488, -21.5025
3.58, 6, 15.2913, 15.2622, 26.2444, 28.285, -33.018, -21.226
3.584, 6, 15.1858, 15.2494, 26.3489, 27.9746, -33.1829, -20.9609
3.587, 6, 15.0803, 15.2378, 26.4503, 27.6748, -33.3446, -20.7052
3.592, 6, 14.975, 15.2273, 26.5495, 27.3827, -33.5045, -20.4566
3.596, 6, 14.8696, 15.2176, 26.6474, 27.0955, -33.6641, -20.2126
3.6, 6, 14.7642, 15.2087, 26.7449, 26.8102, -33.8251, -19.9708
3.604, 6, 14.6586, 15.2003, 26.8429, 26.524, -33.9889, -19.7286
3.608, 6, 14.5527, 15.1921, 26.9423, 26.2344, -34.1572, -19.484
3.612, 6, 14.4465, 15.1842, 27.0437, 25.9392, -34.3312, -19.2352
3.616, 6, 14.3395, 15.1763, 27.1477, 25.6368, -34.5119, -18.9807
3.62, 6, 14.2316, 15.1684, 27.2546, 25.3262, -34.7001, -18.7199
3.624, 6, 14.1225, 15.1606, 27.3646, 25.0069, -34.896, -18.4522
3.628, 6, 14.012, 15.1528, 27.4776, 24.6793, -35.0999, -18.1781
3.632, 6, 13.9, 15.1451, 27.5934, 24.3439, -35.3112, -17.8981
3.636, 6, 13.7864, 15.1376, 27.7116, 24.0021, -35.5295, -17.6132
3.64, 6, 13.6718, 15.1304, 27.8317, 23.6552, -35.7538, -17.3248
3.644, 6, 13.5563, 15.1235, 27.9532, 23.3051, -35.9833, -17.0342
3.648, 6, 13.4403, 15.117, 28.0753, 22.9536, -36.2166, -16.7432
3.652, 6, 13.3242, 15.111, 28.1974, 22.603, -36.4523, -16.4534
3.656, 6, 13.2081, 15.1056, 28.3187, 22.2552, -36.6891, -16.1666
3.66, 6, 13.0923, 15.1009, 28.4385, 21.9125, -36.9254, -15.8846
3.664, 6, 12.977, 15.097, 28.556, 21.5768, -37.1596, -15.6089
3.668, 6, 12.8623, 15.094, 28.6706, 21.2502, -37.3902, -15.3412
3.672, 6, 12.7484, 15.0921, 28.7817, 20.9341, -37.616, -15.0827
3.676, 6, 12.6354, 15.0914, 28.8889, 20.63, -37.8357, -14.8345
3.679, 7, 12.523, 15.0921, 28.9918, 20.3385, -38.0487, -14.5971
3.684, 7, 12.4111, 15.0942, 29.0904, 20.06, -38.2545, -14.3707
3.688, 7, 12.2995, 15.0978, 29.1847, 19.7943, -38.453, -14.1552
3.692, 7, 12.188, 15.1028, 29.275, 19.5404, -38.6449, -13.9497
3.696, 7, 12.0767, 15.109, 29.3617, 19.297, -38.8311, -13.7531
3.7, 7, 11.9656, 15.1163, 29.4455, 19.0624, -39.0126, -13.5639
3.704, 7, 11.8548, 15.1247, 29.527, 18.8343, -39.1912, -13.3806
3.708, 7, 11.744, 15.134, 29.607, 18.6106, -39.3685, -13.2012
3.712, 7, 11.6333, 15.144, 29.6863, 18.389, -39.5463, -13.0238
3.716, 7, 11.5225, 15.1547, 29.7656, 18.1672, -39.7263, -12.8468
3.72, 7, 11.4116, 15.166, 29.8457, 17.9431, -39.9104, -12.6684
3.724, 7, 11.3002, 15.1776, 29.9272, 17.715, -40.1, -12.4872
3.728, 7, 11.1883, 15.1895, 30.0105, 17.4813, -40.2963, -12.3021
3.732, 7, 11.0755, 15.2016, 30.0961, 17.2411, -40.5003, -12.1123
3.735, 7, 10.9616, 15.2139, 30.184, 16.9939, -40.7124, -11.9175
3.74, 7, 10.8462, 15.2266, 30.2742, 16.7398, -40.9329, -11.7177
3.744, 7, 10.7293, 15.2396, 30.3667, 16.4792, -41.1614, -11.5133
3.748, 7, 10.6109, 15.2532, 30.4611, 16.2129, -41.3973, -11.305
3.752, 7, 10.4912, 15.2674, 30.5571, 15.9419, -41.6398, -11.0936
3.756, 7, 10.3706, 15.2822, 30.6541, 15.6677, -41.8878, -10.8802
3.76, 7, 10.2494, 15.2975, 30.7517, 15.3916, -42.14, -10.6659
3.764, 7, 10.1279, 15.3134, 30.8492, 15.1153, -42.395, -10.452
3.768, 7, 10.0065, 15.33, 30.9461, 14.8405, -42.6513, -10.2398
3.772, 7, 9.8853, 15.347, 31.0419, 14.5688, -42.9071, -10.0306
3.776, 7, 9.7646, 15.3647, 31.1358, 14.3019, -43.1608, -9.82568
3.78, 7, 9.64461, 15.383, 31.2273, 14.0415, -43.4109, -9.62612
3.784, 7, 9.5255, 15.4021, 31.316, 13.7887, -43.6557, -9.43299
3.788, 7, 9.4073, 15.4221, 31.4014, 13.5449, -43.8942, -9.24711
3.792, 8, 9.28998, 15.4431, 31.4833, 13.3107, -44.1252, -9.06904
3.796, 8, 9.17338, 15.4652, 31.5616, 13.0866, -44.3483, -8.89903
3.8, 8, 9.05727, 15.4885, 31.6361, 12.8725, -44.5634, -8.73702
3.804, 8, 8.94146, 15.5129, 31.7072, 12.6679, -44.7707, -8.58258
3.808, 8, 8.8259, 15.5384, 31.7751, 12.4719, -44.9713, -8.43498
3.812, 8, 8.71062, 15.5649, 31.8402, 12.2832, -45.1662, -8.29324
3.816, 8, 8.59563, 15.5923, 31.9032, 12.1002, -45.357, -8.15615
3.82, 8, 8.48081, 15.6207, 31.9646, 11.9211, -45.5455, -8.02242
3.824, 8, 8.36601, 15.6501, 32.025, 11.7441, -45.7336, -7.89066
3.828, 8, 8.25115, 15.6805, 32.085, 11.5675, -45.9231, -7.75952
3.832, 8, 8.13615, 15.7116, 32.1453, 11.3894, -46.116, -7.62773
3.836, 8, 8.02089, 15.7434, 32.2063, 11.2083, -46.3139, -7.49415
3.84, 8, 7.90516, 15.7755, 32.2686, 11.023, -46.5184, -7.35786
3.844, 8, 7.78871, 15.8079, 32.3322, 10.8325, -46.7303, -7.21819
3.848, 8, 7.67127, 15.8403, 32.3976, 10.6362, -46.9506, -7.07476
3.852, 8, 7.55256, 15.873, 32.4646, 10.4341, -47.1793, -6.92749
3.856, 8, 7.43232, 15.906, 32.5332, 10.2262, -47.4164, -6.77656
3.86, 8, 7.31051, 15.9397, 32.6032, 10.0133, -47.6614, -6.62237
3.864, 8, 7.18729, 15.9743, 32.6743, 9.79597, -47.9135, -6.46552
3.868, 8, 7.06302, 16.0098, 32.7461, 9.57529, -48.1716, -6.30676
3.872, 8, 6.93807, 16.0462, 32.8184, 9.35241, -48.4344, -6.1469
3.876, 8, 6.8128, 16.0834, 32.8905, 9.12858, -48.7005, -5.98687
3.88, 8, 6.68753, 16.1213, 32.9622, 8.90514, -48.9682, -5.82763
3.884, 8, 6.5625, 16.1599, 33.0329, 8.68348, -49.236, -5.67015
3.888, 8, 6.43796, 16.1989, 33.1021, 8.46498, -49.5019, -5.5154
3.892, 8, 6.31413, 16.2384, 33.1696, 8.25095, -49.7645, -5.36427
3.896, 8, 6.19121, 16.2783, 33.2348, 8.04259, -50.022, -5.21758
3.9, 8, 6.06927, 16.3188, 33.2974, 7.84093, -50.273, -5.07602
3.904, 8, 5.94833, 16.36, 33.3572, 7.64675, -50.5165, -4.94009
3.908, 9, 5.82825, 16.4018, 33.414, 7.46053, -50.7518, -4.8101
3.912, 9, 5.70882, 16.4446, 33.4678, 7.28238, -50.9784, -4.68608
3.916, 9, 5.5898, 16.4882, 33.5187, 7.11207, -51.1966, -4.56785
3.92, 9, 5.47109, 16.5327, 33.5669, 6.94899, -51.4071, -4.45496
3.924, 9, 5.3527, 16.578, 33.6126, 6.79221, -51.611, -4.34674
3.928, 9, 5.2347, 16.624, 33.6564, 6.64053, -51.8097, -4.24238
3.932, 9, 5.11702, 16.671, 33.6985, 6.49259, -52.005, -4.14092
3.936, 9, 4.9995, 16.719, 33.7394, 6.34692, -52.1988, -4.04136
3.94, 9, 4.88203, 16.7679, 33.7797, 6.20202, -52.393, -3.94267
3.944, 9, 4.76459, 16.8176, 33.8197, 6.05643, -52.5896, -3.84387
3.948, 9, 4.64715, 16.868, 33.8599, 5.90878, -52.7904, -3.74404
3.952, 9, 4.52966, 16.9188, 33.9006, 5.75794, -52.997, -3.64244
3.956, 9, 4.41198, 16.9696, 33.9421, 5.60304, -53.2106, -3.5385
3.96, 9, 4.29398, 17.0204, 33.9845, 5.44354, -53.4321, -3.43186
3.964, 9, 4.17547, 17.0712, 34.0279, 5.27924, -53.6616, -3.32242
3.968, 9, 4.05622, 17.1223, 34.0721, 5.11032, -53.8992, -3.21031
3.972, 9, 3.93608, 17.1739, 34.117, 4.93724, -54.1441, -3.09584
3.976, 9, 3.81505, 17.2264, 34.1623, 4.76069, -54.3955, -2.97949
3.98, 9, 3.6933, 17.2798, 34.2078, 4.58156, -54.6521, -2.86185
3.984, 9, 3.57113, 17.3342, 34.2532, 4.40087, -54.9126, -2.74358
3.988, 9, 3.4489, 17.3894, 34.2982, 4.21969, -55.1753, -2.62541
3.992, 9, 3.32694, 17.4452, 34.3424, 4.0392, -55.4387, -2.50809
3.996, 9, 3.20552, 17.5014, 34.3856, 3.86056, -55.7009, -2.39236
3.999, 9, 3.08494, 17.5577, 34.4275, 3.68494, -55.9602, -2.27897
4.004, 9, 2.96569, 17.6139, 34.4679, 3.51344, -56.2149, -2.1686
4.008, 9, 2.84841, 17.6697, 34.5064, 3.34709, -56.4633, -2.06188
4.012, 9, 2.73379, 17.7247, 34.5429, 3.18679, -56.704, -1.95936
4.016, 9, 2.62242, 17.7789, 34.5772, 3.03333, -56.9356, -1.86153
4.02, 9, 2.5147, 17.832, 34.6092, 2.8874, -57.157, -1.76875
4.024, 9, 2.41077, 17.8843, 34.6386, 2.7495, -57.3673, -1.68134
4.028, 9, 2.31051, 17.9361, 34.6652, 2.62001, -57.5657, -1.59949
4.032, 9, 2.21369, 17.9876, 34.6889, 2.49912, -57.7518, -1.52327
4.036, 9, 2.11996, 18.039, 34.7095, 2.38678, -57.9256, -1.45263
4.04, 9, 2.02903, 18.0908, 34.7269, 2.28268, -58.0876, -1.38735
4.044, 9, 1.94058, 18.143, 34.741, 2.18629, -58.2385, -1.32709
4.048, 9, 1.8543, 18.196, 34.7518, 2.09679, -58.3795, -1.27133
4.052, 9, 1.76988, 18.2499, 34.7593, 2.01321, -58.5123, -1.21945
4.056, 9, 1.68697, 18.305, 34.7635, 1.93437, -58.6385, -1.17073
4.06, 9, 1.60511, 18.3617, 34.7643, 1.85901, -58.7602, -1.12438
4.064, 9, 1.52379, 18.4204, 34.7619, 1.78577, -58.8796, -1.07957
4.068, 9, 1.44259, 18.4813, 34.7562, 1.71328, -58.9989, -1.03545
4.072, 9, 1.36125, 18.5444, 34.7475, 1.64014, -59.1202, -0.991171
4.076, 9, 1.27968, 18.6097, 34.736, 1.56502, -59.2458, -0.945907
4.08, 9, 1.19775, 18.6773, 34.7219, 1.48671, -59.3774, -0.898917
4.084, 9, 1.1153, 18.7472, 34.7054, 1.40416, -59.5168, -0.849564
4.088, 9, 1.03205, 18.8194, 34.6868, 1.31658, -59.6652, -0.797356
4.092, 9, 0.947646, 18.8942, 34.6663, 1.22347, -59.8234, -0.741968
4.096, 9, 0.861644, 18.9718, 34.644, 1.12458, -59.9916, -0.683247
4.1, 9, 0.773649, 19.0523, 34.6201, 1.01999, -60.1697, -0.621202
4.104, 9, 0.683481, 19.1355, 34.5948, 0.909959, -60.3571, -0.555988
4.108, 9, 0.591287, 19.2212, 34.5682, 0.794988, -60.553, -0.487882
4.112, 9, 0.497468, 19.3091, 34.5406, 0.675717, -60.7563, -0.417256
4.116, 9, 0.4025, 19.3987, 34.5122, 0.552925, -60.9656, -0.344566
4.12, 9, 0.306789, 19.4896, 34.4833, 0.427502, -61.1795, -0.270334
4.124, 9, 0.210615, 19.5814, 34.454, 0.300424, -61.3961, -0.195133
4.128, 9, 0.114136, 19.674, 34.4244, 0.172721, -61.6139, -0.119567
4.132, 9, 0.0174886, 19.767, 34.3949, 0.0454343, -61.8309, -0.0442467
4.136, 9, -0.0790659, 19.8598, 34.3655, -0.0804283, -62.0455, 0.0302339
4.14, 9, -0.17505, 19.952, 34.3364, -0.20392, -62.2561, 0.103318
4.144, 9, -0.269819, 20.0428, 34.3078, -0.324182, -62.4611, 0.174496
4.148, 9, -0.362734, 20.1319, 34.2799, -0.440448, -62.6594, 0.243315
4.152, 9, -0.453334, 20.219, 34.2526, -0.552055, -62.8497, 0.309381
4.156, 9, -0.541419, 20.3041, 34.2259, -0.65845, -63.0311, 0.372367
4.16, 9, -0.627003, 20.3873, 34.1998, -0.75921, -63.203, 0.432019
4.164, 9, -0.710228, 20.4689, 34.174, -0.854064, -63.3648, 0.488175
4.168, 11, -0.79126, 20.5492, 34.1483, -0.942926, -63.5166, 0.540778
4.172, 11, -0.870241, 20.6283, 34.1223, -1.02591, -63.6586, 0.589886
4.176, 11, -0.947299, 20.7065, 34.0959, -1.10332, -63.7914, 0.635671
4.18, 11, -1.02258, 20.7841, 34.0687, -1.17567, -63.9159, 0.678415
4.184, 11, -1.09627, 20.8614, 34.0403, -1.2436, -64.0333, 0.718489
4.188, 11, -1.1686, 20.9388, 34.0102, -1.3079, -64.1451, 0.756335
4.192, 11, -1.23985, 21.0168, 33.9781, -1.36942, -64.2528, 0.792444
4.196, 11, -1.31033, 21.096, 33.9434, -1.42906, -64.3581, 0.827341
4.2, 11, -1.3803, 21.1767, 33.9059, -1.48777, -64.4625, 0.861565
4.204, 11, -1.44992, 21.2593, 33.8651, -1.54647, -64.5677, 0.895655
4.208, 11, -1.51935, 21.344, 33.8207, -1.60606, -64.6755, 0.930131
4.212, 11, -1.58888, 21.4313, 33.7726, -1.66739, -64.7872, 0.965478
4.216, 11, -1.65893, 21.5218, 33.7205, -1.73117, -64.9042, 1.00212
4.22, 11, -1.73003, 21.6162, 33.6641, -1.79803, -65.0274, 1.04041
4.224, 11, -1.80269, 21.7149, 33.6033, -1.86842, -65.1579, 1.08062
4.228, 11, -1.87734, 21.8185, 33.5379, -1.94269, -65.2961, 1.12295
4.232, 11, -1.95427, 21.9272, 33.468, -2.02103, -65.4424, 1.16752
4.236, 11, -2.03356, 22.0408, 33.3935, -2.10349, -65.597, 1.21435
4.24, 11, -2.11517, 22.1591, 33.3146, -2.19003, -65.7598, 1.26342
4.244, 11, -2.19896, 22.2818, 33.2314, -2.28047, -65.9305, 1.31463
4.248, 11, -2.28466, 22.4084, 33.1442, -2.37451, -66.1087, 1.3678
4.252, 11, -2.372, 22.5385, 33.0532, -2.47177, -66.2936, 1.42273
4.256, 11, -2.46066, 22.6716, 32.9588, -2.57176, -66.4843, 1.47913
4.26, 11, -2.55033, 22.8075, 32.8612, -2.67393, -66.6798, 1.5367
4.264, 11, -2.6407, 22.9456, 32.7611, -2.77767, -66.879, 1.59509
4.268, 11, -2.73146, 23.0856, 32.6588, -2.88234, -67.0807, 1.65394
4.272, 11, -2.82229, 23.2267, 32.5551, -2.98728, -67.2836, 1.7129
4.276, 11, -2.91301, 23.3684, 32.4504, -3.09183, -67.4864, 1.77158
4.28, 11, -3.00353, 23.5103, 32.3453, -3.19532, -67.6878, 1.82962
4.284, 11, -3.09383, 23.6519, 32.2404, -3.29712, -67.8866, 1.88668
4.288, 11, -3.18386, 23.7929, 32.1362, -3.39666, -68.0816, 1.94244
4.292, 11, -3.27361, 23.933, 32.033, -3.49347, -68.2718, 1.99665
4.296, 11, -3.36308, 24.0721, 31.9311, -3.58715, -68.4564, 2.04908
4.3, 11, -3.45226, 24.2103, 31.8307, -3.67748, -68.635, 2.09963
4.304, 12, -3.54113, 24.3474, 31.7321, -3.76437, -68.8073, 2.14825
4.308, 12, -3.62969, 24.4832, 31.6352, -3.84788, -68.9734, 2.19496
4.312, 12, -3.71801, 24.6179, 31.54, -3.92821, -69.1336, 2.23991
4.316, 12, -3.80613, 24.7516, 31.4463, -4.00569, -69.2886, 2.28325
4.32, 12, -3.89402, 24.8844, 31.3537, -4.08076, -69.4392, 2.32525
4.324, 12, -3.98168, 25.0167, 31.2619, -4.15391, -69.5864, 2.36618
4.328, 12, -4.06918, 25.1488, 31.1703, -4.22571, -69.7313, 2.40635
4.332, 12, -4.15665, 25.2813, 31.0784, -4.29675, -69.8752, 2.4461
4.336, 12, -4.2441, 25.4145, 30.9854, -4.36764, -70.0192, 2.48577
4.34, 12, -4.33148, 25.5486, 30.8909, -4.43898, -70.1646, 2.5257
4.344, 12, -4.4187, 25.6837, 30.7944, -4.51135, -70.3125, 2.56619
4.348, 12, -4.50569, 25.8198, 30.6953, -4.58523, -70.4639, 2.60754
4.352, 12, -4.59244, 25.957, 30.5933, -4.66103, -70.6199, 2.64996
4.356, 12, -4.67901, 26.0956, 30.4881, -4.73902, -70.7807, 2.6936
4.36, 12, -4.76553, 26.2357, 30.3795, -4.81934, -70.9469, 2.73855
4.364, 12, -4.85223, 26.3776, 30.2673, -4.90197, -71.1184, 2.78481
4.368, 12, -4.93932, 26.5215, 30.1515, -4.98678, -71.2949, 2.8323
4.372, 12, -5.02688, 26.6676, 30.0322, -5.07353, -71.476, 2.88091
4.376, 12, -5.11478, 26.8156, 29.9096, -5.1619, -71.661, 2.93045
4.38, 12, -5.20282, 26.9653, 29.7841, -5.25152, -71.8491, 2.98073
4.384, 12, -5.2908, 27.1163, 29.6562, -5.34194, -72.0395, 3.03151
4.388, 12, -5.37861, 27.2684, 29.5265, -5.43271, -72.2311, 3.08253
4.392, 12, -5.46623, 27.4211, 29.3955, -5.52335, -72.423, 3.13353
4.396, 12, -5.55371, 27.5742, 29.2637, -5.61336, -72.6141, 3.18424
4.4, 12, -5.64105, 27.7273, 29.1318, -5.70228, -72.8034, 3.2344
4.404, 12, -5.7281, 27.8798, 29.0004, -5.78967, -72.99, 3.28377
4.408, 12, -5.81459, 28.0312, 28.87, -5.87514, -73.1729, 3.33213
4.412, 12, -5.90027, 28.1808, 28.7412, -5.95835, -73.3515, 3.37928
4.416, 12, -5.985, 28.3285, 28.6144, -6.03902, -73.5251, 3.42508
4.42, 12, -6.06878, 28.4742, 28.4898, -6.11695, -73.6931, 3.46939
4.424, 12, -6.15173, 28.6179, 28.3678, -6.19202, -73.8554, 3.51217
4.428, 13, -6.23403, 28.7597, 28.2482, -6.26419, -74.0118, 3.55337
4.432, 13, -6.31594, 28.9, 28.1311, -6.33354, -74.1625, 3.59306
4.436, 13, -6.39768, 29.0389, 28.0162, -6.40026, -74.3078, 3.63133
4.44, 13, -6.47934, 29.1768, 27.9033, -6.46464, -74.4482, 3.66833
4.444, 13, -6.56086, 29.3136, 27.792, -6.52702, -74.5847, 3.70429
4.448, 13, -6.64219, 29.4498, 27.6817, -6.58785, -74.7181, 3.73943
4.452, 13, -6.72336, 29.5858, 27.5719, -6.64759, -74.8494, 3.77403
4.456, 13, -6.80443, 29.7219, 27.4617, -6.70673, -74.9797, 3.80836
4.46, 13, -6.88541, 29.8587, 27.3504, -6.76577, -75.1101, 3.84273
4.464, 13, -6.96618, 29.9963, 27.2374, -6.8252, -75.2417, 3.87742
4.468, 13, -7.04665, 30.1347, 27.122, -6.88549, -75.3756, 3.9127
4.472, 13, -7.12673, 30.2741, 27.0037, -6.94703, -75.5126, 3.94879
4.476, 13, -7.20644, 30.4147, 26.8821, -7.01013, -75.6534, 3.9859
4.48, 13, -7.28583, 30.5567, 26.7567, -7.07502, -75.7986, 4.02416
4.484, 13, -7.36505, 30.7003, 26.6273, -7.14179, -75.9484, 4.06362
4.488, 13, -7.44434, 30.8458, 26.4938, -7.21041, -76.1027, 4.10429
4.492, 13, -7.5239, 30.9935, 26.356, -7.28079, -76.2614, 4.14613
4.496, 13, -7.6038, 31.1434, 26.2143, -7.35271, -76.424, 4.18902
4.5, 13, -7.68392, 31.2953, 26.0688, -7.42592, -76.5898, 4.23282
4.504, 13, -7.76408, 31.4489, 25.9201, -7.50012, -76.7584, 4.27736
4.508, 13, -7.84409, 31.6038, 25.7687, -7.57496, -76.9288, 4.32245
4.512, 13, -7.9239, 31.7596, 25.6152, -7.65006, -77.1002, 4.36787
4.516, 13, -8.0035, 31.9161, 25.4602, -7.72505, -77.2717, 4.41338
4.52, 13, -8.08297, 32.0728, 25.3045, -7.79952, -77.4425, 4.45877
4.524, 13, -8.16232, 32.2295, 25.1488, -7.87309, -77.6117, 4.5038
4.528, 13, -8.24142, 32.3855, 24.9937, -7.94543, -77.7784, 4.54826
4.532, 13, -8.32004, 32.5404, 24.8399, -8.01619, -77.9418, 4.59194
4.536, 13, -8.39794, 32.6934, 24.6881, -8.08512, -78.1014, 4.63467
4.54, 13, -8.47502, 32.8445, 24.5388, -8.15196, -78.2565, 4.6763
4.544, 13, -8.55132, 32.9934, 24.3922, -8.21655, -78.4067, 4.71671
4.548, 13, -8.62696, 33.1403, 24.2487, -8.27877, -78.5517, 4.75582
4.552, 14, -8.70214, 33.2854, 24.1082, -8.3386, -78.6914, 4.79361
4.556, 14, -8.77708, 33.4288, 23.9708, -8.39609, -78.8259, 4.8301
4.56, 14, -8.852, 33.5708, 23.8361, -8.45137, -78.9556, 4.86537
4.564, 14, -8.92696, 33.7116, 23.704, -8.50467, -79.0808, 4.89956
4.568, 14, -9.00187, 33.8514, 23.5739, -8.55629, -79.2024, 4.93284
4.572, 14, -9.07666, 33.9904, 23.4452, -8.60657, -79.321, 4.96543
4.576, 14, -9.15132, 34.129, 23.3172, -8.65588, -79.4377, 4.99758
4.58, 14, -9.22587, 34.2677, 23.1891, -8.70464, -79.5532, 5.02953
4.584, 14, -9.30028, 34.4068, 23.0599, -8.75323, -79.6687, 5.06156
4.588, 14, -9.37441, 34.5466, 22.9289, -8.80206, -79.785, 5.09392
4.592, 14, -9.44812, 34.6872, 22.7954, -8.8515, -79.9031, 5.12686
4.596, 14, -9.52133, 34.8288, 22.6587, -8.90188, -80.0237, 5.16061
4.6, 14, -9.59405, 34.9715, 22.5182, -8.95345, -80.1475, 5.19535
4.604, 14, -9.66633, 35.1156, 22.3735, -9.0064, -80.2749, 5.23121
4.608, 14, -9.73832, 35.2614, 22.2243, -9.0608, -80.4061, 5.26825
4.612, 14, -9.81025, 35.4092, 22.0704, -9.11666, -80.5412, 5.3065
4.616, 14, -9.88236, 35.5594, 21.9118, -9.17388, -80.6799, 5.34592
4.62, 14, -9.95469, 35.7119, 21.7485, -9.23234, -80.822, 5.38642
4.624, 14, -10.0272, 35.8664, 21.5811, -9.29181, -80.9669, 5.4279
4.628, 14, -10.0996, 36.0227, 21.4098, -9.35208, -81.1141, 5.47019
4.632, 14, -10.1717, 36.1804, 21.2355, -9.41287, -81.263, 5.51313
4.636, 14, -10.2436, 36.339, 21.0586, -9.47388, -81.4128, 5.55653
4.64, 14, -10.3153, 36.4982, 20.8801, -9.53483, -81.5627, 5.60018
4.644, 14, -10.3868, 36.6578, 20.7006, -9.59539, -81.7121, 5.64385
4.648, 14, -10.4581, 36.8174, 20.5209, -9.65526, -81.8602, 5.68734
4.652, 14, -10.5293, 36.9764, 20.3419, -9.71415, -82.0062, 5.73044
4.656, 14, -10.6002, 37.1343, 20.1643, -9.77181, -82.1496, 5.77294
4.66, 14, -10.6704, 37.2904, 19.989, -9.828, -82.2896, 5.81467
4.664, 14, -10.74, 37.4446, 19.8164, -9.88252, -82.4257, 5.85547
4.668, 14, -10.809, 37.5966, 19.647, -9.93523, -82.5577, 5.8952
4.672, 14, -10.8775, 37.7465, 19.4811, -9.986, -82.6851, 5.93377
4.676, 15, -10.9456, 37.8946, 19.3189, -10.0348, -82.8078, 5.97114
4.68, 15, -11.0137, 38.0409, 19.1603, -10.0817, -82.9259, 6.00731
4.684, 15, -11.0819, 38.1858, 19.0052, -10.1267, -83.0395, 6.04233
4.688, 15, -11.1502, 38.3294, 18.8531, -10.17, -83.1492, 6.07631
4.692, 15, -11.2186, 38.4718, 18.7037, -10.2118, -83.2554, 6.10943
4.696, 15, -11.2869, 38.6133, 18.5562, -10.2525, -83.3588, 6.14187
4.7, 15, -11.3552, 38.7542, 18.4099, -10.2922, -83.4602, 6.17387
4.704, 15, -11.4234, 38.8948, 18.2638, -10.3314, -83.5603, 6.20566
4.708, 15, -11.4914, 39.0357, 18.1169, -10.3703, -83.66, 6.2375
4.712, 15, -11.5591, 39.1771, 17.9684, -10.4092, -83.76, 6.26966
4.716, 15, -11.6262, 39.319, 17.8173, -10.4485, -83.8613, 6.30237
4.72, 15, -11.6925, 39.4615, 17.6631, -10.4884, -83.9643, 6.33586
4.724, 15, -11.7579, 39.6048, 17.505, -10.5291, -84.0698, 6.37031
4.728, 15, -11.8225, 39.749, 17.3427, -10.5707, -84.178, 6.40584
4.732, 15, -11.8861, 39.8941, 17.1759, -10.6133, -84.2892, 6.44253
4.736, 15, -11.9488, 40.0403, 17.0045, -10.6569, -84.4033, 6.48038
4.74, 15, -12.0109, 40.1878, 16.8286, -10.7014, -84.52, 6.51933
4.744, 15, -12.0722, 40.3367, 16.6484, -10.7466, -84.6391, 6.55928
4.748, 15, -12.1331, 40.4867, 16.4644, -10.7924, -84.7599, 6.60007
4.752, 15, -12.1934, 40.6376, 16.2774, -10.8385, -84.8819, 6.64151
4.756, 15, -12.2533, 40.7891, 16.0883, -10.8847, -85.0045, 6.68339
4.76, 15, -12.3129, 40.9408, 15.8978, -10.9307, -85.1269, 6.72549
4.764, 15, -12.3722, 41.0924, 15.7071, -10.9762, -85.2484, 6.76755
4.768, 15, -12.4314, 41.2434, 15.517, -11.021, -85.3683, 6.80934
4.772, 15, -12.4903, 41.3933, 15.3286, -11.0649, -85.486, 6.85063
4.776, 15, -12.5488, 41.5414, 15.1429, -11.1075, -85.6008, 6.89117
4.78, 15, -12.6066, 41.6873, 14.9606, -11.1488, -85.7121, 6.93078
4.784, 15, -12.6635, 41.8301, 14.7828, -11.1885, -85.8196, 6.96927
4.788, 15, -12.7192, 41.9693, 14.61, -11.2265, -85.9228, 7.00649
4.792, 15, -12.7733, 42.1042, 14.4431, -11.2628, -86.0214, 7.04231
4.796, 15, -12.8257, 42.2342, 14.2826, -11.2972, -86.1153, 7.07662
4.8, 15, -12.8759, 42.3588, 14.129, -11.3297, -86.2043, 7.10934
4.804, 15, -12.9239, 42.4777, 13.9828, -11.3603, -86.2882, 7.1404
4.808, 15, -12.9694, 42.5904, 13.8442, -11.3891, -86.3671, 7.16975
4.812, 15, -13.0124, 42.6968, 13.7135, -11.4158, -86.4408, 7.19735
4.816, 15, -13.0528, 42.7968, 13.591, -11.4407, -86.5095, 7.22318
4.82, 15, -13.0907, 42.8902, 13.4766, -11.4637, -86.573, 7.24721
4.824, 15, -13.126, 42.9772, 13.3705, -11.4848, -86.6315, 7.26943
4.828, 15, -13.1589, 43.0578, 13.2726, -11.5041, -86.685, 7.28986
4.832, 15, -13.1894, 43.132, 13.1829, -11.5216, -86.7336, 7.30851
4.836, 15, -13.2175, 43.2001, 13.1012, -11.5374, -86.7775, 7.32542
4.84, 15, -13.2432, 43.262, 13.0275, -11.5515, -86.8169, 7.34061
4.844, 15, -13.2668, 43.318, 12.9614, -11.564, -86.8518, 7.35416
4.848, 15, -13.2882, 43.3684, 12.9026, -11.575, -86.8825, 7.36612
4.852, 15, -13.3076, 43.4135, 12.8509, -11.5846, -86.9092, 7.37657
4.856, 15, -13.3252, 43.4537, 12.8057, -11.5928, -86.9322, 7.3856
4.86, 15, -13.3412, 43.4893, 12.7666, -11.5998, -86.9518, 7.39331
4.864, 15, -13.3555, 43.5205, 12.7332, -11.6057, -86.9682, 7.3998
4.868, 15, -13.3683, 43.5477, 12.705, -11.6105, -86.9818, 7.40521
4.872, 15, -13.3796, 43.5711, 12.6814, -11.6145, -86.9929, 7.40964
4.876, 15, -13.3895, 43.591, 12.662, -11.6177, -87.0018, 7.41323
4.88, 15, -13.3981, 43.6078, 12.6462, -11.6202, -87.0089, 7.41608
4.884, 15, -13.4055, 43.6219, 12.6336, -11.6222, -87.0143, 7.4183
4.888, 15, -13.412, 43.6338, 12.6236, -11.6237, -87.0185, 7.42001
4.892, 15, -13.4176, 43.6438, 12.6159, -11.6248, -87.0216, 7.42129
4.896, 15, -13.4225, 43.6521, 12.61, -11.6257, -87.0239, 7.42223
4.9, 15, -13.4266, 43.6589, 12.6055, -11.6262, -87.0255, 7.42291
4.904, 15, -13.43, 43.6644, 12.6022, -11.6266, -87.0266, 7.42338
4.908, 16, -13.4327, 43.6687, 12.5998, -11.6269, -87.0274, 7.42371
4.912, 16, -13.4347, 43.6718, 12.5982, -11.6271, -87.0279, 7.42394
4.916, 16, -13.4362, 43.674, 12.597, -11.6272, -87.0282, 7.42409
4.92, 16, -13.4372, 43.6755, 12.5962, -11.6273, -87.0285, 7.42419
4.924, 16, -13.4379, 43.6765, 12.5957, -11.6274, -87.0286, 7.42426
4.928, 16, -13.4383, 43.6772, 12.5954, -11.6274, -87.0288, 7.42431
4.932, 16, -13.4386, 43.6777, 12.5951, -11.6275, -87.0288, 7.42434
4.936, 16, -13.4389, 43.678, 12.595, -11.6275, -87.0289, 7.42436
4.94, 16, -13.439, 43.6782, 12.5948, -11.6275, -87.0289, 7.42438
4.944, 16, -13.4391, 43.6783, 12.5948, -11.6275, -87.0289, 7.42439
4.948, 16, -13.4392, 43.6784, 12.5947, -11.6275, -87.029, 7.4244
4.952, 16, -13.4392, 43.6785, 12.5947, -11.6275, -87.029, 7.4244
4.956, 16, -13.4392, 43.6786, 12.5947, -11.6275, -87.029, 7.4244
4.96, 16, -13.4393, 43.6786, 12.5946, -11.6275, -87.029, 7.42441
4.964, 16, -13.4393, 43.6786, 12.5946, -11.6275, -87.029, 7.42441
4.968, 16, -13.4393, 43.6786, 12.5946, -11.6275, -87.029, 7.42441
4.972, 16, -13.4393, 43.6786, 12.5946, -11.6275, -87.029, 7.42441
4.976, 16, -13.4393, 43.6786, 12.5946, -11.6275, -87.029, 7.42441
4.98, 16, -13.4393, 43.6786, 12.5946, -11.6275, -87.029, 7.42441
4.984, 16, -13.4393, 43.6786, 12.5946, -11.6275, -87.029, 7.42441
4.988, 16, -13.4393, 43.6787, 12.5946, -11.6275, -87.029, 7.42441
4.992, 16, -13.4393, 43.6787, 12.5946, -11.6275, -87.029, 7.42441
4.996, 16, -13.4393, 43.6787, 12.5946, -11.6275, -87.029, 7.42441
5, 16, -13.4393, 43.6787, 12.5946, -11.6275, -87.029, 7.42441
5.004, 16, -13.4393, 43.6787, 12.5946, -11.6275, -87.029, 7.42441
5.008, 16, -13.4393, 43.6787, 12.5946, -11.6275, -87.029, 7.42441
5.012, 16, -13.4393, 43.6787, 12.5946, -11.6275, -87.029, 7.42441
5.016, 16, -13.4393, 43.6787, 12.5946, -11.6275, -87.029, 7.42441
5.02, 16, -13.4393, 43.6787, 12.5946, -11.6275, -87.029, 7.42441
5.024, 16, -13.4393, 43.6787, 12.5946, -11.6275, -87.029, 7.42441
