hehonglu123/ABB_Primitive_Study/execution/moveljl_30_car/curve_exe_v300_z20.csv
timestamp, cmd_num, J1, J2, J3, J4, J5, J6
0, -1, -13.4393, 43.6787, 12.5946, -11.6275, -87.029, 7.42441
0.002, -1, -13.4393, 43.6787, 12.5946, -11.6275, -87.029, 7.42441
0.006, -1, -13.4393, 43.6787, 12.5946, -11.6275, -87.029, 7.42441
0.008, -1, -13.4393, 43.6787, 12.5946, -11.6275, -87.029, 7.42441
0.011, -1, -13.4393, 43.6787, 12.5946, -11.6275, -87.029, 7.42441
0.016, -1, -13.4393, 43.6787, 12.5946, -11.6275, -87.029, 7.42441
0.02, -1, -13.4393, 43.6787, 12.5946, -11.6275, -87.029, 7.42441
0.024, -1, -13.4393, 43.6787, 12.5946, -11.6275, -87.029, 7.42441
0.028, -1, -13.4393, 43.6787, 12.5946, -11.6275, -87.029, 7.42441
0.032, -1, -13.4393, 43.6787, 12.5946, -11.6275, -87.029, 7.42441
0.036, -1, -13.4392, 43.6786, 12.5946, -11.6275, -87.029, 7.42441
0.04, -1, -13.439, 43.6785, 12.5946, -11.6275, -87.029, 7.42441
0.044, -1, -13.4384, 43.678, 12.5947, -11.6275, -87.029, 7.42439
0.048, -1, -13.4372, 43.6772, 12.5949, -11.6274, -87.0289, 7.42434
0.052, -1, -13.4355, 43.6758, 12.5951, -11.6273, -87.0287, 7.42422
0.056, -1, -13.433, 43.6738, 12.5955, -11.627, -87.0284, 7.42397
0.06, -1, -13.4296, 43.671, 12.5961, -11.6264, -87.0277, 7.42349
0.064, -1, -13.4254, 43.6675, 12.5969, -11.6253, -87.0264, 7.42266
0.068, -1, -13.4203, 43.6631, 12.598, -11.6236, -87.0244, 7.42132
0.072, -1, -13.4141, 43.6579, 12.5994, -11.6209, -87.0213, 7.41928
0.076, -1, -13.4066, 43.6516, 12.6011, -11.617, -87.0167, 7.4163
0.08, -1, -13.3977, 43.6442, 12.6034, -11.6115, -87.0103, 7.41213
0.084, -1, -13.3869, 43.6352, 12.6062, -11.604, -87.0016, 7.40644
0.088, -1, -13.3743, 43.6247, 12.6097, -11.5941, -86.9899, 7.39892
0.092, -1, -13.3596, 43.6124, 12.6138, -11.5812, -86.9748, 7.38918
0.096, -1, -13.3427, 43.5982, 12.6186, -11.5648, -86.9557, 7.37685
0.1, -1, -13.3235, 43.582, 12.6243, -11.5444, -86.9319, 7.36155
0.104, -1, -13.3019, 43.5636, 12.6308, -11.5196, -86.9029, 7.3429
0.108, -1, -13.2776, 43.5427, 12.6382, -11.4899, -86.868, 7.32054
0.112, -1, -13.2505, 43.5193, 12.6467, -11.4547, -86.8269, 7.29416
0.116, -1, -13.2206, 43.4932, 12.6562, -11.4137, -86.7789, 7.26346
0.12, -1, -13.1877, 43.4644, 12.6669, -11.3667, -86.7238, 7.22818
0.124, -1, -13.1519, 43.4328, 12.6786, -11.3132, -86.6612, 7.18814
0.128, -1, -13.113, 43.3984, 12.6916, -11.2532, -86.591, 7.14319
0.131, -1, -13.071, 43.3611, 12.7056, -11.1865, -86.5129, 7.09326
0.136, -1, -13.026, 43.321, 12.7209, -11.1131, -86.4269, 7.03835
0.139, -1, -12.9779, 43.2779, 12.7373, -11.0331, -86.3333, 6.9785
0.144, -1, -12.9267, 43.232, 12.7548, -10.9467, -86.2321, 6.91384
0.148, -1, -12.8726, 43.1833, 12.7734, -10.854, -86.1236, 6.84454
0.152, -1, -12.8155, 43.132, 12.7932, -10.7555, -86.0082, 6.77084
0.156, -1, -12.7557, 43.0781, 12.8139, -10.6514, -85.8863, 6.69301
0.16, -1, -12.6932, 43.0219, 12.8355, -10.5422, -85.7585, 6.61137
0.164, -1, -12.6282, 42.9633, 12.8581, -10.4284, -85.6253, 6.52627
0.168, -1, -12.5607, 42.9025, 12.8815, -10.3105, -85.4872, 6.43809
0.172, -1, -12.4909, 42.8396, 12.9056, -10.189, -85.3449, 6.34721
0.176, -1, -12.4189, 42.7749, 12.9305, -10.0644, -85.1989, 6.25399
0.18, -1, -12.345, 42.7085, 12.956, -9.93711, -85.0499, 6.15879
0.184, -1, -12.2694, 42.6406, 12.9821, -9.80765, -84.8983, 6.06194
0.188, -1, -12.1925, 42.5714, 13.0086, -9.6764, -84.7446, 5.96375
0.192, -1, -12.1142, 42.5011, 13.0356, -9.54373, -84.5892, 5.86449
0.196, -1, -12.0348, 42.4297, 13.0629, -9.40995, -84.4326, 5.76439
0.2, -1, -11.9542, 42.3573, 13.0906, -9.27534, -84.2749, 5.66366
0.204, -1, -11.8724, 42.2841, 13.1185, -9.14011, -84.1166, 5.56246
0.208, -1, -11.7897, 42.21, 13.1466, -9.00443, -83.9577, 5.46092
0.212, -1, -11.7061, 42.1354, 13.1749, -8.86843, -83.7985, 5.35913
0.216, -1, -11.6218, 42.0602, 13.2033, -8.7322, -83.6389, 5.25717
0.22, -1, -11.5371, 41.9847, 13.2318, -8.5958, -83.4792, 5.15507
0.224, -1, -11.452, 41.909, 13.2603, -8.45928, -83.3194, 5.05288
0.228, -1, -11.3667, 41.8332, 13.2889, -8.32266, -83.1594, 4.95062
0.232, -1, -11.2813, 41.7572, 13.3176, -8.18597, -82.9993, 4.8483
0.236, -1, -11.1957, 41.6811, 13.3462, -8.04922, -82.8392, 4.74595
0.24, -1, -11.11, 41.605, 13.3749, -7.91243, -82.679, 4.64355
0.244, -1, -11.0243, 41.5288, 13.4035, -7.77561, -82.5188, 4.54114
0.248, -1, -10.9386, 41.4526, 13.4322, -7.63876, -82.3586, 4.4387
0.252, -1, -10.8528, 41.3764, 13.4609, -7.50189, -82.1983, 4.33625
0.256, -1, -10.767, 41.3002, 13.4896, -7.36501, -82.0381, 4.2338
0.26, -1, -10.6811, 41.2239, 13.5183, -7.22813, -81.8778, 4.13133
0.264, -1, -10.5953, 41.1477, 13.547, -7.09125, -81.7175, 4.02887
0.268, -1, -10.5094, 41.0714, 13.5757, -6.95436, -81.5572, 3.92641
0.272, -1, -10.4236, 40.9952, 13.6044, -6.81749, -81.397, 3.82396
0.276, -1, -10.3378, 40.9189, 13.6331, -6.68063, -81.2367, 3.72151
0.28, -1, -10.252, 40.8427, 13.6618, -6.54379, -81.0765, 3.61908
0.284, -1, -10.1661, 40.7665, 13.6904, -6.40697, -80.9163, 3.51666
0.288, -1, -10.0803, 40.6903, 13.7191, -6.27017, -80.7561, 3.41427
0.292, -1, -9.99456, 40.6141, 13.7478, -6.13341, -80.596, 3.31189
0.296, -1, -9.9088, 40.538, 13.7764, -5.99668, -80.4359, 3.20955
0.3, -1, -9.82306, 40.4618, 13.8051, -5.85999, -80.2758, 3.10723
0.304, -1, -9.73734, 40.3857, 13.8337, -5.72334, -80.1158, 3.00494
0.308, -1, -9.65166, 40.3096, 13.8624, -5.58674, -79.9558, 2.90269
0.312, -1, -9.566, 40.2336, 13.891, -5.45019, -79.796, 2.80048
0.316, -1, -9.48038, 40.1575, 13.9196, -5.31369, -79.6361, 2.69831
0.32, -1, -9.3948, 40.0815, 13.9482, -5.17726, -79.4764, 2.59618
0.324, -1, -9.30925, 40.0055, 13.9768, -5.04089, -79.3167, 2.4941
0.328, -1, -9.22375, 39.9296, 14.0054, -4.90458, -79.1571, 2.39207
0.332, -1, -9.13829, 39.8537, 14.0339, -4.76835, -78.9976, 2.2901
0.336, -1, -9.05287, 39.7778, 14.0625, -4.63219, -78.8382, 2.18818
0.34, -1, -8.9675, 39.702, 14.091, -4.49612, -78.6788, 2.08632
0.344, -1, -8.88219, 39.6262, 14.1195, -4.36012, -78.5196, 1.98452
0.348, -1, -8.79692, 39.5505, 14.148, -4.22421, -78.3604, 1.88279
0.352, -1, -8.71172, 39.4748, 14.1765, -4.0884, -78.2014, 1.78113
0.356, -1, -8.62657, 39.3992, 14.2049, -3.95267, -78.0425, 1.67953
0.36, -1, -8.54148, 39.3236, 14.2334, -3.81705, -77.8837, 1.57801
0.364, -1, -8.45646, 39.2481, 14.2618, -3.68152, -77.725, 1.47657
0.368, -1, -8.3715, 39.1727, 14.2902, -3.54611, -77.5664, 1.3752
0.372, -1, -8.28661, 39.0973, 14.3185, -3.4108, -77.408, 1.27392
0.376, -1, -8.20179, 39.0219, 14.3469, -3.2756, -77.2497, 1.17272
0.38, -1, -8.11704, 38.9467, 14.3752, -3.14052, -77.0915, 1.07161
0.384, -1, -8.03237, 38.8715, 14.4035, -3.00557, -76.9335, 0.970588
0.388, -1, -7.94777, 38.7963, 14.4318, -2.87073, -76.7756, 0.869659
0.392, -1, -7.86325, 38.7212, 14.46, -2.73602, -76.6179, 0.768825
0.396, -1, -7.77881, 38.6463, 14.4882, -2.60145, -76.4603, 0.668089
0.4, -1, -7.69446, 38.5713, 14.5164, -2.467, -76.3029, 0.567454
0.404, -1, -7.61019, 38.4965, 14.5446, -2.3327, -76.1456, 0.466921
0.408, -1, -7.526, 38.4217, 14.5727, -2.19854, -75.9885, 0.366494
0.412, -1, -7.44191, 38.347, 14.6008, -2.06452, -75.8316, 0.266176
0.416, -1, -7.35791, 38.2724, 14.6288, -1.93064, -75.6748, 0.165968
0.42, -1, -7.274, 38.1979, 14.6569, -1.79692, -75.5183, 0.0658724
0.424, -1, -7.19019, 38.1235, 14.6849, -1.66336, -75.3619, -0.0341072
0.428, -1, -7.10648, 38.0491, 14.7128, -1.52995, -75.2057, -0.133969
0.432, -1, -7.02287, 37.9748, 14.7408, -1.3967, -75.0496, -0.233711
0.436, -1, -6.93935, 37.9007, 14.7687, -1.26362, -74.8938, -0.33333
0.44, -1, -6.85595, 37.8266, 14.7965, -1.1307, -74.7382, -0.432824
0.444, -1, -6.77264, 37.7526, 14.8244, -0.99795, -74.5827, -0.532191
0.448, -1, -6.68945, 37.6787, 14.8522, -0.865375, -74.4275, -0.631429
0.452, -1, -6.60636, 37.6049, 14.8799, -0.732975, -74.2725, -0.730535
0.456, -1, -6.52339, 37.5312, 14.9077, -0.600755, -74.1176, -0.829507
0.46, -1, -6.44053, 37.4576, 14.9353, -0.468716, -73.963, -0.928344
0.464, -1, -6.35778, 37.3842, 14.963, -0.336861, -73.8086, -1.02704
0.468, -1, -6.27515, 37.3108, 14.9906, -0.205193, -73.6545, -1.1256
0.472, -1, -6.19264, 37.2375, 15.0181, -0.0737153, -73.5005, -1.22402
0.476, -1, -6.11024, 37.1643, 15.0457, 0.0575699, -73.3468, -1.32229
0.48, -1, -6.02797, 37.0912, 15.0732, 0.18866, -73.1933, -1.42042
0.484, -1, -5.94582, 37.0183, 15.1006, 0.319552, -73.04, -1.51839
0.488, -1, -5.8638, 36.9454, 15.128, 0.450244, -72.887, -1.61622
0.492, -1, -5.7819, 36.8727, 15.1554, 0.580734, -72.7342, -1.7139
0.496, -1, -5.70012, 36.8001, 15.1827, 0.711018, -72.5817, -1.81142
0.5, -1, -5.61848, 36.7276, 15.2099, 0.841096, -72.4294, -1.90879
0.504, -1, -5.53697, 36.6552, 15.2372, 0.970964, -72.2773, -2.006
0.508, -1, -5.45558, 36.5829, 15.2644, 1.10062, -72.1255, -2.10306
0.512, -1, -5.37433, 36.5108, 15.2915, 1.23006, -71.9739, -2.19995
0.516, -1, -5.29321, 36.4387, 15.3186, 1.35929, -71.8226, -2.29668
0.52, -1, -5.21223, 36.3668, 15.3456, 1.4883, -71.6715, -2.39325
0.524, -1, -5.13138, 36.295, 15.3726, 1.6171, -71.5207, -2.48966
0.528, -1, -5.05067, 36.2233, 15.3996, 1.74567, -71.3702, -2.5859
0.532, -1, -4.97009, 36.1518, 15.4265, 1.87402, -71.2199, -2.68198
0.536, -1, -4.88966, 36.0803, 15.4534, 2.00215, -71.0698, -2.77789
0.54, -1, -4.80936, 36.009, 15.4802, 2.13005, -70.9201, -2.87363
0.544, -1, -4.7292, 35.9378, 15.507, 2.25773, -70.7706, -2.9692
0.548, -1, -4.64919, 35.8668, 15.5337, 2.38518, -70.6213, -3.0646
0.552, -1, -4.56931, 35.7959, 15.5604, 2.51241, -70.4724, -3.15984
0.556, -1, -4.48958, 35.725, 15.587, 2.6394, -70.3237, -3.2549
0.56, -1, -4.41, 35.6544, 15.6136, 2.76617, -70.1752, -3.34979
0.564, -1, -4.33056, 35.5838, 15.6401, 2.8927, -70.0271, -3.44451
0.568, -1, -4.25126, 35.5134, 15.6666, 3.01901, -69.8792, -3.53905
0.572, -1, -4.17211, 35.4431, 15.693, 3.14508, -69.7316, -3.63342
0.576, -1, -4.0931, 35.373, 15.7194, 3.27092, -69.5842, -3.72761
0.58, -1, -4.01424, 35.3029, 15.7458, 3.39652, -69.4372, -3.82163
0.584, -1, -3.93553, 35.233, 15.772, 3.52189, -69.2904, -3.91547
0.588, -1, -3.85696, 35.1633, 15.7983, 3.64702, -69.1438, -4.00914
0.592, -1, -3.77855, 35.0936, 15.8245, 3.77191, -68.9976, -4.10263
0.596, -1, -3.70028, 35.0241, 15.8506, 3.89657, -68.8516, -4.19594
0.6, -1, -3.62216, 34.9548, 15.8767, 4.02099, -68.7059, -4.28908
0.604, -1, -3.54419, 34.8855, 15.9027, 4.14517, -68.5605, -4.38203
0.608, -1, -3.46637, 34.8164, 15.9287, 4.26911, -68.4154, -4.47481
0.612, -1, -3.3887, 34.7474, 15.9547, 4.39281, -68.2706, -4.5674
0.616, -1, -3.31118, 34.6786, 15.9806, 4.51628, -68.126, -4.65982
0.62, -1, -3.23382, 34.6099, 16.0064, 4.63949, -67.9817, -4.75205
0.624, -1, -3.1566, 34.5413, 16.0322, 4.76247, -67.8377, -4.84411
0.628, -1, -3.07954, 34.4729, 16.0579, 4.88521, -67.694, -4.93598
0.632, -1, -3.00262, 34.4046, 16.0836, 5.0077, -67.5506, -5.02767
0.636, -1, -2.92586, 34.3364, 16.1092, 5.12995, -67.4074, -5.11918
0.64, -1, -2.84926, 34.2684, 16.1348, 5.25195, -67.2646, -5.2105
0.644, -1, -2.7728, 34.2005, 16.1604, 5.37371, -67.122, -5.30165
0.648, -1, -2.6965, 34.1328, 16.1858, 5.49523, -66.9797, -5.39261
0.652, -1, -2.62035, 34.0652, 16.2113, 5.6165, -66.8377, -5.48338
0.656, -1, -2.54436, 33.9977, 16.2366, 5.73753, -66.696, -5.57398
0.66, -1, -2.46852, 33.9303, 16.262, 5.85831, -66.5546, -5.66439
0.664, -1, -2.39283, 33.8631, 16.2872, 5.97884, -66.4135, -5.75461
0.668, -1, -2.3173, 33.7961, 16.3125, 6.09913, -66.2726, -5.84465
0.672, -1, -2.24192, 33.7291, 16.3376, 6.21917, -66.1321, -5.93451
0.676, -1, -2.1667, 33.6623, 16.3628, 6.33897, -65.9918, -6.02418
0.68, -1, -2.09163, 33.5957, 16.3878, 6.45851, -65.8518, -6.11367
0.684, -1, -2.01672, 33.5292, 16.4129, 6.57781, -65.7121, -6.20297
0.688, -1, -1.94196, 33.4628, 16.4378, 6.69687, -65.5727, -6.29208
0.692, -1, -1.86736, 33.3965, 16.4627, 6.81567, -65.4336, -6.38101
0.696, -1, -1.79291, 33.3304, 16.4876, 6.93423, -65.2948, -6.46976
0.7, -1, -1.71862, 33.2645, 16.5124, 7.05254, -65.1562, -6.55832
0.704, -1, -1.64448, 33.1986, 16.5372, 7.1706, -65.018, -6.64669
0.708, -1, -1.5705, 33.1329, 16.5619, 7.28841, -64.8801, -6.73488
0.712, -1, -1.49668, 33.0674, 16.5865, 7.40597, -64.7424, -6.82288
0.716, -1, -1.42301, 33.002, 16.6111, 7.52329, -64.605, -6.9107
0.72, -1, -1.34949, 32.9367, 16.6357, 7.64036, -64.468, -6.99833
0.724, -1, -1.27614, 32.8715, 16.6602, 7.75718, -64.3312, -7.08577
0.728, -1, -1.20293, 32.8065, 16.6846, 7.87375, -64.1947, -7.17303
0.732, -1, -1.12989, 32.7417, 16.709, 7.99007, -64.0585, -7.2601
0.736, -1, -1.057, 32.677, 16.7333, 8.10615, -63.9226, -7.34699
0.74, -1, -0.984259, 32.6124, 16.7576, 8.22197, -63.7869, -7.43369
0.744, -1, -0.911678, 32.5479, 16.7819, 8.33755, -63.6516, -7.52021
0.748, -1, -0.839252, 32.4836, 16.8061, 8.45288, -63.5166, -7.60653
0.752, -1, -0.766981, 32.4194, 16.8302, 8.56796, -63.3818, -7.69268
0.756, -1, -0.694864, 32.3554, 16.8543, 8.6828, -63.2474, -7.77864
0.76, -1, -0.622901, 32.2915, 16.8783, 8.79738, -63.1132, -7.86441
0.764, -1, -0.551092, 32.2277, 16.9023, 8.91172, -62.9793, -7.95
0.768, -1, -0.479437, 32.1641, 16.9262, 9.02582, -62.8457, -8.0354
0.772, -1, -0.407935, 32.1006, 16.9501, 9.13966, -62.7124, -8.12062
0.776, -1, -0.336586, 32.0373, 16.9739, 9.25326, -62.5794, -8.20566
0.78, -1, -0.26539, 31.9741, 16.9977, 9.36662, -62.4467, -8.29051
0.784, -1, -0.194346, 31.911, 17.0214, 9.47973, -62.3142, -8.37518
0.788, -1, -0.123455, 31.848, 17.0451, 9.5926, -62.182, -8.45966
0.792, -1, -0.0527154, 31.7852, 17.0687, 9.70522, -62.0502, -8.54397
0.796, -1, 0.0178725, 31.7226, 17.0923, 9.81761, -61.9186, -8.62809
0.8, -1, 0.0883091, 31.66, 17.1158, 9.92975, -61.7873, -8.71204
0.804, -1, 0.158595, 31.5976, 17.1393, 10.0417, -61.6562, -8.7958
0.808, -1, 0.22873, 31.5353, 17.1627, 10.1533, -61.5255, -8.87938
0.812, -1, 0.298716, 31.4732, 17.186, 10.2647, -61.395, -8.96279
0.816, -1, 0.368552, 31.4112, 17.2094, 10.3759, -61.2648, -9.04602
0.82, -1, 0.438239, 31.3493, 17.2326, 10.4869, -61.1349, -9.12907
0.824, -1, 0.507778, 31.2876, 17.2559, 10.5976, -61.0053, -9.21194
0.828, -1, 0.577169, 31.226, 17.279, 10.7081, -60.8759, -9.29464
0.832, -1, 0.646413, 31.1645, 17.3021, 10.8183, -60.7468, -9.37716
0.836, -1, 0.71551, 31.1031, 17.3252, 10.9283, -60.618, -9.45951
0.84, -1, 0.78446, 31.0419, 17.3482, 11.0381, -60.4895, -9.54168
0.844, -1, 0.853266, 30.9808, 17.3712, 11.1476, -60.3612, -9.62368
0.848, -1, 0.921925, 30.9199, 17.3941, 11.2569, -60.2332, -9.7055
0.852, -1, 0.990441, 30.859, 17.417, 11.366, -60.1055, -9.78716
0.856, -1, 1.05881, 30.7983, 17.4398, 11.4749, -59.9781, -9.86864
0.86, -1, 1.12704, 30.7378, 17.4626, 11.5835, -59.8509, -9.94995
0.864, -1, 1.19512, 30.6773, 17.4854, 11.6919, -59.7239, -10.0311
0.868, -1, 1.26307, 30.617, 17.508, 11.8001, -59.5973, -10.1121
0.872, -1, 1.33087, 30.5568, 17.5307, 11.908, -59.4709, -10.1929
0.876, -1, 1.39853, 30.4967, 17.5533, 12.0157, -59.3448, -10.2735
0.88, -1, 1.46604, 30.4368, 17.5758, 12.1232, -59.2189, -10.354
0.884, -1, 1.53342, 30.377, 17.5983, 12.2305, -59.0933, -10.4343
0.888, -1, 1.60066, 30.3173, 17.6208, 12.3375, -58.9679, -10.5144
0.892, -1, 1.66775, 30.2577, 17.6432, 12.4444, -58.8429, -10.5943
0.896, -1, 1.73471, 30.1982, 17.6655, 12.551, -58.718, -10.6741
0.9, -1, 1.80153, 30.1389, 17.6878, 12.6574, -58.5935, -10.7538
0.904, -1, 1.86821, 30.0797, 17.7101, 12.7635, -58.4692, -10.8332
0.908, -1, 1.93476, 30.0206, 17.7323, 12.8695, -58.3451, -10.9125
0.912, -1, 2.00117, 29.9617, 17.7545, 12.9752, -58.2213, -10.9917
0.916, -1, 2.06744, 29.9028, 17.7766, 13.0807, -58.0978, -11.0707
0.92, -1, 2.13357, 29.8441, 17.7987, 13.186, -57.9745, -11.1495
0.924, -1, 2.19957, 29.7855, 17.8207, 13.2911, -57.8514, -11.2281
0.928, -1, 2.26543, 29.727, 17.8427, 13.3959, -57.7287, -11.3066
0.932, -1, 2.33116, 29.6687, 17.8647, 13.5006, -57.6061, -11.385
0.936, -1, 2.39676, 29.6104, 17.8866, 13.605, -57.4838, -11.4631
0.94, -1, 2.46222, 29.5523, 17.9084, 13.7092, -57.3618, -11.5412
0.944, -1, 2.52755, 29.4943, 17.9303, 13.8133, -57.24, -11.619
0.948, -1, 2.59275, 29.4364, 17.952, 13.9171, -57.1185, -11.6967
0.952, -1, 2.65781, 29.3787, 17.9738, 14.0206, -56.9972, -11.7743
0.956, -1, 2.72274, 29.321, 17.9954, 14.124, -56.8761, -11.8516
0.96, -1, 2.78755, 29.2635, 18.0171, 14.2272, -56.7553, -11.9289
0.964, -1, 2.85222, 29.2061, 18.0387, 14.3302, -56.6348, -12.0059
0.968, -1, 2.91676, 29.1488, 18.0602, 14.4329, -56.5144, -12.0829
0.972, -1, 2.98117, 29.0916, 18.0817, 14.5355, -56.3944, -12.1596
0.976, -1, 3.04545, 29.0345, 18.1032, 14.6378, -56.2745, -12.2362
0.98, -1, 3.10961, 28.9775, 18.1246, 14.7399, -56.1549, -12.3127
0.984, -1, 3.17363, 28.9207, 18.146, 14.8419, -56.0356, -12.389
0.988, -1, 3.23753, 28.864, 18.1673, 14.9436, -55.9165, -12.4651
0.992, -1, 3.3013, 28.8074, 18.1886, 15.0451, -55.7976, -12.5411
0.996, -1, 3.36494, 28.7508, 18.2099, 15.1465, -55.6789, -12.617
1, -1, 3.42846, 28.6945, 18.2311, 15.2476, -55.5605, -12.6927
1.004, -1, 3.49185, 28.6382, 18.2523, 15.3485, -55.4423, -12.7682
1.008, -1, 3.55512, 28.582, 18.2734, 15.4492, -55.3244, -12.8436
1.012, -1, 3.61826, 28.5259, 18.2945, 15.5498, -55.2067, -12.9189
1.016, -1, 3.68127, 28.47, 18.3155, 15.6501, -55.0892, -12.994
1.02, -1, 3.74416, 28.4142, 18.3365, 15.7502, -54.972, -13.0689
1.024, -1, 3.80693, 28.3584, 18.3575, 15.8502, -54.855, -13.1437
1.027, -1, 3.86958, 28.3028, 18.3784, 15.9499, -54.7382, -13.2184
1.032, -1, 3.9321, 28.2473, 18.3993, 16.0494, -54.6216, -13.2929
1.036, -1, 3.9945, 28.1919, 18.4201, 16.1488, -54.5053, -13.3673
1.04, -1, 4.05678, 28.1366, 18.4409, 16.2479, -54.3892, -13.4415
1.044, -1, 4.11893, 28.0814, 18.4616, 16.3469, -54.2733, -13.5156
1.048, -1, 4.18097, 28.0263, 18.4824, 16.4457, -54.1577, -13.5895
1.052, -1, 4.24289, 27.9714, 18.503, 16.5442, -54.0422, -13.6633
1.055, -1, 4.30468, 27.9165, 18.5237, 16.6426, -53.927, -13.7369
1.06, -1, 4.36636, 27.8617, 18.5443, 16.7408, -53.8121, -13.8104
1.064, -1, 4.42792, 27.8071, 18.5648, 16.8388, -53.6973, -13.8838
1.068, -1, 4.48936, 27.7525, 18.5853, 16.9366, -53.5828, -13.957
1.072, -1, 4.55068, 27.6981, 18.6058, 17.0343, -53.4685, -14.0301
1.076, -1, 4.61188, 27.6438, 18.6262, 17.1317, -53.3544, -14.103
1.08, -1, 4.67297, 27.5895, 18.6466, 17.229, -53.2405, -14.1758
1.084, -1, 4.73394, 27.5354, 18.667, 17.326, -53.1268, -14.2485
1.088, -1, 4.7948, 27.4814, 18.6873, 17.4229, -53.0134, -14.321
1.091, -1, 4.85554, 27.4274, 18.7076, 17.5196, -52.9002, -14.3934
1.096, -1, 4.91617, 27.3736, 18.7278, 17.6161, -52.7871, -14.4656
1.1, -1, 4.97668, 27.3199, 18.7481, 17.7125, -52.6743, -14.5378
1.104, -1, 5.03708, 27.2663, 18.7682, 17.8086, -52.5618, -14.6097
1.108, -1, 5.09737, 27.2127, 18.7883, 17.9046, -52.4494, -14.6816
1.112, -1, 5.15754, 27.1593, 18.8084, 18.0004, -52.3372, -14.7533
1.116, -1, 5.2176, 27.106, 18.8285, 18.096, -52.2253, -14.8249
1.119, -1, 5.27755, 27.0528, 18.8485, 18.1915, -52.1135, -14.8963
1.124, -1, 5.33739, 26.9996, 18.8685, 18.2867, -52.0019, -14.9676
1.128, -1, 5.39712, 26.9466, 18.8884, 18.3818, -51.8906, -15.0388
1.132, -1, 5.45673, 26.8937, 18.9083, 18.4767, -51.7795, -15.1098
1.136, -1, 5.51624, 26.8408, 18.9282, 18.5715, -51.6685, -15.1807
1.14, -1, 5.57564, 26.7881, 18.948, 18.666, -51.5578, -15.2515
1.144, -1, 5.63493, 26.7355, 18.9678, 18.7604, -51.4473, -15.3222
1.147, -1, 5.69412, 26.6829, 18.9876, 18.8547, -51.337, -15.3927
1.152, -1, 5.75319, 26.6305, 19.0073, 18.9487, -51.2268, -15.4631
1.156, -1, 5.81216, 26.5781, 19.027, 19.0426, -51.1169, -15.5334
1.16, -1, 5.87103, 26.5259, 19.0467, 19.1363, -51.0072, -15.6035
1.164, -1, 5.92979, 26.4737, 19.0663, 19.2298, -50.8976, -15.6736
1.168, -1, 5.98844, 26.4216, 19.0859, 19.3232, -50.7883, -15.7435
1.172, -1, 6.04699, 26.3696, 19.1054, 19.4164, -50.6792, -15.8132
1.175, -1, 6.10543, 26.3177, 19.1249, 19.5095, -50.5702, -15.8829
1.18, -1, 6.16377, 26.266, 19.1444, 19.6024, -50.4614, -15.9524
1.184, -1, 6.22201, 26.2142, 19.1639, 19.6951, -50.3529, -16.0218
1.188, -1, 6.28015, 26.1626, 19.1833, 19.7876, -50.2445, -16.0911
1.192, -1, 6.33818, 26.1111, 19.2027, 19.88, -50.1363, -16.1603
1.196, -1, 6.39611, 26.0597, 19.222, 19.9723, -50.0283, -16.2293
1.2, -1, 6.45394, 26.0083, 19.2413, 20.0643, -49.9205, -16.2982
1.204, -1, 6.51167, 25.9571, 19.2606, 20.1562, -49.8129, -16.367
1.208, -1, 6.5693, 25.9059, 19.2798, 20.248, -49.7055, -16.4357
1.212, -1, 6.62683, 25.8548, 19.299, 20.3396, -49.5982, -16.5042
1.216, -1, 6.68426, 25.8038, 19.3182, 20.431, -49.4912, -16.5727
1.22, -1, 6.74159, 25.7529, 19.3374, 20.5223, -49.3843, -16.641
1.224, -1, 6.79882, 25.7021, 19.3565, 20.6134, -49.2776, -16.7092
1.228, -1, 6.85596, 25.6514, 19.3756, 20.7044, -49.1711, -16.7773
1.232, -1, 6.91299, 25.6008, 19.3946, 20.7952, -49.0648, -16.8453
1.236, -1, 6.96993, 25.5502, 19.4136, 20.8858, -48.9586, -16.9131
1.24, -1, 7.02678, 25.4997, 19.4326, 20.9763, -48.8526, -16.9809
1.244, -1, 7.08352, 25.4494, 19.4515, 21.0667, -48.7469, -17.0485
1.248, -1, 7.14018, 25.3991, 19.4705, 21.1569, -48.6413, -17.116
1.252, -1, 7.19673, 25.3488, 19.4893, 21.2469, -48.5358, -17.1834
1.256, -1, 7.25319, 25.2987, 19.5082, 21.3368, -48.4306, -17.2507
1.26, -1, 7.30956, 25.2487, 19.527, 21.4266, -48.3255, -17.3179
1.264, -1, 7.36583, 25.1987, 19.5458, 21.5161, -48.2206, -17.385
1.267, -1, 7.42201, 25.1488, 19.5646, 21.6056, -48.1158, -17.4519
1.272, -1, 7.4781, 25.099, 19.5833, 21.6949, -48.0113, -17.5188
1.276, -1, 7.53409, 25.0493, 19.602, 21.784, -47.9069, -17.5855
1.28, -1, 7.58999, 24.9997, 19.6207, 21.873, -47.8027, -17.6521
1.284, -1, 7.6458, 24.9501, 19.6393, 21.9619, -47.6986, -17.7186
1.288, -1, 7.70152, 24.9007, 19.6579, 22.0506, -47.5948, -17.785
1.292, -1, 7.75715, 24.8513, 19.6765, 22.1392, -47.4911, -17.8513
1.295, -1, 7.81268, 24.802, 19.695, 22.2276, -47.3875, -17.9175
1.3, -1, 7.86813, 24.7528, 19.7135, 22.3159, -47.2842, -17.9836
1.304, -1, 7.92348, 24.7036, 19.732, 22.404, -47.181, -18.0496
1.308, -1, 7.97875, 24.6545, 19.7505, 22.492, -47.0779, -18.1154
1.312, -1, 8.03393, 24.6055, 19.7689, 22.5798, -46.9751, -18.1812
1.316, -1, 8.08901, 24.5566, 19.7873, 22.6675, -46.8724, -18.2468
1.32, -1, 8.14401, 24.5078, 19.8057, 22.7551, -46.7699, -18.3124
1.324, -1, 8.19893, 24.4591, 19.824, 22.8425, -46.6675, -18.3778
1.328, -1, 8.25375, 24.4104, 19.8423, 22.9298, -46.5653, -18.4432
1.332, -1, 8.30849, 24.3618, 19.8606, 23.017, -46.4632, -18.5084
1.336, -1, 8.36314, 24.3133, 19.8788, 23.104, -46.3614, -18.5735
1.34, -1, 8.4177, 24.2648, 19.8971, 23.1909, -46.2596, -18.6386
1.344, -1, 8.47218, 24.2165, 19.9153, 23.2776, -46.1581, -18.7035
1.348, -1, 8.52657, 24.1682, 19.9334, 23.3642, -46.0567, -18.7683
1.352, -1, 8.58088, 24.1199, 19.9515, 23.4507, -45.9554, -18.833
1.356, -1, 8.6351, 24.0718, 19.9697, 23.537, -45.8543, -18.8976
1.36, -1, 8.68923, 24.0237, 19.9877, 23.6232, -45.7534, -18.9622
1.364, -1, 8.74328, 23.9757, 20.0058, 23.7092, -45.6526, -19.0266
1.368, -1, 8.79725, 23.9278, 20.0238, 23.7952, -45.552, -19.0909
1.372, -1, 8.85114, 23.88, 20.0418, 23.881, -45.4516, -19.1551
1.376, -1, 8.90494, 23.8322, 20.0598, 23.9666, -45.3513, -19.2192
1.38, -1, 8.95866, 23.7845, 20.0777, 24.0521, -45.2511, -19.2833
1.384, -1, 9.01229, 23.7369, 20.0956, 24.1375, -45.1511, -19.3472
1.388, -1, 9.06584, 23.6894, 20.1135, 24.2228, -45.0513, -19.411
1.392, -1, 9.11932, 23.6419, 20.1314, 24.3079, -44.9516, -19.4747
1.396, -1, 9.1727, 23.5945, 20.1492, 24.393, -44.8521, -19.5384
1.4, -1, 9.22601, 23.5472, 20.167, 24.4778, -44.7527, -19.6019
1.404, -1, 9.27924, 23.4999, 20.1848, 24.5626, -44.6535, -19.6653
1.408, -1, 9.33239, 23.4527, 20.2025, 24.6472, -44.5544, -19.7287
1.412, -1, 9.38546, 23.4056, 20.2202, 24.7317, -44.4554, -19.7919
1.416, -1, 9.43844, 23.3585, 20.2379, 24.8161, -44.3567, -19.8551
1.42, -1, 9.49135, 23.3116, 20.2556, 24.9003, -44.258, -19.9181
1.424, -1, 9.54418, 23.2647, 20.2732, 24.9844, -44.1595, -19.9811
1.428, -1, 9.59693, 23.2178, 20.2908, 25.0684, -44.0612, -20.044
1.432, -1, 9.6496, 23.1711, 20.3084, 25.1523, -43.963, -20.1067
1.436, -1, 9.7022, 23.1244, 20.326, 25.236, -43.865, -20.1694
1.44, -1, 9.75472, 23.0777, 20.3435, 25.3196, -43.767, -20.232
1.444, -1, 9.80716, 23.0312, 20.361, 25.4031, -43.6693, -20.2945
1.448, -1, 9.85952, 22.9847, 20.3785, 25.4865, -43.5717, -20.3569
1.452, -1, 9.91181, 22.9383, 20.396, 25.5697, -43.4742, -20.4192
1.456, -1, 9.96403, 22.8919, 20.4134, 25.6528, -43.3769, -20.4814
1.46, -1, 10.0162, 22.8456, 20.4308, 25.7358, -43.2797, -20.5436
1.464, -1, 10.0682, 22.7994, 20.4482, 25.8187, -43.1826, -20.6056
1.468, -1, 10.1202, 22.7533, 20.4656, 25.9015, -43.0857, -20.6676
1.472, -1, 10.1721, 22.7072, 20.4829, 25.9841, -42.989, -20.7294
1.476, -1, 10.224, 22.6612, 20.5002, 26.0666, -42.8923, -20.7912
1.48, -1, 10.2757, 22.6152, 20.5175, 26.149, -42.7958, -20.8529
1.484, -1, 10.3274, 22.5693, 20.5348, 26.2313, -42.6995, -20.9145
1.488, -1, 10.379, 22.5235, 20.552, 26.3135, -42.6033, -20.976
1.492, -1, 10.4306, 22.4777, 20.5692, 26.3956, -42.5072, -21.0374
1.496, -1, 10.482, 22.432, 20.5864, 26.4775, -42.4113, -21.0987
1.5, -1, 10.5334, 22.3864, 20.6035, 26.5593, -42.3154, -21.16
1.504, -1, 10.5848, 22.3408, 20.6207, 26.641, -42.2198, -21.2212
1.508, -1, 10.636, 22.2953, 20.6378, 26.7226, -42.1242, -21.2822
1.512, -1, 10.6872, 22.2499, 20.6549, 26.8041, -42.0288, -21.3432
1.516, -1, 10.7383, 22.2045, 20.6719, 26.8855, -41.9336, -21.4041
1.52, -1, 10.7893, 22.1592, 20.689, 26.9667, -41.8384, -21.4649
1.524, -1, 10.8403, 22.114, 20.706, 27.0479, -41.7434, -21.5257
1.528, -1, 10.8912, 22.0688, 20.723, 27.1289, -41.6485, -21.5863
1.532, -1, 10.942, 22.0237, 20.74, 27.2098, -41.5538, -21.6469
1.536, -1, 10.9928, 21.9786, 20.7569, 27.2906, -41.4592, -21.7074
1.54, -1, 11.0435, 21.9336, 20.7738, 27.3713, -41.3647, -21.7678
1.544, -1, 11.0941, 21.8887, 20.7908, 27.4519, -41.2703, -21.8281
1.548, -1, 11.1446, 21.8438, 20.8076, 27.5324, -41.1761, -21.8884
1.552, -1, 11.1951, 21.799, 20.8245, 27.6127, -41.082, -21.9485
1.556, -1, 11.2455, 21.7542, 20.8413, 27.693, -40.988, -22.0086
1.56, -1, 11.2959, 21.7095, 20.8581, 27.7732, -40.8941, -22.0686
1.564, -1, 11.3462, 21.6649, 20.8749, 27.8532, -40.8004, -22.1285
1.568, -1, 11.3964, 21.6203, 20.8917, 27.9331, -40.7068, -22.1884
1.572, -1, 11.4465, 21.5758, 20.9084, 28.013, -40.6133, -22.2481
1.576, -1, 11.4966, 21.5313, 20.9251, 28.0927, -40.52, -22.3078
1.58, -1, 11.5466, 21.4869, 20.9418, 28.1723, -40.4268, -22.3674
1.584, -1, 11.5965, 21.4426, 20.9585, 28.2518, -40.3336, -22.4269
1.588, -1, 11.6464, 21.3983, 20.9752, 28.3313, -40.2407, -22.4864
1.592, -1, 11.6962, 21.3541, 20.9918, 28.4106, -40.1478, -22.5457
1.596, -1, 11.746, 21.3099, 21.0084, 28.4898, -40.0551, -22.605
1.6, -1, 11.7957, 21.2658, 21.025, 28.5689, -39.9624, -22.6642
1.604, -1, 11.8453, 21.2217, 21.0416, 28.6479, -39.8699, -22.7234
1.608, -1, 11.8948, 21.1778, 21.0581, 28.7268, -39.7776, -22.7824
1.612, -1, 11.9443, 21.1338, 21.0747, 28.8055, -39.6853, -22.8414
1.616, -1, 11.9938, 21.0899, 21.0912, 28.8842, -39.5932, -22.9003
1.62, -1, 12.0431, 21.0461, 21.1076, 28.9628, -39.5011, -22.9591
1.624, -1, 12.0924, 21.0023, 21.1241, 29.0413, -39.4092, -23.0179
1.628, -1, 12.1417, 20.9586, 21.1405, 29.1197, -39.3174, -23.0765
1.632, -1, 12.1908, 20.915, 21.157, 29.198, -39.2258, -23.1352
1.636, -1, 12.2399, 20.8714, 21.1734, 29.2762, -39.1342, -23.1937
1.64, -1, 12.289, 20.8278, 21.1897, 29.3543, -39.0428, -23.2521
1.644, -1, 12.338, 20.7843, 21.2061, 29.4323, -38.9515, -23.3105
1.648, -1, 12.3869, 20.7409, 21.2224, 29.5102, -38.8603, -23.3688
1.652, -1, 12.4358, 20.6975, 21.2388, 29.588, -38.7692, -23.4271
1.656, -1, 12.4846, 20.6542, 21.2551, 29.6657, -38.6782, -23.4852
1.66, -1, 12.5333, 20.6109, 21.2713, 29.7433, -38.5873, -23.5433
1.664, -1, 12.582, 20.5677, 21.2876, 29.8208, -38.4966, -23.6013
1.668, -1, 12.6306, 20.5245, 21.3038, 29.8982, -38.4059, -23.6593
1.672, -1, 12.6792, 20.4814, 21.32, 29.9755, -38.3154, -23.7171
1.676, -1, 12.7277, 20.4384, 21.3362, 30.0527, -38.225, -23.7749
1.68, -1, 12.7761, 20.3953, 21.3524, 30.1298, -38.1347, -23.8327
1.684, -1, 12.8245, 20.3524, 21.3686, 30.2069, -38.0445, -23.8903
1.688, -1, 12.8728, 20.3095, 21.3847, 30.2838, -37.9544, -23.9479
1.692, -1, 12.9211, 20.2666, 21.4008, 30.3606, -37.8644, -24.0054
1.696, -1, 12.9693, 20.2238, 21.4169, 30.4374, -37.7746, -24.0629
1.7, -1, 13.0174, 20.1811, 21.433, 30.514, -37.6848, -24.1203
1.704, -1, 13.0655, 20.1384, 21.449, 30.5906, -37.5951, -24.1776
1.708, -1, 13.1136, 20.0958, 21.4651, 30.6671, -37.5056, -24.2348
1.712, -1, 13.1615, 20.0532, 21.4811, 30.7435, -37.4162, -24.292
1.716, -1, 13.2094, 20.0106, 21.4971, 30.8197, -37.3269, -24.3491
1.72, -1, 13.2573, 19.9681, 21.5131, 30.8959, -37.2376, -24.4061
1.724, -1, 13.3051, 19.9257, 21.529, 30.972, -37.1485, -24.4631
1.728, -1, 13.3528, 19.8833, 21.545, 31.0481, -37.0595, -24.52
1.732, -1, 13.4005, 19.841, 21.5609, 31.124, -36.9706, -24.5768
1.736, -1, 13.4482, 19.7987, 21.5768, 31.1998, -36.8818, -24.6336
1.74, -1, 13.4957, 19.7565, 21.5927, 31.2756, -36.7931, -24.6903
1.744, -1, 13.5433, 19.7143, 21.6086, 31.3512, -36.7045, -24.7469
1.748, -1, 13.5907, 19.6721, 21.6244, 31.4268, -36.6161, -24.8035
1.752, -1, 13.6381, 19.63, 21.6402, 31.5023, -36.5277, -24.86
1.756, -1, 13.6855, 19.588, 21.6561, 31.5776, -36.4394, -24.9164
1.76, -1, 13.7328, 19.546, 21.6719, 31.6529, -36.3512, -24.9728
1.764, -1, 13.78, 19.5041, 21.6876, 31.7282, -36.2632, -25.0291
1.768, -1, 13.8272, 19.4622, 21.7034, 31.8033, -36.1752, -25.0853
1.772, -1, 13.8743, 19.4203, 21.7191, 31.8783, -36.0873, -25.1415
1.776, -1, 13.9214, 19.3785, 21.7348, 31.9533, -35.9996, -25.1976
1.78, -1, 13.9684, 19.3368, 21.7505, 32.0281, -35.9119, -25.2536
1.784, -1, 14.0154, 19.2951, 21.7662, 32.1029, -35.8243, -25.3096
1.788, -1, 14.0623, 19.2534, 21.7819, 32.1776, -35.7369, -25.3655
1.792, -1, 14.1092, 19.2118, 21.7975, 32.2522, -35.6495, -25.4214
1.796, -1, 14.156, 19.1703, 21.8132, 32.3268, -35.5622, -25.4772
1.8, -1, 14.2027, 19.1288, 21.8288, 32.4012, -35.4751, -25.5329
1.804, -1, 14.2494, 19.0873, 21.8444, 32.4756, -35.388, -25.5886
1.808, -1, 14.2961, 19.0459, 21.86, 32.5498, -35.301, -25.6442
1.812, -1, 14.3427, 19.0045, 21.8755, 32.624, -35.2142, -25.6997
1.816, -1, 14.3892, 18.9632, 21.8911, 32.6981, -35.1274, -25.7552
1.82, -1, 14.4357, 18.9219, 21.9066, 32.7722, -35.0407, -25.8106
1.824, -1, 14.4822, 18.8807, 21.9221, 32.8461, -34.9541, -25.8659
1.828, -1, 14.5286, 18.8395, 21.9376, 32.92, -34.8676, -25.9212
1.832, -1, 14.5749, 18.7983, 21.9531, 32.9938, -34.7813, -25.9764
1.836, -1, 14.6212, 18.7572, 21.9685, 33.0675, -34.695, -26.0316
1.84, -1, 14.6674, 18.7162, 21.984, 33.1411, -34.6088, -26.0867
1.844, -1, 14.7136, 18.6752, 21.9994, 33.2146, -34.5227, -26.1418
1.848, -1, 14.7598, 18.6342, 22.0148, 33.2881, -34.4367, -26.1967
1.852, -1, 14.8058, 18.5933, 22.0302, 33.3614, -34.3507, -26.2517
1.856, -1, 14.8519, 18.5524, 22.0456, 33.4347, -34.2649, -26.3065
1.86, -1, 14.8979, 18.5116, 22.0609, 33.5079, -34.1792, -26.3613
1.864, -1, 14.9438, 18.4708, 22.0762, 33.5811, -34.0936, -26.4161
1.868, -1, 14.9897, 18.4301, 22.0916, 33.6541, -34.008, -26.4708
1.872, -1, 15.0355, 18.3894, 22.1069, 33.7271, -33.9226, -26.5254
1.876, -1, 15.0813, 18.3487, 22.1222, 33.8, -33.8372, -26.58
1.88, -1, 15.127, 18.3081, 22.1374, 33.8728, -33.7519, -26.6345
1.884, -1, 15.1727, 18.2676, 22.1527, 33.9456, -33.6668, -26.6889
1.888, -1, 15.2184, 18.227, 22.1679, 34.0182, -33.5817, -26.7433
1.892, -1, 15.264, 18.1866, 22.1832, 34.0908, -33.4967, -26.7976
1.896, -1, 15.3095, 18.1461, 22.1984, 34.1633, -33.4118, -26.8519
1.9, -1, 15.355, 18.1057, 22.2136, 34.2358, -33.3269, -26.9062
1.904, -1, 15.4004, 18.0654, 22.2287, 34.3081, -33.2422, -26.9603
1.908, -1, 15.4458, 18.0251, 22.2439, 34.3804, -33.1576, -27.0144
1.912, -1, 15.4912, 17.9848, 22.259, 34.4526, -33.073, -27.0685
1.916, -1, 15.5365, 17.9446, 22.2742, 34.5248, -32.9886, -27.1225
1.92, -1, 15.5818, 17.9044, 22.2893, 34.5968, -32.9042, -27.1764
1.924, -1, 15.627, 17.8643, 22.3044, 34.6688, -32.8199, -27.2303
1.928, -1, 15.6721, 17.8242, 22.3195, 34.7407, -32.7357, -27.2841
1.932, -1, 15.7173, 17.7841, 22.3345, 34.8126, -32.6516, -27.3379
1.936, -1, 15.7623, 17.7441, 22.3496, 34.8843, -32.5676, -27.3916
1.94, -1, 15.8073, 17.7041, 22.3646, 34.956, -32.4836, -27.4453
1.944, -1, 15.8523, 17.6642, 22.3796, 35.0276, -32.3997, -27.4989
1.948, -1, 15.8973, 17.6243, 22.3946, 35.0992, -32.316, -27.5524
1.952, -1, 15.9422, 17.5844, 22.4096, 35.1707, -32.2323, -27.6059
1.956, -1, 15.987, 17.5446, 22.4246, 35.2421, -32.1487, -27.6594
1.96, -1, 16.0318, 17.5048, 22.4396, 35.3134, -32.0652, -27.7128
1.964, -1, 16.0765, 17.4651, 22.4545, 35.3846, -31.9817, -27.7661
1.968, -1, 16.1212, 17.4254, 22.4694, 35.4558, -31.8984, -27.8194
1.972, -1, 16.1659, 17.3858, 22.4844, 35.5269, -31.8151, -27.8726
1.976, -1, 16.2105, 17.3461, 22.4993, 35.598, -31.7319, -27.9258
1.98, -1, 16.2551, 17.3066, 22.5141, 35.6689, -31.6488, -27.9789
1.984, -1, 16.2996, 17.267, 22.529, 35.7398, -31.5658, -28.032
1.988, -1, 16.3441, 17.2275, 22.5439, 35.8107, -31.4829, -28.085
1.992, -1, 16.3886, 17.1881, 22.5587, 35.8814, -31.4, -28.138
1.996, -1, 16.433, 17.1487, 22.5735, 35.9521, -31.3173, -28.1909
1.999, -1, 16.4773, 17.1093, 22.5883, 36.0228, -31.2346, -28.2438
2.004, -1, 16.5216, 17.0699, 22.6031, 36.0933, -31.1519, -28.2966
2.008, -1, 16.5659, 17.0306, 22.6179, 36.1638, -31.0694, -28.3493
2.012, -1, 16.6101, 16.9914, 22.6327, 36.2342, -30.987, -28.4021
2.015, -1, 16.6543, 16.9521, 22.6474, 36.3046, -30.9046, -28.4547
2.019, -1, 16.6984, 16.9129, 22.6622, 36.3748, -30.8223, -28.5073
2.024, -1, 16.7425, 16.8738, 22.6769, 36.445, -30.7401, -28.5599
2.028, -1, 16.7866, 16.8347, 22.6916, 36.5152, -30.658, -28.6124
2.031, -1, 16.8306, 16.7956, 22.7063, 36.5853, -30.5759, -28.6648
2.036, -1, 16.8746, 16.7566, 22.721, 36.6553, -30.4939, -28.7172
2.04, -1, 16.9185, 16.7176, 22.7357, 36.7252, -30.412, -28.7696
2.044, -1, 16.9624, 16.6786, 22.7503, 36.7951, -30.3302, -28.8219
2.048, -1, 17.0062, 16.6397, 22.765, 36.8649, -30.2485, -28.8742
2.051, -1, 17.05, 16.6008, 22.7796, 36.9346, -30.1668, -28.9264
2.055, -1, 17.0938, 16.5619, 22.7942, 37.0043, -30.0852, -28.9785
2.06, -1, 17.1375, 16.5231, 22.8088, 37.0739, -30.0037, -29.0306
2.064, -1, 17.1811, 16.4844, 22.8234, 37.1435, -29.9223, -29.0827
2.068, -1, 17.2244, 16.4458, 22.8379, 37.2129, -29.841, -29.1347
2.071, -1, 17.2671, 16.4077, 22.8523, 37.2823, -29.7597, -29.1866
2.076, -1, 17.3088, 16.3701, 22.8666, 37.3515, -29.6787, -29.2384
2.08, -1, 17.3495, 16.3335, 22.8807, 37.4204, -29.5981, -29.29
2.084, -1, 17.3888, 16.2979, 22.8945, 37.4888, -29.518, -29.3412
2.087, -1, 17.4267, 16.2635, 22.9079, 37.5564, -29.4389, -29.3918
2.092, -1, 17.4632, 16.2306, 22.921, 37.6229, -29.3611, -29.4417
2.096, -1, 17.4983, 16.1992, 22.9337, 37.6879, -29.2851, -29.4903
2.1, -1, 17.5321, 16.1694, 22.9459, 37.7508, -29.2115, -29.5374
2.104, -1, 17.5644, 16.1411, 22.9576, 37.8112, -29.1408, -29.5827
2.107, -1, 17.5951, 16.1145, 22.9686, 37.8686, -29.0737, -29.6257
2.111, -1, 17.624, 16.0896, 22.9791, 37.9226, -29.0106, -29.6661
2.116, -1, 17.6513, 16.0662, 22.9888, 37.9726, -28.9521, -29.7035
2.12, -1, 17.6768, 16.044, 22.9978, 38.0183, -28.8986, -29.7378
2.124, -1, 17.7009, 16.023, 23.0061, 38.0595, -28.8504, -29.7686
2.127, -1, 17.7234, 16.0029, 23.0136, 38.0959, -28.8078, -29.7958
2.132, -1, 17.7446, 15.9838, 23.0205, 38.1275, -28.7707, -29.8195
2.136, -1, 17.7642, 15.9657, 23.0267, 38.1546, -28.739, -29.8397
2.14, -1, 17.7823, 15.9489, 23.0321, 38.1772, -28.7125, -29.8566
2.143, -1, 17.7986, 15.9337, 23.0368, 38.1957, -28.6907, -29.8705
2.148, -1, 17.8131, 15.9202, 23.0409, 38.2106, -28.6732, -29.8816
2.152, -1, 17.8259, 15.9085, 23.0443, 38.2223, -28.6594, -29.8904
2.156, -1, 17.8371, 15.8987, 23.0471, 38.2313, -28.6488, -29.8971
2.16, -1, 17.8467, 15.8905, 23.0494, 38.2381, -28.6409, -29.9021
2.163, -1, 17.855, 15.8838, 23.0513, 38.243, -28.635, -29.9058
2.168, -1, 17.8619, 15.8785, 23.0527, 38.2465, -28.6308, -29.9084
2.172, -1, 17.8674, 15.8744, 23.0538, 38.249, -28.6279, -29.9103
2.176, 2, 17.8716, 15.8714, 23.0546, 38.2507, -28.6258, -29.9115
2.179, 2, 17.8747, 15.8692, 23.0552, 38.2519, -28.6245, -29.9124
2.184, 2, 17.8769, 15.8677, 23.0556, 38.2527, -28.6235, -29.913
2.188, 2, 17.8784, 15.8667, 23.0558, 38.2532, -28.6229, -29.9134
2.192, 2, 17.8794, 15.866, 23.056, 38.2536, -28.6224, -29.9137
2.196, 2, 17.8801, 15.8655, 23.0561, 38.2538, -28.6221, -29.9138
2.199, 2, 17.8806, 15.8652, 23.0562, 38.254, -28.6219, -29.914
2.204, 2, 17.8809, 15.865, 23.0563, 38.2541, -28.6218, -29.9141
2.208, 2, 17.8811, 15.8649, 23.0563, 38.2542, -28.6217, -29.9141
2.212, 2, 17.8813, 15.8648, 23.0563, 38.2543, -28.6217, -29.9141
2.216, 2, 17.8814, 15.8647, 23.0564, 38.2543, -28.6216, -29.9142
2.219, 2, 17.8814, 15.8646, 23.0564, 38.2543, -28.6216, -29.9142
2.224, 2, 17.8815, 15.8646, 23.0564, 38.2543, -28.6216, -29.9142
2.228, 2, 17.8815, 15.8646, 23.0564, 38.2543, -28.6215, -29.9142
2.232, 2, 17.8815, 15.8646, 23.0564, 38.2543, -28.6215, -29.9142
2.235, 2, 17.8815, 15.8646, 23.0564, 38.2544, -28.6215, -29.9142
2.24, 2, 17.8815, 15.8646, 23.0564, 38.2544, -28.6215, -29.9142
2.244, 2, 17.8816, 15.8646, 23.0564, 38.2544, -28.6215, -29.9142
2.248, 2, 17.8816, 15.8646, 23.0564, 38.2544, -28.6215, -29.9142
2.252, 2, 17.8816, 15.8646, 23.0564, 38.2544, -28.6215, -29.9142
2.255, 2, 17.8816, 15.8646, 23.0564, 38.2544, -28.6215, -29.9142
2.259, 2, 17.8816, 15.8646, 23.0564, 38.2544, -28.6215, -29.9142
2.264, 2, 17.8816, 15.8645, 23.0564, 38.2544, -28.6215, -29.9142
2.268, 2, 17.8816, 15.8645, 23.0564, 38.2544, -28.6215, -29.9142
2.272, 2, 17.8816, 15.8645, 23.0564, 38.2544, -28.6215, -29.9142
2.275, 2, 17.8816, 15.8645, 23.0564, 38.2544, -28.6215, -29.9142
2.28, 2, 17.8816, 15.8645, 23.0564, 38.2544, -28.6215, -29.9142
2.284, 2, 17.8816, 15.8645, 23.0564, 38.2544, -28.6215, -29.9142
2.288, 2, 17.8816, 15.8645, 23.0564, 38.2544, -28.6215, -29.9142
2.291, 2, 17.8816, 15.8645, 23.0564, 38.2544, -28.6215, -29.9142
2.296, 2, 17.8816, 15.8645, 23.0564, 38.2544, -28.6215, -29.9142
2.3, 2, 17.8816, 15.8645, 23.0564, 38.2544, -28.6215, -29.9142
2.304, 2, 17.8816, 15.8645, 23.0564, 38.2544, -28.6215, -29.9142
2.308, 2, 17.8816, 15.8645, 23.0564, 38.2544, -28.6215, -29.9142
2.311, 2, 17.8816, 15.8645, 23.0564, 38.2544, -28.6215, -29.9142
2.316, 2, 17.8816, 15.8645, 23.0564, 38.2544, -28.6215, -29.9142
2.32, 2, 17.8816, 15.8645, 23.0564, 38.2544, -28.6215, -29.9142
2.324, 2, 17.8816, 15.8645, 23.0564, 38.2544, -28.6215, -29.9142
2.328, 2, 17.8816, 15.8645, 23.0564, 38.2544, -28.6215, -29.9142
2.331, 2, 17.8816, 15.8645, 23.0564, 38.2544, -28.6215, -29.9142
2.336, 2, 17.8816, 15.8645, 23.0564, 38.2544, -28.6215, -29.9142
2.34, 2, 17.8816, 15.8645, 23.0564, 38.2544, -28.6215, -29.9142
2.344, 2, 17.8816, 15.8645, 23.0564, 38.2544, -28.6215, -29.9142
2.347, 2, 17.8816, 15.8645, 23.0564, 38.2544, -28.6215, -29.9142
2.352, 2, 17.8816, 15.8645, 23.0564, 38.2544, -28.6215, -29.9142
2.356, 2, 17.8816, 15.8645, 23.0564, 38.2544, -28.6215, -29.9142
2.36, 2, 17.8816, 15.8645, 23.0564, 38.2544, -28.6215, -29.9142
2.364, 2, 17.8816, 15.8645, 23.0564, 38.2544, -28.6215, -29.9142
2.367, 2, 17.8816, 15.8645, 23.0564, 38.2544, -28.6215, -29.9142
2.372, 2, 17.8816, 15.8645, 23.0564, 38.2544, -28.6215, -29.9142
2.376, 2, 17.8816, 15.8645, 23.0564, 38.2544, -28.6215, -29.9142
2.38, 2, 17.8816, 15.8645, 23.0564, 38.2544, -28.6215, -29.9142
2.383, 2, 17.8816, 15.8645, 23.0564, 38.2544, -28.6215, -29.9142
2.388, 2, 17.8816, 15.8645, 23.0564, 38.2544, -28.6215, -29.9142
2.392, 2, 17.8816, 15.8645, 23.0564, 38.2544, -28.6215, -29.9142
2.396, 2, 17.8816, 15.8645, 23.0564, 38.2544, -28.6215, -29.9142
2.4, 2, 17.8816, 15.8645, 23.0564, 38.2544, -28.6215, -29.9142
2.403, 2, 17.8816, 15.8645, 23.0564, 38.2544, -28.6215, -29.9142
2.408, 2, 17.8816, 15.8645, 23.0564, 38.2544, -28.6215, -29.9142
2.412, 2, 17.8816, 15.8645, 23.0564, 38.2544, -28.6215, -29.9142
2.416, 2, 17.8816, 15.8645, 23.0564, 38.2544, -28.6215, -29.9142
2.42, 2, 17.8816, 15.8645, 23.0564, 38.2544, -28.6215, -29.9142
2.423, 2, 17.8816, 15.8645, 23.0564, 38.2544, -28.6215, -29.9142
2.428, 2, 17.8816, 15.8645, 23.0564, 38.2544, -28.6215, -29.9142
2.432, 2, 17.8816, 15.8645, 23.0564, 38.2544, -28.6215, -29.9142
2.436, 2, 17.8816, 15.8645, 23.0564, 38.2544, -28.6215, -29.9142
2.439, 2, 17.8816, 15.8645, 23.0564, 38.2544, -28.6215, -29.9142
2.444, 2, 17.8816, 15.8645, 23.0564, 38.2544, -28.6215, -29.9142
2.448, 2, 17.8816, 15.8645, 23.0564, 38.2544, -28.6215, -29.9142
2.452, 2, 17.8816, 15.8645, 23.0564, 38.2544, -28.6215, -29.9142
2.456, 2, 17.8816, 15.8645, 23.0564, 38.2544, -28.6215, -29.9142
2.459, 2, 17.8816, 15.8645, 23.0564, 38.2544, -28.6215, -29.9142
2.464, 2, 17.8816, 15.8645, 23.0564, 38.2544, -28.6215, -29.9142
2.468, 2, 17.8816, 15.8645, 23.0564, 38.2544, -28.6215, -29.9142
2.472, 2, 17.8816, 15.8645, 23.0564, 38.2544, -28.6215, -29.9142
2.476, 2, 17.8816, 15.8645, 23.0564, 38.2544, -28.6215, -29.9142
2.479, 2, 17.8816, 15.8645, 23.0564, 38.2544, -28.6215, -29.9142
2.484, 2, 17.8816, 15.8645, 23.0564, 38.2544, -28.6215, -29.9142
2.488, 2, 17.8816, 15.8645, 23.0564, 38.2544, -28.6215, -29.9142
2.492, 2, 17.8816, 15.8645, 23.0564, 38.2544, -28.6215, -29.9142
2.495, 2, 17.8816, 15.8645, 23.0564, 38.2544, -28.6215, -29.9142
2.5, 2, 17.8816, 15.8645, 23.0564, 38.2544, -28.6215, -29.9142
2.504, 2, 17.8816, 15.8645, 23.0564, 38.2544, -28.6215, -29.9142
2.508, 2, 17.8816, 15.8645, 23.0564, 38.2544, -28.6215, -29.9142
2.512, 2, 17.8816, 15.8645, 23.0564, 38.2544, -28.6215, -29.9142
2.515, 2, 17.8816, 15.8645, 23.0564, 38.2544, -28.6215, -29.9142
2.52, 2, 17.8816, 15.8645, 23.0564, 38.2544, -28.6215, -29.9142
2.524, 2, 17.8816, 15.8645, 23.0564, 38.2544, -28.6215, -29.9142
2.528, 2, 17.8816, 15.8645, 23.0564, 38.2544, -28.6215, -29.9142
2.531, 2, 17.8816, 15.8645, 23.0564, 38.2544, -28.6215, -29.9142
2.536, 2, 17.8816, 15.8645, 23.0564, 38.2544, -28.6215, -29.9142
2.54, 2, 17.8816, 15.8645, 23.0564, 38.2544, -28.6215, -29.9142
2.544, 2, 17.8816, 15.8645, 23.0564, 38.2544, -28.6215, -29.9142
2.548, 2, 17.8816, 15.8645, 23.0564, 38.2544, -28.6215, -29.9142
2.551, 2, 17.8816, 15.8645, 23.0564, 38.2544, -28.6215, -29.9142
2.556, 2, 17.8816, 15.8645, 23.0564, 38.2544, -28.6215, -29.9142
2.56, 2, 17.8816, 15.8645, 23.0564, 38.2544, -28.6215, -29.9142
2.564, 2, 17.8816, 15.8645, 23.0564, 38.2544, -28.6215, -29.9142
2.568, 2, 17.8816, 15.8645, 23.0564, 38.2544, -28.6215, -29.9142
2.571, 2, 17.8816, 15.8645, 23.0564, 38.2544, -28.6215, -29.9142
2.576, 2, 17.8816, 15.8645, 23.0564, 38.2544, -28.6215, -29.9142
2.58, 2, 17.8816, 15.8645, 23.0564, 38.2544, -28.6215, -29.9142
2.584, 2, 17.8816, 15.8645, 23.0564, 38.2544, -28.6215, -29.9142
2.587, 2, 17.8816, 15.8645, 23.0564, 38.2544, -28.6215, -29.9142
2.592, 2, 17.8816, 15.8645, 23.0564, 38.2544, -28.6215, -29.9142
2.596, 2, 17.8816, 15.8645, 23.0564, 38.2544, -28.6215, -29.9142
2.6, 2, 17.8816, 15.8645, 23.0564, 38.2544, -28.6215, -29.9142
2.604, 2, 17.8816, 15.8645, 23.0564, 38.2544, -28.6215, -29.9142
2.607, 2, 17.8816, 15.8645, 23.0564, 38.2544, -28.6215, -29.9142
2.612, 2, 17.8816, 15.8645, 23.0564, 38.2544, -28.6215, -29.9142
2.616, 2, 17.8816, 15.8645, 23.0564, 38.2544, -28.6215, -29.9142
2.62, 2, 17.8816, 15.8645, 23.0564, 38.2544, -28.6215, -29.9142
2.624, 2, 17.8816, 15.8645, 23.0564, 38.2544, -28.6215, -29.9142
2.627, 2, 17.8816, 15.8645, 23.0564, 38.2544, -28.6215, -29.9142
2.632, 2, 17.8816, 15.8645, 23.0564, 38.2544, -28.6215, -29.9142
2.636, 2, 17.8816, 15.8645, 23.0564, 38.2544, -28.6215, -29.9142
2.64, 2, 17.8816, 15.8645, 23.0564, 38.2544, -28.6215, -29.9142
2.643, 2, 17.8816, 15.8645, 23.0564, 38.2544, -28.6215, -29.9142
2.648, 2, 17.8816, 15.8645, 23.0564, 38.2544, -28.6215, -29.9142
2.652, 2, 17.8816, 15.8645, 23.0564, 38.2544, -28.6215, -29.9142
2.656, 2, 17.8816, 15.8645, 23.0564, 38.2544, -28.6215, -29.9142
2.66, 2, 17.8816, 15.8645, 23.0564, 38.2544, -28.6215, -29.9142
2.663, 2, 17.8816, 15.8645, 23.0564, 38.2544, -28.6215, -29.9142
2.668, 2, 17.8816, 15.8645, 23.0564, 38.2544, -28.6215, -29.9142
2.672, 2, 17.8816, 15.8645, 23.0564, 38.2544, -28.6215, -29.9142
2.676, 2, 17.8816, 15.8645, 23.0564, 38.2544, -28.6215, -29.9142
2.679, 2, 17.8816, 15.8645, 23.0564, 38.2544, -28.6215, -29.9142
2.684, 2, 17.8816, 15.8645, 23.0564, 38.2544, -28.6215, -29.9142
2.688, 2, 17.8816, 15.8645, 23.0564, 38.2544, -28.6215, -29.9142
2.692, 2, 17.8816, 15.8645, 23.0564, 38.2544, -28.6215, -29.9142
2.696, 2, 17.8816, 15.8645, 23.0564, 38.2544, -28.6215, -29.9142
2.699, 2, 17.8816, 15.8645, 23.0564, 38.2544, -28.6215, -29.9142
2.704, 2, 17.8816, 15.8645, 23.0564, 38.2544, -28.6215, -29.9142
2.708, 2, 17.8816, 15.8645, 23.0564, 38.2544, -28.6215, -29.9142
2.712, 2, 17.8816, 15.8645, 23.0564, 38.2544, -28.6215, -29.9142
2.716, 2, 17.8816, 15.8645, 23.0564, 38.2544, -28.6215, -29.9142
2.719, 2, 17.8816, 15.8645, 23.0564, 38.2544, -28.6215, -29.9142
2.724, 2, 17.8816, 15.8645, 23.0564, 38.2544, -28.6215, -29.9142
2.728, 2, 17.8816, 15.8645, 23.0564, 38.2544, -28.6215, -29.9142
2.732, 2, 17.8816, 15.8645, 23.0564, 38.2544, -28.6215, -29.9142
2.735, 2, 17.8816, 15.8645, 23.0564, 38.2544, -28.6215, -29.9142
2.74, 2, 17.8816, 15.8645, 23.0564, 38.2544, -28.6215, -29.9142
2.744, 2, 17.8816, 15.8645, 23.0564, 38.2544, -28.6215, -29.9142
2.748, 2, 17.8816, 15.8645, 23.0564, 38.2544, -28.6215, -29.9142
2.752, 2, 17.8816, 15.8645, 23.0564, 38.2544, -28.6215, -29.9142
2.755, 2, 17.8816, 15.8645, 23.0564, 38.2544, -28.6215, -29.9142
2.76, 2, 17.8816, 15.8645, 23.0564, 38.2544, -28.6215, -29.9142
2.764, 2, 17.8816, 15.8645, 23.0564, 38.2544, -28.6215, -29.9142
2.768, 2, 17.8816, 15.8645, 23.0564, 38.2544, -28.6215, -29.9142
2.772, 2, 17.8816, 15.8645, 23.0564, 38.2544, -28.6215, -29.9142
2.775, 2, 17.8816, 15.8645, 23.0564, 38.2544, -28.6215, -29.9142
2.78, 2, 17.8816, 15.8645, 23.0564, 38.2544, -28.6215, -29.9142
2.784, 2, 17.8816, 15.8645, 23.0564, 38.2544, -28.6215, -29.9142
2.788, 2, 17.8816, 15.8645, 23.0564, 38.2544, -28.6215, -29.9142
2.791, 2, 17.8816, 15.8645, 23.0564, 38.2544, -28.6215, -29.9142
2.796, 2, 17.8816, 15.8645, 23.0564, 38.2544, -28.6215, -29.9142
2.8, 2, 17.8816, 15.8645, 23.0564, 38.2544, -28.6215, -29.9142
2.804, 2, 17.8816, 15.8645, 23.0564, 38.2544, -28.6215, -29.9142
2.808, 2, 17.8816, 15.8645, 23.0564, 38.2544, -28.6215, -29.9142
2.811, 2, 17.8816, 15.8645, 23.0564, 38.2544, -28.6215, -29.9142
2.816, 2, 17.8816, 15.8645, 23.0564, 38.2544, -28.6215, -29.9142
2.82, 2, 17.8816, 15.8645, 23.0564, 38.2544, -28.6215, -29.9142
2.824, 2, 17.8816, 15.8645, 23.0564, 38.2544, -28.6215, -29.9142
2.828, 2, 17.8816, 15.8645, 23.0564, 38.2544, -28.6215, -29.9142
2.831, 2, 17.8816, 15.8645, 23.0564, 38.2544, -28.6215, -29.9142
2.836, 2, 17.8816, 15.8645, 23.0564, 38.2544, -28.6215, -29.9142
2.84, 2, 17.8816, 15.8645, 23.0564, 38.2544, -28.6215, -29.9142
2.844, 2, 17.8816, 15.8645, 23.0564, 38.2544, -28.6215, -29.9142
2.847, 2, 17.8816, 15.8645, 23.0564, 38.2544, -28.6215, -29.9142
2.852, 2, 17.8816, 15.8645, 23.0564, 38.2544, -28.6215, -29.9142
2.856, 2, 17.8816, 15.8645, 23.0564, 38.2544, -28.6215, -29.9142
2.86, 2, 17.8816, 15.8645, 23.0564, 38.2544, -28.6215, -29.9142
2.864, 2, 17.8816, 15.8645, 23.0564, 38.2544, -28.6215, -29.9142
2.867, 2, 17.8816, 15.8645, 23.0564, 38.2544, -28.6215, -29.9142
2.872, 2, 17.8816, 15.8645, 23.0564, 38.2544, -28.6215, -29.9142
2.876, 2, 17.8816, 15.8645, 23.0564, 38.2544, -28.6215, -29.9142
2.88, 2, 17.8816, 15.8645, 23.0564, 38.2544, -28.6215, -29.9142
2.883, 2, 17.8816, 15.8645, 23.0564, 38.2544, -28.6215, -29.9142
2.888, 2, 17.8816, 15.8645, 23.0564, 38.2544, -28.6215, -29.9142
2.892, 2, 17.8816, 15.8645, 23.0564, 38.2544, -28.6215, -29.9142
2.896, 2, 17.8816, 15.8645, 23.0564, 38.2544, -28.6215, -29.9142
2.9, 2, 17.8816, 15.8645, 23.0564, 38.2544, -28.6215, -29.9142
2.903, 2, 17.8816, 15.8645, 23.0564, 38.2544, -28.6215, -29.9142
2.908, 2, 17.8816, 15.8645, 23.0564, 38.2544, -28.6215, -29.9142
2.912, 2, 17.8816, 15.8645, 23.0564, 38.2544, -28.6215, -29.9142
2.916, 2, 17.8816, 15.8645, 23.0564, 38.2544, -28.6215, -29.9142
2.92, 2, 17.8816, 15.8645, 23.0564, 38.2544, -28.6215, -29.9142
2.923, 2, 17.8816, 15.8645, 23.0564, 38.2544, -28.6215, -29.9142
2.928, 2, 17.8816, 15.8645, 23.0564, 38.2544, -28.6215, -29.9142
2.932, 2, 17.8816, 15.8645, 23.0564, 38.2544, -28.6215, -29.9142
2.936, 2, 17.8816, 15.8645, 23.0564, 38.2544, -28.6215, -29.9142
2.939, 2, 17.8816, 15.8645, 23.0564, 38.2544, -28.6215, -29.9142
2.944, 2, 17.8816, 15.8645, 23.0564, 38.2544, -28.6215, -29.9142
2.948, 2, 17.8816, 15.8645, 23.0564, 38.2544, -28.6215, -29.9142
2.952, 2, 17.8816, 15.8645, 23.0564, 38.2544, -28.6215, -29.9142
2.956, 2, 17.8816, 15.8645, 23.0564, 38.2544, -28.6215, -29.9142
2.959, 2, 17.8816, 15.8645, 23.0564, 38.2544, -28.6215, -29.9142
2.964, 2, 17.8816, 15.8645, 23.0564, 38.2544, -28.6215, -29.9142
2.968, 2, 17.8816, 15.8645, 23.0564, 38.2544, -28.6215, -29.9142
2.972, 2, 17.8816, 15.8645, 23.0564, 38.2544, -28.6215, -29.9142
2.976, 2, 17.8816, 15.8645, 23.0564, 38.2544, -28.6215, -29.9142
2.98, 2, 17.8816, 15.8645, 23.0564, 38.2544, -28.6215, -29.9142
2.984, 2, 17.8816, 15.8645, 23.0564, 38.2544, -28.6215, -29.9142
2.988, 2, 17.8816, 15.8645, 23.0564, 38.2544, -28.6215, -29.9142
2.992, 2, 17.8816, 15.8645, 23.0564, 38.2544, -28.6215, -29.9142
2.995, 2, 17.8816, 15.8645, 23.0564, 38.2544, -28.6215, -29.9142
3, 2, 17.8816, 15.8645, 23.0564, 38.2544, -28.6215, -29.9142
3.004, 2, 17.8816, 15.8645, 23.0564, 38.2544, -28.6215, -29.9142
3.008, 2, 17.8816, 15.8645, 23.0564, 38.2544, -28.6215, -29.9142
3.012, 2, 17.8816, 15.8645, 23.0564, 38.2544, -28.6215, -29.9142
3.015, 2, 17.8816, 15.8645, 23.0564, 38.2544, -28.6215, -29.9142
3.02, 2, 17.8816, 15.8645, 23.0564, 38.2544, -28.6215, -29.9142
3.024, 2, 17.8816, 15.8645, 23.0564, 38.2544, -28.6215, -29.9142
3.028, 2, 17.8816, 15.8645, 23.0564, 38.2544, -28.6215, -29.9142
3.031, 2, 17.8816, 15.8645, 23.0564, 38.2544, -28.6215, -29.9142
3.036, 2, 17.8816, 15.8645, 23.0564, 38.2544, -28.6215, -29.9142
3.04, 2, 17.8816, 15.8645, 23.0564, 38.2544, -28.6215, -29.9142
3.044, 2, 17.8816, 15.8645, 23.0564, 38.2544, -28.6215, -29.9142
3.048, 2, 17.8816, 15.8645, 23.0564, 38.2544, -28.6215, -29.9142
3.051, 2, 17.8816, 15.8645, 23.0564, 38.2544, -28.6215, -29.9142
3.056, 2, 17.8816, 15.8645, 23.0564, 38.2544, -28.6215, -29.9142
3.06, 2, 17.8816, 15.8645, 23.0564, 38.2544, -28.6215, -29.9142
3.064, 2, 17.8816, 15.8645, 23.0564, 38.2544, -28.6215, -29.9142
3.068, 2, 17.8816, 15.8645, 23.0564, 38.2544, -28.6215, -29.9142
3.071, 2, 17.8816, 15.8645, 23.0564, 38.2544, -28.6215, -29.9142
3.076, 2, 17.8816, 15.8645, 23.0564, 38.2544, -28.6215, -29.9142
3.08, 2, 17.8816, 15.8645, 23.0564, 38.2544, -28.6215, -29.9142
3.084, 2, 17.8816, 15.8645, 23.0564, 38.2544, -28.6215, -29.9142
3.087, 2, 17.8816, 15.8645, 23.0564, 38.2544, -28.6215, -29.9142
3.092, 2, 17.8816, 15.8645, 23.0564, 38.2544, -28.6215, -29.9142
3.096, 2, 17.8816, 15.8645, 23.0564, 38.2544, -28.6215, -29.9142
3.1, 2, 17.8816, 15.8645, 23.0564, 38.2544, -28.6215, -29.9142
3.104, 2, 17.8816, 15.8645, 23.0564, 38.2544, -28.6215, -29.9142
3.107, 2, 17.8816, 15.8645, 23.0564, 38.2544, -28.6215, -29.9142
3.112, 2, 17.8816, 15.8645, 23.0564, 38.2544, -28.6215, -29.9142
3.116, 2, 17.8816, 15.8645, 23.0564, 38.2544, -28.6215, -29.9142
3.12, 2, 17.8816, 15.8645, 23.0564, 38.2544, -28.6215, -29.9142
3.124, 2, 17.8816, 15.8645, 23.0564, 38.2544, -28.6215, -29.9142
3.128, 2, 17.8816, 15.8645, 23.0564, 38.2544, -28.6215, -29.9142
3.132, 2, 17.8816, 15.8645, 23.0564, 38.2544, -28.6215, -29.9142
3.136, 2, 17.8816, 15.8645, 23.0564, 38.2544, -28.6215, -29.9142
3.14, 2, 17.8816, 15.8645, 23.0564, 38.2544, -28.6215, -29.9142
3.143, 2, 17.8816, 15.8645, 23.0564, 38.2544, -28.6215, -29.9142
3.148, 2, 17.8816, 15.8645, 23.0564, 38.2544, -28.6215, -29.9142
3.152, 2, 17.8816, 15.8645, 23.0564, 38.2544, -28.6215, -29.9142
3.156, 2, 17.8816, 15.8645, 23.0564, 38.2544, -28.6215, -29.9142
3.16, 2, 17.8816, 15.8645, 23.0564, 38.2544, -28.6215, -29.9142
3.163, 2, 17.8816, 15.8645, 23.0564, 38.2544, -28.6215, -29.9142
3.168, 2, 17.8816, 15.8645, 23.0564, 38.2544, -28.6215, -29.9142
3.172, 2, 17.8816, 15.8645, 23.0564, 38.2544, -28.6215, -29.9142
3.176, 2, 17.8816, 15.8645, 23.0564, 38.2544, -28.6215, -29.9142
3.179, 2, 17.8816, 15.8645, 23.0564, 38.2544, -28.6215, -29.9142
3.184, 2, 17.8816, 15.8645, 23.0564, 38.2544, -28.6215, -29.9142
3.188, 2, 17.8816, 15.8645, 23.0564, 38.2544, -28.6215, -29.9142
3.192, 2, 17.8816, 15.8645, 23.0564, 38.2544, -28.6215, -29.9142
3.196, 2, 17.8816, 15.8645, 23.0564, 38.2544, -28.6215, -29.9142
3.199, 2, 17.8816, 15.8645, 23.0564, 38.2544, -28.6215, -29.9142
3.204, 2, 17.8816, 15.8645, 23.0564, 38.2544, -28.6215, -29.9142
3.208, 2, 17.8816, 15.8645, 23.0564, 38.2544, -28.6215, -29.9142
3.212, 2, 17.8816, 15.8645, 23.0564, 38.2544, -28.6215, -29.9142
3.216, 2, 17.8816, 15.8645, 23.0564, 38.2544, -28.6215, -29.9142
3.22, 2, 17.8816, 15.8645, 23.0564, 38.2544, -28.6215, -29.9142
3.224, 2, 17.8816, 15.8645, 23.0564, 38.2544, -28.6215, -29.9142
3.228, 2, 17.8816, 15.8645, 23.0564, 38.2544, -28.6215, -29.9142
3.232, 2, 17.8816, 15.8645, 23.0564, 38.2544, -28.6215, -29.9142
3.235, 2, 17.8816, 15.8645, 23.0564, 38.2544, -28.6215, -29.9142
3.24, 2, 17.8816, 15.8645, 23.0564, 38.2544, -28.6215, -29.9142
3.244, 2, 17.8816, 15.8645, 23.0564, 38.2544, -28.6215, -29.9142
3.248, 4, 17.8816, 15.8645, 23.0564, 38.2544, -28.6215, -29.9142
3.252, 4, 17.8816, 15.8645, 23.0564, 38.2544, -28.6215, -29.9142
3.255, 4, 17.8816, 15.8645, 23.0564, 38.2544, -28.6215, -29.9142
3.26, 4, 17.8816, 15.8645, 23.0564, 38.2544, -28.6215, -29.9142
3.264, 4, 17.8816, 15.8645, 23.0564, 38.2544, -28.6215, -29.9142
3.268, 4, 17.8816, 15.8645, 23.0564, 38.2544, -28.6215, -29.9142
3.272, 4, 17.8816, 15.8645, 23.0564, 38.2544, -28.6215, -29.9142
3.276, 4, 17.8816, 15.8645, 23.0564, 38.2544, -28.6215, -29.9142
3.28, 4, 17.8816, 15.8645, 23.0564, 38.2544, -28.6215, -29.9142
3.284, 4, 17.8816, 15.8645, 23.0564, 38.2544, -28.6215, -29.9142
3.288, 4, 17.8816, 15.8645, 23.0564, 38.2544, -28.6215, -29.9142
3.291, 4, 17.8816, 15.8645, 23.0564, 38.2544, -28.6215, -29.9142
3.296, 4, 17.8816, 15.8645, 23.0564, 38.2544, -28.6215, -29.9142
3.3, 4, 17.8816, 15.8645, 23.0564, 38.2544, -28.6215, -29.9142
3.304, 4, 17.8816, 15.8645, 23.0564, 38.2544, -28.6215, -29.9142
3.308, 4, 17.8816, 15.8645, 23.0564, 38.2544, -28.6215, -29.9142
3.312, 4, 17.8816, 15.8645, 23.0564, 38.2544, -28.6215, -29.9142
3.316, 4, 17.8816, 15.8645, 23.0564, 38.2544, -28.6215, -29.9142
3.32, 4, 17.8816, 15.8645, 23.0564, 38.2544, -28.6215, -29.9142
3.324, 4, 17.8816, 15.8645, 23.0564, 38.2544, -28.6215, -29.9142
3.328, 4, 17.8816, 15.8645, 23.0564, 38.2544, -28.6215, -29.9142
3.332, 4, 17.8816, 15.8645, 23.0564, 38.2544, -28.6215, -29.9142
3.336, 4, 17.8816, 15.8645, 23.0564, 38.2544, -28.6215, -29.9142
3.34, 4, 17.8816, 15.8645, 23.0564, 38.2544, -28.6215, -29.9142
3.344, 4, 17.8816, 15.8645, 23.0564, 38.2544, -28.6215, -29.9142
3.347, 4, 17.8816, 15.8645, 23.0564, 38.2544, -28.6215, -29.9142
3.354, 4, 17.8816, 15.8645, 23.0564, 38.2544, -28.6215, -29.9142
3.358, 4, 17.8816, 15.8645, 23.0564, 38.2544, -28.6215, -29.9142
3.362, 4, 17.8816, 15.8645, 23.0564, 38.2544, -28.6215, -29.9142
3.364, 4, 17.8816, 15.8645, 23.0564, 38.2544, -28.6215, -29.9142
3.368, 4, 17.8816, 15.8645, 23.0564, 38.2544, -28.6215, -29.9142
3.372, 4, 17.8816, 15.8645, 23.0564, 38.2544, -28.6215, -29.9142
3.376, 4, 17.8816, 15.8645, 23.0564, 38.2544, -28.6215, -29.9142
3.38, 4, 17.8816, 15.8645, 23.0564, 38.2544, -28.6215, -29.9142
3.383, 4, 17.8816, 15.8645, 23.0564, 38.2544, -28.6215, -29.9142
3.388, 4, 17.8815, 15.8645, 23.0564, 38.2544, -28.6215, -29.9142
3.392, 4, 17.8812, 15.8645, 23.0564, 38.2543, -28.6215, -29.9142
3.396, 4, 17.8806, 15.8645, 23.0565, 38.2542, -28.6216, -29.9141
3.4, 4, 17.8793, 15.8645, 23.0566, 38.2539, -28.6217, -29.9139
3.403, 4, 17.8773, 15.8644, 23.0569, 38.2532, -28.6219, -29.9133
3.408, 4, 17.8745, 15.8643, 23.0576, 38.2517, -28.6225, -29.912
3.412, 4, 17.8707, 15.864, 23.0586, 38.2489, -28.6235, -29.9095
3.416, 4, 17.8659, 15.8636, 23.0603, 38.2441, -28.6252, -29.9053
3.42, 5, 17.8601, 15.863, 23.0629, 38.2365, -28.628, -29.8986
3.424, 5, 17.8533, 15.8621, 23.0667, 38.225, -28.6321, -29.8884
3.428, 5, 17.8454, 15.8608, 23.072, 38.2087, -28.6379, -29.874
3.432, 5, 17.8363, 15.8592, 23.0792, 38.1865, -28.646, -29.8543
3.436, 5, 17.8257, 15.857, 23.0884, 38.1572, -28.6565, -29.8284
3.439, 5, 17.8136, 15.8542, 23.1001, 38.1198, -28.67, -29.7953
3.444, 5, 17.8, 15.8508, 23.1146, 38.0733, -28.6867, -29.7542
3.448, 5, 17.7848, 15.8467, 23.132, 38.017, -28.7071, -29.7043
3.452, 5, 17.7681, 15.8419, 23.1525, 37.9502, -28.7313, -29.6452
3.456, 5, 17.75, 15.8363, 23.1763, 37.8727, -28.7595, -29.5765
3.46, 5, 17.7303, 15.83, 23.2033, 37.7844, -28.7917, -29.4983
3.464, 5, 17.7091, 15.823, 23.2335, 37.6856, -28.8279, -29.4108
3.468, 5, 17.6863, 15.8152, 23.2666, 37.5769, -28.8678, -29.3145
3.472, 5, 17.6618, 15.8069, 23.3026, 37.459, -28.9113, -29.2101
3.476, 5, 17.6357, 15.7979, 23.3411, 37.3328, -28.9579, -29.0985
3.48, 5, 17.6082, 15.7885, 23.3818, 37.1995, -29.0075, -28.9806
3.484, 5, 17.5792, 15.7787, 23.4245, 37.0601, -29.0595, -28.8573
3.488, 5, 17.549, 15.7685, 23.4688, 36.9157, -29.1138, -28.7296
3.492, 5, 17.5176, 15.7581, 23.5144, 36.7672, -29.1698, -28.5984
3.495, 5, 17.4852, 15.7475, 23.561, 36.6156, -29.2273, -28.4645
3.5, 5, 17.4516, 15.7367, 23.6085, 36.4618, -29.286, -28.3287
3.504, 5, 17.4171, 15.7259, 23.6565, 36.3065, -29.3456, -28.1917
3.508, 5, 17.3816, 15.7151, 23.7049, 36.1503, -29.4059, -28.0539
3.512, 5, 17.3453, 15.7043, 23.7536, 35.9936, -29.4667, -27.9158
3.516, 5, 17.3083, 15.6935, 23.8024, 35.8367, -29.528, -27.7776
3.52, 5, 17.2708, 15.6827, 23.8512, 35.6799, -29.5897, -27.6396
3.524, 5, 17.233, 15.672, 23.9001, 35.5233, -29.6516, -27.5018
3.528, 5, 17.195, 15.6614, 23.949, 35.3671, -29.7138, -27.3644
3.531, 5, 17.1567, 15.6509, 23.9978, 35.2113, -29.7763, -27.2274
3.536, 5, 17.1183, 15.6405, 24.0466, 35.0559, -29.839, -27.0909
3.54, 5, 17.0799, 15.6302, 24.0953, 34.901, -29.9018, -26.9549
3.544, 5, 17.0413, 15.6199, 24.1439, 34.7466, -29.9649, -26.8194
3.548, 5, 17.0027, 15.6098, 24.1924, 34.5927, -30.0281, -26.6844
3.552, 5, 16.964, 15.5997, 24.2409, 34.4393, -30.0915, -26.5499
3.556, 5, 16.9253, 15.5898, 24.2892, 34.2865, -30.1552, -26.416
3.56, 5, 16.8865, 15.5799, 24.3374, 34.1342, -30.2189, -26.2826
3.564, 5, 16.8477, 15.5701, 24.3856, 33.9824, -30.2829, -26.1498
3.568, 5, 16.8089, 15.5605, 24.4336, 33.8311, -30.347, -26.0175
3.572, 5, 16.77, 15.5509, 24.4816, 33.6804, -30.4113, -25.8857
3.576, 5, 16.7311, 15.5414, 24.5294, 33.5302, -30.4758, -25.7545
3.58, 5, 16.6922, 15.532, 24.5772, 33.3806, -30.5404, -25.6238
3.584, 5, 16.6532, 15.5227, 24.6248, 33.2314, -30.6052, -25.4936
3.587, 5, 16.6142, 15.5136, 24.6724, 33.0828, -30.6702, -25.364
3.592, 5, 16.5751, 15.5045, 24.7198, 32.9347, -30.7353, -25.2349
3.596, 5, 16.5361, 15.4955, 24.7672, 32.7872, -30.8006, -25.1063
3.6, 5, 16.4969, 15.4866, 24.8145, 32.6401, -30.8661, -24.9783
3.604, 5, 16.4578, 15.4778, 24.8616, 32.4936, -30.9317, -24.8508
3.608, 5, 16.4186, 15.4691, 24.9087, 32.3476, -30.9975, -24.7238
3.612, 5, 16.3794, 15.4605, 24.9556, 32.2021, -31.0634, -24.5973
3.616, 5, 16.3402, 15.452, 25.0025, 32.0571, -31.1296, -24.4713
3.62, 5, 16.3009, 15.4435, 25.0492, 31.9126, -31.1958, -24.3459
3.624, 5, 16.2616, 15.4352, 25.0959, 31.7686, -31.2622, -24.221
3.628, 5, 16.2222, 15.427, 25.1425, 31.6252, -31.3288, -24.0965
3.632, 5, 16.1829, 15.4189, 25.1889, 31.4822, -31.3956, -23.9726
3.636, 5, 16.1434, 15.4109, 25.2353, 31.3398, -31.4625, -23.8493
3.64, 5, 16.104, 15.4029, 25.2815, 31.1978, -31.5295, -23.7264
3.644, 5, 16.0645, 15.3951, 25.3277, 31.0564, -31.5967, -23.604
3.648, 5, 16.025, 15.3874, 25.3738, 30.9154, -31.6641, -23.4821
3.652, 5, 15.9855, 15.3798, 25.4197, 30.7749, -31.7316, -23.3607
3.656, 5, 15.9459, 15.3722, 25.4656, 30.635, -31.7992, -23.2399
3.66, 5, 15.9063, 15.3648, 25.5114, 30.4955, -31.867, -23.1195
3.664, 5, 15.8667, 15.3574, 25.557, 30.3565, -31.935, -22.9996
3.668, 5, 15.827, 15.3502, 25.6026, 30.218, -32.0031, -22.8802
3.672, 5, 15.7873, 15.343, 25.6481, 30.08, -32.0714, -22.7613
3.676, 5, 15.7476, 15.336, 25.6934, 29.9424, -32.1398, -22.6429
3.679, 5, 15.7078, 15.329, 25.7387, 29.8054, -32.2083, -22.525
3.684, 5, 15.668, 15.3222, 25.7839, 29.6688, -32.277, -22.4075
3.688, 5, 15.6282, 15.3154, 25.8289, 29.5327, -32.3458, -22.2906
3.692, 5, 15.5883, 15.3088, 25.8739, 29.397, -32.4148, -22.1741
3.696, 5, 15.5484, 15.3022, 25.9188, 29.2619, -32.4839, -22.0581
3.7, 5, 15.5085, 15.2958, 25.9635, 29.1272, -32.5532, -21.9426
3.704, 5, 15.4686, 15.2894, 26.0082, 28.993, -32.6226, -21.8276
3.708, 5, 15.4286, 15.2831, 26.0528, 28.8593, -32.6922, -21.713
3.712, 5, 15.3886, 15.277, 26.0972, 28.726, -32.7618, -21.599
3.716, 5, 15.3485, 15.2709, 26.1416, 28.5932, -32.8317, -21.4853
3.72, 5, 15.3084, 15.2649, 26.1859, 28.4608, -32.9016, -21.3722
3.724, 5, 15.2683, 15.259, 26.23, 28.3289, -32.9717, -21.2595
3.728, 5, 15.2282, 15.2533, 26.2741, 28.1975, -33.042, -21.1473
3.732, 6, 15.188, 15.2476, 26.318, 28.0665, -33.1123, -21.0355
3.735, 6, 15.1478, 15.242, 26.3619, 27.936, -33.1828, -20.9242
3.74, 6, 15.1076, 15.2365, 26.4057, 27.8059, -33.2535, -20.8134
3.744, 6, 15.0673, 15.2312, 26.4493, 27.6763, -33.3243, -20.703
3.748, 6, 15.027, 15.2259, 26.4929, 27.5471, -33.3952, -20.5931
3.752, 6, 14.9867, 15.2207, 26.5363, 27.4184, -33.4662, -20.4837
3.756, 6, 14.9463, 15.2156, 26.5797, 27.2901, -33.5374, -20.3746
3.76, 6, 14.9059, 15.2106, 26.623, 27.1623, -33.6087, -20.2661
3.764, 6, 14.8655, 15.2058, 26.6661, 27.0348, -33.6801, -20.1579
3.768, 6, 14.825, 15.201, 26.7092, 26.9079, -33.7517, -20.0503
3.772, 6, 14.7845, 15.1963, 26.7521, 26.7813, -33.8234, -19.943
3.776, 6, 14.744, 15.1917, 26.795, 26.6553, -33.8952, -19.8362
3.78, 6, 14.7035, 15.1872, 26.8377, 26.5296, -33.9671, -19.7299
3.784, 6, 14.6629, 15.1828, 26.8804, 26.4044, -34.0392, -19.624
3.788, 6, 14.6223, 15.1785, 26.9229, 26.2796, -34.1114, -19.5185
3.792, 6, 14.5816, 15.1743, 26.9654, 26.1552, -34.1837, -19.4134
3.796, 6, 14.541, 15.1702, 27.0077, 26.0312, -34.2562, -19.3088
3.8, 6, 14.5003, 15.1662, 27.05, 25.9077, -34.3288, -19.2046
3.804, 6, 14.4595, 15.1623, 27.0921, 25.7846, -34.4014, -19.1009
3.808, 6, 14.4188, 15.1586, 27.1341, 25.6619, -34.4743, -18.9976
3.812, 6, 14.378, 15.1549, 27.1761, 25.5396, -34.5472, -18.8946
3.816, 6, 14.3372, 15.1513, 27.2179, 25.4178, -34.6203, -18.7922
3.82, 6, 14.2963, 15.1478, 27.2597, 25.2963, -34.6934, -18.6901
3.824, 6, 14.2554, 15.1444, 27.3013, 25.1753, -34.7667, -18.5885
3.828, 6, 14.2145, 15.1411, 27.3428, 25.0547, -34.8402, -18.4872
3.832, 6, 14.1736, 15.1379, 27.3843, 24.9345, -34.9137, -18.3864
3.836, 6, 14.1326, 15.1348, 27.4256, 24.8147, -34.9874, -18.286
3.84, 6, 14.0916, 15.1318, 27.4668, 24.6953, -35.0611, -18.186
3.844, 6, 14.0506, 15.1289, 27.5079, 24.5763, -35.135, -18.0865
3.848, 6, 14.0095, 15.1261, 27.549, 24.4577, -35.209, -17.9873
3.852, 6, 13.9684, 15.1234, 27.5899, 24.3395, -35.2831, -17.8885
3.856, 6, 13.9273, 15.1208, 27.6307, 24.2217, -35.3574, -17.7902
3.86, 6, 13.8861, 15.1183, 27.6714, 24.1043, -35.4317, -17.6922
3.864, 6, 13.8449, 15.1159, 27.712, 23.9872, -35.5062, -17.5947
3.868, 6, 13.8037, 15.1136, 27.7526, 23.8706, -35.5808, -17.4975
3.872, 6, 13.7625, 15.1114, 27.793, 23.7544, -35.6555, -17.4007
3.876, 6, 13.7212, 15.1093, 27.8333, 23.6385, -35.7303, -17.3044
3.88, 6, 13.6799, 15.1073, 27.8735, 23.5231, -35.8052, -17.2084
3.884, 6, 13.6386, 15.1054, 27.9136, 23.408, -35.8802, -17.1128
3.888, 6, 13.5972, 15.1036, 27.9536, 23.2933, -35.9553, -17.0176
3.892, 6, 13.5559, 15.1019, 27.9935, 23.179, -36.0305, -16.9228
3.896, 6, 13.5144, 15.1003, 28.0333, 23.0651, -36.1059, -16.8284
3.9, 6, 13.473, 15.0988, 28.073, 22.9516, -36.1813, -16.7344
3.904, 6, 13.4315, 15.0974, 28.1126, 22.8384, -36.2569, -16.6408
3.908, 6, 13.39, 15.0961, 28.1521, 22.7256, -36.3326, -16.5475
3.912, 6, 13.3485, 15.0949, 28.1914, 22.6132, -36.4083, -16.4546
3.916, 6, 13.3069, 15.0938, 28.2307, 22.5011, -36.4842, -16.3621
3.92, 6, 13.2653, 15.0928, 28.2699, 22.3894, -36.5602, -16.27
3.924, 6, 13.2237, 15.0919, 28.309, 22.2781, -36.6363, -16.1782
3.928, 6, 13.1821, 15.0911, 28.3479, 22.1672, -36.7125, -16.0868
3.932, 6, 13.1404, 15.0904, 28.3868, 22.0566, -36.7887, -15.9958
3.936, 6, 13.0987, 15.0898, 28.4256, 21.9463, -36.8651, -15.9052
3.94, 6, 13.057, 15.0893, 28.4642, 21.8365, -36.9416, -15.8149
3.944, 6, 13.0152, 15.0889, 28.5028, 21.727, -37.0182, -15.725
3.948, 6, 12.9734, 15.0886, 28.5413, 21.6178, -37.0949, -15.6355
3.952, 6, 12.9316, 15.0884, 28.5796, 21.509, -37.1717, -15.5463
3.956, 6, 12.8898, 15.0883, 28.6179, 21.4006, -37.2486, -15.4575
3.96, 6, 12.8479, 15.0883, 28.656, 21.2925, -37.3256, -15.369
3.964, 6, 12.806, 15.0884, 28.694, 21.1847, -37.4027, -15.2809
3.968, 6, 12.7641, 15.0886, 28.732, 21.0774, -37.4799, -15.1931
3.972, 6, 12.7221, 15.0889, 28.7698, 20.9703, -37.5572, -15.1057
3.976, 6, 12.6801, 15.0893, 28.8075, 20.8636, -37.6346, -15.0187
3.98, 6, 12.6381, 15.0899, 28.8452, 20.7573, -37.7121, -14.932
3.984, 6, 12.5961, 15.0905, 28.8827, 20.6512, -37.7897, -14.8457
3.988, 6, 12.554, 15.0912, 28.9201, 20.5456, -37.8673, -14.7597
3.992, 6, 12.5119, 15.092, 28.9574, 20.4403, -37.9451, -14.674
3.996, 6, 12.4698, 15.0929, 28.9946, 20.3353, -38.023, -14.5888
3.999, 6, 12.4276, 15.0939, 29.0317, 20.2306, -38.1009, -14.5038
4.004, 6, 12.3855, 15.095, 29.0687, 20.1263, -38.179, -14.4192
4.008, 6, 12.3433, 15.0963, 29.1056, 20.0223, -38.2571, -14.3349
4.012, 6, 12.301, 15.0976, 29.1424, 19.9187, -38.3353, -14.251
4.016, 6, 12.2588, 15.099, 29.1791, 19.8153, -38.4137, -14.1674
4.02, 6, 12.2165, 15.1005, 29.2157, 19.7123, -38.4921, -14.0841
4.024, 6, 12.1742, 15.1021, 29.2522, 19.6097, -38.5706, -14.0012
4.028, 6, 12.1318, 15.1039, 29.2886, 19.5073, -38.6492, -13.9186
4.032, 6, 12.0895, 15.1057, 29.3248, 19.4053, -38.7278, -13.8364
4.036, 7, 12.0471, 15.1076, 29.361, 19.3036, -38.8066, -13.7544
4.04, 7, 12.0047, 15.1096, 29.3971, 19.2022, -38.8855, -13.6728
4.044, 7, 11.9622, 15.1117, 29.433, 19.1012, -38.9644, -13.5916
4.048, 7, 11.9198, 15.114, 29.4689, 19.0005, -39.0435, -13.5106
4.052, 7, 11.8773, 15.1163, 29.5046, 18.9, -39.1226, -13.43
4.056, 7, 11.8347, 15.1187, 29.5403, 18.7999, -39.2018, -13.3497
4.06, 7, 11.7922, 15.1213, 29.5758, 18.7001, -39.2811, -13.2697
4.064, 7, 11.7496, 15.1239, 29.6112, 18.6007, -39.3605, -13.19
4.068, 7, 11.707, 15.1266, 29.6465, 18.5015, -39.4399, -13.1107
4.072, 7, 11.6644, 15.1295, 29.6818, 18.4026, -39.5195, -13.0316
4.076, 7, 11.6217, 15.1324, 29.7169, 18.3041, -39.5991, -12.9529
4.08, 7, 11.5791, 15.1354, 29.7519, 18.2058, -39.6788, -12.8745
4.084, 7, 11.5364, 15.1386, 29.7868, 18.1079, -39.7586, -12.7964
4.088, 7, 11.4936, 15.1418, 29.8216, 18.0102, -39.8385, -12.7186
4.092, 7, 11.4509, 15.1452, 29.8563, 17.9129, -39.9184, -12.6411
4.096, 7, 11.4081, 15.1486, 29.8909, 17.8158, -39.9985, -12.564
4.1, 7, 11.3653, 15.1521, 29.9253, 17.7191, -40.0786, -12.4871
4.104, 7, 11.3225, 15.1558, 29.9597, 17.6226, -40.1588, -12.4106
4.108, 7, 11.2796, 15.1595, 29.994, 17.5265, -40.2391, -12.3343
4.112, 7, 11.2367, 15.1634, 30.0282, 17.4306, -40.3194, -12.2583
4.116, 7, 11.1938, 15.1673, 30.0622, 17.3351, -40.3999, -12.1827
4.12, 7, 11.1509, 15.1714, 30.0962, 17.2398, -40.4804, -12.1073
4.124, 7, 11.1079, 15.1755, 30.13, 17.1448, -40.561, -12.0323
4.128, 7, 11.0649, 15.1798, 30.1638, 17.0501, -40.6417, -11.9575
4.132, 7, 11.0219, 15.1841, 30.1974, 16.9557, -40.7224, -11.8831
4.136, 7, 10.9789, 15.1886, 30.2309, 16.8616, -40.8032, -11.8089
4.14, 7, 10.9359, 15.1932, 30.2643, 16.7678, -40.8841, -11.735
4.144, 7, 10.8928, 15.1978, 30.2977, 16.6742, -40.9651, -11.6614
4.148, 7, 10.8497, 15.2026, 30.3309, 16.581, -41.0462, -11.5881
4.152, 7, 10.8065, 15.2074, 30.364, 16.488, -41.1273, -11.5151
4.156, 7, 10.7634, 15.2124, 30.397, 16.3953, -41.2085, -11.4424
4.16, 7, 10.7202, 15.2175, 30.4298, 16.3029, -41.2898, -11.37
4.164, 7, 10.677, 15.2226, 30.4626, 16.2107, -41.3712, -11.2978
4.168, 7, 10.6338, 15.2279, 30.4953, 16.1188, -41.4526, -11.2259
4.172, 7, 10.5905, 15.2333, 30.5279, 16.0272, -41.5341, -11.1544
4.176, 7, 10.5473, 15.2387, 30.5603, 15.9359, -41.6157, -11.0831
4.18, 7, 10.504, 15.2443, 30.5927, 15.8449, -41.6973, -11.012
4.184, 7, 10.4606, 15.25, 30.6249, 15.7541, -41.779, -10.9413
4.188, 7, 10.4173, 15.2558, 30.6571, 15.6636, -41.8608, -10.8708
4.192, 7, 10.3739, 15.2616, 30.6891, 15.5733, -41.9426, -10.8006
4.196, 7, 10.3305, 15.2676, 30.721, 15.4834, -42.0246, -10.7307
4.2, 7, 10.2871, 15.2737, 30.7529, 15.3936, -42.1066, -10.661
4.204, 7, 10.2437, 15.2799, 30.7846, 15.3042, -42.1886, -10.5917
4.208, 7, 10.2002, 15.2862, 30.8162, 15.215, -42.2707, -10.5226
4.212, 7, 10.1567, 15.2926, 30.8477, 15.1261, -42.3529, -10.4537
4.216, 7, 10.1132, 15.299, 30.8791, 15.0374, -42.4352, -10.3852
4.22, 7, 10.0697, 15.3056, 30.9104, 14.949, -42.5175, -10.3168
4.224, 7, 10.0261, 15.3123, 30.9415, 14.8609, -42.5999, -10.2488
4.228, 7, 9.98254, 15.3191, 30.9726, 14.773, -42.6824, -10.181
4.232, 7, 9.93894, 15.326, 31.0036, 14.6854, -42.765, -10.1135
4.236, 7, 9.89532, 15.333, 31.0344, 14.598, -42.8475, -10.0463
4.24, 7, 9.85168, 15.3401, 31.0652, 14.5109, -42.9302, -9.97928
4.244, 7, 9.80801, 15.3473, 31.0958, 14.424, -43.0129, -9.91255
4.248, 7, 9.76432, 15.3546, 31.1263, 14.3374, -43.0957, -9.84608
4.252, 7, 9.7206, 15.362, 31.1567, 14.251, -43.1786, -9.77987
4.256, 7, 9.67687, 15.3695, 31.1871, 14.1649, -43.2615, -9.71391
4.26, 7, 9.63311, 15.3771, 31.2173, 14.079, -43.3445, -9.6482
4.264, 7, 9.58933, 15.3848, 31.2474, 13.9934, -43.4276, -9.58275
4.268, 7, 9.54553, 15.3926, 31.2773, 13.908, -43.5107, -9.51756
4.272, 7, 9.50171, 15.4005, 31.3072, 13.8228, -43.5938, -9.45261
4.276, 7, 9.45786, 15.4085, 31.337, 13.7379, -43.6771, -9.38791
4.28, 7, 9.414, 15.4166, 31.3667, 13.6533, -43.7604, -9.32346
4.284, 7, 9.37011, 15.4248, 31.3962, 13.5689, -43.8437, -9.25926
4.288, 7, 9.3262, 15.4331, 31.4257, 13.4847, -43.9271, -9.19531
4.292, 7, 9.28227, 15.4416, 31.455, 13.4008, -44.0106, -9.13161
4.296, 7, 9.23832, 15.4501, 31.4842, 13.3171, -44.0942, -9.06815
4.3, 7, 9.19434, 15.4587, 31.5134, 13.2336, -44.1777, -9.00493
4.304, 7, 9.15035, 15.4674, 31.5424, 13.1504, -44.2614, -8.94195
4.308, 7, 9.10633, 15.4762, 31.5713, 13.0674, -44.3451, -8.87922
4.312, 7, 9.0623, 15.4852, 31.6001, 12.9846, -44.4289, -8.81673
4.316, 7, 9.01824, 15.4942, 31.6287, 12.9021, -44.5127, -8.75448
4.32, 7, 8.97416, 15.5033, 31.6573, 12.8198, -44.5966, -8.69246
4.324, 7, 8.93006, 15.5125, 31.6858, 12.7377, -44.6805, -8.63068
4.328, 7, 8.88595, 15.5218, 31.7141, 12.6559, -44.7645, -8.56914
4.332, 7, 8.84181, 15.5313, 31.7424, 12.5743, -44.8486, -8.50784
4.336, 7, 8.79765, 15.5408, 31.7705, 12.4929, -44.9327, -8.44676
4.34, 8, 8.75347, 15.5504, 31.7985, 12.4118, -45.0168, -8.38592
4.344, 8, 8.70927, 15.5602, 31.8265, 12.3308, -45.1011, -8.32532
4.348, 8, 8.66505, 15.57, 31.8543, 12.2501, -45.1853, -8.26494
4.352, 8, 8.62081, 15.5799, 31.882, 12.1696, -45.2696, -8.20479
4.356, 8, 8.57655, 15.59, 31.9096, 12.0894, -45.354, -8.14487
4.36, 8, 8.53227, 15.6001, 31.9371, 12.0093, -45.4385, -8.08518
4.364, 8, 8.48797, 15.6103, 31.9644, 11.9295, -45.5229, -8.02571
4.368, 8, 8.44365, 15.6207, 31.9917, 11.8499, -45.6075, -7.96647
4.372, 8, 8.39931, 15.6311, 32.0188, 11.7705, -45.6921, -7.90746
4.376, 8, 8.35495, 15.6416, 32.0459, 11.6913, -45.7767, -7.84866
4.38, 8, 8.31058, 15.6523, 32.0728, 11.6124, -45.8614, -7.79009
4.384, 8, 8.26618, 15.663, 32.0996, 11.5336, -45.9461, -7.73174
4.388, 8, 8.22177, 15.6738, 32.1263, 11.4551, -46.0309, -7.67362
4.392, 8, 8.17733, 15.6848, 32.1529, 11.3768, -46.1158, -7.61571
4.396, 8, 8.13288, 15.6958, 32.1794, 11.2987, -46.2007, -7.55802
4.4, 8, 8.08841, 15.707, 32.2058, 11.2208, -46.2856, -7.50054
4.404, 8, 8.04391, 15.7182, 32.2321, 11.1431, -46.3706, -7.44329
4.408, 8, 7.9994, 15.7296, 32.2582, 11.0656, -46.4556, -7.38625
4.412, 8, 7.95488, 15.741, 32.2843, 10.9883, -46.5407, -7.32942
4.416, 8, 7.91033, 15.7525, 32.3102, 10.9113, -46.6259, -7.27281
4.42, 8, 7.86576, 15.7642, 32.3361, 10.8344, -46.711, -7.21641
4.424, 8, 7.82118, 15.7759, 32.3618, 10.7578, -46.7963, -7.16022
4.428, 8, 7.77658, 15.7878, 32.3874, 10.6813, -46.8815, -7.10425
4.432, 8, 7.73196, 15.7997, 32.4129, 10.6051, -46.9669, -7.04848
4.436, 8, 7.68732, 15.8118, 32.4383, 10.529, -47.0522, -6.99292
4.44, 8, 7.64267, 15.8239, 32.4635, 10.4532, -47.1377, -6.93758
4.444, 8, 7.59799, 15.8362, 32.4887, 10.3775, -47.2231, -6.88243
4.448, 8, 7.5533, 15.8485, 32.5138, 10.3021, -47.3086, -6.8275
4.452, 8, 7.50859, 15.861, 32.5387, 10.2268, -47.3942, -6.77277
4.456, 8, 7.46387, 15.8735, 32.5635, 10.1518, -47.4798, -6.71824
4.46, 8, 7.41913, 15.8862, 32.5883, 10.0769, -47.5654, -6.66392
4.464, 8, 7.37437, 15.8989, 32.6129, 10.0023, -47.6511, -6.6098
4.468, 8, 7.32959, 15.9118, 32.6374, 9.92783, -47.7368, -6.55589
4.472, 8, 7.28479, 15.9247, 32.6617, 9.85357, -47.8226, -6.50217
4.476, 8, 7.23998, 15.9378, 32.686, 9.77949, -47.9084, -6.44866
4.48, 8, 7.19515, 15.9509, 32.7102, 9.70561, -47.9943, -6.39534
4.484, 8, 7.15031, 15.9642, 32.7342, 9.63192, -48.0802, -6.34222
4.488, 8, 7.10544, 15.9775, 32.7582, 9.55842, -48.1661, -6.2893
4.492, 8, 7.06056, 15.991, 32.782, 9.48512, -48.2521, -6.23658
4.496, 8, 7.01567, 16.0045, 32.8057, 9.41199, -48.3381, -6.18405
4.5, 8, 6.97076, 16.0182, 32.8293, 9.33906, -48.4241, -6.13171
4.504, 8, 6.92583, 16.0319, 32.8528, 9.26632, -48.5102, -6.07958
4.508, 8, 6.88089, 16.0458, 32.8762, 9.19376, -48.5964, -6.02763
4.512, 8, 6.83593, 16.0597, 32.8995, 9.12138, -48.6826, -5.97588
4.516, 8, 6.79095, 16.0738, 32.9226, 9.0492, -48.7688, -5.92431
4.52, 8, 6.74596, 16.0879, 32.9457, 8.97719, -48.855, -5.87294
4.524, 8, 6.70095, 16.1021, 32.9686, 8.90537, -48.9413, -5.82176
4.528, 8, 6.65593, 16.1165, 32.9914, 8.83373, -49.0276, -5.77076
4.532, 8, 6.61089, 16.1309, 33.0141, 8.76227, -49.114, -5.71996
4.536, 8, 6.56583, 16.1455, 33.0367, 8.69099, -49.2004, -5.66934
4.54, 8, 6.52076, 16.1601, 33.0592, 8.61989, -49.2869, -5.61891
4.544, 8, 6.47568, 16.1749, 33.0816, 8.54897, -49.3733, -5.56866
4.548, 8, 6.43058, 16.1897, 33.1038, 8.47823, -49.4599, -5.5186
4.552, 8, 6.38546, 16.2046, 33.126, 8.40766, -49.5464, -5.46872
4.556, 8, 6.34033, 16.2197, 33.148, 8.33727, -49.633, -5.41903
4.56, 8, 6.29519, 16.2348, 33.1699, 8.26706, -49.7196, -5.36952
4.564, 8, 6.25003, 16.2501, 33.1917, 8.19702, -49.8063, -5.32019
4.568, 8, 6.20486, 16.2654, 33.2134, 8.12716, -49.893, -5.27104
4.572, 8, 6.15967, 16.2808, 33.235, 8.05746, -49.9797, -5.22207
4.576, 8, 6.11447, 16.2964, 33.2565, 7.98795, -50.0664, -5.17328
4.58, 8, 6.06925, 16.312, 33.2778, 7.9186, -50.1532, -5.12467
4.584, 8, 6.02402, 16.3277, 33.2991, 7.84943, -50.2401, -5.07623
4.588, 8, 5.97877, 16.3436, 33.3202, 7.78042, -50.3269, -5.02798
4.592, 8, 5.93351, 16.3595, 33.3412, 7.71159, -50.4138, -4.9799
4.596, 8, 5.88824, 16.3755, 33.3621, 7.64293, -50.5007, -4.93199
4.6, 8, 5.84295, 16.3917, 33.3829, 7.57443, -50.5877, -4.88426
4.604, 8, 5.79765, 16.4079, 33.4036, 7.5061, -50.6747, -4.83671
4.608, 8, 5.75234, 16.4242, 33.4242, 7.43794, -50.7617, -4.78933
4.612, 8, 5.70701, 16.4406, 33.4446, 7.36995, -50.8487, -4.74212
4.616, 8, 5.66167, 16.4571, 33.465, 7.30212, -50.9358, -4.69509
4.62, 8, 5.61632, 16.4738, 33.4852, 7.23445, -51.0229, -4.64822
4.624, 8, 5.57095, 16.4905, 33.5053, 7.16695, -51.11, -4.60153
4.628, 8, 5.52557, 16.5073, 33.5253, 7.09962, -51.1972, -4.555
4.632, 8, 5.48018, 16.5242, 33.5451, 7.03244, -51.2844, -4.50865
4.636, 8, 5.43477, 16.5412, 33.5649, 6.96543, -51.3716, -4.46246
4.64, 8, 5.38936, 16.5583, 33.5845, 6.89858, -51.4589, -4.41644
4.644, 9, 5.34392, 16.5756, 33.6041, 6.83189, -51.5461, -4.37059
4.648, 9, 5.29848, 16.5929, 33.6235, 6.76536, -51.6334, -4.3249
4.652, 9, 5.25303, 16.6103, 33.6428, 6.69899, -51.7208, -4.27938
4.656, 9, 5.20756, 16.6278, 33.662, 6.63277, -51.8081, -4.23402
4.66, 9, 5.16208, 16.6454, 33.681, 6.56672, -51.8955, -4.18883
4.664, 9, 5.11659, 16.6631, 33.7, 6.50082, -51.9829, -4.1438
4.668, 9, 5.07109, 16.6809, 33.7188, 6.43507, -52.0703, -4.09893
4.672, 9, 5.02557, 16.6988, 33.7376, 6.36949, -52.1578, -4.05423
4.676, 9, 4.98005, 16.7168, 33.7562, 6.30406, -52.2453, -4.00968
4.68, 9, 4.93451, 16.7349, 33.7747, 6.23878, -52.3328, -3.9653
4.684, 9, 4.88896, 16.7531, 33.793, 6.17365, -52.4203, -3.92107
4.688, 9, 4.8434, 16.7714, 33.8113, 6.10868, -52.5079, -3.87701
4.692, 9, 4.79783, 16.7898, 33.8294, 6.04386, -52.5955, -3.8331
4.696, 9, 4.75224, 16.8083, 33.8475, 5.9792, -52.6831, -3.78935
4.7, 9, 4.70665, 16.8268, 33.8654, 5.91468, -52.7707, -3.74576
4.704, 9, 4.66104, 16.8455, 33.8832, 5.85031, -52.8584, -3.70232
4.708, 9, 4.61543, 16.8643, 33.9009, 5.7861, -52.946, -3.65904
4.712, 9, 4.5698, 16.8832, 33.9184, 5.72203, -53.0337, -3.61592
4.716, 9, 4.52416, 16.9021, 33.9359, 5.65811, -53.1214, -3.57295
4.72, 9, 4.47852, 16.9212, 33.9532, 5.59434, -53.2092, -3.53013
4.724, 9, 4.43286, 16.9404, 33.9704, 5.53072, -53.2969, -3.48747
4.728, 9, 4.38719, 16.9596, 33.9875, 5.46724, -53.3847, -3.44496
4.732, 9, 4.34151, 16.979, 34.0045, 5.40391, -53.4725, -3.4026
4.736, 9, 4.29583, 16.9985, 34.0214, 5.34073, -53.5603, -3.36039
4.74, 9, 4.25013, 17.018, 34.0381, 5.27769, -53.6482, -3.31833
4.744, 9, 4.20442, 17.0377, 34.0548, 5.21479, -53.736, -3.27642
4.748, 9, 4.1587, 17.0574, 34.0713, 5.15204, -53.8239, -3.23467
4.752, 9, 4.11298, 17.0772, 34.0877, 5.08943, -53.9118, -3.19306
4.756, 9, 4.06724, 17.0972, 34.104, 5.02696, -53.9997, -3.1516
4.76, 9, 4.0215, 17.1172, 34.1202, 4.96464, -54.0877, -3.11028
4.764, 9, 3.97574, 17.1373, 34.1362, 4.90245, -54.1756, -3.06911
4.768, 9, 3.92998, 17.1576, 34.1522, 4.84041, -54.2636, -3.02809
4.772, 9, 3.88421, 17.1779, 34.168, 4.77851, -54.3516, -2.98722
4.776, 9, 3.83843, 17.1983, 34.1837, 4.71674, -54.4396, -2.94649
4.78, 9, 3.79264, 17.2188, 34.1993, 4.65512, -54.5276, -2.9059
4.784, 9, 3.74684, 17.2394, 34.2148, 4.59363, -54.6156, -2.86546
4.788, 9, 3.70103, 17.2601, 34.2302, 4.53228, -54.7037, -2.82516
4.792, 9, 3.65522, 17.2809, 34.2454, 4.47107, -54.7917, -2.785
4.796, 9, 3.60939, 17.3018, 34.2606, 4.40999, -54.8798, -2.74498
4.8, 9, 3.56356, 17.3227, 34.2756, 4.34905, -54.9679, -2.70511
4.804, 9, 3.51772, 17.3438, 34.2905, 4.28825, -55.056, -2.66537
4.808, 9, 3.47187, 17.365, 34.3053, 4.22758, -55.1442, -2.62578
4.812, 9, 3.42602, 17.3862, 34.3199, 4.16704, -55.2323, -2.58632
4.816, 9, 3.38015, 17.4076, 34.3345, 4.10664, -55.3205, -2.54701
4.82, 9, 3.33428, 17.429, 34.3489, 4.04637, -55.4086, -2.50783
4.824, 9, 3.28841, 17.4506, 34.3633, 3.98624, -55.4968, -2.46879
4.828, 9, 3.24252, 17.4722, 34.3775, 3.92623, -55.585, -2.42989
4.832, 9, 3.19663, 17.4939, 34.3916, 3.86636, -55.6732, -2.39112
4.836, 9, 3.15073, 17.5158, 34.4055, 3.80662, -55.7614, -2.35249
4.84, 9, 3.10482, 17.5377, 34.4194, 3.747, -55.8496, -2.31399
4.844, 9, 3.05891, 17.5597, 34.4331, 3.68752, -55.9379, -2.27563
4.848, 9, 3.01299, 17.5818, 34.4468, 3.62817, -56.0261, -2.2374
4.852, 9, 2.96706, 17.604, 34.4603, 3.56895, -56.1144, -2.19931
4.856, 9, 2.92113, 17.6263, 34.4737, 3.50985, -56.2027, -2.16135
4.86, 9, 2.87519, 17.6486, 34.487, 3.45088, -56.291, -2.12352
4.864, 9, 2.82924, 17.6711, 34.5001, 3.39204, -56.3792, -2.08582
4.868, 9, 2.78329, 17.6937, 34.5132, 3.33333, -56.4675, -2.04826
4.872, 9, 2.73733, 17.7164, 34.5261, 3.27474, -56.5559, -2.01083
4.876, 9, 2.69137, 17.7392, 34.5389, 3.21628, -56.6442, -1.97352
4.88, 9, 2.64541, 17.7621, 34.5515, 3.15794, -56.7325, -1.93635
4.884, 9, 2.59946, 17.7852, 34.564, 3.09974, -56.8208, -1.89931
4.888, 9, 2.5535, 17.8084, 34.5764, 3.04166, -56.9092, -1.86241
4.892, 9, 2.50756, 17.8318, 34.5885, 2.98372, -56.9975, -1.82565
4.896, 9, 2.46162, 17.8554, 34.6005, 2.92593, -57.0859, -1.78903
4.9, 9, 2.41569, 17.8792, 34.6122, 2.86828, -57.1742, -1.75257
4.904, 9, 2.36978, 17.9033, 34.6236, 2.81079, -57.2625, -1.71626
4.908, 9, 2.32388, 17.9276, 34.6348, 2.75346, -57.3508, -1.68011
4.912, 9, 2.278, 17.9523, 34.6455, 2.69631, -57.4391, -1.64414
4.916, 9, 2.23215, 17.9772, 34.6559, 2.63935, -57.5274, -1.60836
4.92, 9, 2.18632, 18.0025, 34.6658, 2.58259, -57.6156, -1.57276
4.924, 9, 2.14052, 18.0281, 34.6753, 2.52604, -57.7038, -1.53737
4.928, 9, 2.09476, 18.0542, 34.6841, 2.46971, -57.792, -1.50219
4.932, 9, 2.04904, 18.0807, 34.6924, 2.41362, -57.88, -1.46723
4.936, 9, 2.00335, 18.1076, 34.7001, 2.35776, -57.9681, -1.43249
4.94, 9, 1.95771, 18.135, 34.7071, 2.30216, -58.056, -1.39799
4.944, 9, 1.91212, 18.1629, 34.7134, 2.24681, -58.1439, -1.36372
4.948, 9, 1.86659, 18.1913, 34.7189, 2.19173, -58.2316, -1.3297
4.952, 9, 1.82111, 18.2203, 34.7236, 2.13692, -58.3193, -1.29591
4.956, 9, 1.77569, 18.2498, 34.7275, 2.08238, -58.4069, -1.26237
4.96, 9, 1.73034, 18.2799, 34.7307, 2.02812, -58.4943, -1.22907
4.964, 9, 1.68506, 18.3106, 34.7329, 1.97413, -58.5816, -1.19602
4.968, 9, 1.63985, 18.3418, 34.7343, 1.92042, -58.6688, -1.1632
4.972, 9, 1.59471, 18.3737, 34.7349, 1.86698, -58.7558, -1.13063
4.976, 9, 1.54965, 18.4062, 34.7346, 1.81382, -58.8427, -1.09828
4.98, 9, 1.50465, 18.4393, 34.7334, 1.76093, -58.9294, -1.06618
4.984, 9, 1.45974, 18.4729, 34.7314, 1.70832, -59.016, -1.03429
4.988, 9, 1.41489, 18.5072, 34.7286, 1.65597, -59.1024, -1.00263
4.992, 9, 1.37012, 18.542, 34.7249, 1.60388, -59.1886, -0.971191
4.996, 9, 1.32542, 18.5774, 34.7204, 1.55205, -59.2747, -0.939959
5, 9, 1.28079, 18.6133, 34.7151, 1.50046, -59.3606, -0.908929
5.004, 9, 1.23623, 18.6497, 34.7091, 1.44912, -59.4463, -0.878094
5.008, 9, 1.19171, 18.6867, 34.7023, 1.39801, -59.5318, -0.847446
5.012, 9, 1.14725, 18.7241, 34.6949, 1.34712, -59.6172, -0.816974
5.016, 9, 1.10282, 18.7619, 34.6868, 1.29643, -59.7024, -0.786667
5.02, 9, 1.05843, 18.8002, 34.678, 1.24594, -59.7875, -0.756512
5.024, 9, 1.01408, 18.8388, 34.6688, 1.19561, -59.8725, -0.726496
5.028, 9, 0.969761, 18.8778, 34.6589, 1.14545, -59.9573, -0.696603
5.032, 9, 0.925483, 18.9172, 34.6487, 1.09542, -60.0421, -0.66682
5.036, 9, 0.881243, 18.9568, 34.638, 1.0455, -60.1267, -0.637129
5.04, 9, 0.837038, 18.9967, 34.6269, 0.995679, -60.2113, -0.607517
5.044, 9, 0.792866, 19.0369, 34.6155, 0.945932, -60.2959, -0.577967
5.048, 9, 0.748721, 19.0773, 34.6039, 0.896241, -60.3804, -0.548465
5.052, 9, 0.704604, 19.1179, 34.592, 0.846587, -60.4649, -0.518999
5.056, 9, 0.660512, 19.1587, 34.5799, 0.796954, -60.5494, -0.489555
5.06, 9, 0.616445, 19.1996, 34.5677, 0.747327, -60.634, -0.460123
5.064, 9, 0.5724, 19.2407, 34.5554, 0.697695, -60.7186, -0.430694
5.068, 9, 0.528371, 19.2819, 34.5429, 0.648046, -60.8032, -0.401259
5.072, 9, 0.484351, 19.3232, 34.5304, 0.598372, -60.8879, -0.371814
5.076, 9, 0.440332, 19.3645, 34.5179, 0.548668, -60.9726, -0.342353
5.08, 9, 0.396304, 19.406, 34.5052, 0.49893, -61.0575, -0.312873
5.084, 9, 0.352257, 19.4475, 34.4926, 0.449155, -61.1423, -0.283372
5.088, 9, 0.308186, 19.4891, 34.4799, 0.39934, -61.2273, -0.253848
5.092, 9, 0.264087, 19.5307, 34.4673, 0.349485, -61.3123, -0.224301
5.096, 9, 0.219955, 19.5723, 34.4546, 0.299589, -61.3974, -0.19473
5.1, 9, 0.17579, 19.614, 34.4418, 0.249651, -61.4825, -0.165135
5.104, 9, 0.131589, 19.6558, 34.4291, 0.19967, -61.5678, -0.135515
5.108, 9, 0.087353, 19.6975, 34.4164, 0.149647, -61.6531, -0.105869
5.112, 9, 0.0430802, 19.7393, 34.4036, 0.0995821, -61.7385, -0.0761989
5.116, 9, -0.00122946, 19.7812, 34.3908, 0.049474, -61.8239, -0.0465031
5.12, 9, -0.045575, 19.8231, 34.3781, -0.000676857, -61.9094, -0.016782
5.124, 9, -0.089953, 19.865, 34.3653, -0.0508704, -61.995, 0.0129643
5.128, 9, -0.134357, 19.907, 34.3524, -0.101107, -62.0807, 0.0427355
5.132, 9, -0.178779, 19.949, 34.3396, -0.151384, -62.1664, 0.0725311
5.136, 9, -0.223209, 19.9911, 34.3267, -0.201702, -62.2523, 0.10235
5.14, 9, -0.267639, 20.0333, 34.3138, -0.252056, -62.3381, 0.132189
5.144, 9, -0.312059, 20.0756, 34.3009, -0.302442, -62.4241, 0.162045
5.148, 9, -0.356464, 20.1179, 34.2878, -0.352853, -62.51, 0.191914
5.152, 9, -0.400846, 20.1604, 34.2747, -0.403279, -62.5961, 0.221788
5.156, 9, -0.4452, 20.203, 34.2614, -0.45371, -62.6821, 0.25166
5.16, 9, -0.489519, 20.2458, 34.248, -0.50413, -62.7682, 0.281522
5.164, 9, -0.533793, 20.2888, 34.2343, -0.554526, -62.8543, 0.311361
5.168, 9, -0.57801, 20.3319, 34.2204, -0.604879, -62.9403, 0.341167
5.172, 9, -0.622163, 20.3753, 34.2063, -0.655171, -63.0263, 0.370925
5.176, 9, -0.666245, 20.4189, 34.1917, -0.705379, -63.1123, 0.400622
5.18, 9, -0.710252, 20.4628, 34.1768, -0.755481, -63.1981, 0.430242
5.184, 9, -0.754183, 20.507, 34.1615, -0.805453, -63.2838, 0.459768
5.188, 9, -0.798037, 20.5514, 34.1456, -0.855272, -63.3694, 0.489186
5.192, 9, -0.841808, 20.5962, 34.1292, -0.904913, -63.4548, 0.518478
5.196, 9, -0.885491, 20.6414, 34.1123, -0.954353, -63.54, 0.547629
5.2, 9, -0.929076, 20.6869, 34.0947, -1.00357, -63.625, 0.576623
5.204, 11, -0.972547, 20.7328, 34.0764, -1.05254, -63.7097, 0.605445
5.208, 11, -1.01589, 20.7791, 34.0575, -1.10124, -63.7942, 0.634082
5.212, 11, -1.05909, 20.8259, 34.0378, -1.14965, -63.8783, 0.66252
5.216, 11, -1.10213, 20.8731, 34.0173, -1.19776, -63.9621, 0.690745
5.22, 11, -1.145, 20.9207, 33.9961, -1.24554, -64.0455, 0.718746
5.224, 11, -1.18768, 20.9688, 33.974, -1.29297, -64.1286, 0.74651
5.228, 11, -1.23017, 21.0173, 33.9512, -1.34004, -64.2113, 0.774028
5.232, 11, -1.27246, 21.0663, 33.9275, -1.38674, -64.2935, 0.801289
5.236, 11, -1.31453, 21.1157, 33.903, -1.43305, -64.3754, 0.828284
5.24, 11, -1.35639, 21.1656, 33.8777, -1.47896, -64.4568, 0.855008
5.244, 11, -1.39802, 21.2159, 33.8515, -1.52446, -64.5377, 0.881452
5.248, 11, -1.43943, 21.2666, 33.8245, -1.56954, -64.6181, 0.907614
5.252, 11, -1.48062, 21.3178, 33.7967, -1.61419, -64.6981, 0.933489
5.256, 11, -1.52158, 21.3694, 33.7681, -1.65843, -64.7776, 0.959076
5.26, 11, -1.56232, 21.4213, 33.7388, -1.70223, -64.8566, 0.984376
5.264, 11, -1.60287, 21.4736, 33.7086, -1.74561, -64.9352, 1.00939
5.268, 11, -1.64322, 21.5263, 33.6778, -1.78858, -65.0132, 1.03413
5.272, 11, -1.68339, 21.5793, 33.6463, -1.83114, -65.0909, 1.05859
5.276, 11, -1.7234, 21.6326, 33.6141, -1.87332, -65.168, 1.08279
5.28, 11, -1.76326, 21.6862, 33.5813, -1.91512, -65.2448, 1.10674
5.284, 11, -1.80296, 21.7401, 33.548, -1.95657, -65.3212, 1.13046
5.288, 11, -1.84253, 21.7942, 33.5141, -1.9977, -65.3972, 1.15395
5.292, 11, -1.88197, 21.8486, 33.4798, -2.03852, -65.4729, 1.17724
5.296, 11, -1.92128, 21.9031, 33.445, -2.07907, -65.5483, 1.20035
5.3, 11, -1.96045, 21.9579, 33.4099, -2.11937, -65.6235, 1.22329
5.304, 11, -1.99949, 22.0127, 33.3744, -2.15944, -65.6984, 1.24607
5.308, 11, -2.0384, 22.0678, 33.3387, -2.19932, -65.7731, 1.26872
5.312, 11, -2.07716, 22.1229, 33.3026, -2.23901, -65.8476, 1.29125
5.316, 11, -2.11577, 22.1782, 33.2664, -2.27855, -65.922, 1.31367
5.32, 11, -2.15425, 22.2335, 33.2299, -2.31795, -65.9962, 1.33599
5.324, 11, -2.1926, 22.289, 33.1932, -2.35722, -66.0704, 1.35823
5.328, 11, -2.23082, 22.3445, 33.1564, -2.39637, -66.1444, 1.38038
5.332, 11, -2.26895, 22.4, 33.1195, -2.43541, -66.2184, 1.40246
5.336, 11, -2.30699, 22.4557, 33.0823, -2.47434, -66.2922, 1.42447
5.34, 11, -2.34497, 22.5113, 33.0451, -2.51318, -66.366, 1.44641
5.344, 11, -2.38288, 22.567, 33.0077, -2.55191, -66.4397, 1.46829
5.348, 11, -2.42075, 22.6228, 32.9703, -2.59055, -66.5134, 1.4901
5.352, 11, -2.45857, 22.6786, 32.9326, -2.6291, -66.5869, 1.51184
5.356, 11, -2.49635, 22.7344, 32.8949, -2.66755, -66.6604, 1.53353
5.36, 11, -2.53409, 22.7903, 32.8571, -2.70591, -66.7338, 1.55515
5.364, 11, -2.57179, 22.8462, 32.8191, -2.74418, -66.8072, 1.57671
5.368, 11, -2.60946, 22.9021, 32.781, -2.78235, -66.8805, 1.59821
5.372, 11, -2.64708, 22.9581, 32.7428, -2.82044, -66.9537, 1.61965
5.376, 11, -2.68467, 23.0141, 32.7045, -2.85843, -67.0268, 1.64103
5.38, 11, -2.72223, 23.0701, 32.6661, -2.89633, -67.0999, 1.66235
5.384, 11, -2.75975, 23.1262, 32.6275, -2.93414, -67.1729, 1.68361
5.388, 11, -2.79723, 23.1823, 32.5889, -2.97186, -67.2458, 1.70481
5.392, 11, -2.83467, 23.2384, 32.5501, -3.0095, -67.3186, 1.72595
5.396, 11, -2.87208, 23.2946, 32.5112, -3.04704, -67.3914, 1.74704
5.4, 11, -2.90946, 23.3508, 32.4722, -3.08449, -67.4641, 1.76807
5.404, 11, -2.94679, 23.407, 32.4331, -3.12185, -67.5368, 1.78904
5.408, 11, -2.9841, 23.4633, 32.3938, -3.15913, -67.6093, 1.80996
5.412, 11, -3.02136, 23.5196, 32.3545, -3.19632, -67.6818, 1.83082
5.416, 11, -3.05859, 23.5759, 32.315, -3.23341, -67.7542, 1.85162
5.42, 11, -3.09579, 23.6323, 32.2754, -3.27042, -67.8266, 1.87237
5.424, 11, -3.13295, 23.6887, 32.2357, -3.30735, -67.8988, 1.89306
5.428, 11, -3.17007, 23.7451, 32.1959, -3.34418, -67.971, 1.9137
5.432, 11, -3.20716, 23.8015, 32.1559, -3.38093, -68.0432, 1.93428
5.436, 11, -3.24421, 23.858, 32.1159, -3.41759, -68.1152, 1.95481
5.44, 11, -3.28122, 23.9146, 32.0757, -3.45416, -68.1872, 1.97529
5.444, 11, -3.3182, 23.9711, 32.0354, -3.49065, -68.2591, 1.99571
5.448, 11, -3.35514, 24.0277, 31.995, -3.52705, -68.3309, 2.01608
5.452, 11, -3.39205, 24.0843, 31.9545, -3.56337, -68.4026, 2.03639
5.456, 11, -3.42892, 24.1409, 31.9139, -3.59959, -68.4743, 2.05666
5.46, 11, -3.46575, 24.1976, 31.8731, -3.63574, -68.5459, 2.07687
5.464, 11, -3.50254, 24.2543, 31.8323, -3.67179, -68.6174, 2.09703
5.468, 11, -3.5393, 24.311, 31.7913, -3.70777, -68.6889, 2.11714
5.472, 11, -3.57603, 24.3678, 31.7502, -3.74365, -68.7603, 2.1372
5.476, 11, -3.61271, 24.4246, 31.709, -3.77945, -68.8315, 2.15721
5.48, 11, -3.64936, 24.4814, 31.6677, -3.81517, -68.9028, 2.17716
5.484, 11, -3.68598, 24.5383, 31.6262, -3.8508, -68.9739, 2.19707
5.488, 11, -3.72256, 24.5951, 31.5847, -3.88635, -69.045, 2.21693
5.492, 11, -3.7591, 24.652, 31.543, -3.92181, -69.1159, 2.23674
5.496, 11, -3.7956, 24.709, 31.5012, -3.95719, -69.1869, 2.2565
5.5, 11, -3.83207, 24.766, 31.4593, -3.99249, -69.2577, 2.27621
5.504, 11, -3.8685, 24.823, 31.4173, -4.0277, -69.3284, 2.29587
5.508, 12, -3.90489, 24.88, 31.3751, -4.06283, -69.3991, 2.31548
5.512, 12, -3.94125, 24.937, 31.3329, -4.09787, -69.4697, 2.33505
5.516, 12, -3.97757, 24.9941, 31.2905, -4.13283, -69.5402, 2.35457
5.52, 12, -4.01385, 25.0513, 31.248, -4.16771, -69.6106, 2.37404
5.524, 12, -4.0501, 25.1084, 31.2054, -4.20251, -69.681, 2.39346
5.528, 12, -4.08631, 25.1656, 31.1626, -4.23722, -69.7513, 2.41284
5.532, 12, -4.12248, 25.2228, 31.1198, -4.27185, -69.8215, 2.43218
5.536, 12, -4.15862, 25.28, 31.0768, -4.3064, -69.8916, 2.45146
5.54, 12, -4.19471, 25.3373, 31.0338, -4.34087, -69.9616, 2.47071
5.544, 12, -4.23078, 25.3946, 30.9906, -4.37525, -70.0316, 2.4899
5.548, 12, -4.2668, 25.4519, 30.9473, -4.40956, -70.1015, 2.50905
5.552, 12, -4.30279, 25.5092, 30.9038, -4.44378, -70.1713, 2.52816
5.556, 12, -4.33874, 25.5666, 30.8603, -4.47792, -70.241, 2.54723
5.56, 12, -4.37465, 25.624, 30.8166, -4.51199, -70.3106, 2.56625
5.564, 12, -4.41053, 25.6814, 30.7729, -4.54597, -70.3802, 2.58522
5.568, 12, -4.44636, 25.7389, 30.729, -4.57987, -70.4497, 2.60416
5.572, 12, -4.48217, 25.7964, 30.685, -4.61369, -70.5191, 2.62305
5.576, 12, -4.51793, 25.8539, 30.6408, -4.64743, -70.5884, 2.6419
5.58, 12, -4.55366, 25.9114, 30.5966, -4.68109, -70.6576, 2.6607
5.584, 12, -4.58935, 25.969, 30.5522, -4.71467, -70.7268, 2.67947
5.588, 12, -4.625, 26.0266, 30.5078, -4.74817, -70.7958, 2.69819
5.592, 12, -4.66062, 26.0842, 30.4632, -4.78159, -70.8648, 2.71687
5.596, 12, -4.6962, 26.1418, 30.4185, -4.81494, -70.9337, 2.73551
5.6, 12, -4.73174, 26.1995, 30.3736, -4.8482, -71.0026, 2.75412
5.604, 12, -4.76725, 26.2572, 30.3287, -4.88139, -71.0713, 2.77268
5.608, 12, -4.80272, 26.3149, 30.2836, -4.9145, -71.14, 2.7912
5.612, 12, -4.83815, 26.3727, 30.2385, -4.94753, -71.2085, 2.80968
5.616, 12, -4.87354, 26.4305, 30.1932, -4.98048, -71.277, 2.82812
5.62, 12, -4.9089, 26.4883, 30.1478, -5.01335, -71.3455, 2.84653
5.624, 12, -4.94422, 26.5461, 30.1023, -5.04615, -71.4138, 2.86489
5.628, 12, -4.9795, 26.6039, 30.0566, -5.07887, -71.482, 2.88322
5.632, 12, -5.01475, 26.6618, 30.0109, -5.11151, -71.5502, 2.90151
5.636, 12, -5.04996, 26.7197, 29.965, -5.14408, -71.6183, 2.91977
5.64, 12, -5.08513, 26.7777, 29.919, -5.17657, -71.6863, 2.93798
5.644, 12, -5.12026, 26.8356, 29.8729, -5.20898, -71.7542, 2.95616
5.648, 12, -5.15536, 26.8936, 29.8267, -5.24132, -71.822, 2.9743
5.652, 12, -5.19042, 26.9516, 29.7804, -5.27358, -71.8898, 2.99241
5.656, 12, -5.22544, 27.0096, 29.734, -5.30577, -71.9575, 3.01048
5.66, 12, -5.26043, 27.0677, 29.6874, -5.33788, -72.0251, 3.02851
5.664, 12, -5.29538, 27.1258, 29.6407, -5.36991, -72.0926, 3.04651
5.668, 12, -5.33029, 27.1839, 29.594, -5.40187, -72.16, 3.06448
5.672, 12, -5.36516, 27.242, 29.5471, -5.43375, -72.2273, 3.08241
5.676, 12, -5.4, 27.3001, 29.5, -5.46556, -72.2946, 3.1003
5.68, 12, -5.4348, 27.3583, 29.4529, -5.49729, -72.3617, 3.11816
5.684, 12, -5.46957, 27.4165, 29.4057, -5.52895, -72.4288, 3.13599
5.688, 12, -5.5043, 27.4747, 29.3583, -5.56054, -72.4958, 3.15378
5.692, 12, -5.53899, 27.533, 29.3108, -5.59205, -72.5627, 3.17154
5.696, 12, -5.57364, 27.5913, 29.2632, -5.62348, -72.6295, 3.18927
5.7, 12, -5.60826, 27.6496, 29.2155, -5.65484, -72.6963, 3.20696
5.704, 12, -5.64284, 27.7079, 29.1677, -5.68613, -72.7629, 3.22463
5.708, 12, -5.67738, 27.7662, 29.1197, -5.71735, -72.8295, 3.24226
5.712, 12, -5.71188, 27.8246, 29.0717, -5.74849, -72.896, 3.25986
5.716, 12, -5.74635, 27.883, 29.0235, -5.77955, -72.9624, 3.27742
5.72, 12, -5.78078, 27.9414, 28.9752, -5.81055, -73.0287, 3.29496
5.724, 12, -5.81517, 27.9998, 28.9268, -5.84147, -73.0949, 3.31246
5.728, 12, -5.84953, 28.0583, 28.8783, -5.87231, -73.1611, 3.32994
5.732, 12, -5.88385, 28.1168, 28.8297, -5.90309, -73.2271, 3.34738
5.736, 12, -5.91813, 28.1753, 28.7809, -5.93379, -73.2931, 3.36479
5.74, 12, -5.95237, 28.2338, 28.7321, -5.96442, -73.359, 3.38218
5.744, 12, -5.98658, 28.2923, 28.6831, -5.99498, -73.4248, 3.39953
5.748, 12, -6.02075, 28.3509, 28.634, -6.02546, -73.4905, 3.41685
5.752, 12, -6.05488, 28.4095, 28.5848, -6.05587, -73.5562, 3.43415
5.756, 12, -6.08898, 28.4681, 28.5355, -6.08621, -73.6217, 3.45142
5.76, 12, -6.12304, 28.5268, 28.486, -6.11648, -73.6871, 3.46865
5.764, 12, -6.15706, 28.5854, 28.4365, -6.14668, -73.7525, 3.48586
5.768, 12, -6.19105, 28.6441, 28.3868, -6.1768, -73.8178, 3.50305
5.772, 12, -6.22499, 28.7028, 28.337, -6.20685, -73.883, 3.5202
5.776, 12, -6.2589, 28.7616, 28.2871, -6.23684, -73.9481, 3.53733
5.78, 12, -6.29278, 28.8203, 28.2371, -6.26675, -74.0131, 3.55443
5.784, 12, -6.32661, 28.8791, 28.187, -6.29659, -74.078, 3.5715
5.788, 12, -6.36041, 28.9379, 28.1367, -6.32635, -74.1429, 3.58854
5.792, 12, -6.39417, 28.9967, 28.0864, -6.35605, -74.2076, 3.60556
5.796, 12, -6.4279, 29.0555, 28.0359, -6.38568, -74.2723, 3.62256
5.8, 12, -6.46158, 29.1144, 27.9853, -6.41523, -74.3369, 3.63952
5.804, 12, -6.49523, 29.1733, 27.9346, -6.44472, -74.4014, 3.65647
5.808, 12, -6.52884, 29.2322, 27.8838, -6.47413, -74.4658, 3.67338
5.812, 13, -6.56242, 29.2911, 27.8328, -6.50348, -74.5301, 3.69027
5.816, 13, -6.59596, 29.3501, 27.7818, -6.53275, -74.5943, 3.70714
5.82, 13, -6.62946, 29.409, 27.7306, -6.56196, -74.6585, 3.72398
5.824, 13, -6.66292, 29.468, 27.6793, -6.59109, -74.7225, 3.7408
5.828, 13, -6.69635, 29.527, 27.6279, -6.62016, -74.7865, 3.75759
5.832, 13, -6.72973, 29.5861, 27.5764, -6.64916, -74.8504, 3.77436
5.836, 13, -6.76308, 29.6451, 27.5248, -6.67808, -74.9141, 3.79111
5.84, 13, -6.7964, 29.7042, 27.473, -6.70694, -74.9778, 3.80783
5.844, 13, -6.82968, 29.7633, 27.4212, -6.73573, -75.0415, 3.82453
5.848, 13, -6.86291, 29.8224, 27.3692, -6.76444, -75.105, 3.84121
5.852, 13, -6.89612, 29.8815, 27.3171, -6.79309, -75.1684, 3.85786
5.856, 13, -6.92928, 29.9407, 27.2649, -6.82167, -75.2317, 3.87449
5.86, 13, -6.96241, 29.9999, 27.2126, -6.85019, -75.295, 3.8911
5.864, 13, -6.9955, 30.0591, 27.1601, -6.87863, -75.3581, 3.90769
5.868, 13, -7.02855, 30.1183, 27.1076, -6.907, -75.4212, 3.92425
5.872, 13, -7.06157, 30.1775, 27.0549, -6.93531, -75.4842, 3.9408
5.876, 13, -7.09455, 30.2368, 27.0021, -6.96355, -75.5471, 3.95732
5.88, 13, -7.12749, 30.2961, 26.9492, -6.99172, -75.6099, 3.97383
5.884, 13, -7.16039, 30.3554, 26.8962, -7.01982, -75.6726, 3.99031
5.888, 13, -7.19326, 30.4147, 26.8431, -7.04785, -75.7352, 4.00677
5.892, 13, -7.22609, 30.474, 26.7898, -7.07581, -75.7978, 4.02321
5.896, 13, -7.25889, 30.5334, 26.7365, -7.10371, -75.8602, 4.03963
5.9, 13, -7.29164, 30.5928, 26.683, -7.13154, -75.9225, 4.05603
5.904, 13, -7.32436, 30.6522, 26.6294, -7.1593, -75.9848, 4.07242
5.908, 13, -7.35704, 30.7116, 26.5757, -7.187, -76.047, 4.08878
5.912, 13, -7.38968, 30.7711, 26.5218, -7.21462, -76.109, 4.10512
5.916, 13, -7.42229, 30.8305, 26.4679, -7.24218, -76.171, 4.12145
5.92, 13, -7.45486, 30.89, 26.4138, -7.26968, -76.2329, 4.13776
5.924, 13, -7.48739, 30.9495, 26.3597, -7.2971, -76.2947, 4.15405
5.928, 13, -7.51989, 31.009, 26.3054, -7.32446, -76.3564, 4.17032
5.932, 13, -7.55234, 31.0686, 26.251, -7.35175, -76.4181, 4.18657
5.936, 13, -7.58476, 31.1281, 26.1965, -7.37897, -76.4796, 4.20281
5.94, 13, -7.61715, 31.1877, 26.1418, -7.40613, -76.541, 4.21902
5.944, 13, -7.64949, 31.2473, 26.0871, -7.43322, -76.6024, 4.23522
