hehonglu123/ABB_Primitive_Study/execution/moveljl_30_car/curve_exe_v300_fine.csv
timestamp, cmd_num, J1, J2, J3, J4, J5, J6
0, -1, -13.4393, 43.6787, 12.5946, -11.6275, -87.029, 7.42441
0.002, -1, -13.4393, 43.6787, 12.5946, -11.6275, -87.029, 7.42441
0.006, -1, -13.4393, 43.6787, 12.5946, -11.6275, -87.029, 7.42441
0.008, -1, -13.4393, 43.6787, 12.5946, -11.6275, -87.029, 7.42441
0.011, -1, -13.4393, 43.6787, 12.5946, -11.6275, -87.029, 7.42441
0.016, -1, -13.4393, 43.6787, 12.5946, -11.6275, -87.029, 7.42441
0.02, -1, -13.4393, 43.6787, 12.5946, -11.6275, -87.029, 7.42441
0.024, -1, -13.4393, 43.6787, 12.5946, -11.6275, -87.029, 7.42441
0.028, -1, -13.4393, 43.6787, 12.5946, -11.6275, -87.029, 7.42441
0.032, -1, -13.4393, 43.6787, 12.5946, -11.6275, -87.029, 7.42441
0.036, -1, -13.4392, 43.6786, 12.5946, -11.6275, -87.029, 7.42441
0.04, -1, -13.439, 43.6785, 12.5946, -11.6275, -87.029, 7.42441
0.044, -1, -13.4384, 43.678, 12.5947, -11.6275, -87.029, 7.42439
0.048, -1, -13.4372, 43.6772, 12.5949, -11.6274, -87.0289, 7.42434
0.052, -1, -13.4355, 43.6758, 12.5951, -11.6273, -87.0287, 7.42422
0.056, -1, -13.433, 43.6738, 12.5955, -11.627, -87.0284, 7.42397
0.06, -1, -13.4296, 43.671, 12.5961, -11.6264, -87.0277, 7.42349
0.064, -1, -13.4254, 43.6675, 12.5969, -11.6253, -87.0264, 7.42266
0.068, -1, -13.4203, 43.6631, 12.598, -11.6236, -87.0244, 7.42132
0.072, -1, -13.4141, 43.6579, 12.5994, -11.6209, -87.0213, 7.41928
0.076, -1, -13.4066, 43.6516, 12.6011, -11.617, -87.0167, 7.4163
0.08, -1, -13.3977, 43.6442, 12.6034, -11.6115, -87.0103, 7.41213
0.084, -1, -13.3869, 43.6352, 12.6062, -11.604, -87.0016, 7.40644
0.088, -1, -13.3743, 43.6247, 12.6097, -11.5941, -86.9899, 7.39892
0.092, -1, -13.3596, 43.6124, 12.6138, -11.5812, -86.9748, 7.38918
0.096, -1, -13.3427, 43.5982, 12.6186, -11.5648, -86.9557, 7.37685
0.1, -1, -13.3235, 43.582, 12.6243, -11.5444, -86.9319, 7.36155
0.104, -1, -13.3019, 43.5636, 12.6308, -11.5196, -86.9029, 7.3429
0.108, -1, -13.2776, 43.5427, 12.6382, -11.4899, -86.868, 7.32054
0.112, -1, -13.2505, 43.5193, 12.6467, -11.4547, -86.8269, 7.29416
0.116, -1, -13.2206, 43.4932, 12.6562, -11.4137, -86.7789, 7.26346
0.12, -1, -13.1877, 43.4644, 12.6669, -11.3667, -86.7238, 7.22818
0.124, -1, -13.1519, 43.4328, 12.6786, -11.3132, -86.6612, 7.18814
0.128, -1, -13.113, 43.3984, 12.6916, -11.2532, -86.591, 7.14319
0.131, -1, -13.071, 43.3611, 12.7056, -11.1865, -86.5129, 7.09326
0.136, -1, -13.026, 43.321, 12.7209, -11.1131, -86.4269, 7.03835
0.139, -1, -12.9779, 43.2779, 12.7373, -11.0331, -86.3333, 6.9785
0.144, -1, -12.9267, 43.232, 12.7548, -10.9467, -86.2321, 6.91384
0.148, -1, -12.8726, 43.1833, 12.7734, -10.854, -86.1236, 6.84454
0.152, -1, -12.8155, 43.132, 12.7932, -10.7555, -86.0082, 6.77084
0.156, -1, -12.7557, 43.0781, 12.8139, -10.6514, -85.8863, 6.69301
0.16, -1, -12.6932, 43.0219, 12.8355, -10.5422, -85.7585, 6.61137
0.164, -1, -12.6282, 42.9633, 12.8581, -10.4284, -85.6253, 6.52627
0.168, -1, -12.5607, 42.9025, 12.8815, -10.3105, -85.4872, 6.43809
0.172, -1, -12.4909, 42.8396, 12.9056, -10.189, -85.3449, 6.34721
0.176, -1, -12.4189, 42.7749, 12.9305, -10.0644, -85.1989, 6.25399
0.18, -1, -12.345, 42.7085, 12.956, -9.93711, -85.0499, 6.15879
0.184, -1, -12.2694, 42.6406, 12.9821, -9.80765, -84.8983, 6.06194
0.188, -1, -12.1925, 42.5714, 13.0086, -9.6764, -84.7446, 5.96375
0.192, -1, -12.1142, 42.5011, 13.0356, -9.54373, -84.5892, 5.86449
0.196, -1, -12.0348, 42.4297, 13.0629, -9.40995, -84.4326, 5.76439
0.2, -1, -11.9542, 42.3573, 13.0906, -9.27534, -84.2749, 5.66366
0.204, -1, -11.8724, 42.2841, 13.1185, -9.14011, -84.1166, 5.56246
0.208, -1, -11.7897, 42.21, 13.1466, -9.00443, -83.9577, 5.46092
0.212, -1, -11.7061, 42.1354, 13.1749, -8.86843, -83.7985, 5.35913
0.216, -1, -11.6218, 42.0602, 13.2033, -8.7322, -83.6389, 5.25717
0.22, -1, -11.5371, 41.9847, 13.2318, -8.5958, -83.4792, 5.15507
0.224, -1, -11.452, 41.909, 13.2603, -8.45928, -83.3194, 5.05288
0.228, -1, -11.3667, 41.8332, 13.2889, -8.32266, -83.1594, 4.95062
0.232, -1, -11.2813, 41.7572, 13.3176, -8.18597, -82.9993, 4.8483
0.236, -1, -11.1957, 41.6811, 13.3462, -8.04922, -82.8392, 4.74595
0.24, -1, -11.11, 41.605, 13.3749, -7.91243, -82.679, 4.64355
0.244, -1, -11.0243, 41.5288, 13.4035, -7.77561, -82.5188, 4.54114
0.248, -1, -10.9386, 41.4526, 13.4322, -7.63876, -82.3586, 4.4387
0.252, -1, -10.8528, 41.3764, 13.4609, -7.50189, -82.1983, 4.33625
0.256, -1, -10.767, 41.3002, 13.4896, -7.36501, -82.0381, 4.2338
0.26, -1, -10.6811, 41.2239, 13.5183, -7.22813, -81.8778, 4.13133
0.264, -1, -10.5953, 41.1477, 13.547, -7.09125, -81.7175, 4.02887
0.268, -1, -10.5094, 41.0714, 13.5757, -6.95436, -81.5572, 3.92641
0.272, -1, -10.4236, 40.9952, 13.6044, -6.81749, -81.397, 3.82396
0.276, -1, -10.3378, 40.9189, 13.6331, -6.68063, -81.2367, 3.72151
0.28, -1, -10.252, 40.8427, 13.6618, -6.54379, -81.0765, 3.61908
0.284, -1, -10.1661, 40.7665, 13.6904, -6.40697, -80.9163, 3.51666
0.288, -1, -10.0803, 40.6903, 13.7191, -6.27017, -80.7561, 3.41427
0.292, -1, -9.99456, 40.6141, 13.7478, -6.13341, -80.596, 3.31189
0.296, -1, -9.9088, 40.538, 13.7764, -5.99668, -80.4359, 3.20955
0.3, -1, -9.82306, 40.4618, 13.8051, -5.85999, -80.2758, 3.10723
0.304, -1, -9.73734, 40.3857, 13.8337, -5.72334, -80.1158, 3.00494
0.308, -1, -9.65166, 40.3096, 13.8624, -5.58674, -79.9558, 2.90269
0.312, -1, -9.566, 40.2336, 13.891, -5.45019, -79.796, 2.80048
0.316, -1, -9.48038, 40.1575, 13.9196, -5.31369, -79.6361, 2.69831
0.32, -1, -9.3948, 40.0815, 13.9482, -5.17726, -79.4764, 2.59618
0.324, -1, -9.30925, 40.0055, 13.9768, -5.04089, -79.3167, 2.4941
0.328, -1, -9.22375, 39.9296, 14.0054, -4.90458, -79.1571, 2.39207
0.332, -1, -9.13829, 39.8537, 14.0339, -4.76835, -78.9976, 2.2901
0.336, -1, -9.05287, 39.7778, 14.0625, -4.63219, -78.8382, 2.18818
0.34, -1, -8.9675, 39.702, 14.091, -4.49612, -78.6788, 2.08632
0.344, -1, -8.88219, 39.6262, 14.1195, -4.36012, -78.5196, 1.98452
0.348, -1, -8.79692, 39.5505, 14.148, -4.22421, -78.3604, 1.88279
0.352, -1, -8.71172, 39.4748, 14.1765, -4.0884, -78.2014, 1.78113
0.356, -1, -8.62657, 39.3992, 14.2049, -3.95267, -78.0425, 1.67953
0.36, -1, -8.54148, 39.3236, 14.2334, -3.81705, -77.8837, 1.57801
0.364, -1, -8.45646, 39.2481, 14.2618, -3.68152, -77.725, 1.47657
0.368, -1, -8.3715, 39.1727, 14.2902, -3.54611, -77.5664, 1.3752
0.372, -1, -8.28661, 39.0973, 14.3185, -3.4108, -77.408, 1.27392
0.376, -1, -8.20179, 39.0219, 14.3469, -3.2756, -77.2497, 1.17272
0.38, -1, -8.11704, 38.9467, 14.3752, -3.14052, -77.0915, 1.07161
0.384, -1, -8.03237, 38.8715, 14.4035, -3.00557, -76.9335, 0.970588
0.388, -1, -7.94777, 38.7963, 14.4318, -2.87073, -76.7756, 0.869659
0.392, -1, -7.86325, 38.7212, 14.46, -2.73602, -76.6179, 0.768825
0.396, -1, -7.77881, 38.6463, 14.4882, -2.60145, -76.4603, 0.668089
0.4, -1, -7.69446, 38.5713, 14.5164, -2.467, -76.3029, 0.567454
0.404, -1, -7.61019, 38.4965, 14.5446, -2.3327, -76.1456, 0.466921
0.408, -1, -7.526, 38.4217, 14.5727, -2.19854, -75.9885, 0.366494
0.412, -1, -7.44191, 38.347, 14.6008, -2.06452, -75.8316, 0.266176
0.416, -1, -7.35791, 38.2724, 14.6288, -1.93064, -75.6748, 0.165968
0.42, -1, -7.274, 38.1979, 14.6569, -1.79692, -75.5183, 0.0658724
0.424, -1, -7.19019, 38.1235, 14.6849, -1.66336, -75.3619, -0.0341072
0.428, -1, -7.10648, 38.0491, 14.7128, -1.52995, -75.2057, -0.133969
0.432, -1, -7.02287, 37.9748, 14.7408, -1.3967, -75.0496, -0.233711
0.436, -1, -6.93935, 37.9007, 14.7687, -1.26362, -74.8938, -0.33333
0.44, -1, -6.85595, 37.8266, 14.7965, -1.1307, -74.7382, -0.432824
0.444, -1, -6.77264, 37.7526, 14.8244, -0.99795, -74.5827, -0.532191
0.448, -1, -6.68945, 37.6787, 14.8522, -0.865375, -74.4275, -0.631429
0.452, -1, -6.60636, 37.6049, 14.8799, -0.732975, -74.2725, -0.730535
0.456, -1, -6.52339, 37.5312, 14.9077, -0.600755, -74.1176, -0.829507
0.46, -1, -6.44053, 37.4576, 14.9353, -0.468716, -73.963, -0.928344
0.464, -1, -6.35778, 37.3842, 14.963, -0.336861, -73.8086, -1.02704
0.468, -1, -6.27515, 37.3108, 14.9906, -0.205193, -73.6545, -1.1256
0.472, -1, -6.19264, 37.2375, 15.0181, -0.0737153, -73.5005, -1.22402
0.476, -1, -6.11024, 37.1643, 15.0457, 0.0575699, -73.3468, -1.32229
0.48, -1, -6.02797, 37.0912, 15.0732, 0.18866, -73.1933, -1.42042
0.484, -1, -5.94582, 37.0183, 15.1006, 0.319552, -73.04, -1.51839
0.488, -1, -5.8638, 36.9454, 15.128, 0.450244, -72.887, -1.61622
0.492, -1, -5.7819, 36.8727, 15.1554, 0.580734, -72.7342, -1.7139
0.496, -1, -5.70012, 36.8001, 15.1827, 0.711018, -72.5817, -1.81142
0.5, -1, -5.61848, 36.7276, 15.2099, 0.841096, -72.4294, -1.90879
0.504, -1, -5.53697, 36.6552, 15.2372, 0.970964, -72.2773, -2.006
0.508, -1, -5.45558, 36.5829, 15.2644, 1.10062, -72.1255, -2.10306
0.512, -1, -5.37433, 36.5108, 15.2915, 1.23006, -71.9739, -2.19995
0.516, -1, -5.29321, 36.4387, 15.3186, 1.35929, -71.8226, -2.29668
0.52, -1, -5.21223, 36.3668, 15.3456, 1.4883, -71.6715, -2.39325
0.524, -1, -5.13138, 36.295, 15.3726, 1.6171, -71.5207, -2.48966
0.528, -1, -5.05067, 36.2233, 15.3996, 1.74567, -71.3702, -2.5859
0.532, -1, -4.97009, 36.1518, 15.4265, 1.87402, -71.2199, -2.68198
0.536, -1, -4.88966, 36.0803, 15.4534, 2.00215, -71.0698, -2.77789
0.54, -1, -4.80936, 36.009, 15.4802, 2.13005, -70.9201, -2.87363
0.544, -1, -4.7292, 35.9378, 15.507, 2.25773, -70.7706, -2.9692
0.548, -1, -4.64919, 35.8668, 15.5337, 2.38518, -70.6213, -3.0646
0.552, -1, -4.56931, 35.7959, 15.5604, 2.51241, -70.4724, -3.15984
0.556, -1, -4.48958, 35.725, 15.587, 2.6394, -70.3237, -3.2549
0.56, -1, -4.41, 35.6544, 15.6136, 2.76617, -70.1752, -3.34979
0.564, -1, -4.33056, 35.5838, 15.6401, 2.8927, -70.0271, -3.44451
0.568, -1, -4.25126, 35.5134, 15.6666, 3.01901, -69.8792, -3.53905
0.572, -1, -4.17211, 35.4431, 15.693, 3.14508, -69.7316, -3.63342
0.576, -1, -4.0931, 35.373, 15.7194, 3.27092, -69.5842, -3.72761
0.58, -1, -4.01424, 35.3029, 15.7458, 3.39652, -69.4372, -3.82163
0.584, -1, -3.93553, 35.233, 15.772, 3.52189, -69.2904, -3.91547
0.588, -1, -3.85696, 35.1633, 15.7983, 3.64702, -69.1438, -4.00914
0.592, -1, -3.77855, 35.0936, 15.8245, 3.77191, -68.9976, -4.10263
0.596, -1, -3.70028, 35.0241, 15.8506, 3.89657, -68.8516, -4.19594
0.6, -1, -3.62216, 34.9548, 15.8767, 4.02099, -68.7059, -4.28908
0.604, -1, -3.54419, 34.8855, 15.9027, 4.14517, -68.5605, -4.38203
0.608, -1, -3.46637, 34.8164, 15.9287, 4.26911, -68.4154, -4.47481
0.612, -1, -3.3887, 34.7474, 15.9547, 4.39281, -68.2706, -4.5674
0.616, -1, -3.31118, 34.6786, 15.9806, 4.51628, -68.126, -4.65982
0.62, -1, -3.23382, 34.6099, 16.0064, 4.63949, -67.9817, -4.75205
0.624, -1, -3.1566, 34.5413, 16.0322, 4.76247, -67.8377, -4.84411
0.628, -1, -3.07954, 34.4729, 16.0579, 4.88521, -67.694, -4.93598
0.632, -1, -3.00262, 34.4046, 16.0836, 5.0077, -67.5506, -5.02767
0.636, -1, -2.92586, 34.3364, 16.1092, 5.12995, -67.4074, -5.11918
0.64, -1, -2.84926, 34.2684, 16.1348, 5.25195, -67.2646, -5.2105
0.644, -1, -2.7728, 34.2005, 16.1604, 5.37371, -67.122, -5.30165
0.648, -1, -2.6965, 34.1328, 16.1858, 5.49523, -66.9797, -5.39261
0.652, -1, -2.62035, 34.0652, 16.2113, 5.6165, -66.8377, -5.48338
0.656, -1, -2.54436, 33.9977, 16.2366, 5.73753, -66.696, -5.57398
0.66, -1, -2.46852, 33.9303, 16.262, 5.85831, -66.5546, -5.66439
0.664, -1, -2.39283, 33.8631, 16.2872, 5.97884, -66.4135, -5.75461
0.668, -1, -2.3173, 33.7961, 16.3125, 6.09913, -66.2726, -5.84465
0.672, -1, -2.24192, 33.7291, 16.3376, 6.21917, -66.1321, -5.93451
0.676, -1, -2.1667, 33.6623, 16.3628, 6.33897, -65.9918, -6.02418
0.68, -1, -2.09163, 33.5957, 16.3878, 6.45851, -65.8518, -6.11367
0.684, -1, -2.01672, 33.5292, 16.4129, 6.57781, -65.7121, -6.20297
0.688, -1, -1.94196, 33.4628, 16.4378, 6.69687, -65.5727, -6.29208
0.692, -1, -1.86736, 33.3965, 16.4627, 6.81567, -65.4336, -6.38101
0.696, -1, -1.79291, 33.3304, 16.4876, 6.93423, -65.2948, -6.46976
0.7, -1, -1.71862, 33.2645, 16.5124, 7.05254, -65.1562, -6.55832
0.704, -1, -1.64448, 33.1986, 16.5372, 7.1706, -65.018, -6.64669
0.708, -1, -1.5705, 33.1329, 16.5619, 7.28841, -64.8801, -6.73488
0.712, -1, -1.49668, 33.0674, 16.5865, 7.40597, -64.7424, -6.82288
0.716, -1, -1.42301, 33.002, 16.6111, 7.52329, -64.605, -6.9107
0.72, -1, -1.34949, 32.9367, 16.6357, 7.64036, -64.468, -6.99833
0.724, -1, -1.27614, 32.8715, 16.6602, 7.75718, -64.3312, -7.08577
0.728, -1, -1.20293, 32.8065, 16.6846, 7.87375, -64.1947, -7.17303
0.732, -1, -1.12989, 32.7417, 16.709, 7.99007, -64.0585, -7.2601
0.736, -1, -1.057, 32.677, 16.7333, 8.10615, -63.9226, -7.34699
0.74, -1, -0.984259, 32.6124, 16.7576, 8.22197, -63.7869, -7.43369
0.744, -1, -0.911678, 32.5479, 16.7819, 8.33755, -63.6516, -7.52021
0.748, -1, -0.839252, 32.4836, 16.8061, 8.45288, -63.5166, -7.60653
0.752, -1, -0.766981, 32.4194, 16.8302, 8.56796, -63.3818, -7.69268
0.756, -1, -0.694864, 32.3554, 16.8543, 8.6828, -63.2474, -7.77864
0.76, -1, -0.622901, 32.2915, 16.8783, 8.79738, -63.1132, -7.86441
0.764, -1, -0.551092, 32.2277, 16.9023, 8.91172, -62.9793, -7.95
0.768, -1, -0.479437, 32.1641, 16.9262, 9.02582, -62.8457, -8.0354
0.772, -1, -0.407935, 32.1006, 16.9501, 9.13966, -62.7124, -8.12062
0.776, -1, -0.336586, 32.0373, 16.9739, 9.25326, -62.5794, -8.20566
0.78, -1, -0.26539, 31.9741, 16.9977, 9.36662, -62.4467, -8.29051
0.784, -1, -0.194346, 31.911, 17.0214, 9.47973, -62.3142, -8.37518
0.788, -1, -0.123455, 31.848, 17.0451, 9.5926, -62.182, -8.45966
0.792, -1, -0.0527154, 31.7852, 17.0687, 9.70522, -62.0502, -8.54397
0.796, -1, 0.0178725, 31.7226, 17.0923, 9.81761, -61.9186, -8.62809
0.8, -1, 0.0883091, 31.66, 17.1158, 9.92975, -61.7873, -8.71204
0.804, -1, 0.158595, 31.5976, 17.1393, 10.0417, -61.6562, -8.7958
0.808, -1, 0.22873, 31.5353, 17.1627, 10.1533, -61.5255, -8.87938
0.812, -1, 0.298716, 31.4732, 17.186, 10.2647, -61.395, -8.96279
0.816, -1, 0.368552, 31.4112, 17.2094, 10.3759, -61.2648, -9.04602
0.82, -1, 0.438239, 31.3493, 17.2326, 10.4869, -61.1349, -9.12907
0.824, -1, 0.507778, 31.2876, 17.2559, 10.5976, -61.0053, -9.21194
0.828, -1, 0.577169, 31.226, 17.279, 10.7081, -60.8759, -9.29464
0.832, -1, 0.646413, 31.1645, 17.3021, 10.8183, -60.7468, -9.37716
0.836, -1, 0.71551, 31.1031, 17.3252, 10.9283, -60.618, -9.45951
0.84, -1, 0.78446, 31.0419, 17.3482, 11.0381, -60.4895, -9.54168
0.844, -1, 0.853265, 30.9808, 17.3712, 11.1476, -60.3612, -9.62368
0.848, -1, 0.921925, 30.9199, 17.3941, 11.2569, -60.2332, -9.7055
0.852, -1, 0.990441, 30.859, 17.417, 11.366, -60.1055, -9.78716
0.856, -1, 1.05881, 30.7983, 17.4398, 11.4749, -59.9781, -9.86864
0.86, -1, 1.12704, 30.7378, 17.4626, 11.5835, -59.8509, -9.94995
0.864, -1, 1.19512, 30.6773, 17.4854, 11.6919, -59.7239, -10.0311
0.868, -1, 1.26307, 30.617, 17.508, 11.8001, -59.5973, -10.1121
0.872, -1, 1.33087, 30.5568, 17.5307, 11.908, -59.4709, -10.1929
0.876, -1, 1.39853, 30.4967, 17.5533, 12.0157, -59.3448, -10.2735
0.88, -1, 1.46604, 30.4368, 17.5758, 12.1232, -59.2189, -10.354
0.884, -1, 1.53342, 30.377, 17.5983, 12.2305, -59.0933, -10.4343
0.888, -1, 1.60066, 30.3173, 17.6208, 12.3375, -58.9679, -10.5144
0.892, -1, 1.66775, 30.2577, 17.6432, 12.4444, -58.8429, -10.5943
0.896, -1, 1.73471, 30.1982, 17.6655, 12.551, -58.718, -10.6741
0.9, -1, 1.80153, 30.1389, 17.6878, 12.6574, -58.5935, -10.7538
0.904, -1, 1.86821, 30.0797, 17.7101, 12.7635, -58.4692, -10.8332
0.908, -1, 1.93476, 30.0206, 17.7323, 12.8695, -58.3451, -10.9125
0.912, -1, 2.00117, 29.9617, 17.7545, 12.9752, -58.2213, -10.9917
0.916, -1, 2.06744, 29.9028, 17.7766, 13.0807, -58.0978, -11.0707
0.92, -1, 2.13357, 29.8441, 17.7987, 13.186, -57.9745, -11.1495
0.924, -1, 2.19957, 29.7855, 17.8207, 13.2911, -57.8514, -11.2281
0.928, -1, 2.26543, 29.727, 17.8427, 13.3959, -57.7287, -11.3066
0.932, -1, 2.33116, 29.6687, 17.8647, 13.5006, -57.6061, -11.385
0.936, -1, 2.39676, 29.6104, 17.8866, 13.605, -57.4838, -11.4631
0.94, -1, 2.46222, 29.5523, 17.9084, 13.7092, -57.3618, -11.5412
0.944, -1, 2.52755, 29.4943, 17.9303, 13.8133, -57.24, -11.619
0.948, -1, 2.59275, 29.4364, 17.952, 13.9171, -57.1185, -11.6967
0.952, -1, 2.65781, 29.3787, 17.9738, 14.0206, -56.9972, -11.7743
0.956, -1, 2.72274, 29.321, 17.9954, 14.124, -56.8761, -11.8516
0.96, -1, 2.78755, 29.2635, 18.0171, 14.2272, -56.7553, -11.9289
0.964, -1, 2.85222, 29.2061, 18.0387, 14.3302, -56.6348, -12.0059
0.968, -1, 2.91676, 29.1488, 18.0602, 14.4329, -56.5144, -12.0829
0.972, -1, 2.98117, 29.0916, 18.0817, 14.5355, -56.3944, -12.1596
0.976, -1, 3.04545, 29.0345, 18.1032, 14.6378, -56.2745, -12.2362
0.98, -1, 3.10961, 28.9775, 18.1246, 14.7399, -56.1549, -12.3127
0.984, -1, 3.17363, 28.9207, 18.146, 14.8419, -56.0356, -12.389
0.988, -1, 3.23753, 28.864, 18.1673, 14.9436, -55.9165, -12.4651
0.992, -1, 3.3013, 28.8074, 18.1886, 15.0451, -55.7976, -12.5411
0.996, -1, 3.36494, 28.7508, 18.2099, 15.1465, -55.6789, -12.617
1, -1, 3.42846, 28.6945, 18.2311, 15.2476, -55.5605, -12.6927
1.004, -1, 3.49185, 28.6382, 18.2523, 15.3485, -55.4423, -12.7682
1.008, -1, 3.55512, 28.582, 18.2734, 15.4492, -55.3244, -12.8436
1.012, -1, 3.61826, 28.5259, 18.2945, 15.5498, -55.2067, -12.9189
1.016, -1, 3.68127, 28.47, 18.3155, 15.6501, -55.0892, -12.994
1.02, -1, 3.74416, 28.4142, 18.3365, 15.7502, -54.972, -13.0689
1.024, -1, 3.80693, 28.3584, 18.3575, 15.8502, -54.855, -13.1437
1.027, -1, 3.86958, 28.3028, 18.3784, 15.9499, -54.7382, -13.2184
1.032, -1, 3.9321, 28.2473, 18.3993, 16.0494, -54.6216, -13.2929
1.036, -1, 3.9945, 28.1919, 18.4201, 16.1488, -54.5053, -13.3673
1.04, -1, 4.05678, 28.1366, 18.4409, 16.2479, -54.3892, -13.4415
1.044, -1, 4.11893, 28.0814, 18.4616, 16.3469, -54.2733, -13.5156
1.048, -1, 4.18097, 28.0263, 18.4824, 16.4457, -54.1577, -13.5895
1.052, -1, 4.24289, 27.9714, 18.503, 16.5442, -54.0422, -13.6633
1.055, -1, 4.30468, 27.9165, 18.5237, 16.6426, -53.927, -13.7369
1.06, -1, 4.36636, 27.8617, 18.5443, 16.7408, -53.8121, -13.8104
1.064, -1, 4.42792, 27.8071, 18.5648, 16.8388, -53.6973, -13.8838
1.068, -1, 4.48936, 27.7525, 18.5853, 16.9366, -53.5828, -13.957
1.072, -1, 4.55068, 27.6981, 18.6058, 17.0343, -53.4685, -14.0301
1.076, -1, 4.61188, 27.6438, 18.6262, 17.1317, -53.3544, -14.103
1.08, -1, 4.67297, 27.5895, 18.6466, 17.229, -53.2405, -14.1758
1.084, -1, 4.73394, 27.5354, 18.667, 17.326, -53.1268, -14.2485
1.088, -1, 4.7948, 27.4814, 18.6873, 17.4229, -53.0134, -14.321
1.091, -1, 4.85554, 27.4274, 18.7076, 17.5196, -52.9002, -14.3934
1.096, -1, 4.91617, 27.3736, 18.7278, 17.6161, -52.7871, -14.4656
1.1, -1, 4.97668, 27.3199, 18.7481, 17.7125, -52.6743, -14.5378
1.104, -1, 5.03708, 27.2663, 18.7682, 17.8086, -52.5618, -14.6097
1.108, -1, 5.09737, 27.2127, 18.7883, 17.9046, -52.4494, -14.6816
1.112, -1, 5.15754, 27.1593, 18.8084, 18.0004, -52.3372, -14.7533
1.116, -1, 5.2176, 27.106, 18.8285, 18.096, -52.2253, -14.8249
1.119, -1, 5.27755, 27.0528, 18.8485, 18.1915, -52.1135, -14.8963
1.124, -1, 5.33739, 26.9996, 18.8685, 18.2867, -52.0019, -14.9676
1.128, -1, 5.39712, 26.9466, 18.8884, 18.3818, -51.8906, -15.0388
1.132, -1, 5.45673, 26.8937, 18.9083, 18.4767, -51.7795, -15.1098
1.136, -1, 5.51624, 26.8408, 18.9282, 18.5715, -51.6685, -15.1807
1.14, -1, 5.57564, 26.7881, 18.948, 18.666, -51.5578, -15.2515
1.144, -1, 5.63493, 26.7355, 18.9678, 18.7604, -51.4473, -15.3222
1.147, -1, 5.69412, 26.6829, 18.9876, 18.8547, -51.337, -15.3927
1.152, -1, 5.75319, 26.6305, 19.0073, 18.9487, -51.2268, -15.4631
1.156, -1, 5.81216, 26.5781, 19.027, 19.0426, -51.1169, -15.5334
1.16, -1, 5.87103, 26.5259, 19.0467, 19.1363, -51.0072, -15.6035
1.164, -1, 5.92979, 26.4737, 19.0663, 19.2298, -50.8976, -15.6736
1.168, -1, 5.98844, 26.4216, 19.0859, 19.3232, -50.7883, -15.7435
1.172, -1, 6.04699, 26.3696, 19.1054, 19.4164, -50.6792, -15.8132
1.175, -1, 6.10543, 26.3177, 19.1249, 19.5095, -50.5702, -15.8829
1.18, -1, 6.16377, 26.266, 19.1444, 19.6024, -50.4614, -15.9524
1.184, -1, 6.22201, 26.2142, 19.1639, 19.6951, -50.3529, -16.0218
1.188, -1, 6.28015, 26.1626, 19.1833, 19.7876, -50.2445, -16.0911
1.192, -1, 6.33818, 26.1111, 19.2027, 19.88, -50.1363, -16.1603
1.196, -1, 6.39611, 26.0597, 19.222, 19.9723, -50.0283, -16.2293
1.2, -1, 6.45394, 26.0083, 19.2413, 20.0643, -49.9205, -16.2982
1.204, -1, 6.51167, 25.9571, 19.2606, 20.1562, -49.8129, -16.367
1.208, -1, 6.5693, 25.9059, 19.2798, 20.248, -49.7055, -16.4357
1.212, -1, 6.62683, 25.8548, 19.299, 20.3396, -49.5982, -16.5042
1.216, -1, 6.68426, 25.8038, 19.3182, 20.431, -49.4912, -16.5727
1.22, -1, 6.74159, 25.7529, 19.3374, 20.5223, -49.3843, -16.641
1.224, -1, 6.79882, 25.7021, 19.3565, 20.6134, -49.2776, -16.7092
1.228, -1, 6.85596, 25.6514, 19.3756, 20.7044, -49.1711, -16.7773
1.232, -1, 6.91299, 25.6008, 19.3946, 20.7952, -49.0648, -16.8453
1.236, -1, 6.96993, 25.5502, 19.4136, 20.8858, -48.9586, -16.9131
1.24, -1, 7.02678, 25.4997, 19.4326, 20.9763, -48.8526, -16.9809
1.244, -1, 7.08352, 25.4494, 19.4515, 21.0667, -48.7469, -17.0485
1.248, -1, 7.14018, 25.3991, 19.4705, 21.1569, -48.6413, -17.116
1.252, -1, 7.19673, 25.3488, 19.4893, 21.2469, -48.5358, -17.1834
1.256, -1, 7.25319, 25.2987, 19.5082, 21.3368, -48.4306, -17.2507
1.26, -1, 7.30956, 25.2487, 19.527, 21.4266, -48.3255, -17.3179
1.264, -1, 7.36583, 25.1987, 19.5458, 21.5161, -48.2206, -17.385
1.267, -1, 7.42201, 25.1488, 19.5646, 21.6056, -48.1158, -17.4519
1.272, -1, 7.4781, 25.099, 19.5833, 21.6949, -48.0113, -17.5188
1.276, -1, 7.53409, 25.0493, 19.602, 21.784, -47.9069, -17.5855
1.28, -1, 7.58999, 24.9997, 19.6207, 21.873, -47.8027, -17.6521
1.284, -1, 7.6458, 24.9501, 19.6393, 21.9619, -47.6986, -17.7186
1.288, -1, 7.70152, 24.9007, 19.6579, 22.0506, -47.5948, -17.785
1.292, -1, 7.75715, 24.8513, 19.6765, 22.1392, -47.4911, -17.8513
1.295, -1, 7.81268, 24.802, 19.695, 22.2276, -47.3875, -17.9175
1.3, -1, 7.86813, 24.7528, 19.7135, 22.3159, -47.2842, -17.9836
1.304, -1, 7.92348, 24.7036, 19.732, 22.404, -47.181, -18.0496
1.308, -1, 7.97875, 24.6545, 19.7505, 22.492, -47.0779, -18.1154
1.312, -1, 8.03393, 24.6055, 19.7689, 22.5798, -46.9751, -18.1812
1.316, -1, 8.08901, 24.5566, 19.7873, 22.6675, -46.8724, -18.2468
1.32, -1, 8.14401, 24.5078, 19.8057, 22.7551, -46.7699, -18.3124
1.324, -1, 8.19893, 24.4591, 19.824, 22.8425, -46.6675, -18.3778
1.328, -1, 8.25375, 24.4104, 19.8423, 22.9298, -46.5653, -18.4432
1.332, -1, 8.30849, 24.3618, 19.8606, 23.017, -46.4632, -18.5084
1.336, -1, 8.36314, 24.3133, 19.8788, 23.104, -46.3614, -18.5735
1.34, -1, 8.4177, 24.2648, 19.8971, 23.1909, -46.2596, -18.6386
1.344, -1, 8.47218, 24.2165, 19.9153, 23.2776, -46.1581, -18.7035
1.348, -1, 8.52657, 24.1682, 19.9334, 23.3642, -46.0567, -18.7683
1.352, -1, 8.58088, 24.1199, 19.9515, 23.4507, -45.9554, -18.833
1.356, -1, 8.6351, 24.0718, 19.9697, 23.537, -45.8543, -18.8976
1.36, -1, 8.68923, 24.0237, 19.9877, 23.6232, -45.7534, -18.9622
1.364, -1, 8.74328, 23.9757, 20.0058, 23.7092, -45.6526, -19.0266
1.368, -1, 8.79725, 23.9278, 20.0238, 23.7952, -45.552, -19.0909
1.372, -1, 8.85114, 23.88, 20.0418, 23.881, -45.4516, -19.1551
1.376, -1, 8.90494, 23.8322, 20.0598, 23.9666, -45.3513, -19.2192
1.38, -1, 8.95866, 23.7845, 20.0777, 24.0521, -45.2511, -19.2833
1.384, -1, 9.01229, 23.7369, 20.0956, 24.1375, -45.1511, -19.3472
1.388, -1, 9.06584, 23.6894, 20.1135, 24.2228, -45.0513, -19.411
1.392, -1, 9.11932, 23.6419, 20.1314, 24.3079, -44.9516, -19.4747
1.396, -1, 9.1727, 23.5945, 20.1492, 24.393, -44.8521, -19.5384
1.4, -1, 9.22601, 23.5472, 20.167, 24.4778, -44.7527, -19.6019
1.404, -1, 9.27924, 23.4999, 20.1848, 24.5626, -44.6535, -19.6653
1.408, -1, 9.33239, 23.4527, 20.2025, 24.6472, -44.5544, -19.7287
1.412, -1, 9.38546, 23.4056, 20.2202, 24.7317, -44.4554, -19.7919
1.416, -1, 9.43844, 23.3585, 20.2379, 24.8161, -44.3567, -19.8551
1.42, -1, 9.49135, 23.3116, 20.2556, 24.9003, -44.258, -19.9181
1.424, -1, 9.54418, 23.2647, 20.2732, 24.9844, -44.1595, -19.9811
1.428, -1, 9.59693, 23.2178, 20.2908, 25.0684, -44.0612, -20.044
1.432, -1, 9.6496, 23.1711, 20.3084, 25.1523, -43.963, -20.1067
1.436, -1, 9.7022, 23.1244, 20.326, 25.236, -43.865, -20.1694
1.44, -1, 9.75472, 23.0777, 20.3435, 25.3196, -43.767, -20.232
1.444, -1, 9.80716, 23.0312, 20.361, 25.4031, -43.6693, -20.2945
1.448, -1, 9.85952, 22.9847, 20.3785, 25.4865, -43.5717, -20.3569
1.452, -1, 9.91181, 22.9383, 20.396, 25.5697, -43.4742, -20.4192
1.456, -1, 9.96403, 22.8919, 20.4134, 25.6528, -43.3769, -20.4814
1.46, -1, 10.0162, 22.8456, 20.4308, 25.7358, -43.2797, -20.5436
1.464, -1, 10.0682, 22.7994, 20.4482, 25.8187, -43.1826, -20.6056
1.468, -1, 10.1202, 22.7533, 20.4656, 25.9015, -43.0857, -20.6676
1.472, -1, 10.1721, 22.7072, 20.4829, 25.9841, -42.989, -20.7294
1.476, -1, 10.224, 22.6612, 20.5002, 26.0666, -42.8923, -20.7912
1.48, -1, 10.2757, 22.6152, 20.5175, 26.149, -42.7958, -20.8529
1.484, -1, 10.3274, 22.5693, 20.5348, 26.2313, -42.6995, -20.9145
1.488, -1, 10.379, 22.5235, 20.552, 26.3135, -42.6033, -20.976
1.492, -1, 10.4306, 22.4777, 20.5692, 26.3956, -42.5072, -21.0374
1.496, -1, 10.482, 22.432, 20.5864, 26.4775, -42.4113, -21.0987
1.5, -1, 10.5334, 22.3864, 20.6035, 26.5593, -42.3154, -21.16
1.504, -1, 10.5848, 22.3408, 20.6207, 26.641, -42.2198, -21.2212
1.508, -1, 10.636, 22.2953, 20.6378, 26.7226, -42.1242, -21.2822
1.512, -1, 10.6872, 22.2499, 20.6549, 26.8041, -42.0288, -21.3432
1.516, -1, 10.7383, 22.2045, 20.6719, 26.8855, -41.9336, -21.4041
1.52, -1, 10.7893, 22.1592, 20.689, 26.9667, -41.8384, -21.4649
1.524, -1, 10.8403, 22.114, 20.706, 27.0479, -41.7434, -21.5257
1.528, -1, 10.8912, 22.0688, 20.723, 27.1289, -41.6485, -21.5863
1.532, -1, 10.942, 22.0237, 20.74, 27.2098, -41.5538, -21.6469
1.536, -1, 10.9928, 21.9786, 20.7569, 27.2906, -41.4592, -21.7074
1.54, -1, 11.0435, 21.9336, 20.7738, 27.3713, -41.3647, -21.7678
1.544, -1, 11.0941, 21.8887, 20.7908, 27.4519, -41.2703, -21.8281
1.548, -1, 11.1446, 21.8438, 20.8076, 27.5324, -41.1761, -21.8884
1.552, -1, 11.1951, 21.799, 20.8245, 27.6127, -41.082, -21.9485
1.556, -1, 11.2455, 21.7542, 20.8413, 27.693, -40.988, -22.0086
1.56, -1, 11.2959, 21.7095, 20.8581, 27.7732, -40.8941, -22.0686
1.564, -1, 11.3462, 21.6649, 20.8749, 27.8532, -40.8004, -22.1285
1.568, -1, 11.3964, 21.6203, 20.8917, 27.9331, -40.7068, -22.1884
1.572, -1, 11.4465, 21.5758, 20.9084, 28.013, -40.6133, -22.2481
1.576, -1, 11.4966, 21.5313, 20.9251, 28.0927, -40.52, -22.3078
1.58, -1, 11.5466, 21.4869, 20.9418, 28.1723, -40.4268, -22.3674
1.584, -1, 11.5965, 21.4426, 20.9585, 28.2518, -40.3336, -22.4269
1.588, -1, 11.6464, 21.3983, 20.9752, 28.3313, -40.2407, -22.4864
1.592, -1, 11.6962, 21.3541, 20.9918, 28.4106, -40.1478, -22.5457
1.596, -1, 11.746, 21.3099, 21.0084, 28.4898, -40.0551, -22.605
1.6, -1, 11.7957, 21.2658, 21.025, 28.5689, -39.9624, -22.6642
1.604, -1, 11.8453, 21.2217, 21.0416, 28.6479, -39.8699, -22.7234
1.608, -1, 11.8948, 21.1778, 21.0581, 28.7268, -39.7776, -22.7824
1.612, -1, 11.9443, 21.1338, 21.0747, 28.8055, -39.6853, -22.8414
1.616, -1, 11.9938, 21.0899, 21.0912, 28.8842, -39.5932, -22.9003
1.62, -1, 12.0431, 21.0461, 21.1076, 28.9628, -39.5011, -22.9591
1.624, -1, 12.0924, 21.0023, 21.1241, 29.0413, -39.4092, -23.0179
1.628, -1, 12.1417, 20.9586, 21.1405, 29.1197, -39.3174, -23.0765
1.632, -1, 12.1908, 20.915, 21.157, 29.198, -39.2258, -23.1352
1.636, -1, 12.2399, 20.8714, 21.1734, 29.2762, -39.1342, -23.1937
1.64, -1, 12.289, 20.8278, 21.1897, 29.3543, -39.0428, -23.2521
1.644, -1, 12.338, 20.7843, 21.2061, 29.4323, -38.9515, -23.3105
1.648, -1, 12.3869, 20.7409, 21.2224, 29.5102, -38.8603, -23.3688
1.652, -1, 12.4358, 20.6975, 21.2388, 29.588, -38.7692, -23.4271
1.656, -1, 12.4846, 20.6542, 21.2551, 29.6657, -38.6782, -23.4852
1.66, -1, 12.5333, 20.6109, 21.2713, 29.7433, -38.5873, -23.5433
1.664, -1, 12.582, 20.5677, 21.2876, 29.8208, -38.4966, -23.6013
1.668, -1, 12.6306, 20.5245, 21.3038, 29.8982, -38.4059, -23.6593
1.672, -1, 12.6792, 20.4814, 21.32, 29.9755, -38.3154, -23.7171
1.676, -1, 12.7277, 20.4384, 21.3362, 30.0527, -38.225, -23.7749
1.68, -1, 12.7761, 20.3953, 21.3524, 30.1298, -38.1347, -23.8327
1.684, -1, 12.8245, 20.3524, 21.3686, 30.2069, -38.0445, -23.8903
1.688, -1, 12.8728, 20.3095, 21.3847, 30.2838, -37.9544, -23.9479
1.692, -1, 12.9211, 20.2666, 21.4008, 30.3606, -37.8644, -24.0054
1.696, -1, 12.9693, 20.2238, 21.4169, 30.4374, -37.7746, -24.0629
1.7, -1, 13.0174, 20.1811, 21.433, 30.514, -37.6848, -24.1203
1.704, -1, 13.0655, 20.1384, 21.449, 30.5906, -37.5951, -24.1776
1.708, -1, 13.1136, 20.0958, 21.4651, 30.6671, -37.5056, -24.2348
1.712, -1, 13.1615, 20.0532, 21.4811, 30.7435, -37.4162, -24.292
1.716, -1, 13.2094, 20.0106, 21.4971, 30.8197, -37.3269, -24.3491
1.72, -1, 13.2573, 19.9681, 21.5131, 30.8959, -37.2376, -24.4061
1.724, -1, 13.3051, 19.9257, 21.529, 30.972, -37.1485, -24.4631
1.728, -1, 13.3528, 19.8833, 21.545, 31.0481, -37.0595, -24.52
1.732, -1, 13.4005, 19.841, 21.5609, 31.124, -36.9706, -24.5768
1.736, -1, 13.4482, 19.7987, 21.5768, 31.1998, -36.8818, -24.6336
1.74, -1, 13.4957, 19.7565, 21.5927, 31.2756, -36.7931, -24.6903
1.744, -1, 13.5433, 19.7143, 21.6086, 31.3512, -36.7045, -24.7469
1.748, -1, 13.5907, 19.6721, 21.6244, 31.4268, -36.6161, -24.8035
1.752, -1, 13.6381, 19.63, 21.6402, 31.5023, -36.5277, -24.86
1.756, -1, 13.6855, 19.588, 21.6561, 31.5776, -36.4394, -24.9164
1.76, -1, 13.7328, 19.546, 21.6719, 31.6529, -36.3512, -24.9728
1.764, -1, 13.78, 19.5041, 21.6876, 31.7282, -36.2632, -25.0291
1.768, -1, 13.8272, 19.4622, 21.7034, 31.8033, -36.1752, -25.0853
1.772, -1, 13.8743, 19.4203, 21.7191, 31.8783, -36.0873, -25.1415
1.776, -1, 13.9214, 19.3785, 21.7348, 31.9533, -35.9996, -25.1976
1.78, -1, 13.9684, 19.3368, 21.7505, 32.0281, -35.9119, -25.2536
1.784, -1, 14.0154, 19.2951, 21.7662, 32.1029, -35.8243, -25.3096
1.788, -1, 14.0623, 19.2534, 21.7819, 32.1776, -35.7369, -25.3655
1.792, -1, 14.1092, 19.2118, 21.7975, 32.2522, -35.6495, -25.4214
1.796, -1, 14.156, 19.1703, 21.8132, 32.3268, -35.5622, -25.4772
1.8, -1, 14.2027, 19.1288, 21.8288, 32.4012, -35.4751, -25.5329
1.804, -1, 14.2494, 19.0873, 21.8444, 32.4756, -35.388, -25.5886
1.808, -1, 14.2961, 19.0459, 21.86, 32.5498, -35.301, -25.6442
1.812, -1, 14.3427, 19.0045, 21.8755, 32.624, -35.2142, -25.6997
1.816, -1, 14.3892, 18.9632, 21.8911, 32.6981, -35.1274, -25.7552
1.82, -1, 14.4357, 18.9219, 21.9066, 32.7722, -35.0407, -25.8106
1.824, -1, 14.4822, 18.8807, 21.9221, 32.8461, -34.9541, -25.8659
1.828, -1, 14.5286, 18.8395, 21.9376, 32.92, -34.8676, -25.9212
1.832, -1, 14.5749, 18.7983, 21.9531, 32.9938, -34.7813, -25.9764
1.836, -1, 14.6212, 18.7572, 21.9685, 33.0675, -34.695, -26.0316
1.84, -1, 14.6674, 18.7162, 21.984, 33.1411, -34.6088, -26.0867
1.844, -1, 14.7136, 18.6752, 21.9994, 33.2146, -34.5227, -26.1418
1.848, -1, 14.7598, 18.6342, 22.0148, 33.2881, -34.4367, -26.1967
1.852, -1, 14.8058, 18.5933, 22.0302, 33.3614, -34.3507, -26.2517
1.856, -1, 14.8519, 18.5524, 22.0456, 33.4347, -34.2649, -26.3065
1.86, -1, 14.8979, 18.5116, 22.0609, 33.5079, -34.1792, -26.3613
1.864, -1, 14.9438, 18.4708, 22.0762, 33.5811, -34.0936, -26.4161
1.868, -1, 14.9897, 18.4301, 22.0916, 33.6541, -34.008, -26.4708
1.872, -1, 15.0355, 18.3894, 22.1069, 33.7271, -33.9226, -26.5254
1.876, -1, 15.0813, 18.3487, 22.1222, 33.8, -33.8372, -26.58
1.88, -1, 15.127, 18.3081, 22.1374, 33.8728, -33.7519, -26.6345
1.884, -1, 15.1727, 18.2676, 22.1527, 33.9456, -33.6668, -26.6889
1.888, -1, 15.2184, 18.227, 22.1679, 34.0182, -33.5817, -26.7433
1.892, -1, 15.264, 18.1866, 22.1832, 34.0908, -33.4967, -26.7976
1.896, -1, 15.3095, 18.1461, 22.1984, 34.1633, -33.4118, -26.8519
1.9, -1, 15.355, 18.1057, 22.2136, 34.2358, -33.3269, -26.9062
1.904, -1, 15.4004, 18.0654, 22.2287, 34.3081, -33.2422, -26.9603
1.908, -1, 15.4458, 18.0251, 22.2439, 34.3804, -33.1576, -27.0144
1.912, -1, 15.4912, 17.9848, 22.259, 34.4526, -33.073, -27.0685
1.916, -1, 15.5365, 17.9446, 22.2742, 34.5248, -32.9886, -27.1225
1.92, -1, 15.5818, 17.9044, 22.2893, 34.5968, -32.9042, -27.1764
1.924, -1, 15.627, 17.8643, 22.3044, 34.6688, -32.8199, -27.2303
1.928, -1, 15.6721, 17.8242, 22.3195, 34.7407, -32.7357, -27.2841
1.932, -1, 15.7173, 17.7841, 22.3345, 34.8126, -32.6516, -27.3379
1.936, -1, 15.7623, 17.7441, 22.3496, 34.8843, -32.5676, -27.3916
1.94, -1, 15.8073, 17.7041, 22.3646, 34.956, -32.4836, -27.4453
1.944, -1, 15.8523, 17.6642, 22.3796, 35.0276, -32.3997, -27.4989
1.948, -1, 15.8973, 17.6243, 22.3946, 35.0992, -32.316, -27.5524
1.952, -1, 15.9422, 17.5844, 22.4096, 35.1707, -32.2323, -27.6059
1.956, -1, 15.987, 17.5446, 22.4246, 35.2421, -32.1487, -27.6594
1.96, -1, 16.0318, 17.5048, 22.4396, 35.3134, -32.0652, -27.7128
1.964, -1, 16.0765, 17.4651, 22.4545, 35.3846, -31.9817, -27.7661
1.968, -1, 16.1212, 17.4254, 22.4694, 35.4558, -31.8984, -27.8194
1.972, -1, 16.1659, 17.3858, 22.4844, 35.5269, -31.8151, -27.8726
1.976, -1, 16.2105, 17.3461, 22.4993, 35.598, -31.7319, -27.9258
1.98, -1, 16.2551, 17.3066, 22.5141, 35.6689, -31.6488, -27.9789
1.984, -1, 16.2996, 17.267, 22.529, 35.7398, -31.5658, -28.032
1.988, -1, 16.3441, 17.2275, 22.5439, 35.8107, -31.4829, -28.085
1.992, -1, 16.3886, 17.1881, 22.5587, 35.8814, -31.4, -28.138
1.996, -1, 16.433, 17.1487, 22.5735, 35.9521, -31.3173, -28.1909
1.999, -1, 16.4773, 17.1093, 22.5883, 36.0228, -31.2346, -28.2438
2.004, -1, 16.5216, 17.0699, 22.6031, 36.0933, -31.1519, -28.2966
2.008, -1, 16.5659, 17.0306, 22.6179, 36.1638, -31.0694, -28.3493
2.012, -1, 16.6101, 16.9914, 22.6327, 36.2342, -30.987, -28.4021
2.015, -1, 16.6543, 16.9521, 22.6474, 36.3046, -30.9046, -28.4547
2.019, -1, 16.6984, 16.9129, 22.6622, 36.3748, -30.8223, -28.5073
2.024, -1, 16.7425, 16.8738, 22.6769, 36.445, -30.7401, -28.5599
2.028, -1, 16.7866, 16.8347, 22.6916, 36.5152, -30.658, -28.6124
2.031, -1, 16.8306, 16.7956, 22.7063, 36.5853, -30.5759, -28.6648
2.036, -1, 16.8746, 16.7566, 22.721, 36.6553, -30.4939, -28.7172
2.04, -1, 16.9185, 16.7176, 22.7357, 36.7252, -30.412, -28.7696
2.044, -1, 16.9624, 16.6786, 22.7503, 36.7951, -30.3302, -28.8219
2.048, -1, 17.0062, 16.6397, 22.765, 36.8649, -30.2485, -28.8742
2.051, -1, 17.05, 16.6008, 22.7796, 36.9346, -30.1668, -28.9264
2.055, -1, 17.0938, 16.5619, 22.7942, 37.0043, -30.0852, -28.9785
2.06, -1, 17.1375, 16.5231, 22.8088, 37.0739, -30.0037, -29.0306
2.064, -1, 17.1811, 16.4844, 22.8234, 37.1435, -29.9223, -29.0827
2.068, -1, 17.2244, 16.4458, 22.8379, 37.2129, -29.841, -29.1347
2.071, -1, 17.2671, 16.4077, 22.8523, 37.2823, -29.7597, -29.1866
2.076, -1, 17.3088, 16.3701, 22.8666, 37.3515, -29.6787, -29.2384
2.08, -1, 17.3495, 16.3335, 22.8807, 37.4204, -29.5981, -29.29
2.084, -1, 17.3888, 16.2979, 22.8945, 37.4888, -29.518, -29.3412
2.087, -1, 17.4267, 16.2635, 22.9079, 37.5564, -29.4389, -29.3918
2.092, -1, 17.4632, 16.2306, 22.921, 37.6229, -29.3611, -29.4417
2.096, -1, 17.4983, 16.1992, 22.9337, 37.6879, -29.2851, -29.4903
2.1, -1, 17.5321, 16.1694, 22.9459, 37.7508, -29.2115, -29.5374
2.104, -1, 17.5644, 16.1411, 22.9576, 37.8112, -29.1408, -29.5827
2.107, -1, 17.5951, 16.1145, 22.9686, 37.8686, -29.0737, -29.6257
2.111, -1, 17.624, 16.0896, 22.9791, 37.9226, -29.0106, -29.6661
2.116, -1, 17.6513, 16.0662, 22.9888, 37.9726, -28.9521, -29.7035
2.12, -1, 17.6768, 16.044, 22.9978, 38.0183, -28.8986, -29.7378
2.124, -1, 17.7009, 16.023, 23.0061, 38.0595, -28.8504, -29.7686
2.127, -1, 17.7234, 16.0029, 23.0136, 38.0959, -28.8078, -29.7958
2.132, -1, 17.7446, 15.9838, 23.0205, 38.1275, -28.7707, -29.8195
2.136, -1, 17.7642, 15.9657, 23.0267, 38.1546, -28.739, -29.8397
2.14, -1, 17.7823, 15.9489, 23.0321, 38.1772, -28.7125, -29.8566
2.143, -1, 17.7986, 15.9337, 23.0368, 38.1957, -28.6907, -29.8705
2.148, -1, 17.8131, 15.9202, 23.0409, 38.2106, -28.6732, -29.8816
2.152, -1, 17.8259, 15.9085, 23.0443, 38.2223, -28.6594, -29.8904
2.156, -1, 17.8371, 15.8987, 23.0471, 38.2313, -28.6488, -29.8971
2.16, -1, 17.8467, 15.8905, 23.0494, 38.2381, -28.6409, -29.9021
2.163, -1, 17.855, 15.8838, 23.0513, 38.243, -28.635, -29.9058
2.168, -1, 17.8619, 15.8785, 23.0527, 38.2465, -28.6308, -29.9084
2.172, -1, 17.8674, 15.8744, 23.0538, 38.249, -28.6279, -29.9103
2.176, 2, 17.8716, 15.8714, 23.0546, 38.2507, -28.6258, -29.9115
2.179, 2, 17.8747, 15.8692, 23.0552, 38.2519, -28.6245, -29.9124
2.184, 2, 17.8769, 15.8677, 23.0556, 38.2527, -28.6235, -29.913
2.188, 2, 17.8784, 15.8667, 23.0558, 38.2532, -28.6229, -29.9134
2.192, 2, 17.8794, 15.866, 23.056, 38.2536, -28.6224, -29.9137
2.196, 2, 17.8801, 15.8655, 23.0561, 38.2538, -28.6221, -29.9138
2.199, 2, 17.8806, 15.8652, 23.0562, 38.254, -28.6219, -29.914
2.204, 2, 17.8809, 15.865, 23.0563, 38.2541, -28.6218, -29.9141
2.208, 2, 17.8811, 15.8649, 23.0563, 38.2542, -28.6217, -29.9141
2.212, 2, 17.8813, 15.8648, 23.0563, 38.2543, -28.6217, -29.9141
2.216, 2, 17.8814, 15.8647, 23.0564, 38.2543, -28.6216, -29.9142
2.219, 2, 17.8814, 15.8646, 23.0564, 38.2543, -28.6216, -29.9142
2.224, 2, 17.8815, 15.8646, 23.0564, 38.2543, -28.6216, -29.9142
2.228, 2, 17.8815, 15.8646, 23.0564, 38.2543, -28.6215, -29.9142
2.232, 2, 17.8815, 15.8646, 23.0564, 38.2543, -28.6215, -29.9142
2.235, 2, 17.8815, 15.8646, 23.0564, 38.2544, -28.6215, -29.9142
2.24, 2, 17.8815, 15.8646, 23.0564, 38.2544, -28.6215, -29.9142
2.244, 2, 17.8816, 15.8646, 23.0564, 38.2544, -28.6215, -29.9142
2.248, 2, 17.8816, 15.8646, 23.0564, 38.2544, -28.6215, -29.9142
2.252, 2, 17.8816, 15.8646, 23.0564, 38.2544, -28.6215, -29.9142
2.255, 2, 17.8816, 15.8646, 23.0564, 38.2544, -28.6215, -29.9142
2.259, 2, 17.8816, 15.8646, 23.0564, 38.2544, -28.6215, -29.9142
2.264, 2, 17.8816, 15.8645, 23.0564, 38.2544, -28.6215, -29.9142
2.268, 2, 17.8816, 15.8645, 23.0564, 38.2544, -28.6215, -29.9142
2.272, 2, 17.8816, 15.8645, 23.0564, 38.2544, -28.6215, -29.9142
2.275, 2, 17.8816, 15.8645, 23.0564, 38.2544, -28.6215, -29.9142
2.28, 2, 17.8816, 15.8645, 23.0564, 38.2544, -28.6215, -29.9142
2.284, 2, 17.8816, 15.8645, 23.0564, 38.2544, -28.6215, -29.9142
2.288, 2, 17.8816, 15.8645, 23.0564, 38.2544, -28.6215, -29.9142
2.291, 2, 17.8816, 15.8645, 23.0564, 38.2544, -28.6215, -29.9142
2.296, 2, 17.8816, 15.8645, 23.0564, 38.2544, -28.6215, -29.9142
2.3, 2, 17.8816, 15.8645, 23.0564, 38.2544, -28.6215, -29.9142
2.304, 2, 17.8816, 15.8645, 23.0564, 38.2544, -28.6215, -29.9142
2.308, 2, 17.8816, 15.8645, 23.0564, 38.2544, -28.6215, -29.9142
2.311, 2, 17.8816, 15.8645, 23.0564, 38.2544, -28.6215, -29.9142
2.316, 2, 17.8816, 15.8645, 23.0564, 38.2544, -28.6215, -29.9142
2.32, 2, 17.8816, 15.8645, 23.0564, 38.2544, -28.6215, -29.9142
2.324, 2, 17.8816, 15.8645, 23.0564, 38.2544, -28.6215, -29.9142
2.328, 2, 17.8816, 15.8645, 23.0564, 38.2544, -28.6215, -29.9142
2.331, 2, 17.8816, 15.8645, 23.0564, 38.2544, -28.6215, -29.9142
2.336, 2, 17.8816, 15.8645, 23.0564, 38.2544, -28.6215, -29.9142
2.34, 2, 17.8816, 15.8645, 23.0564, 38.2544, -28.6215, -29.9142
2.344, 2, 17.8816, 15.8645, 23.0564, 38.2544, -28.6215, -29.9142
2.347, 2, 17.8816, 15.8645, 23.0564, 38.2544, -28.6215, -29.9142
2.352, 2, 17.8816, 15.8645, 23.0564, 38.2544, -28.6215, -29.9142
2.356, 2, 17.8816, 15.8645, 23.0564, 38.2544, -28.6215, -29.9142
2.36, 2, 17.8816, 15.8645, 23.0564, 38.2544, -28.6215, -29.9142
2.364, 2, 17.8816, 15.8645, 23.0564, 38.2544, -28.6215, -29.9142
2.367, 2, 17.8816, 15.8645, 23.0564, 38.2544, -28.6215, -29.9142
2.372, 2, 17.8816, 15.8645, 23.0564, 38.2544, -28.6215, -29.9142
2.376, 2, 17.8816, 15.8645, 23.0564, 38.2544, -28.6215, -29.9142
2.38, 2, 17.8816, 15.8645, 23.0564, 38.2544, -28.6215, -29.9142
2.383, 2, 17.8816, 15.8645, 23.0564, 38.2544, -28.6215, -29.9142
2.388, 2, 17.8816, 15.8645, 23.0564, 38.2544, -28.6215, -29.9142
2.392, 2, 17.8816, 15.8645, 23.0564, 38.2544, -28.6215, -29.9142
2.396, 2, 17.8816, 15.8645, 23.0564, 38.2544, -28.6215, -29.9142
2.4, 2, 17.8816, 15.8645, 23.0564, 38.2544, -28.6215, -29.9142
2.403, 2, 17.8816, 15.8645, 23.0564, 38.2544, -28.6215, -29.9142
2.408, 2, 17.8816, 15.8645, 23.0564, 38.2544, -28.6215, -29.9142
2.412, 2, 17.8816, 15.8645, 23.0564, 38.2544, -28.6215, -29.9142
2.416, 2, 17.8816, 15.8645, 23.0564, 38.2544, -28.6215, -29.9142
2.42, 2, 17.8816, 15.8645, 23.0564, 38.2544, -28.6215, -29.9142
2.423, 2, 17.8816, 15.8645, 23.0564, 38.2544, -28.6215, -29.9142
2.428, 2, 17.8816, 15.8645, 23.0564, 38.2544, -28.6215, -29.9142
2.432, 2, 17.8816, 15.8645, 23.0564, 38.2544, -28.6215, -29.9142
2.436, 2, 17.8816, 15.8645, 23.0564, 38.2544, -28.6215, -29.9142
2.439, 2, 17.8816, 15.8645, 23.0564, 38.2544, -28.6215, -29.9142
2.444, 2, 17.8816, 15.8645, 23.0564, 38.2544, -28.6215, -29.9142
2.448, 2, 17.8816, 15.8645, 23.0564, 38.2544, -28.6215, -29.9142
2.452, 2, 17.8816, 15.8645, 23.0564, 38.2544, -28.6215, -29.9142
2.456, 2, 17.8816, 15.8645, 23.0564, 38.2544, -28.6215, -29.9142
2.459, 2, 17.8816, 15.8645, 23.0564, 38.2544, -28.6215, -29.9142
2.464, 2, 17.8816, 15.8645, 23.0564, 38.2544, -28.6215, -29.9142
2.468, 2, 17.8816, 15.8645, 23.0564, 38.2544, -28.6215, -29.9142
2.472, 2, 17.8816, 15.8645, 23.0564, 38.2544, -28.6215, -29.9142
2.476, 2, 17.8816, 15.8645, 23.0564, 38.2544, -28.6215, -29.9142
2.479, 2, 17.8816, 15.8645, 23.0564, 38.2544, -28.6215, -29.9142
2.484, 2, 17.8816, 15.8645, 23.0564, 38.2544, -28.6215, -29.9142
2.488, 2, 17.8816, 15.8645, 23.0564, 38.2544, -28.6215, -29.9142
2.492, 2, 17.8816, 15.8645, 23.0564, 38.2544, -28.6215, -29.9142
2.495, 2, 17.8816, 15.8645, 23.0564, 38.2544, -28.6215, -29.9142
2.5, 2, 17.8816, 15.8645, 23.0564, 38.2544, -28.6215, -29.9142
2.504, 2, 17.8816, 15.8645, 23.0564, 38.2544, -28.6215, -29.9142
2.508, 2, 17.8816, 15.8645, 23.0564, 38.2544, -28.6215, -29.9142
2.512, 2, 17.8816, 15.8645, 23.0564, 38.2544, -28.6215, -29.9142
2.515, 2, 17.8816, 15.8645, 23.0564, 38.2544, -28.6215, -29.9142
2.52, 2, 17.8816, 15.8645, 23.0564, 38.2544, -28.6215, -29.9142
2.524, 2, 17.8816, 15.8645, 23.0564, 38.2544, -28.6215, -29.9142
2.528, 2, 17.8816, 15.8645, 23.0564, 38.2544, -28.6215, -29.9142
2.531, 2, 17.8816, 15.8645, 23.0564, 38.2544, -28.6215, -29.9142
2.536, 2, 17.8816, 15.8645, 23.0564, 38.2544, -28.6215, -29.9142
2.54, 2, 17.8816, 15.8645, 23.0564, 38.2544, -28.6215, -29.9142
2.544, 2, 17.8816, 15.8645, 23.0564, 38.2544, -28.6215, -29.9142
2.548, 2, 17.8816, 15.8645, 23.0564, 38.2544, -28.6215, -29.9142
2.551, 2, 17.8816, 15.8645, 23.0564, 38.2544, -28.6215, -29.9142
2.556, 2, 17.8816, 15.8645, 23.0564, 38.2544, -28.6215, -29.9142
2.56, 2, 17.8816, 15.8645, 23.0564, 38.2544, -28.6215, -29.9142
2.564, 2, 17.8816, 15.8645, 23.0564, 38.2544, -28.6215, -29.9142
2.568, 2, 17.8816, 15.8645, 23.0564, 38.2544, -28.6215, -29.9142
2.571, 2, 17.8816, 15.8645, 23.0564, 38.2544, -28.6215, -29.9142
2.576, 2, 17.8816, 15.8645, 23.0564, 38.2544, -28.6215, -29.9142
2.58, 2, 17.8816, 15.8645, 23.0564, 38.2544, -28.6215, -29.9142
2.584, 2, 17.8816, 15.8645, 23.0564, 38.2544, -28.6215, -29.9142
2.587, 2, 17.8816, 15.8645, 23.0564, 38.2544, -28.6215, -29.9142
2.592, 2, 17.8816, 15.8645, 23.0564, 38.2544, -28.6215, -29.9142
2.596, 2, 17.8816, 15.8645, 23.0564, 38.2544, -28.6215, -29.9142
2.6, 2, 17.8816, 15.8645, 23.0564, 38.2544, -28.6215, -29.9142
2.604, 2, 17.8816, 15.8645, 23.0564, 38.2544, -28.6215, -29.9142
2.607, 2, 17.8816, 15.8645, 23.0564, 38.2544, -28.6215, -29.9142
2.612, 2, 17.8816, 15.8645, 23.0564, 38.2544, -28.6215, -29.9142
2.616, 2, 17.8816, 15.8645, 23.0564, 38.2544, -28.6215, -29.9142
2.62, 2, 17.8816, 15.8645, 23.0564, 38.2544, -28.6215, -29.9142
2.624, 2, 17.8816, 15.8645, 23.0564, 38.2544, -28.6215, -29.9142
2.627, 2, 17.8816, 15.8645, 23.0564, 38.2544, -28.6215, -29.9142
2.632, 2, 17.8816, 15.8645, 23.0564, 38.2544, -28.6215, -29.9142
2.636, 2, 17.8816, 15.8645, 23.0564, 38.2544, -28.6215, -29.9142
2.64, 2, 17.8816, 15.8645, 23.0564, 38.2544, -28.6215, -29.9142
2.643, 2, 17.8816, 15.8645, 23.0564, 38.2544, -28.6215, -29.9142
2.648, 2, 17.8816, 15.8645, 23.0564, 38.2544, -28.6215, -29.9142
2.652, 2, 17.8816, 15.8645, 23.0564, 38.2544, -28.6215, -29.9142
2.656, 2, 17.8816, 15.8645, 23.0564, 38.2544, -28.6215, -29.9142
2.66, 2, 17.8816, 15.8645, 23.0564, 38.2544, -28.6215, -29.9142
2.663, 2, 17.8816, 15.8645, 23.0564, 38.2544, -28.6215, -29.9142
2.668, 2, 17.8816, 15.8645, 23.0564, 38.2544, -28.6215, -29.9142
2.672, 2, 17.8816, 15.8645, 23.0564, 38.2544, -28.6215, -29.9142
2.676, 2, 17.8816, 15.8645, 23.0564, 38.2544, -28.6215, -29.9142
2.679, 2, 17.8816, 15.8645, 23.0564, 38.2544, -28.6215, -29.9142
2.684, 2, 17.8816, 15.8645, 23.0564, 38.2544, -28.6215, -29.9142
2.688, 2, 17.8816, 15.8645, 23.0564, 38.2544, -28.6215, -29.9142
2.692, 2, 17.8816, 15.8645, 23.0564, 38.2544, -28.6215, -29.9142
2.696, 2, 17.8816, 15.8645, 23.0564, 38.2544, -28.6215, -29.9142
2.699, 2, 17.8816, 15.8645, 23.0564, 38.2544, -28.6215, -29.9142
2.704, 2, 17.8816, 15.8645, 23.0564, 38.2544, -28.6215, -29.9142
2.708, 2, 17.8816, 15.8645, 23.0564, 38.2544, -28.6215, -29.9142
2.712, 2, 17.8816, 15.8645, 23.0564, 38.2544, -28.6215, -29.9142
2.716, 2, 17.8816, 15.8645, 23.0564, 38.2544, -28.6215, -29.9142
2.719, 2, 17.8816, 15.8645, 23.0564, 38.2544, -28.6215, -29.9142
2.724, 2, 17.8816, 15.8645, 23.0564, 38.2544, -28.6215, -29.9142
2.728, 2, 17.8816, 15.8645, 23.0564, 38.2544, -28.6215, -29.9142
2.732, 2, 17.8816, 15.8645, 23.0564, 38.2544, -28.6215, -29.9142
2.735, 2, 17.8816, 15.8645, 23.0564, 38.2544, -28.6215, -29.9142
2.74, 2, 17.8816, 15.8645, 23.0564, 38.2544, -28.6215, -29.9142
2.744, 2, 17.8816, 15.8645, 23.0564, 38.2544, -28.6215, -29.9142
2.748, 2, 17.8816, 15.8645, 23.0564, 38.2544, -28.6215, -29.9142
2.752, 2, 17.8816, 15.8645, 23.0564, 38.2544, -28.6215, -29.9142
2.755, 2, 17.8816, 15.8645, 23.0564, 38.2544, -28.6215, -29.9142
2.76, 2, 17.8816, 15.8645, 23.0564, 38.2544, -28.6215, -29.9142
2.764, 2, 17.8816, 15.8645, 23.0564, 38.2544, -28.6215, -29.9142
2.768, 2, 17.8816, 15.8645, 23.0564, 38.2544, -28.6215, -29.9142
2.772, 2, 17.8816, 15.8645, 23.0564, 38.2544, -28.6215, -29.9142
2.775, 2, 17.8816, 15.8645, 23.0564, 38.2544, -28.6215, -29.9142
2.78, 2, 17.8816, 15.8645, 23.0564, 38.2544, -28.6215, -29.9142
2.784, 2, 17.8816, 15.8645, 23.0564, 38.2544, -28.6215, -29.9142
2.788, 2, 17.8816, 15.8645, 23.0564, 38.2544, -28.6215, -29.9142
2.791, 2, 17.8816, 15.8645, 23.0564, 38.2544, -28.6215, -29.9142
2.796, 2, 17.8816, 15.8645, 23.0564, 38.2544, -28.6215, -29.9142
2.8, 2, 17.8816, 15.8645, 23.0564, 38.2544, -28.6215, -29.9142
2.804, 2, 17.8816, 15.8645, 23.0564, 38.2544, -28.6215, -29.9142
2.808, 2, 17.8816, 15.8645, 23.0564, 38.2544, -28.6215, -29.9142
2.811, 2, 17.8816, 15.8645, 23.0564, 38.2544, -28.6215, -29.9142
2.816, 2, 17.8816, 15.8645, 23.0564, 38.2544, -28.6215, -29.9142
2.82, 2, 17.8816, 15.8645, 23.0564, 38.2544, -28.6215, -29.9142
2.824, 2, 17.8816, 15.8645, 23.0564, 38.2544, -28.6215, -29.9142
2.828, 2, 17.8816, 15.8645, 23.0564, 38.2544, -28.6215, -29.9142
2.831, 2, 17.8816, 15.8645, 23.0564, 38.2544, -28.6215, -29.9142
2.836, 2, 17.8816, 15.8645, 23.0564, 38.2544, -28.6215, -29.9142
2.84, 2, 17.8816, 15.8645, 23.0564, 38.2544, -28.6215, -29.9142
2.844, 2, 17.8816, 15.8645, 23.0564, 38.2544, -28.6215, -29.9142
2.847, 2, 17.8816, 15.8645, 23.0564, 38.2544, -28.6215, -29.9142
2.852, 2, 17.8816, 15.8645, 23.0564, 38.2544, -28.6215, -29.9142
2.856, 2, 17.8816, 15.8645, 23.0564, 38.2544, -28.6215, -29.9142
2.86, 2, 17.8816, 15.8645, 23.0564, 38.2544, -28.6215, -29.9142
2.864, 2, 17.8816, 15.8645, 23.0564, 38.2544, -28.6215, -29.9142
2.867, 2, 17.8816, 15.8645, 23.0564, 38.2544, -28.6215, -29.9142
2.872, 2, 17.8816, 15.8645, 23.0564, 38.2544, -28.6215, -29.9142
2.876, 2, 17.8816, 15.8645, 23.0564, 38.2544, -28.6215, -29.9142
2.88, 2, 17.8816, 15.8645, 23.0564, 38.2544, -28.6215, -29.9142
2.883, 2, 17.8816, 15.8645, 23.0564, 38.2544, -28.6215, -29.9142
2.888, 2, 17.8816, 15.8645, 23.0564, 38.2544, -28.6215, -29.9142
2.892, 2, 17.8816, 15.8645, 23.0564, 38.2544, -28.6215, -29.9142
2.896, 2, 17.8816, 15.8645, 23.0564, 38.2544, -28.6215, -29.9142
2.9, 2, 17.8816, 15.8645, 23.0564, 38.2544, -28.6215, -29.9142
2.903, 2, 17.8816, 15.8645, 23.0564, 38.2544, -28.6215, -29.9142
2.908, 2, 17.8816, 15.8645, 23.0564, 38.2544, -28.6215, -29.9142
2.912, 2, 17.8816, 15.8645, 23.0564, 38.2544, -28.6215, -29.9142
2.916, 2, 17.8816, 15.8645, 23.0564, 38.2544, -28.6215, -29.9142
2.92, 2, 17.8816, 15.8645, 23.0564, 38.2544, -28.6215, -29.9142
2.923, 2, 17.8816, 15.8645, 23.0564, 38.2544, -28.6215, -29.9142
2.928, 2, 17.8816, 15.8645, 23.0564, 38.2544, -28.6215, -29.9142
2.932, 2, 17.8816, 15.8645, 23.0564, 38.2544, -28.6215, -29.9142
2.936, 2, 17.8816, 15.8645, 23.0564, 38.2544, -28.6215, -29.9142
2.939, 2, 17.8816, 15.8645, 23.0564, 38.2544, -28.6215, -29.9142
2.944, 2, 17.8816, 15.8645, 23.0564, 38.2544, -28.6215, -29.9142
2.948, 2, 17.8816, 15.8645, 23.0564, 38.2544, -28.6215, -29.9142
2.952, 2, 17.8816, 15.8645, 23.0564, 38.2544, -28.6215, -29.9142
2.956, 2, 17.8816, 15.8645, 23.0564, 38.2544, -28.6215, -29.9142
2.959, 2, 17.8816, 15.8645, 23.0564, 38.2544, -28.6215, -29.9142
2.964, 2, 17.8816, 15.8645, 23.0564, 38.2544, -28.6215, -29.9142
2.968, 2, 17.8816, 15.8645, 23.0564, 38.2544, -28.6215, -29.9142
2.972, 2, 17.8816, 15.8645, 23.0564, 38.2544, -28.6215, -29.9142
2.976, 2, 17.8816, 15.8645, 23.0564, 38.2544, -28.6215, -29.9142
2.98, 2, 17.8816, 15.8645, 23.0564, 38.2544, -28.6215, -29.9142
2.984, 2, 17.8816, 15.8645, 23.0564, 38.2544, -28.6215, -29.9142
2.988, 2, 17.8816, 15.8645, 23.0564, 38.2544, -28.6215, -29.9142
2.992, 2, 17.8816, 15.8645, 23.0564, 38.2544, -28.6215, -29.9142
2.995, 2, 17.8816, 15.8645, 23.0564, 38.2544, -28.6215, -29.9142
3, 2, 17.8816, 15.8645, 23.0564, 38.2544, -28.6215, -29.9142
3.004, 2, 17.8816, 15.8645, 23.0564, 38.2544, -28.6215, -29.9142
3.008, 2, 17.8816, 15.8645, 23.0564, 38.2544, -28.6215, -29.9142
3.012, 2, 17.8816, 15.8645, 23.0564, 38.2544, -28.6215, -29.9142
3.015, 2, 17.8816, 15.8645, 23.0564, 38.2544, -28.6215, -29.9142
3.02, 2, 17.8816, 15.8645, 23.0564, 38.2544, -28.6215, -29.9142
3.024, 2, 17.8816, 15.8645, 23.0564, 38.2544, -28.6215, -29.9142
3.028, 2, 17.8816, 15.8645, 23.0564, 38.2544, -28.6215, -29.9142
3.031, 2, 17.8816, 15.8645, 23.0564, 38.2544, -28.6215, -29.9142
3.036, 2, 17.8816, 15.8645, 23.0564, 38.2544, -28.6215, -29.9142
3.04, 2, 17.8816, 15.8645, 23.0564, 38.2544, -28.6215, -29.9142
3.044, 2, 17.8816, 15.8645, 23.0564, 38.2544, -28.6215, -29.9142
3.048, 2, 17.8816, 15.8645, 23.0564, 38.2544, -28.6215, -29.9142
3.051, 2, 17.8816, 15.8645, 23.0564, 38.2544, -28.6215, -29.9142
3.056, 2, 17.8816, 15.8645, 23.0564, 38.2544, -28.6215, -29.9142
3.06, 2, 17.8816, 15.8645, 23.0564, 38.2544, -28.6215, -29.9142
3.064, 2, 17.8816, 15.8645, 23.0564, 38.2544, -28.6215, -29.9142
3.068, 2, 17.8816, 15.8645, 23.0564, 38.2544, -28.6215, -29.9142
3.071, 2, 17.8816, 15.8645, 23.0564, 38.2544, -28.6215, -29.9142
3.076, 2, 17.8816, 15.8645, 23.0564, 38.2544, -28.6215, -29.9142
3.08, 2, 17.8816, 15.8645, 23.0564, 38.2544, -28.6215, -29.9142
3.084, 2, 17.8816, 15.8645, 23.0564, 38.2544, -28.6215, -29.9142
3.087, 2, 17.8816, 15.8645, 23.0564, 38.2544, -28.6215, -29.9142
3.092, 2, 17.8816, 15.8645, 23.0564, 38.2544, -28.6215, -29.9142
3.096, 2, 17.8816, 15.8645, 23.0564, 38.2544, -28.6215, -29.9142
3.1, 2, 17.8816, 15.8645, 23.0564, 38.2544, -28.6215, -29.9142
3.104, 2, 17.8816, 15.8645, 23.0564, 38.2544, -28.6215, -29.9142
3.107, 2, 17.8816, 15.8645, 23.0564, 38.2544, -28.6215, -29.9142
3.112, 2, 17.8816, 15.8645, 23.0564, 38.2544, -28.6215, -29.9142
3.116, 2, 17.8816, 15.8645, 23.0564, 38.2544, -28.6215, -29.9142
3.12, 2, 17.8816, 15.8645, 23.0564, 38.2544, -28.6215, -29.9142
3.124, 2, 17.8816, 15.8645, 23.0564, 38.2544, -28.6215, -29.9142
3.128, 2, 17.8816, 15.8645, 23.0564, 38.2544, -28.6215, -29.9142
3.132, 2, 17.8816, 15.8645, 23.0564, 38.2544, -28.6215, -29.9142
3.136, 2, 17.8816, 15.8645, 23.0564, 38.2544, -28.6215, -29.9142
3.14, 2, 17.8816, 15.8645, 23.0564, 38.2544, -28.6215, -29.9142
3.143, 2, 17.8816, 15.8645, 23.0564, 38.2544, -28.6215, -29.9142
3.148, 2, 17.8816, 15.8645, 23.0564, 38.2544, -28.6215, -29.9142
3.152, 2, 17.8816, 15.8645, 23.0564, 38.2544, -28.6215, -29.9142
3.156, 2, 17.8816, 15.8645, 23.0564, 38.2544, -28.6215, -29.9142
3.16, 2, 17.8816, 15.8645, 23.0564, 38.2544, -28.6215, -29.9142
3.163, 2, 17.8816, 15.8645, 23.0564, 38.2544, -28.6215, -29.9142
3.168, 2, 17.8816, 15.8645, 23.0564, 38.2544, -28.6215, -29.9142
3.172, 2, 17.8816, 15.8645, 23.0564, 38.2544, -28.6215, -29.9142
3.176, 2, 17.8816, 15.8645, 23.0564, 38.2544, -28.6215, -29.9142
3.179, 2, 17.8816, 15.8645, 23.0564, 38.2544, -28.6215, -29.9142
3.184, 2, 17.8816, 15.8645, 23.0564, 38.2544, -28.6215, -29.9142
3.188, 2, 17.8816, 15.8645, 23.0564, 38.2544, -28.6215, -29.9142
3.192, 2, 17.8816, 15.8645, 23.0564, 38.2544, -28.6215, -29.9142
3.196, 2, 17.8816, 15.8645, 23.0564, 38.2544, -28.6215, -29.9142
3.199, 2, 17.8816, 15.8645, 23.0564, 38.2544, -28.6215, -29.9142
3.204, 2, 17.8816, 15.8645, 23.0564, 38.2544, -28.6215, -29.9142
3.208, 2, 17.8816, 15.8645, 23.0564, 38.2544, -28.6215, -29.9142
3.212, 2, 17.8816, 15.8645, 23.0564, 38.2544, -28.6215, -29.9142
3.216, 2, 17.8816, 15.8645, 23.0564, 38.2544, -28.6215, -29.9142
3.22, 2, 17.8816, 15.8645, 23.0564, 38.2544, -28.6215, -29.9142
3.224, 2, 17.8816, 15.8645, 23.0564, 38.2544, -28.6215, -29.9142
3.228, 2, 17.8816, 15.8645, 23.0564, 38.2544, -28.6215, -29.9142
3.232, 2, 17.8816, 15.8645, 23.0564, 38.2544, -28.6215, -29.9142
3.235, 2, 17.8816, 15.8645, 23.0564, 38.2544, -28.6215, -29.9142
3.24, 2, 17.8816, 15.8645, 23.0564, 38.2544, -28.6215, -29.9142
3.244, 2, 17.8816, 15.8645, 23.0564, 38.2544, -28.6215, -29.9142
3.248, 4, 17.8816, 15.8645, 23.0564, 38.2544, -28.6215, -29.9142
3.252, 4, 17.8816, 15.8645, 23.0564, 38.2544, -28.6215, -29.9142
3.255, 4, 17.8816, 15.8645, 23.0564, 38.2544, -28.6215, -29.9142
3.26, 4, 17.8816, 15.8645, 23.0564, 38.2544, -28.6215, -29.9142
3.264, 4, 17.8816, 15.8645, 23.0564, 38.2544, -28.6215, -29.9142
3.268, 4, 17.8816, 15.8645, 23.0564, 38.2544, -28.6215, -29.9142
3.272, 4, 17.8816, 15.8645, 23.0564, 38.2544, -28.6215, -29.9142
3.276, 4, 17.8816, 15.8645, 23.0564, 38.2544, -28.6215, -29.9142
3.28, 4, 17.8816, 15.8645, 23.0564, 38.2544, -28.6215, -29.9142
3.284, 4, 17.8816, 15.8645, 23.0564, 38.2544, -28.6215, -29.9142
3.288, 4, 17.8816, 15.8645, 23.0564, 38.2544, -28.6215, -29.9142
3.291, 4, 17.8816, 15.8645, 23.0564, 38.2544, -28.6215, -29.9142
3.296, 4, 17.8816, 15.8645, 23.0564, 38.2544, -28.6215, -29.9142
3.3, 4, 17.8816, 15.8645, 23.0564, 38.2544, -28.6215, -29.9142
3.304, 4, 17.8816, 15.8645, 23.0564, 38.2544, -28.6215, -29.9142
3.308, 4, 17.8816, 15.8645, 23.0564, 38.2544, -28.6215, -29.9142
3.312, 4, 17.8816, 15.8645, 23.0564, 38.2544, -28.6215, -29.9142
3.316, 4, 17.8816, 15.8645, 23.0564, 38.2544, -28.6215, -29.9142
3.32, 4, 17.8816, 15.8645, 23.0564, 38.2544, -28.6215, -29.9142
3.324, 4, 17.8816, 15.8645, 23.0564, 38.2544, -28.6215, -29.9142
3.328, 4, 17.8816, 15.8645, 23.0564, 38.2544, -28.6215, -29.9142
3.332, 4, 17.8816, 15.8645, 23.0564, 38.2544, -28.6215, -29.9142
3.336, 4, 17.8816, 15.8645, 23.0564, 38.2544, -28.6215, -29.9142
3.34, 4, 17.8816, 15.8645, 23.0564, 38.2544, -28.6215, -29.9142
3.344, 4, 17.8816, 15.8645, 23.0564, 38.2544, -28.6215, -29.9142
3.347, 4, 17.8816, 15.8645, 23.0564, 38.2544, -28.6215, -29.9142
3.352, 4, 17.8816, 15.8645, 23.0564, 38.2544, -28.6215, -29.9142
3.356, 4, 17.8816, 15.8645, 23.0564, 38.2544, -28.6215, -29.9142
3.36, 4, 17.8816, 15.8645, 23.0564, 38.2544, -28.6215, -29.9142
3.364, 4, 17.8816, 15.8645, 23.0564, 38.2544, -28.6215, -29.9142
3.368, 4, 17.8816, 15.8645, 23.0564, 38.2544, -28.6215, -29.9142
3.372, 4, 17.8816, 15.8645, 23.0564, 38.2544, -28.6215, -29.9142
3.376, 4, 17.8816, 15.8645, 23.0564, 38.2544, -28.6215, -29.9142
3.38, 4, 17.8815, 15.8645, 23.0564, 38.2544, -28.6215, -29.9142
3.383, 4, 17.8812, 15.8645, 23.0564, 38.2543, -28.6215, -29.9142
3.388, 4, 17.8806, 15.8645, 23.0565, 38.2542, -28.6216, -29.9141
3.392, 4, 17.8793, 15.8645, 23.0566, 38.2539, -28.6217, -29.9139
3.396, 4, 17.8773, 15.8644, 23.0569, 38.2532, -28.6219, -29.9133
3.4, 4, 17.8745, 15.8643, 23.0576, 38.2517, -28.6225, -29.912
3.403, 4, 17.8707, 15.864, 23.0586, 38.2489, -28.6235, -29.9095
3.408, 4, 17.8659, 15.8636, 23.0603, 38.2441, -28.6252, -29.9053
3.412, 4, 17.8601, 15.863, 23.0629, 38.2365, -28.628, -29.8986
3.416, 4, 17.8533, 15.8621, 23.0667, 38.225, -28.6321, -29.8884
3.42, 5, 17.8454, 15.8608, 23.072, 38.2087, -28.6379, -29.874
3.424, 5, 17.8363, 15.8592, 23.0792, 38.1865, -28.646, -29.8543
3.428, 5, 17.8257, 15.857, 23.0884, 38.1572, -28.6565, -29.8284
3.432, 5, 17.8136, 15.8542, 23.1001, 38.1198, -28.67, -29.7953
3.436, 5, 17.8, 15.8508, 23.1146, 38.0733, -28.6867, -29.7542
3.439, 5, 17.7848, 15.8467, 23.132, 38.017, -28.7071, -29.7043
3.444, 5, 17.7681, 15.8419, 23.1525, 37.9502, -28.7313, -29.6452
3.448, 5, 17.75, 15.8363, 23.1763, 37.8727, -28.7595, -29.5765
3.452, 5, 17.7303, 15.83, 23.2033, 37.7844, -28.7917, -29.4983
3.456, 5, 17.7091, 15.823, 23.2335, 37.6856, -28.8279, -29.4108
3.46, 5, 17.6863, 15.8152, 23.2666, 37.5769, -28.8678, -29.3145
3.464, 5, 17.6618, 15.8069, 23.3026, 37.459, -28.9113, -29.2101
3.468, 5, 17.6357, 15.7979, 23.3411, 37.3328, -28.9579, -29.0985
3.472, 5, 17.6082, 15.7885, 23.3818, 37.1995, -29.0075, -28.9806
3.476, 5, 17.5792, 15.7787, 23.4245, 37.0601, -29.0595, -28.8573
3.48, 5, 17.549, 15.7685, 23.4688, 36.9157, -29.1138, -28.7296
3.484, 5, 17.5176, 15.7581, 23.5144, 36.7672, -29.1698, -28.5984
3.488, 5, 17.4852, 15.7475, 23.561, 36.6156, -29.2273, -28.4645
3.492, 5, 17.4516, 15.7367, 23.6085, 36.4618, -29.286, -28.3287
3.495, 5, 17.4171, 15.7259, 23.6565, 36.3065, -29.3456, -28.1917
3.5, 5, 17.3816, 15.7151, 23.7049, 36.1503, -29.4059, -28.0539
3.504, 5, 17.3453, 15.7042, 23.7536, 35.9936, -29.4667, -27.9158
3.508, 5, 17.3083, 15.6935, 23.8024, 35.8367, -29.528, -27.7776
3.512, 5, 17.2708, 15.6827, 23.8512, 35.6799, -29.5897, -27.6396
3.516, 5, 17.233, 15.672, 23.9001, 35.5233, -29.6516, -27.5018
3.52, 5, 17.195, 15.6614, 23.949, 35.3671, -29.7138, -27.3644
3.524, 5, 17.1567, 15.6509, 23.9979, 35.2113, -29.7763, -27.2274
3.528, 5, 17.1183, 15.6405, 24.0466, 35.0559, -29.839, -27.0909
3.531, 5, 17.0799, 15.6302, 24.0953, 34.901, -29.9018, -26.9549
3.536, 5, 17.0413, 15.6199, 24.1439, 34.7466, -29.9649, -26.8194
3.54, 5, 17.0027, 15.6098, 24.1924, 34.5927, -30.0281, -26.6844
3.544, 5, 16.964, 15.5997, 24.2409, 34.4393, -30.0915, -26.5499
3.548, 5, 16.9253, 15.5898, 24.2892, 34.2865, -30.1552, -26.416
3.552, 5, 16.8865, 15.5799, 24.3375, 34.1342, -30.2189, -26.2826
3.556, 5, 16.8477, 15.5701, 24.3856, 33.9824, -30.2829, -26.1498
3.56, 5, 16.8089, 15.5604, 24.4337, 33.8311, -30.347, -26.0175
3.564, 5, 16.77, 15.5509, 24.4816, 33.6804, -30.4113, -25.8857
3.568, 5, 16.7311, 15.5414, 24.5295, 33.5302, -30.4758, -25.7545
3.572, 5, 16.6922, 15.532, 24.5772, 33.3806, -30.5404, -25.6238
3.576, 5, 16.6532, 15.5227, 24.6249, 33.2314, -30.6052, -25.4936
3.58, 5, 16.6142, 15.5135, 24.6724, 33.0828, -30.6702, -25.364
3.584, 5, 16.5751, 15.5044, 24.7199, 32.9347, -30.7353, -25.2349
3.587, 5, 16.5361, 15.4954, 24.7672, 32.7872, -30.8006, -25.1063
3.592, 5, 16.4969, 15.4865, 24.8145, 32.6401, -30.8661, -24.9783
3.596, 5, 16.4578, 15.4777, 24.8616, 32.4936, -30.9317, -24.8508
3.6, 5, 16.4186, 15.469, 24.9087, 32.3476, -30.9975, -24.7238
3.604, 5, 16.3794, 15.4604, 24.9557, 32.2021, -31.0634, -24.5973
3.608, 5, 16.3402, 15.4519, 25.0025, 32.0571, -31.1296, -24.4713
3.612, 5, 16.3009, 15.4435, 25.0493, 31.9126, -31.1958, -24.3459
3.616, 5, 16.2616, 15.4352, 25.0959, 31.7686, -31.2622, -24.221
3.62, 5, 16.2222, 15.427, 25.1425, 31.6252, -31.3288, -24.0965
3.624, 5, 16.1829, 15.4189, 25.189, 31.4822, -31.3956, -23.9726
3.628, 5, 16.1434, 15.4108, 25.2353, 31.3398, -31.4625, -23.8493
3.632, 5, 16.104, 15.4029, 25.2816, 31.1978, -31.5295, -23.7264
3.636, 5, 16.0645, 15.3951, 25.3277, 31.0564, -31.5967, -23.604
3.64, 5, 16.025, 15.3874, 25.3738, 30.9154, -31.6641, -23.4821
3.644, 5, 15.9855, 15.3797, 25.4198, 30.7749, -31.7316, -23.3607
3.648, 5, 15.9459, 15.3722, 25.4656, 30.635, -31.7992, -23.2399
3.652, 5, 15.9063, 15.3648, 25.5114, 30.4955, -31.867, -23.1195
3.656, 5, 15.8667, 15.3574, 25.557, 30.3565, -31.935, -22.9996
3.66, 5, 15.827, 15.3502, 25.6026, 30.218, -32.0031, -22.8802
3.664, 5, 15.7873, 15.343, 25.6481, 30.08, -32.0713, -22.7613
3.668, 5, 15.7476, 15.336, 25.6934, 29.9424, -32.1397, -22.6429
3.672, 5, 15.7078, 15.329, 25.7387, 29.8054, -32.2083, -22.525
3.676, 5, 15.668, 15.3222, 25.7839, 29.6688, -32.277, -22.4076
3.679, 5, 15.6283, 15.3154, 25.8289, 29.5327, -32.3458, -22.2906
3.684, 5, 15.5886, 15.3088, 25.8739, 29.3971, -32.4148, -22.1742
3.688, 5, 15.5492, 15.3022, 25.9187, 29.262, -32.4839, -22.0582
3.692, 5, 15.5102, 15.2957, 25.9634, 29.1275, -32.5531, -21.9429
3.696, 5, 15.4717, 15.2892, 26.0079, 28.9936, -32.6223, -21.8281
3.7, 5, 15.4338, 15.2829, 26.0521, 28.8606, -32.6915, -21.7142
3.704, 5, 15.3967, 15.2765, 26.096, 28.7287, -32.7604, -21.6013
3.708, 5, 15.3605, 15.2703, 26.1394, 28.5983, -32.8289, -21.4897
3.712, 5, 15.3251, 15.2641, 26.1822, 28.4699, -32.8967, -21.3799
3.716, 5, 15.2907, 15.2581, 26.2241, 28.3441, -32.9634, -21.2724
3.72, 5, 15.2574, 15.2522, 26.265, 28.2215, -33.0287, -21.1676
3.724, 5, 15.2253, 15.2465, 26.3045, 28.1029, -33.0922, -21.0664
3.728, 5, 15.1947, 15.241, 26.3425, 27.9891, -33.1533, -20.9693
3.732, 5, 15.1656, 15.2358, 26.3786, 27.8809, -33.2116, -20.877
3.735, 5, 15.138, 15.231, 26.4125, 27.7792, -33.2666, -20.7903
3.74, 5, 15.1121, 15.2266, 26.4441, 27.6848, -33.3178, -20.7099
3.744, 5, 15.0877, 15.2226, 26.4731, 27.5983, -33.3649, -20.6362
3.748, 5, 15.0649, 15.2191, 26.4993, 27.5202, -33.4075, -20.5696
3.752, 5, 15.0438, 15.2161, 26.5227, 27.4507, -33.4455, -20.5105
3.756, 5, 15.0242, 15.2136, 26.5432, 27.39, -33.4789, -20.4588
3.76, 5, 15.0064, 15.2116, 26.561, 27.3378, -33.5075, -20.4144
3.764, 5, 14.9902, 15.21, 26.576, 27.2937, -33.5318, -20.3769
3.768, 5, 14.9758, 15.2089, 26.5885, 27.2572, -33.5519, -20.3459
3.772, 5, 14.963, 15.2081, 26.5987, 27.2277, -33.5682, -20.3208
3.776, 5, 14.9517, 15.2076, 26.6068, 27.2043, -33.5811, -20.301
3.78, 5, 14.9417, 15.2073, 26.6131, 27.1863, -33.5911, -20.2856
3.784, 5, 14.933, 15.2072, 26.618, 27.1727, -33.5986, -20.2741
3.788, 5, 14.9256, 15.2073, 26.6216, 27.1627, -33.6041, -20.2656
3.792, 5, 14.9194, 15.2074, 26.6242, 27.1555, -33.6081, -20.2595
3.796, 5, 14.9143, 15.2075, 26.6261, 27.1505, -33.6109, -20.2553
3.8, 5, 14.9104, 15.2076, 26.6274, 27.147, -33.6128, -20.2523
3.804, 5, 14.9075, 15.2077, 26.6282, 27.1447, -33.6141, -20.2503
3.808, 5, 14.9054, 15.2078, 26.6289, 27.1431, -33.615, -20.2489
3.812, 5, 14.9038, 15.2078, 26.6293, 27.142, -33.6156, -20.248
3.816, 5, 14.9022, 15.2079, 26.6296, 27.1411, -33.6161, -20.2473
3.82, 5, 14.9003, 15.208, 26.6299, 27.1404, -33.6165, -20.2467
3.824, 5, 14.8978, 15.2082, 26.6303, 27.1396, -33.6169, -20.246
3.828, 5, 14.8946, 15.2084, 26.6309, 27.1382, -33.6177, -20.2449
3.832, 5, 14.8905, 15.2086, 26.6318, 27.136, -33.6189, -20.243
3.836, 5, 14.8855, 15.2089, 26.6332, 27.1323, -33.621, -20.2399
3.84, 5, 14.8794, 15.2091, 26.6354, 27.1265, -33.6243, -20.2349
3.844, 6, 14.8723, 15.2092, 26.6385, 27.1179, -33.6291, -20.2276
3.848, 6, 14.8641, 15.2093, 26.6429, 27.1056, -33.636, -20.2172
3.852, 6, 14.8545, 15.2092, 26.6489, 27.0888, -33.6455, -20.203
3.856, 6, 14.8434, 15.2089, 26.6566, 27.0667, -33.6579, -20.1843
3.86, 6, 14.8307, 15.2084, 26.6664, 27.0385, -33.6739, -20.1604
3.864, 6, 14.8164, 15.2075, 26.6785, 27.0034, -33.6938, -20.1306
3.868, 6, 14.8003, 15.2063, 26.6931, 26.9608, -33.718, -20.0945
3.872, 6, 14.7827, 15.2047, 26.7104, 26.9102, -33.7468, -20.0516
3.876, 6, 14.7634, 15.2026, 26.7304, 26.8513, -33.7804, -20.0018
3.88, 6, 14.7425, 15.2002, 26.7532, 26.7841, -33.8188, -19.9449
3.884, 6, 14.72, 15.1973, 26.7787, 26.7089, -33.8619, -19.8813
3.888, 6, 14.6957, 15.1942, 26.8067, 26.6261, -33.9095, -19.8112
3.892, 6, 14.6697, 15.1907, 26.8372, 26.5361, -33.9614, -19.7351
3.896, 6, 14.6419, 15.187, 26.8698, 26.4398, -34.0171, -19.6537
3.9, 6, 14.6125, 15.1831, 26.9043, 26.338, -34.0762, -19.5676
3.904, 6, 14.5817, 15.1791, 26.9405, 26.2313, -34.1383, -19.4776
3.908, 6, 14.5495, 15.175, 26.978, 26.1208, -34.203, -19.3843
3.912, 6, 14.5161, 15.1709, 27.0167, 26.0071, -34.2697, -19.2884
3.916, 6, 14.4815, 15.1668, 27.0562, 25.891, -34.3381, -19.1905
3.92, 6, 14.4458, 15.1628, 27.0964, 25.7731, -34.4079, -19.0912
3.924, 6, 14.409, 15.1589, 27.1371, 25.6541, -34.4787, -18.9909
3.928, 6, 14.3712, 15.1551, 27.1781, 25.5343, -34.5502, -18.8902
3.932, 6, 14.3325, 15.1514, 27.2193, 25.4142, -34.6223, -18.7891
3.936, 6, 14.2931, 15.1479, 27.2606, 25.2939, -34.6948, -18.688
3.94, 6, 14.2533, 15.1445, 27.3019, 25.1736, -34.7677, -18.5871
3.944, 6, 14.2131, 15.1411, 27.3433, 25.0536, -34.8408, -18.4863
3.948, 6, 14.1726, 15.1379, 27.3846, 24.9337, -34.9141, -18.3858
3.952, 6, 14.1319, 15.1348, 27.4258, 24.8141, -34.9877, -18.2856
3.956, 6, 14.0911, 15.1318, 27.467, 24.6949, -35.0613, -18.1857
3.96, 6, 14.0502, 15.1289, 27.508, 24.576, -35.1352, -18.0863
3.964, 6, 14.0093, 15.1261, 27.549, 24.4575, -35.2091, -17.9872
3.968, 6, 13.9683, 15.1234, 27.5899, 24.3394, -35.2832, -17.8884
3.972, 6, 13.9272, 15.1208, 27.6307, 24.2216, -35.3574, -17.7901
3.976, 6, 13.8861, 15.1183, 27.6715, 24.1042, -35.4318, -17.6922
3.98, 6, 13.8449, 15.1159, 27.7121, 23.9872, -35.5062, -17.5947
3.984, 6, 13.8037, 15.1136, 27.7526, 23.8706, -35.5808, -17.4975
3.988, 6, 13.7625, 15.1114, 27.793, 23.7544, -35.6555, -17.4008
3.992, 6, 13.7212, 15.1093, 27.8333, 23.6386, -35.7303, -17.3044
3.996, 6, 13.6799, 15.1073, 27.8735, 23.5231, -35.8052, -17.2084
3.999, 6, 13.6386, 15.1054, 27.9136, 23.4081, -35.8802, -17.1129
4.004, 6, 13.5972, 15.1036, 27.9536, 23.2934, -35.9553, -17.0177
4.008, 6, 13.5558, 15.1019, 27.9935, 23.1791, -36.0306, -16.9229
4.012, 6, 13.5144, 15.1003, 28.0333, 23.0652, -36.1059, -16.8285
4.016, 6, 13.473, 15.0988, 28.073, 22.9516, -36.1813, -16.7345
4.02, 6, 13.4315, 15.0974, 28.1126, 22.8385, -36.2569, -16.6408
4.024, 6, 13.39, 15.0961, 28.1521, 22.7257, -36.3326, -16.5476
4.028, 6, 13.3485, 15.0949, 28.1915, 22.6132, -36.4083, -16.4547
4.032, 6, 13.3069, 15.0938, 28.2307, 22.5012, -36.4842, -16.3622
4.036, 6, 13.2653, 15.0928, 28.2699, 22.3895, -36.5602, -16.27
4.04, 6, 13.2237, 15.0919, 28.309, 22.2782, -36.6363, -16.1783
4.044, 6, 13.1821, 15.0911, 28.348, 22.1672, -36.7125, -16.0869
4.048, 6, 13.1404, 15.0904, 28.3868, 22.0566, -36.7887, -15.9959
4.052, 6, 13.0987, 15.0898, 28.4256, 21.9464, -36.8651, -15.9052
4.056, 6, 13.057, 15.0893, 28.4642, 21.8365, -36.9416, -15.815
4.06, 6, 13.0152, 15.0889, 28.5028, 21.727, -37.0182, -15.7251
4.064, 6, 12.9734, 15.0886, 28.5413, 21.6179, -37.0949, -15.6355
4.068, 6, 12.9316, 15.0884, 28.5796, 21.5091, -37.1717, -15.5463
4.072, 6, 12.8898, 15.0883, 28.6179, 21.4006, -37.2486, -15.4575
4.076, 6, 12.8479, 15.0883, 28.656, 21.2925, -37.3256, -15.3691
4.08, 6, 12.806, 15.0884, 28.694, 21.1848, -37.4027, -15.281
4.084, 6, 12.7641, 15.0886, 28.732, 21.0774, -37.4799, -15.1932
4.088, 6, 12.7221, 15.0889, 28.7698, 20.9704, -37.5572, -15.1058
4.092, 6, 12.6801, 15.0893, 28.8075, 20.8637, -37.6346, -15.0188
4.096, 6, 12.6381, 15.0899, 28.8452, 20.7573, -37.712, -14.9321
4.1, 6, 12.5961, 15.0905, 28.8827, 20.6513, -37.7896, -14.8457
4.104, 6, 12.554, 15.0912, 28.9201, 20.5457, -37.8673, -14.7598
4.108, 6, 12.5119, 15.092, 28.9574, 20.4403, -37.945, -14.6741
4.112, 6, 12.4699, 15.0929, 28.9946, 20.3354, -38.0229, -14.5888
4.116, 6, 12.428, 15.0939, 29.0317, 20.2307, -38.1008, -14.5039
4.12, 6, 12.3865, 15.0949, 29.0687, 20.1265, -38.1789, -14.4193
4.124, 6, 12.3455, 15.0959, 29.1055, 20.0226, -38.2569, -14.3352
4.128, 6, 12.3053, 15.0969, 29.1421, 19.9193, -38.3348, -14.2516
4.132, 6, 12.266, 15.0979, 29.1785, 19.8168, -38.4125, -14.1686
4.136, 6, 12.2276, 15.0987, 29.2144, 19.7154, -38.4897, -14.0866
4.14, 6, 12.1902, 15.0995, 29.2499, 19.6153, -38.5662, -14.0058
4.144, 6, 12.1539, 15.1002, 29.2847, 19.5172, -38.6414, -13.9266
4.148, 6, 12.1187, 15.1008, 29.3186, 19.4215, -38.7151, -13.8494
4.152, 6, 12.0847, 15.1014, 29.3514, 19.3289, -38.7866, -13.7748
4.156, 6, 12.0522, 15.1019, 29.3828, 19.24, -38.8554, -13.7032
4.16, 6, 12.0213, 15.1024, 29.4128, 19.1555, -38.9211, -13.6351
4.164, 6, 11.9921, 15.1029, 29.4409, 19.076, -38.9829, -13.5712
4.168, 6, 11.9647, 15.1034, 29.4671, 19.0023, -39.0405, -13.5119
4.172, 6, 11.9389, 15.1041, 29.4911, 18.9347, -39.0934, -13.4576
4.176, 6, 11.9148, 15.105, 29.5127, 18.8737, -39.1413, -13.4086
4.18, 6, 11.8924, 15.106, 29.532, 18.8195, -39.1838, -13.3651
4.184, 6, 11.8717, 15.1072, 29.5489, 18.7722, -39.2211, -13.3271
4.188, 6, 11.8527, 15.1086, 29.5634, 18.7316, -39.2531, -13.2945
4.192, 6, 11.8356, 15.1101, 29.5757, 18.6974, -39.2801, -13.267
4.196, 6, 11.8203, 15.1116, 29.5859, 18.6692, -39.3024, -13.2443
4.2, 6, 11.8068, 15.1131, 29.5941, 18.6463, -39.3205, -13.226
4.204, 6, 11.7949, 15.1145, 29.6007, 18.6282, -39.3349, -13.2115
4.208, 6, 11.7845, 15.1159, 29.6058, 18.6142, -39.3459, -13.2002
4.212, 6, 11.7755, 15.1172, 29.6097, 18.6037, -39.3543, -13.1918
4.216, 6, 11.7677, 15.1184, 29.6126, 18.5959, -39.3604, -13.1855
4.22, 6, 11.7613, 15.1194, 29.6146, 18.5904, -39.3648, -13.1811
4.224, 6, 11.7561, 15.1202, 29.6161, 18.5865, -39.3679, -13.1779
4.228, 6, 11.752, 15.1208, 29.6171, 18.5838, -39.37, -13.1758
4.232, 6, 11.749, 15.1213, 29.6178, 18.582, -39.3715, -13.1743
4.236, 6, 11.7468, 15.1216, 29.6183, 18.5807, -39.3725, -13.1733
4.24, 6, 11.7451, 15.1219, 29.6187, 18.5799, -39.3731, -13.1726
4.244, 6, 11.7434, 15.1222, 29.6189, 18.5793, -39.3736, -13.1721
4.248, 6, 11.7415, 15.1225, 29.6191, 18.5787, -39.3741, -13.1717
4.252, 6, 11.739, 15.1229, 29.6194, 18.5781, -39.3746, -13.1711
4.256, 6, 11.7358, 15.1234, 29.6198, 18.5771, -39.3754, -13.1703
4.26, 6, 11.7316, 15.1242, 29.6205, 18.5754, -39.3767, -13.169
4.264, 6, 11.7265, 15.1251, 29.6216, 18.5726, -39.3789, -13.1668
4.268, 6, 11.7204, 15.1261, 29.6232, 18.5683, -39.3824, -13.1633
4.272, 7, 11.7131, 15.1274, 29.6256, 18.5618, -39.3876, -13.1581
4.276, 7, 11.7047, 15.1287, 29.6291, 18.5525, -39.395, -13.1506
4.28, 7, 11.6948, 15.1302, 29.6337, 18.5399, -39.4052, -13.1405
4.284, 7, 11.6833, 15.1318, 29.6398, 18.5231, -39.4187, -13.1271
4.288, 7, 11.6701, 15.1335, 29.6475, 18.5017, -39.436, -13.1099
4.292, 7, 11.6552, 15.1352, 29.6571, 18.475, -39.4576, -13.0886
4.296, 7, 11.6385, 15.137, 29.6688, 18.4424, -39.4839, -13.0626
4.3, 7, 11.6201, 15.1386, 29.6826, 18.4037, -39.5153, -13.0316
4.304, 7, 11.6, 15.1402, 29.6987, 18.3585, -39.552, -12.9956
4.308, 7, 11.5782, 15.1417, 29.7171, 18.3069, -39.594, -12.9544
4.312, 7, 11.5546, 15.1432, 29.7377, 18.2489, -39.6413, -12.9082
4.316, 7, 11.5292, 15.1447, 29.7604, 18.185, -39.6936, -12.8573
4.32, 7, 11.5019, 15.1462, 29.7851, 18.1154, -39.7506, -12.8019
4.324, 7, 11.4728, 15.1478, 29.8116, 18.0408, -39.8119, -12.7425
4.328, 7, 11.442, 15.1496, 29.8396, 17.9618, -39.877, -12.6797
4.332, 7, 11.4096, 15.1516, 29.869, 17.8789, -39.9454, -12.6138
4.336, 7, 11.3758, 15.1537, 29.8996, 17.7929, -40.0167, -12.5455
4.34, 7, 11.3408, 15.1561, 29.931, 17.7043, -40.0903, -12.4752
4.344, 7, 11.3045, 15.1588, 29.9632, 17.6138, -40.1658, -12.4034
4.348, 7, 11.2669, 15.1617, 29.9959, 17.5218, -40.2427, -12.3305
4.352, 7, 11.2283, 15.1649, 30.029, 17.4289, -40.3207, -12.2569
4.356, 7, 11.1886, 15.1683, 30.0623, 17.3353, -40.3996, -12.1828
4.36, 7, 11.1479, 15.172, 30.0957, 17.2413, -40.479, -12.1085
4.364, 7, 11.1065, 15.1759, 30.1292, 17.1473, -40.5589, -12.0342
4.368, 7, 11.0646, 15.18, 30.1627, 17.0532, -40.639, -11.9599
4.372, 7, 11.0224, 15.1842, 30.1962, 16.9592, -40.7194, -11.8858
4.376, 7, 10.9798, 15.1886, 30.2296, 16.8654, -40.8, -11.8118
4.38, 7, 10.9371, 15.1931, 30.263, 16.7717, -40.8808, -11.7381
4.384, 7, 10.8943, 15.1977, 30.2962, 16.6783, -40.9616, -11.6646
4.388, 7, 10.8513, 15.2024, 30.3294, 16.5851, -41.0426, -11.5914
4.392, 7, 10.8083, 15.2073, 30.3625, 16.4921, -41.1237, -11.5184
4.396, 7, 10.7652, 15.2122, 30.3955, 16.3995, -41.2049, -11.4457
4.4, 7, 10.7221, 15.2173, 30.4284, 16.3071, -41.2861, -11.3733
4.404, 7, 10.6789, 15.2224, 30.4611, 16.2149, -41.3674, -11.3011
4.408, 7, 10.6357, 15.2277, 30.4938, 16.1231, -41.4489, -11.2292
4.412, 7, 10.5925, 15.233, 30.5264, 16.0315, -41.5303, -11.1576
4.416, 7, 10.5492, 15.2385, 30.5589, 15.9401, -41.6119, -11.0863
4.42, 7, 10.5059, 15.2441, 30.5912, 15.8491, -41.6935, -11.0153
4.424, 7, 10.4626, 15.2497, 30.6235, 15.7583, -41.7753, -10.9445
4.428, 7, 10.4193, 15.2555, 30.6556, 15.6678, -41.857, -10.8741
4.432, 7, 10.3759, 15.2614, 30.6877, 15.5775, -41.9389, -10.8039
4.436, 7, 10.3325, 15.2673, 30.7196, 15.4875, -42.0208, -10.7339
4.44, 7, 10.2891, 15.2734, 30.7514, 15.3978, -42.1028, -10.6643
4.444, 7, 10.2457, 15.2796, 30.7831, 15.3083, -42.1848, -10.5949
4.448, 7, 10.2022, 15.2859, 30.8147, 15.2191, -42.267, -10.5258
4.452, 7, 10.1587, 15.2923, 30.8462, 15.1302, -42.3492, -10.4569
4.456, 7, 10.1152, 15.2987, 30.8776, 15.0415, -42.4314, -10.3883
4.46, 7, 10.0717, 15.3053, 30.9089, 14.9531, -42.5138, -10.32
4.464, 7, 10.0281, 15.312, 30.9401, 14.865, -42.5962, -10.252
4.468, 7, 9.98455, 15.3188, 30.9712, 14.7771, -42.6786, -10.1842
4.472, 7, 9.94096, 15.3257, 31.0021, 14.6894, -42.7612, -10.1167
4.476, 7, 9.89733, 15.3327, 31.033, 14.602, -42.8438, -10.0494
4.48, 7, 9.85369, 15.3398, 31.0637, 14.5149, -42.9264, -9.9824
4.484, 7, 9.81002, 15.347, 31.0944, 14.428, -43.0091, -9.91566
4.488, 7, 9.76634, 15.3542, 31.1249, 14.3414, -43.0919, -9.84917
4.492, 7, 9.72262, 15.3616, 31.1553, 14.255, -43.1748, -9.78295
4.496, 7, 9.67889, 15.3691, 31.1857, 14.1689, -43.2577, -9.71698
4.5, 7, 9.63514, 15.3767, 31.2159, 14.083, -43.3407, -9.65126
4.504, 7, 9.59136, 15.3844, 31.246, 13.9973, -43.4237, -9.5858
4.508, 7, 9.54756, 15.3922, 31.276, 13.912, -43.5068, -9.52059
4.512, 7, 9.50374, 15.4001, 31.3058, 13.8268, -43.59, -9.45563
4.516, 7, 9.4599, 15.4081, 31.3356, 13.7419, -43.6732, -9.39092
4.52, 7, 9.41603, 15.4162, 31.3653, 13.6572, -43.7565, -9.32646
4.524, 7, 9.37214, 15.4245, 31.3948, 13.5728, -43.8398, -9.26225
4.528, 7, 9.32824, 15.4328, 31.4243, 13.4886, -43.9233, -9.19829
4.532, 7, 9.28431, 15.4412, 31.4536, 13.4047, -44.0067, -9.13458
4.536, 7, 9.24036, 15.4497, 31.4829, 13.321, -44.0903, -9.07111
4.54, 7, 9.1964, 15.4583, 31.512, 13.2375, -44.1739, -9.00788
4.544, 7, 9.15251, 15.467, 31.541, 13.1543, -44.2575, -8.9449
4.548, 7, 9.10886, 15.4757, 31.5699, 13.0713, -44.3412, -8.88216
4.552, 7, 9.06571, 15.4844, 31.5987, 12.9886, -44.4249, -8.81971
4.556, 7, 9.02332, 15.493, 31.6273, 12.9062, -44.5086, -8.75758
4.56, 7, 8.98189, 15.5014, 31.6558, 12.8243, -44.592, -8.69587
4.564, 7, 8.94156, 15.5096, 31.684, 12.7431, -44.675, -8.63475
4.568, 7, 8.90242, 15.5174, 31.7118, 12.6629, -44.7573, -8.57444
4.572, 7, 8.8645, 15.525, 31.7391, 12.584, -44.8384, -8.51523
4.576, 7, 8.82779, 15.5322, 31.7658, 12.5071, -44.9178, -8.45747
4.58, 7, 8.79235, 15.5392, 31.7916, 12.4325, -44.995, -8.40153
4.584, 7, 8.75832, 15.5459, 31.8164, 12.3608, -45.0693, -8.34783
4.588, 7, 8.7259, 15.5522, 31.8399, 12.2926, -45.1402, -8.29677
4.592, 7, 8.69525, 15.5582, 31.8621, 12.2284, -45.2071, -8.24877
4.596, 7, 8.66644, 15.5639, 31.8827, 12.1688, -45.2693, -8.20419
4.6, 7, 8.63947, 15.5694, 31.9015, 12.1141, -45.3264, -8.16336
4.604, 7, 8.61427, 15.5747, 31.9185, 12.0648, -45.3781, -8.12653
4.608, 7, 8.5908, 15.5798, 31.9336, 12.0211, -45.424, -8.09386
4.612, 7, 8.56907, 15.5848, 31.9467, 11.9829, -45.4641, -8.06536
4.616, 7, 8.54912, 15.5896, 31.958, 11.9502, -45.4984, -8.04095
4.62, 7, 8.53104, 15.5942, 31.9674, 11.9228, -45.5273, -8.02045
4.624, 7, 8.51486, 15.5984, 31.9752, 11.9002, -45.5512, -8.00355
4.628, 7, 8.50058, 15.6023, 31.9814, 11.8819, -45.5704, -7.98991
4.632, 7, 8.48807, 15.6058, 31.9863, 11.8675, -45.5856, -7.97914
4.636, 7, 8.47717, 15.6089, 31.9901, 11.8564, -45.5974, -7.97083
4.64, 7, 8.46777, 15.6117, 31.993, 11.8481, -45.6062, -7.96458
4.644, 7, 8.45977, 15.6139, 31.9951, 11.842, -45.6127, -7.95998
4.648, 7, 8.45312, 15.6158, 31.9965, 11.8376, -45.6173, -7.95668
4.652, 7, 8.44774, 15.6174, 31.9976, 11.8345, -45.6206, -7.95437
4.656, 7, 8.44357, 15.6185, 31.9983, 11.8324, -45.6228, -7.95277
4.66, 7, 8.44048, 15.6193, 31.9988, 11.8309, -45.6243, -7.95168
4.664, 7, 8.43822, 15.6199, 31.9991, 11.8299, -45.6254, -7.95093
4.668, 7, 8.43645, 15.6204, 31.9993, 11.8293, -45.6261, -7.95042
4.672, 7, 8.43477, 15.6208, 31.9995, 11.8288, -45.6266, -7.95005
4.676, 7, 8.43281, 15.6213, 31.9996, 11.8284, -45.627, -7.94973
4.68, 7, 8.43031, 15.622, 31.9998, 11.8279, -45.6276, -7.94934
4.684, 7, 8.42703, 15.6229, 32, 11.8271, -45.6284, -7.94876
4.688, 7, 8.42284, 15.6241, 32.0005, 11.8258, -45.6298, -7.94778
4.692, 7, 8.41766, 15.6256, 32.0012, 11.8237, -45.632, -7.94618
4.696, 7, 8.41142, 15.6275, 32.0023, 11.8203, -45.6356, -7.94365
4.7, 8, 8.40407, 15.6297, 32.004, 11.8153, -45.641, -7.93989
4.704, 8, 8.39544, 15.6323, 32.0064, 11.8081, -45.6486, -7.93451
4.708, 8, 8.38533, 15.6354, 32.0097, 11.7983, -45.6592, -7.92716
4.712, 8, 8.37355, 15.6388, 32.0142, 11.7852, -45.6731, -7.91744
4.716, 8, 8.35998, 15.6427, 32.0198, 11.7685, -45.6911, -7.90497
4.72, 8, 8.34459, 15.647, 32.0269, 11.7475, -45.7136, -7.88939
4.724, 8, 8.3274, 15.6516, 32.0356, 11.7219, -45.7411, -7.87041
4.728, 8, 8.30842, 15.6566, 32.046, 11.6914, -45.7739, -7.84777
4.732, 8, 8.28767, 15.6617, 32.0581, 11.6557, -45.8123, -7.82135
4.736, 8, 8.26516, 15.6671, 32.072, 11.6149, -45.8564, -7.79111
4.74, 8, 8.24082, 15.6729, 32.0877, 11.5689, -45.9061, -7.75711
4.744, 8, 8.21457, 15.679, 32.1049, 11.5181, -45.9611, -7.71954
4.748, 8, 8.18637, 15.6855, 32.1237, 11.4627, -46.0212, -7.67865
4.752, 8, 8.15626, 15.6925, 32.1439, 11.4033, -46.0858, -7.63475
4.756, 8, 8.12437, 15.6999, 32.1654, 11.3401, -46.1545, -7.58819
4.76, 8, 8.0909, 15.7078, 32.1878, 11.2739, -46.2269, -7.53935
4.764, 8, 8.05597, 15.7162, 32.2111, 11.205, -46.3022, -7.48861
4.768, 8, 8.01966, 15.7251, 32.2351, 11.134, -46.3801, -7.43636
4.772, 8, 7.98205, 15.7345, 32.2597, 11.0613, -46.46, -7.38294
4.776, 8, 7.94317, 15.7443, 32.2846, 10.9875, -46.5414, -7.32868
4.78, 8, 7.90309, 15.7546, 32.3097, 10.9128, -46.624, -7.27384
4.784, 8, 7.8619, 15.7653, 32.335, 10.8375, -46.7075, -7.21865
4.788, 8, 7.81975, 15.7764, 32.3604, 10.762, -46.7915, -7.16328
4.792, 8, 7.77683, 15.7878, 32.3857, 10.6863, -46.876, -7.10785
4.796, 8, 7.73335, 15.7994, 32.4111, 10.6105, -46.9608, -7.05244
4.8, 8, 7.68949, 15.8112, 32.4363, 10.5348, -47.0458, -6.99713
4.804, 8, 7.64536, 15.8232, 32.4615, 10.4592, -47.1309, -6.94193
4.808, 8, 7.60104, 15.8354, 32.4867, 10.3837, -47.2162, -6.88689
4.812, 8, 7.55659, 15.8476, 32.5117, 10.3083, -47.3016, -6.83202
4.816, 8, 7.51205, 15.86, 32.5366, 10.2331, -47.3871, -6.77732
4.82, 8, 7.46743, 15.8725, 32.5614, 10.1581, -47.4726, -6.72282
4.824, 8, 7.42277, 15.8852, 32.5862, 10.0833, -47.5582, -6.6685
4.828, 8, 7.37806, 15.8979, 32.6108, 10.0086, -47.6439, -6.61439
4.832, 8, 7.33331, 15.9107, 32.6353, 9.93416, -47.7296, -6.56047
4.836, 8, 7.28854, 15.9237, 32.6597, 9.85989, -47.8153, -6.50675
4.84, 8, 7.24375, 15.9367, 32.6839, 9.78581, -47.9011, -6.45323
4.844, 8, 7.19893, 15.9498, 32.7081, 9.71193, -47.987, -6.39991
4.848, 8, 7.15409, 15.9631, 32.7322, 9.63823, -48.0729, -6.34678
4.852, 8, 7.10924, 15.9764, 32.7561, 9.56473, -48.1588, -6.29386
4.856, 8, 7.06436, 15.9899, 32.7799, 9.49142, -48.2448, -6.24113
4.86, 8, 7.01947, 16.0034, 32.8036, 9.41829, -48.3308, -6.1886
4.864, 8, 6.97456, 16.0171, 32.8272, 9.34536, -48.4168, -6.13626
4.868, 8, 6.92964, 16.0308, 32.8507, 9.27261, -48.5029, -6.08412
4.872, 8, 6.88469, 16.0447, 32.8741, 9.20005, -48.5891, -6.03218
4.876, 8, 6.83973, 16.0586, 32.8974, 9.12768, -48.6753, -5.98042
4.88, 8, 6.79476, 16.0727, 32.9205, 9.05549, -48.7615, -5.92886
4.884, 8, 6.74977, 16.0868, 32.9436, 8.98349, -48.8477, -5.87749
4.888, 8, 6.70476, 16.101, 32.9665, 8.91166, -48.934, -5.82631
4.892, 8, 6.65974, 16.1154, 32.9893, 8.84002, -49.0203, -5.77531
4.896, 8, 6.6147, 16.1298, 33.012, 8.76856, -49.1067, -5.72451
4.9, 8, 6.56965, 16.1444, 33.0346, 8.69729, -49.1931, -5.67389
4.904, 8, 6.52458, 16.159, 33.0571, 8.62619, -49.2796, -5.62346
4.908, 8, 6.47949, 16.1738, 33.0795, 8.55527, -49.366, -5.57321
4.912, 8, 6.43439, 16.1886, 33.1018, 8.48452, -49.4525, -5.52315
4.916, 8, 6.38928, 16.2036, 33.1239, 8.41396, -49.5391, -5.47327
4.92, 8, 6.34415, 16.2186, 33.1459, 8.34357, -49.6257, -5.42358
4.924, 8, 6.29901, 16.2337, 33.1679, 8.27335, -49.7123, -5.37406
4.928, 8, 6.25385, 16.249, 33.1897, 8.20331, -49.799, -5.32473
4.932, 8, 6.20868, 16.2643, 33.2114, 8.13344, -49.8856, -5.27557
4.936, 8, 6.16349, 16.2797, 33.2329, 8.06375, -49.9724, -5.2266
4.94, 8, 6.11829, 16.2953, 33.2544, 7.99422, -50.0591, -5.1778
4.944, 8, 6.07307, 16.3109, 33.2758, 7.92487, -50.1459, -5.12918
4.948, 8, 6.02784, 16.3266, 33.297, 7.85569, -50.2327, -5.08074
4.952, 8, 5.9826, 16.3424, 33.3182, 7.78667, -50.3196, -5.03247
4.956, 8, 5.93734, 16.3583, 33.3392, 7.71782, -50.4065, -4.98438
4.96, 8, 5.89207, 16.3744, 33.3601, 7.64914, -50.4934, -4.93646
4.964, 8, 5.84679, 16.3905, 33.3809, 7.58063, -50.5803, -4.88871
4.968, 8, 5.80152, 16.4067, 33.4016, 7.51229, -50.6673, -4.84114
4.972, 8, 5.75635, 16.423, 33.4222, 7.44411, -50.7543, -4.79374
4.976, 8, 5.71148, 16.4392, 33.4427, 7.3761, -50.8413, -4.74652
4.98, 8, 5.66717, 16.4554, 33.463, 7.3083, -50.9283, -4.6995
4.984, 8, 5.62364, 16.4714, 33.4833, 7.24076, -51.0152, -4.65272
4.988, 8, 5.58109, 16.487, 33.5034, 7.1736, -51.1018, -4.60627
4.992, 8, 5.53964, 16.5023, 33.5233, 7.10701, -51.188, -4.56026
4.996, 8, 5.49937, 16.5172, 33.5429, 7.04122, -51.2732, -4.51487
5, 8, 5.46029, 16.5316, 33.5622, 6.97655, -51.3573, -4.47031
5.004, 8, 5.42241, 16.5455, 33.581, 6.91338, -51.4395, -4.42683
5.008, 8, 5.38582, 16.5589, 33.5993, 6.85212, -51.5195, -4.3847
5.012, 8, 5.35069, 16.5717, 33.6168, 6.7932, -51.5965, -4.34423
5.016, 8, 5.31723, 16.5838, 33.6334, 6.73708, -51.67, -4.30571
5.02, 8, 5.28561, 16.5953, 33.649, 6.68419, -51.7394, -4.26944
5.024, 8, 5.25587, 16.6062, 33.6636, 6.63495, -51.8042, -4.2357
5.028, 8, 5.22799, 16.6164, 33.6769, 6.58974, -51.8637, -4.20473
5.032, 8, 5.20192, 16.6262, 33.6889, 6.54882, -51.9176, -4.17672
5.036, 8, 5.17762, 16.6354, 33.6995, 6.5124, -51.9657, -4.15178
5.04, 8, 5.15509, 16.6441, 33.7087, 6.48051, -52.0078, -4.12995
5.044, 8, 5.13439, 16.6523, 33.7165, 6.45308, -52.0441, -4.11116
5.048, 8, 5.1156, 16.6599, 33.7231, 6.42992, -52.0748, -4.09529
5.052, 8, 5.09879, 16.6669, 33.7285, 6.41073, -52.1003, -4.08214
5.056, 8, 5.08393, 16.6731, 33.7328, 6.39514, -52.121, -4.07145
5.06, 8, 5.07091, 16.6786, 33.7362, 6.38275, -52.1374, -4.06294
5.064, 8, 5.05954, 16.6834, 33.7387, 6.37313, -52.1502, -4.05633
5.068, 8, 5.04967, 16.6875, 33.7406, 6.36584, -52.1599, -4.05131
5.072, 8, 5.04122, 16.691, 33.742, 6.36046, -52.1671, -4.04759
5.076, 8, 5.03413, 16.6939, 33.743, 6.35657, -52.1722, -4.0449
5.08, 8, 5.02835, 16.6962, 33.7436, 6.35384, -52.1759, -4.043
5.084, 8, 5.0238, 16.698, 33.744, 6.35194, -52.1784, -4.04169
5.088, 8, 5.02038, 16.6992, 33.7443, 6.35065, -52.1801, -4.04078
5.092, 8, 5.01794, 16.7002, 33.7445, 6.34977, -52.1813, -4.04017
5.096, 8, 5.01618, 16.7008, 33.7446, 6.34917, -52.1821, -4.03975
5.1, 8, 5.01476, 16.7013, 33.7447, 6.34876, -52.1827, -4.03946
5.104, 8, 5.01331, 16.7018, 33.7448, 6.34846, -52.1831, -4.03925
5.108, 8, 5.01151, 16.7024, 33.7448, 6.34819, -52.1834, -4.03905
5.112, 8, 5.0091, 16.7032, 33.7448, 6.34784, -52.1839, -4.0388
5.116, 8, 5.00588, 16.7044, 33.7449, 6.34726, -52.1847, -4.03839
5.12, 8, 5.00172, 16.706, 33.7451, 6.34627, -52.186, -4.03768
5.124, 8, 4.99653, 16.7081, 33.7454, 6.34459, -52.1883, -4.03651
5.128, 8, 4.99026, 16.7108, 33.746, 6.34193, -52.1919, -4.03466
5.132, 9, 4.98284, 16.714, 33.7469, 6.33792, -52.1972, -4.0319
5.136, 9, 4.97411, 16.7178, 33.7483, 6.33217, -52.205, -4.02794
5.14, 9, 4.96385, 16.7224, 33.7503, 6.32427, -52.2156, -4.02252
5.144, 9, 4.95187, 16.7278, 33.7531, 6.31378, -52.2297, -4.01535
5.148, 9, 4.93805, 16.734, 33.7567, 6.30026, -52.2479, -4.00613
5.152, 9, 4.92237, 16.7409, 33.7613, 6.28332, -52.2707, -3.99459
5.156, 9, 4.90484, 16.7485, 33.7669, 6.2626, -52.2986, -3.98049
5.16, 9, 4.88551, 16.7566, 33.7738, 6.23781, -52.332, -3.96366
5.164, 9, 4.86438, 16.7653, 33.7819, 6.20878, -52.3711, -3.94397
5.168, 9, 4.84145, 16.7744, 33.7912, 6.17545, -52.4162, -3.92139
5.172, 9, 4.81665, 16.7842, 33.8018, 6.13789, -52.4669, -3.89598
5.176, 9, 4.78991, 16.7946, 33.8135, 6.09628, -52.5233, -3.86784
5.18, 9, 4.76116, 16.8058, 33.8263, 6.05088, -52.5848, -3.83718
5.184, 9, 4.73046, 16.8178, 33.84, 6.00203, -52.6512, -3.80421
5.188, 9, 4.69796, 16.8306, 33.8546, 5.95012, -52.7218, -3.7692
5.192, 9, 4.66382, 16.8443, 33.8698, 5.89555, -52.7961, -3.73244
5.196, 9, 4.62819, 16.8587, 33.8857, 5.83875, -52.8737, -3.6942
5.2, 9, 4.59115, 16.8738, 33.9019, 5.78015, -52.9538, -3.65479
5.204, 9, 4.55275, 16.8897, 33.9185, 5.72014, -53.0361, -3.61446
5.208, 9, 4.51305, 16.9063, 33.9353, 5.65909, -53.1199, -3.57347
5.212, 9, 4.47209, 16.9235, 33.9522, 5.59731, -53.205, -3.53202
5.216, 9, 4.42998, 16.9413, 33.9691, 5.53503, -53.2909, -3.4903
5.22, 9, 4.38686, 16.9595, 33.986, 5.47247, -53.3774, -3.44841
5.224, 9, 4.34294, 16.9782, 34.0029, 5.40975, -53.4644, -3.40648
5.228, 9, 4.29846, 16.9972, 34.0197, 5.34698, -53.5516, -3.36455
5.232, 9, 4.25357, 17.0165, 34.0364, 5.28421, -53.6391, -3.32267
5.236, 9, 4.20842, 17.0359, 34.053, 5.22149, -53.7267, -3.28088
5.24, 9, 4.16307, 17.0555, 34.0695, 5.15885, -53.8144, -3.2392
5.244, 9, 4.1176, 17.0752, 34.0859, 5.09631, -53.9021, -3.19763
5.248, 9, 4.07204, 17.0951, 34.1022, 5.03389, -53.99, -3.15619
5.252, 9, 4.02641, 17.1151, 34.1184, 4.97159, -54.0779, -3.11489
5.256, 9, 3.98074, 17.1351, 34.1344, 4.90941, -54.1658, -3.07372
5.26, 9, 3.93503, 17.1553, 34.1504, 4.84737, -54.2537, -3.0327
5.264, 9, 3.88929, 17.1756, 34.1662, 4.78547, -54.3417, -2.99181
5.268, 9, 3.84353, 17.196, 34.1819, 4.7237, -54.4297, -2.95107
5.272, 9, 3.79776, 17.2165, 34.1976, 4.66207, -54.5177, -2.91048
5.276, 9, 3.75198, 17.2371, 34.213, 4.60057, -54.6057, -2.87002
5.28, 9, 3.70618, 17.2578, 34.2284, 4.53921, -54.6937, -2.82971
5.284, 9, 3.66037, 17.2786, 34.2437, 4.47799, -54.7818, -2.78955
5.288, 9, 3.61455, 17.2994, 34.2588, 4.41691, -54.8699, -2.74952
5.292, 9, 3.56872, 17.3204, 34.2738, 4.35596, -54.958, -2.70964
5.296, 9, 3.52288, 17.3415, 34.2888, 4.29514, -55.0461, -2.6699
5.3, 9, 3.47704, 17.3626, 34.3036, 4.23447, -55.1342, -2.63029
5.304, 9, 3.43118, 17.3839, 34.3182, 4.17392, -55.2224, -2.59083
5.308, 9, 3.38532, 17.4052, 34.3328, 4.11352, -55.3105, -2.55151
5.312, 9, 3.33945, 17.4267, 34.3472, 4.05324, -55.3987, -2.51233
5.316, 9, 3.29358, 17.4482, 34.3616, 3.9931, -55.4869, -2.47328
5.32, 9, 3.24769, 17.4699, 34.3758, 3.93309, -55.5751, -2.43437
5.324, 9, 3.2018, 17.4916, 34.3899, 3.87321, -55.6633, -2.3956
5.328, 9, 3.1559, 17.5134, 34.4039, 3.81346, -55.7515, -2.35696
5.332, 9, 3.10999, 17.5353, 34.4177, 3.75385, -55.8397, -2.31846
5.336, 9, 3.06408, 17.5573, 34.4315, 3.69436, -55.9279, -2.2801
5.34, 9, 3.01816, 17.5794, 34.4451, 3.635, -56.0162, -2.24186
5.344, 9, 2.97223, 17.6016, 34.4586, 3.57577, -56.1045, -2.20376
5.348, 9, 2.9263, 17.6239, 34.472, 3.51667, -56.1927, -2.1658
5.352, 9, 2.88036, 17.6463, 34.4853, 3.4577, -56.281, -2.12796
5.356, 9, 2.83442, 17.6687, 34.4985, 3.39885, -56.3693, -2.09026
5.36, 9, 2.78846, 17.6913, 34.5115, 3.34013, -56.4576, -2.05269
5.364, 9, 2.74251, 17.7139, 34.5244, 3.28154, -56.5459, -2.01525
5.368, 9, 2.69654, 17.7367, 34.5373, 3.22307, -56.6342, -1.97794
5.372, 9, 2.65057, 17.7595, 34.55, 3.16472, -56.7226, -1.94076
5.376, 9, 2.6046, 17.7824, 34.5625, 3.1065, -56.8109, -1.9037
5.38, 9, 2.55862, 17.8055, 34.575, 3.0484, -56.8992, -1.86677
5.384, 9, 2.51263, 17.8286, 34.5874, 2.99043, -56.9876, -1.82998
5.388, 9, 2.46666, 17.8518, 34.5996, 2.93257, -57.0759, -1.7933
5.392, 9, 2.42073, 17.875, 34.6117, 2.87484, -57.1643, -1.75676
5.396, 9, 2.37488, 17.8984, 34.6238, 2.81724, -57.2527, -1.72034
5.4, 9, 2.32913, 17.9218, 34.6357, 2.75976, -57.341, -1.68405
5.404, 9, 2.28354, 17.9452, 34.6475, 2.70242, -57.4294, -1.6479
5.408, 9, 2.23815, 17.9687, 34.6591, 2.64523, -57.5176, -1.61189
5.412, 9, 2.19307, 17.9921, 34.6707, 2.58822, -57.6059, -1.57604
5.416, 9, 2.14851, 18.0154, 34.6822, 2.53141, -57.6939, -1.54037
5.42, 9, 2.10475, 18.0383, 34.6935, 2.47487, -57.7817, -1.50493
5.424, 9, 2.06203, 18.0607, 34.7048, 2.4187, -57.8692, -1.46977
5.428, 9, 2.02052, 18.0826, 34.716, 2.36309, -57.9559, -1.43501
5.432, 9, 1.98036, 18.1037, 34.727, 2.30826, -58.0415, -1.40078
5.436, 9, 1.94163, 18.124, 34.7377, 2.25451, -58.1257, -1.36728
5.44, 9, 1.90437, 18.1436, 34.7482, 2.2022, -58.2076, -1.33472
5.444, 9, 1.86858, 18.1623, 34.7583, 2.15172, -58.2869, -1.30333
5.448, 9, 1.83435, 18.1802, 34.7679, 2.10347, -58.3627, -1.27336
5.452, 9, 1.80181, 18.1972, 34.7769, 2.05785, -58.4346, -1.24505
5.456, 9, 1.77111, 18.2132, 34.7853, 2.01523, -58.5017, -1.21862
5.46, 9, 1.74237, 18.2283, 34.7929, 1.97594, -58.5637, -1.19427
5.464, 9, 1.71557, 18.2424, 34.7998, 1.94025, -58.6201, -1.17216
5.468, 9, 1.69063, 18.2556, 34.8058, 1.90837, -58.6706, -1.15241
5.472, 9, 1.66749, 18.268, 34.8109, 1.88037, -58.7149, -1.13506
5.476, 9, 1.64614, 18.2796, 34.8152, 1.85625, -58.7531, -1.12011
5.48, 9, 1.6266, 18.2903, 34.8187, 1.83588, -58.7855, -1.10747
5.484, 9, 1.60892, 18.3001, 34.8215, 1.81902, -58.8123, -1.09701
5.488, 9, 1.59312, 18.3089, 34.8236, 1.80536, -58.834, -1.08851
5.492, 9, 1.57918, 18.3166, 34.8251, 1.79454, -58.8512, -1.08178
5.496, 9, 1.56703, 18.3234, 34.8262, 1.78617, -58.8646, -1.07655
5.5, 9, 1.55655, 18.3291, 34.8269, 1.77983, -58.8747, -1.07259
5.504, 9, 1.54764, 18.3338, 34.8274, 1.77516, -58.8821, -1.06965
5.508, 9, 1.5402, 18.3377, 34.8276, 1.77179, -58.8875, -1.06753
5.512, 9, 1.53414, 18.3407, 34.8278, 1.76942, -58.8913, -1.06604
5.516, 9, 1.52938, 18.3431, 34.8278, 1.76778, -58.8939, -1.065
5.52, 9, 1.5258, 18.3448, 34.8278, 1.76666, -58.8957, -1.06428
5.524, 9, 1.52323, 18.346, 34.8278, 1.7659, -58.897, -1.0638
5.528, 9, 1.52138, 18.3468, 34.8278, 1.76538, -58.8978, -1.06347
5.532, 9, 1.5199, 18.3475, 34.8278, 1.76503, -58.8984, -1.06324
5.536, 9, 1.51842, 18.3483, 34.8277, 1.76477, -58.8988, -1.06308
5.54, 9, 1.5166, 18.3493, 34.8276, 1.76455, -58.8991, -1.06293
5.544, 9, 1.5142, 18.3507, 34.8273, 1.76428, -58.8996, -1.06276
5.548, 9, 1.511, 18.3528, 34.8268, 1.76385, -58.9003, -1.06248
5.552, 9, 1.50688, 18.3559, 34.8261, 1.76312, -58.9016, -1.06203
5.556, 9, 1.50176, 18.3599, 34.8252, 1.7619, -58.9037, -1.06128
5.56, 9, 1.49559, 18.3653, 34.824, 1.75995, -58.907, -1.0601
5.564, 9, 1.4883, 18.3721, 34.8225, 1.75702, -58.912, -1.05833
5.568, 9, 1.47977, 18.3804, 34.8205, 1.75281, -58.9192, -1.0558
5.572, 9, 1.46978, 18.3904, 34.8182, 1.747, -58.9291, -1.05232
5.576, 9, 1.45815, 18.4021, 34.8153, 1.73929, -58.9422, -1.04771
5.58, 9, 1.44481, 18.4155, 34.8119, 1.72933, -58.9592, -1.04178
5.584, 9, 1.42973, 18.4304, 34.8079, 1.71681, -58.9806, -1.03433
5.588, 9, 1.41297, 18.4468, 34.8034, 1.70146, -59.0068, -1.02521
5.592, 9, 1.39457, 18.4646, 34.7983, 1.68305, -59.0382, -1.01428
5.596, 9, 1.37456, 18.4836, 34.7927, 1.66144, -59.075, -1.00146
5.6, 9, 1.35293, 18.5039, 34.7864, 1.63656, -59.1174, -0.986723
5.604, 9, 1.32961, 18.5255, 34.7796, 1.60845, -59.1654, -0.970074
5.608, 9, 1.30451, 18.5486, 34.7722, 1.57722, -59.2186, -0.951584
5.612, 9, 1.27755, 18.5732, 34.7641, 1.54305, -59.2769, -0.931361
5.616, 9, 1.24877, 18.5995, 34.7555, 1.50619, -59.3398, -0.909543
5.62, 9, 1.21828, 18.6274, 34.7463, 1.4669, -59.4068, -0.88629
5.624, 9, 1.18623, 18.6571, 34.7366, 1.42548, -59.4774, -0.861778
5.628, 9, 1.15272, 18.6884, 34.7265, 1.38224, -59.5511, -0.836188
5.632, 9, 1.11782, 18.7214, 34.7159, 1.3375, -59.6274, -0.809705
5.636, 9, 1.08155, 18.7559, 34.7049, 1.29155, -59.7058, -0.782502
5.64, 9, 1.04397, 18.7918, 34.6936, 1.24466, -59.7857, -0.754738
5.644, 9, 1.00512, 18.829, 34.682, 1.19706, -59.8669, -0.726549
5.648, 9, 0.965109, 18.8673, 34.6702, 1.14894, -59.949, -0.698049
5.652, 9, 0.924089, 18.9064, 34.6581, 1.10045, -60.0316, -0.669323
5.656, 9, 0.882267, 18.9461, 34.6459, 1.05169, -60.1148, -0.640434
5.66, 9, 0.839859, 18.9864, 34.6335, 1.00274, -60.1983, -0.611426
5.664, 9, 0.797036, 19.0269, 34.6211, 0.953632, -60.282, -0.582329
5.668, 9, 0.753918, 19.0677, 34.6086, 0.904415, -60.366, -0.553164
5.672, 9, 0.710589, 19.1087, 34.5961, 0.855107, -60.45, -0.523944
5.676, 9, 0.667105, 19.1498, 34.5835, 0.805723, -60.5343, -0.494678
5.68, 9, 0.623503, 19.191, 34.571, 0.756274, -60.6186, -0.465374
5.684, 9, 0.579809, 19.2323, 34.5583, 0.706767, -60.703, -0.436035
5.688, 9, 0.53604, 19.2737, 34.5457, 0.657207, -60.7875, -0.406665
5.692, 9, 0.492208, 19.3151, 34.5331, 0.607597, -60.8721, -0.377264
5.696, 9, 0.448322, 19.3565, 34.5204, 0.557938, -60.9568, -0.347835
5.7, 9, 0.404386, 19.398, 34.5078, 0.508233, -61.0416, -0.318378
5.704, 9, 0.360404, 19.4396, 34.4951, 0.458483, -61.1264, -0.288894
5.708, 9, 0.316378, 19.4812, 34.4824, 0.408687, -61.2113, -0.259384
5.712, 9, 0.272311, 19.5228, 34.4697, 0.358847, -61.2963, -0.229847
5.716, 9, 0.228204, 19.5645, 34.457, 0.308963, -61.3814, -0.200284
5.72, 9, 0.184056, 19.6062, 34.4443, 0.259035, -61.4665, -0.170695
5.724, 9, 0.13987, 19.6479, 34.4315, 0.209063, -61.5518, -0.141081
5.728, 9, 0.0956442, 19.6897, 34.4188, 0.159048, -61.6371, -0.11144
5.732, 9, 0.0513802, 19.7315, 34.406, 0.108989, -61.7224, -0.0817734
5.736, 9, 0.00707781, 19.7733, 34.3932, 0.0588867, -61.8079, -0.0520811
5.74, 9, -0.0372629, 19.8152, 34.3805, 0.00874098, -61.8934, -0.0223631
5.744, 9, -0.0816418, 19.8571, 34.3677, -0.041448, -61.979, 0.00738046
5.748, 9, -0.126059, 19.8991, 34.3549, -0.0916801, -62.0646, 0.0371496
5.752, 9, -0.170514, 19.9411, 34.342, -0.141955, -62.1504, 0.0669444
5.756, 9, -0.215007, 19.9831, 34.3292, -0.192274, -62.2362, 0.0967646
5.76, 9, -0.259538, 20.0252, 34.3164, -0.242635, -62.3221, 0.12661
5.764, 9, -0.304107, 20.0673, 34.3035, -0.293039, -62.408, 0.156481
5.768, 9, -0.348714, 20.1094, 34.2907, -0.343486, -62.494, 0.186378
5.772, 9, -0.393355, 20.1516, 34.2778, -0.393975, -62.5801, 0.2163
5.776, 9, -0.438012, 20.1938, 34.2649, -0.444507, -62.6663, 0.246246
5.78, 9, -0.48264, 20.236, 34.2521, -0.495081, -62.7526, 0.276218
5.784, 9, -0.527163, 20.2782, 34.2392, -0.545693, -62.8389, 0.306211
5.788, 9, -0.571489, 20.3203, 34.2263, -0.596336, -62.9252, 0.336222
5.792, 9, -0.615491, 20.3622, 34.2135, -0.646996, -63.0116, 0.366241
5.796, 9, -0.658976, 20.4039, 34.2007, -0.697644, -63.098, 0.396251
5.8, 9, -0.701699, 20.4451, 34.1881, -0.748228, -63.1843, 0.426218
5.804, 9, -0.743438, 20.4855, 34.1756, -0.798661, -63.2703, 0.45609
5.808, 9, -0.784051, 20.525, 34.1633, -0.848804, -63.3558, 0.485782
5.812, 9, -0.823465, 20.5634, 34.1514, -0.898463, -63.4404, 0.515181
5.816, 9, -0.861635, 20.6005, 34.1398, -0.947389, -63.5239, 0.54414
5.82, 9, -0.898532, 20.6364, 34.1285, -0.995284, -63.6055, 0.572483
5.824, 9, -0.934134, 20.671, 34.1176, -1.04182, -63.6849, 0.600017
5.828, 9, -0.968377, 20.7041, 34.1071, -1.08664, -63.7613, 0.626537
5.832, 9, -1.00112, 20.7356, 34.0972, -1.1294, -63.8342, 0.651838
5.836, 9, -1.03218, 20.7655, 34.0878, -1.16977, -63.9031, 0.675722
5.84, 9, -1.06142, 20.7935, 34.0789, -1.20743, -63.9673, 0.698004
5.844, 9, -1.08881, 20.8197, 34.0707, -1.2421, -64.0264, 0.718525
5.848, 9, -1.11444, 20.8441, 34.0631, -1.27356, -64.0801, 0.737153
5.852, 9, -1.13838, 20.8669, 34.0561, -1.30167, -64.128, 0.753802
5.856, 9, -1.16071, 20.888, 34.0497, -1.32636, -64.1701, 0.768438
5.86, 9, -1.1814, 20.9075, 34.0439, -1.34767, -64.2064, 0.781085
5.864, 9, -1.20038, 20.9253, 34.0386, -1.36574, -64.2373, 0.79182
5.868, 9, -1.21755, 20.9412, 34.034, -1.38078, -64.2629, 0.800766
5.872, 9, -1.23284, 20.9554, 34.03, -1.39307, -64.2839, 0.808085
5.876, 9, -1.24626, 20.9676, 34.0266, -1.40291, -64.3007, 0.813956
5.88, 9, -1.25793, 20.9781, 34.0237, -1.41063, -64.3138, 0.818569
5.884, 9, -1.26802, 20.9869, 34.0213, -1.41655, -64.3239, 0.822116
5.888, 9, -1.27671, 20.9943, 34.0193, -1.42098, -64.3315, 0.824779
5.892, 9, -1.28409, 21.0003, 34.0177, -1.42423, -64.337, 0.826733
5.896, 9, -1.29024, 21.0051, 34.0165, -1.42654, -64.341, 0.828133
5.9, 9, -1.2952, 21.0088, 34.0155, -1.42816, -64.3437, 0.829115
5.904, 9, -1.29904, 21.0116, 34.0148, -1.42927, -64.3456, 0.829794
5.908, 9, -1.3019, 21.0136, 34.0143, -1.43003, -64.3469, 0.830257
5.912, 9, -1.30396, 21.0151, 34.014, -1.43055, -64.3478, 0.830572
5.916, 9, -1.30555, 21.0161, 34.0137, -1.4309, -64.3484, 0.830787
5.92, 9, -1.30701, 21.0171, 34.0134, -1.43115, -64.3488, 0.830941
5.924, 9, -1.30864, 21.0183, 34.0131, -1.43135, -64.3492, 0.831066
5.928, 9, -1.31067, 21.0199, 34.0126, -1.43157, -64.3496, 0.831199
5.932, 9, -1.31327, 21.0221, 34.0119, -1.43187, -64.3501, 0.831387
5.936, 9, -1.31656, 21.0253, 34.0109, -1.43237, -64.351, 0.831686
5.94, 9, -1.32064, 21.0296, 34.0095, -1.43319, -64.3525, 0.83217
5.944, 9, -1.32558, 21.0354, 34.0075, -1.43448, -64.3548, 0.832929
5.948, 11, -1.33146, 21.0429, 34.0049, -1.43644, -64.3583, 0.834069
5.952, 11, -1.33846, 21.0521, 34.0014, -1.43926, -64.3635, 0.835711
5.956, 11, -1.34677, 21.0634, 33.9968, -1.44319, -64.3706, 0.83799
5.96, 11, -1.35655, 21.0769, 33.991, -1.4485, -64.3803, 0.841056
