hehonglu123/ABB_Primitive_Study/execution/moveljl_30_car/curve_exe_v500_z20.csv
timestamp, cmd_num, J1, J2, J3, J4, J5, J6
0, -1, -13.4393, 43.6787, 12.5946, -11.6275, -87.029, 7.42441
0.002, -1, -13.4393, 43.6787, 12.5946, -11.6275, -87.029, 7.42441
0.006, -1, -13.4393, 43.6787, 12.5946, -11.6275, -87.029, 7.42441
0.008, -1, -13.4393, 43.6787, 12.5946, -11.6275, -87.029, 7.42441
0.011, -1, -13.4393, 43.6787, 12.5946, -11.6275, -87.029, 7.42441
0.016, -1, -13.4393, 43.6787, 12.5946, -11.6275, -87.029, 7.42441
0.02, -1, -13.4393, 43.6787, 12.5946, -11.6275, -87.029, 7.42441
0.024, -1, -13.4393, 43.6787, 12.5946, -11.6275, -87.029, 7.42441
0.028, -1, -13.4393, 43.6787, 12.5946, -11.6275, -87.029, 7.42441
0.032, -1, -13.4393, 43.6787, 12.5946, -11.6275, -87.029, 7.42441
0.036, -1, -13.4392, 43.6786, 12.5946, -11.6275, -87.029, 7.42441
0.04, -1, -13.439, 43.6785, 12.5946, -11.6275, -87.029, 7.42441
0.044, -1, -13.4384, 43.678, 12.5947, -11.6275, -87.029, 7.42439
0.048, -1, -13.4372, 43.6772, 12.5949, -11.6274, -87.0289, 7.42434
0.052, -1, -13.4355, 43.6758, 12.5951, -11.6273, -87.0287, 7.42422
0.056, -1, -13.433, 43.6738, 12.5955, -11.627, -87.0284, 7.42397
0.06, -1, -13.4296, 43.671, 12.5961, -11.6264, -87.0277, 7.42349
0.064, -1, -13.4254, 43.6675, 12.5969, -11.6253, -87.0264, 7.42266
0.068, -1, -13.4203, 43.6631, 12.598, -11.6236, -87.0244, 7.42132
0.072, -1, -13.4141, 43.6579, 12.5994, -11.6209, -87.0213, 7.41928
0.076, -1, -13.4066, 43.6516, 12.6011, -11.617, -87.0167, 7.4163
0.08, -1, -13.3977, 43.6442, 12.6034, -11.6115, -87.0103, 7.41213
0.084, -1, -13.3869, 43.6352, 12.6062, -11.604, -87.0016, 7.40644
0.088, -1, -13.3743, 43.6247, 12.6097, -11.5941, -86.9899, 7.39892
0.092, -1, -13.3596, 43.6124, 12.6138, -11.5812, -86.9748, 7.38918
0.096, -1, -13.3427, 43.5982, 12.6186, -11.5648, -86.9557, 7.37685
0.1, -1, -13.3235, 43.582, 12.6243, -11.5444, -86.9319, 7.36155
0.104, -1, -13.3019, 43.5636, 12.6308, -11.5196, -86.9029, 7.3429
0.108, -1, -13.2776, 43.5427, 12.6382, -11.4899, -86.868, 7.32054
0.112, -1, -13.2505, 43.5193, 12.6467, -11.4547, -86.8269, 7.29416
0.116, -1, -13.2206, 43.4932, 12.6562, -11.4137, -86.7789, 7.26346
0.12, -1, -13.1877, 43.4644, 12.6669, -11.3667, -86.7238, 7.22818
0.124, -1, -13.1519, 43.4328, 12.6786, -11.3132, -86.6612, 7.18814
0.128, -1, -13.113, 43.3984, 12.6916, -11.2532, -86.591, 7.14319
0.131, -1, -13.071, 43.3611, 12.7056, -11.1865, -86.5129, 7.09326
0.136, -1, -13.026, 43.321, 12.7209, -11.1131, -86.4269, 7.03835
0.139, -1, -12.9779, 43.2779, 12.7373, -11.0331, -86.3333, 6.9785
0.144, -1, -12.9267, 43.232, 12.7548, -10.9467, -86.2321, 6.91384
0.148, -1, -12.8726, 43.1833, 12.7734, -10.854, -86.1236, 6.84454
0.152, -1, -12.8155, 43.132, 12.7932, -10.7555, -86.0082, 6.77084
0.156, -1, -12.7557, 43.0781, 12.8139, -10.6514, -85.8863, 6.69301
0.16, -1, -12.6932, 43.0219, 12.8355, -10.5422, -85.7585, 6.61137
0.164, -1, -12.6282, 42.9633, 12.8581, -10.4284, -85.6253, 6.52627
0.168, -1, -12.5607, 42.9025, 12.8815, -10.3105, -85.4872, 6.43809
0.172, -1, -12.4909, 42.8396, 12.9056, -10.189, -85.3449, 6.34721
0.176, -1, -12.4189, 42.7749, 12.9305, -10.0644, -85.1989, 6.25399
0.18, -1, -12.345, 42.7085, 12.956, -9.93711, -85.0499, 6.15879
0.184, -1, -12.2694, 42.6406, 12.9821, -9.80765, -84.8983, 6.06194
0.188, -1, -12.1925, 42.5714, 13.0086, -9.6764, -84.7446, 5.96375
0.192, -1, -12.1142, 42.5011, 13.0356, -9.54373, -84.5892, 5.86449
0.196, -1, -12.0348, 42.4297, 13.0629, -9.40995, -84.4326, 5.76439
0.2, -1, -11.9542, 42.3573, 13.0906, -9.27534, -84.2749, 5.66366
0.204, -1, -11.8724, 42.2841, 13.1185, -9.14011, -84.1166, 5.56246
0.208, -1, -11.7897, 42.21, 13.1466, -9.00443, -83.9577, 5.46092
0.212, -1, -11.7061, 42.1354, 13.1749, -8.86843, -83.7985, 5.35913
0.216, -1, -11.6218, 42.0602, 13.2033, -8.7322, -83.6389, 5.25717
0.22, -1, -11.5371, 41.9847, 13.2318, -8.5958, -83.4792, 5.15507
0.224, -1, -11.452, 41.909, 13.2603, -8.45928, -83.3194, 5.05288
0.228, -1, -11.3667, 41.8332, 13.2889, -8.32266, -83.1594, 4.95062
0.232, -1, -11.2813, 41.7572, 13.3176, -8.18597, -82.9993, 4.8483
0.236, -1, -11.1957, 41.6811, 13.3462, -8.04922, -82.8392, 4.74595
0.24, -1, -11.11, 41.605, 13.3749, -7.91243, -82.679, 4.64355
0.244, -1, -11.0243, 41.5288, 13.4035, -7.77561, -82.5188, 4.54114
0.248, -1, -10.9386, 41.4526, 13.4322, -7.63876, -82.3586, 4.4387
0.252, -1, -10.8528, 41.3764, 13.4609, -7.50189, -82.1983, 4.33625
0.256, -1, -10.767, 41.3002, 13.4896, -7.36501, -82.0381, 4.2338
0.26, -1, -10.6811, 41.2239, 13.5183, -7.22813, -81.8778, 4.13133
0.264, -1, -10.5953, 41.1477, 13.547, -7.09125, -81.7175, 4.02887
0.268, -1, -10.5094, 41.0714, 13.5757, -6.95436, -81.5572, 3.92641
0.272, -1, -10.4236, 40.9952, 13.6044, -6.81749, -81.397, 3.82396
0.276, -1, -10.3378, 40.9189, 13.6331, -6.68063, -81.2367, 3.72151
0.28, -1, -10.252, 40.8427, 13.6618, -6.54379, -81.0765, 3.61908
0.284, -1, -10.1661, 40.7665, 13.6904, -6.40697, -80.9163, 3.51666
0.288, -1, -10.0803, 40.6903, 13.7191, -6.27017, -80.7561, 3.41427
0.292, -1, -9.99456, 40.6141, 13.7478, -6.13341, -80.596, 3.31189
0.296, -1, -9.9088, 40.538, 13.7764, -5.99668, -80.4359, 3.20955
0.3, -1, -9.82306, 40.4618, 13.8051, -5.85999, -80.2758, 3.10723
0.304, -1, -9.73734, 40.3857, 13.8337, -5.72334, -80.1158, 3.00494
0.308, -1, -9.65166, 40.3096, 13.8624, -5.58674, -79.9558, 2.90269
0.312, -1, -9.566, 40.2336, 13.891, -5.45019, -79.796, 2.80048
0.316, -1, -9.48038, 40.1575, 13.9196, -5.31369, -79.6361, 2.69831
0.32, -1, -9.3948, 40.0815, 13.9482, -5.17726, -79.4764, 2.59618
0.324, -1, -9.30925, 40.0055, 13.9768, -5.04089, -79.3167, 2.4941
0.328, -1, -9.22375, 39.9296, 14.0054, -4.90458, -79.1571, 2.39207
0.332, -1, -9.13829, 39.8537, 14.0339, -4.76835, -78.9976, 2.2901
0.336, -1, -9.05287, 39.7778, 14.0625, -4.63219, -78.8382, 2.18818
0.34, -1, -8.9675, 39.702, 14.091, -4.49612, -78.6788, 2.08632
0.344, -1, -8.88219, 39.6262, 14.1195, -4.36012, -78.5196, 1.98452
0.348, -1, -8.79693, 39.5505, 14.148, -4.22421, -78.3604, 1.88279
0.352, -1, -8.71172, 39.4748, 14.1765, -4.0884, -78.2014, 1.78113
0.356, -1, -8.62657, 39.3992, 14.2049, -3.95267, -78.0425, 1.67953
0.36, -1, -8.54148, 39.3236, 14.2334, -3.81705, -77.8837, 1.57801
0.364, -1, -8.45646, 39.2481, 14.2618, -3.68152, -77.725, 1.47657
0.368, -1, -8.3715, 39.1727, 14.2902, -3.54611, -77.5664, 1.3752
0.372, -1, -8.28661, 39.0973, 14.3185, -3.4108, -77.408, 1.27392
0.376, -1, -8.20179, 39.0219, 14.3469, -3.2756, -77.2497, 1.17272
0.38, -1, -8.11704, 38.9467, 14.3752, -3.14052, -77.0915, 1.07161
0.384, -1, -8.03237, 38.8715, 14.4035, -3.00557, -76.9335, 0.970588
0.388, -1, -7.94777, 38.7963, 14.4318, -2.87073, -76.7756, 0.869659
0.392, -1, -7.86325, 38.7212, 14.46, -2.73602, -76.6179, 0.768825
0.396, -1, -7.77881, 38.6463, 14.4882, -2.60145, -76.4603, 0.668089
0.4, -1, -7.69446, 38.5713, 14.5164, -2.467, -76.3029, 0.567454
0.404, -1, -7.61019, 38.4965, 14.5446, -2.3327, -76.1456, 0.466921
0.408, -1, -7.526, 38.4217, 14.5727, -2.19854, -75.9885, 0.366494
0.412, -1, -7.44191, 38.347, 14.6008, -2.06452, -75.8316, 0.266176
0.416, -1, -7.35791, 38.2724, 14.6288, -1.93064, -75.6748, 0.165968
0.42, -1, -7.274, 38.1979, 14.6569, -1.79692, -75.5183, 0.0658724
0.424, -1, -7.19019, 38.1235, 14.6849, -1.66336, -75.3619, -0.0341072
0.428, -1, -7.10648, 38.0491, 14.7128, -1.52995, -75.2057, -0.133969
0.432, -1, -7.02287, 37.9748, 14.7408, -1.3967, -75.0496, -0.233711
0.436, -1, -6.93935, 37.9007, 14.7687, -1.26362, -74.8938, -0.33333
0.44, -1, -6.85595, 37.8266, 14.7965, -1.1307, -74.7382, -0.432824
0.444, -1, -6.77264, 37.7526, 14.8244, -0.99795, -74.5827, -0.532191
0.448, -1, -6.68945, 37.6787, 14.8522, -0.865375, -74.4275, -0.631429
0.452, -1, -6.60636, 37.6049, 14.8799, -0.732975, -74.2725, -0.730535
0.456, -1, -6.52339, 37.5312, 14.9077, -0.600755, -74.1176, -0.829507
0.46, -1, -6.44053, 37.4576, 14.9353, -0.468716, -73.963, -0.928344
0.464, -1, -6.35778, 37.3842, 14.963, -0.336861, -73.8086, -1.02704
0.468, -1, -6.27515, 37.3108, 14.9906, -0.205193, -73.6545, -1.1256
0.472, -1, -6.19264, 37.2375, 15.0181, -0.0737153, -73.5005, -1.22402
0.476, -1, -6.11024, 37.1643, 15.0457, 0.0575699, -73.3468, -1.32229
0.48, -1, -6.02797, 37.0912, 15.0732, 0.18866, -73.1933, -1.42042
0.484, -1, -5.94582, 37.0183, 15.1006, 0.319552, -73.04, -1.51839
0.488, -1, -5.8638, 36.9454, 15.128, 0.450244, -72.887, -1.61622
0.492, -1, -5.7819, 36.8727, 15.1554, 0.580734, -72.7342, -1.7139
0.496, -1, -5.70012, 36.8001, 15.1827, 0.711018, -72.5817, -1.81142
0.5, -1, -5.61848, 36.7276, 15.2099, 0.841096, -72.4294, -1.90879
0.504, -1, -5.53697, 36.6552, 15.2372, 0.970964, -72.2773, -2.006
0.508, -1, -5.45558, 36.5829, 15.2644, 1.10062, -72.1255, -2.10306
0.512, -1, -5.37433, 36.5108, 15.2915, 1.23006, -71.9739, -2.19995
0.516, -1, -5.29321, 36.4387, 15.3186, 1.35929, -71.8226, -2.29668
0.52, -1, -5.21223, 36.3668, 15.3456, 1.4883, -71.6715, -2.39325
0.524, -1, -5.13138, 36.295, 15.3726, 1.6171, -71.5207, -2.48966
0.528, -1, -5.05067, 36.2233, 15.3996, 1.74567, -71.3702, -2.5859
0.532, -1, -4.97009, 36.1518, 15.4265, 1.87402, -71.2199, -2.68198
0.536, -1, -4.88966, 36.0803, 15.4534, 2.00215, -71.0698, -2.77789
0.54, -1, -4.80936, 36.009, 15.4802, 2.13005, -70.9201, -2.87363
0.544, -1, -4.7292, 35.9378, 15.507, 2.25773, -70.7706, -2.9692
0.548, -1, -4.64919, 35.8668, 15.5337, 2.38518, -70.6213, -3.0646
0.552, -1, -4.56931, 35.7959, 15.5604, 2.51241, -70.4724, -3.15984
0.556, -1, -4.48958, 35.725, 15.587, 2.6394, -70.3237, -3.2549
0.56, -1, -4.41, 35.6544, 15.6136, 2.76617, -70.1752, -3.34979
0.564, -1, -4.33056, 35.5838, 15.6401, 2.8927, -70.0271, -3.44451
0.568, -1, -4.25126, 35.5134, 15.6666, 3.01901, -69.8792, -3.53905
0.572, -1, -4.17211, 35.4431, 15.693, 3.14508, -69.7316, -3.63342
0.576, -1, -4.0931, 35.373, 15.7194, 3.27092, -69.5842, -3.72761
0.58, -1, -4.01424, 35.3029, 15.7458, 3.39652, -69.4372, -3.82163
0.584, -1, -3.93553, 35.233, 15.772, 3.52189, -69.2904, -3.91547
0.588, -1, -3.85696, 35.1633, 15.7983, 3.64702, -69.1438, -4.00914
0.592, -1, -3.77855, 35.0936, 15.8245, 3.77191, -68.9976, -4.10263
0.596, -1, -3.70028, 35.0241, 15.8506, 3.89657, -68.8516, -4.19594
0.6, -1, -3.62216, 34.9548, 15.8767, 4.02099, -68.7059, -4.28908
0.604, -1, -3.54419, 34.8855, 15.9027, 4.14517, -68.5605, -4.38203
0.608, -1, -3.46637, 34.8164, 15.9287, 4.26911, -68.4154, -4.47481
0.612, -1, -3.3887, 34.7474, 15.9547, 4.39281, -68.2706, -4.5674
0.616, -1, -3.31118, 34.6786, 15.9806, 4.51628, -68.126, -4.65982
0.62, -1, -3.23382, 34.6099, 16.0064, 4.63949, -67.9817, -4.75205
0.624, -1, -3.1566, 34.5413, 16.0322, 4.76247, -67.8377, -4.84411
0.628, -1, -3.07954, 34.4729, 16.0579, 4.88521, -67.694, -4.93598
0.632, -1, -3.00262, 34.4046, 16.0836, 5.0077, -67.5506, -5.02767
0.636, -1, -2.92586, 34.3364, 16.1092, 5.12995, -67.4074, -5.11918
0.64, -1, -2.84926, 34.2684, 16.1348, 5.25195, -67.2646, -5.2105
0.644, -1, -2.7728, 34.2005, 16.1604, 5.37371, -67.122, -5.30165
0.648, -1, -2.6965, 34.1328, 16.1858, 5.49523, -66.9797, -5.39261
0.652, -1, -2.62035, 34.0652, 16.2113, 5.6165, -66.8377, -5.48338
0.656, -1, -2.54436, 33.9977, 16.2366, 5.73753, -66.696, -5.57398
0.66, -1, -2.46852, 33.9303, 16.262, 5.85831, -66.5546, -5.66439
0.664, -1, -2.39283, 33.8631, 16.2872, 5.97884, -66.4135, -5.75461
0.668, -1, -2.3173, 33.7961, 16.3125, 6.09913, -66.2726, -5.84465
0.672, -1, -2.24192, 33.7291, 16.3376, 6.21917, -66.1321, -5.93451
0.676, -1, -2.1667, 33.6623, 16.3628, 6.33897, -65.9918, -6.02418
0.68, -1, -2.09163, 33.5957, 16.3878, 6.45851, -65.8518, -6.11367
0.684, -1, -2.01672, 33.5292, 16.4129, 6.57781, -65.7121, -6.20297
0.688, -1, -1.94196, 33.4628, 16.4378, 6.69687, -65.5727, -6.29208
0.692, -1, -1.86736, 33.3965, 16.4627, 6.81567, -65.4336, -6.38101
0.696, -1, -1.79291, 33.3304, 16.4876, 6.93423, -65.2948, -6.46976
0.7, -1, -1.71862, 33.2645, 16.5124, 7.05254, -65.1562, -6.55832
0.704, -1, -1.64448, 33.1986, 16.5372, 7.1706, -65.018, -6.64669
0.708, -1, -1.5705, 33.1329, 16.5619, 7.28841, -64.8801, -6.73488
0.712, -1, -1.49668, 33.0674, 16.5865, 7.40597, -64.7424, -6.82288
0.716, -1, -1.42301, 33.002, 16.6111, 7.52329, -64.605, -6.9107
0.72, -1, -1.34949, 32.9367, 16.6357, 7.64036, -64.468, -6.99833
0.724, -1, -1.27614, 32.8715, 16.6602, 7.75718, -64.3312, -7.08577
0.728, -1, -1.20293, 32.8065, 16.6846, 7.87375, -64.1947, -7.17303
0.732, -1, -1.12989, 32.7417, 16.709, 7.99007, -64.0585, -7.2601
0.736, -1, -1.057, 32.677, 16.7333, 8.10615, -63.9226, -7.34699
0.74, -1, -0.984259, 32.6124, 16.7576, 8.22197, -63.7869, -7.43369
0.744, -1, -0.911678, 32.5479, 16.7819, 8.33755, -63.6516, -7.52021
0.748, -1, -0.839252, 32.4836, 16.8061, 8.45288, -63.5166, -7.60653
0.752, -1, -0.766981, 32.4194, 16.8302, 8.56796, -63.3818, -7.69268
0.756, -1, -0.694864, 32.3554, 16.8543, 8.6828, -63.2474, -7.77864
0.76, -1, -0.622901, 32.2915, 16.8783, 8.79738, -63.1132, -7.86441
0.764, -1, -0.551092, 32.2277, 16.9023, 8.91172, -62.9793, -7.95
0.768, -1, -0.479437, 32.1641, 16.9262, 9.02582, -62.8457, -8.0354
0.772, -1, -0.407935, 32.1006, 16.9501, 9.13966, -62.7124, -8.12062
0.776, -1, -0.336586, 32.0373, 16.9739, 9.25326, -62.5794, -8.20566
0.78, -1, -0.26539, 31.9741, 16.9977, 9.36662, -62.4467, -8.29051
0.784, -1, -0.194346, 31.911, 17.0214, 9.47973, -62.3142, -8.37518
0.788, -1, -0.123455, 31.848, 17.0451, 9.5926, -62.182, -8.45966
0.792, -1, -0.0527154, 31.7852, 17.0687, 9.70522, -62.0502, -8.54397
0.796, -1, 0.0178725, 31.7226, 17.0923, 9.81761, -61.9186, -8.62809
0.8, -1, 0.0883091, 31.66, 17.1158, 9.92975, -61.7873, -8.71204
0.804, -1, 0.158595, 31.5976, 17.1393, 10.0417, -61.6562, -8.7958
0.808, -1, 0.22873, 31.5353, 17.1627, 10.1533, -61.5255, -8.87938
0.812, -1, 0.298716, 31.4732, 17.186, 10.2647, -61.395, -8.96279
0.816, -1, 0.368552, 31.4112, 17.2094, 10.3759, -61.2648, -9.04602
0.82, -1, 0.438239, 31.3493, 17.2326, 10.4869, -61.1349, -9.12907
0.824, -1, 0.507778, 31.2876, 17.2559, 10.5976, -61.0053, -9.21194
0.828, -1, 0.577169, 31.226, 17.279, 10.7081, -60.8759, -9.29464
0.832, -1, 0.646413, 31.1645, 17.3021, 10.8183, -60.7468, -9.37716
0.836, -1, 0.71551, 31.1031, 17.3252, 10.9283, -60.618, -9.45951
0.84, -1, 0.78446, 31.0419, 17.3482, 11.0381, -60.4895, -9.54168
0.844, -1, 0.853266, 30.9808, 17.3712, 11.1476, -60.3612, -9.62368
0.848, -1, 0.921925, 30.9199, 17.3941, 11.2569, -60.2332, -9.7055
0.852, -1, 0.990441, 30.859, 17.417, 11.366, -60.1055, -9.78716
0.856, -1, 1.05881, 30.7983, 17.4398, 11.4749, -59.9781, -9.86864
0.86, -1, 1.12704, 30.7378, 17.4626, 11.5835, -59.8509, -9.94995
0.864, -1, 1.19512, 30.6773, 17.4854, 11.6919, -59.7239, -10.0311
0.868, -1, 1.26307, 30.617, 17.508, 11.8001, -59.5973, -10.1121
0.872, -1, 1.33087, 30.5568, 17.5307, 11.908, -59.4709, -10.1929
0.876, -1, 1.39853, 30.4967, 17.5533, 12.0157, -59.3448, -10.2735
0.88, -1, 1.46604, 30.4368, 17.5758, 12.1232, -59.2189, -10.354
0.884, -1, 1.53342, 30.377, 17.5983, 12.2305, -59.0933, -10.4343
0.888, -1, 1.60066, 30.3173, 17.6208, 12.3375, -58.9679, -10.5144
0.892, -1, 1.66775, 30.2577, 17.6432, 12.4444, -58.8429, -10.5943
0.896, -1, 1.73471, 30.1982, 17.6655, 12.551, -58.718, -10.6741
0.9, -1, 1.80153, 30.1389, 17.6878, 12.6574, -58.5935, -10.7538
0.904, -1, 1.86821, 30.0797, 17.7101, 12.7635, -58.4692, -10.8332
0.908, -1, 1.93476, 30.0206, 17.7323, 12.8695, -58.3451, -10.9125
0.912, -1, 2.00117, 29.9617, 17.7545, 12.9752, -58.2213, -10.9917
0.916, -1, 2.06744, 29.9028, 17.7766, 13.0807, -58.0978, -11.0707
0.92, -1, 2.13357, 29.8441, 17.7987, 13.186, -57.9745, -11.1495
0.924, -1, 2.19957, 29.7855, 17.8207, 13.2911, -57.8514, -11.2281
0.928, -1, 2.26543, 29.727, 17.8427, 13.3959, -57.7287, -11.3066
0.932, -1, 2.33116, 29.6687, 17.8647, 13.5006, -57.6061, -11.385
0.936, -1, 2.39676, 29.6104, 17.8866, 13.605, -57.4838, -11.4631
0.94, -1, 2.46222, 29.5523, 17.9084, 13.7092, -57.3618, -11.5412
0.944, -1, 2.52755, 29.4943, 17.9303, 13.8133, -57.24, -11.619
0.948, -1, 2.59275, 29.4364, 17.952, 13.9171, -57.1185, -11.6967
0.952, -1, 2.65781, 29.3787, 17.9738, 14.0206, -56.9972, -11.7743
0.956, -1, 2.72274, 29.321, 17.9954, 14.124, -56.8761, -11.8516
0.96, -1, 2.78755, 29.2635, 18.0171, 14.2272, -56.7553, -11.9289
0.964, -1, 2.85222, 29.2061, 18.0387, 14.3302, -56.6348, -12.0059
0.968, -1, 2.91676, 29.1488, 18.0602, 14.4329, -56.5144, -12.0829
0.972, -1, 2.98117, 29.0916, 18.0817, 14.5355, -56.3944, -12.1596
0.976, -1, 3.04545, 29.0345, 18.1032, 14.6378, -56.2745, -12.2362
0.98, -1, 3.10961, 28.9775, 18.1246, 14.7399, -56.1549, -12.3127
0.984, -1, 3.17363, 28.9207, 18.146, 14.8419, -56.0356, -12.389
0.988, -1, 3.23753, 28.864, 18.1673, 14.9436, -55.9165, -12.4651
0.992, -1, 3.3013, 28.8074, 18.1886, 15.0451, -55.7976, -12.5411
0.996, -1, 3.36494, 28.7508, 18.2099, 15.1465, -55.6789, -12.617
1, -1, 3.42846, 28.6945, 18.2311, 15.2476, -55.5605, -12.6927
1.004, -1, 3.49185, 28.6382, 18.2523, 15.3485, -55.4423, -12.7682
1.008, -1, 3.55512, 28.582, 18.2734, 15.4492, -55.3244, -12.8436
1.012, -1, 3.61826, 28.5259, 18.2945, 15.5498, -55.2067, -12.9189
1.016, -1, 3.68127, 28.47, 18.3155, 15.6501, -55.0892, -12.994
1.02, -1, 3.74416, 28.4142, 18.3365, 15.7502, -54.972, -13.0689
1.024, -1, 3.80693, 28.3584, 18.3575, 15.8502, -54.855, -13.1437
1.027, -1, 3.86958, 28.3028, 18.3784, 15.9499, -54.7382, -13.2184
1.032, -1, 3.9321, 28.2473, 18.3993, 16.0494, -54.6216, -13.2929
1.036, -1, 3.9945, 28.1919, 18.4201, 16.1488, -54.5053, -13.3673
1.04, -1, 4.05678, 28.1366, 18.4409, 16.2479, -54.3892, -13.4415
1.044, -1, 4.11893, 28.0814, 18.4616, 16.3469, -54.2733, -13.5156
1.048, -1, 4.18097, 28.0263, 18.4824, 16.4457, -54.1577, -13.5895
1.052, -1, 4.24289, 27.9714, 18.503, 16.5442, -54.0422, -13.6633
1.055, -1, 4.30468, 27.9165, 18.5237, 16.6426, -53.927, -13.7369
1.06, -1, 4.36636, 27.8617, 18.5443, 16.7408, -53.8121, -13.8104
1.064, -1, 4.42792, 27.8071, 18.5648, 16.8388, -53.6973, -13.8838
1.068, -1, 4.48936, 27.7525, 18.5853, 16.9366, -53.5828, -13.957
1.072, -1, 4.55068, 27.6981, 18.6058, 17.0343, -53.4685, -14.0301
1.076, -1, 4.61188, 27.6438, 18.6262, 17.1317, -53.3544, -14.103
1.08, -1, 4.67297, 27.5895, 18.6466, 17.229, -53.2405, -14.1758
1.084, -1, 4.73394, 27.5354, 18.667, 17.326, -53.1268, -14.2485
1.088, -1, 4.7948, 27.4814, 18.6873, 17.4229, -53.0134, -14.321
1.091, -1, 4.85554, 27.4274, 18.7076, 17.5196, -52.9002, -14.3934
1.096, -1, 4.91617, 27.3736, 18.7278, 17.6161, -52.7871, -14.4656
1.1, -1, 4.97668, 27.3199, 18.7481, 17.7125, -52.6743, -14.5378
1.104, -1, 5.03708, 27.2663, 18.7682, 17.8086, -52.5618, -14.6097
1.108, -1, 5.09737, 27.2127, 18.7883, 17.9046, -52.4494, -14.6816
1.112, -1, 5.15754, 27.1593, 18.8084, 18.0004, -52.3372, -14.7533
1.116, -1, 5.2176, 27.106, 18.8285, 18.096, -52.2253, -14.8249
1.119, -1, 5.27755, 27.0528, 18.8485, 18.1915, -52.1135, -14.8963
1.124, -1, 5.33739, 26.9996, 18.8685, 18.2867, -52.0019, -14.9676
1.128, -1, 5.39712, 26.9466, 18.8884, 18.3818, -51.8906, -15.0388
1.132, -1, 5.45673, 26.8937, 18.9083, 18.4767, -51.7795, -15.1098
1.136, -1, 5.51624, 26.8408, 18.9282, 18.5715, -51.6685, -15.1807
1.14, -1, 5.57564, 26.7881, 18.948, 18.666, -51.5578, -15.2515
1.144, -1, 5.63493, 26.7355, 18.9678, 18.7604, -51.4473, -15.3222
1.147, -1, 5.69412, 26.6829, 18.9876, 18.8547, -51.337, -15.3927
1.152, -1, 5.75319, 26.6305, 19.0073, 18.9487, -51.2268, -15.4631
1.156, -1, 5.81216, 26.5781, 19.027, 19.0426, -51.1169, -15.5334
1.16, -1, 5.87103, 26.5259, 19.0467, 19.1363, -51.0072, -15.6035
1.164, -1, 5.92979, 26.4737, 19.0663, 19.2298, -50.8976, -15.6736
1.168, -1, 5.98844, 26.4216, 19.0859, 19.3232, -50.7883, -15.7435
1.172, -1, 6.04699, 26.3696, 19.1054, 19.4164, -50.6792, -15.8132
1.175, -1, 6.10543, 26.3177, 19.1249, 19.5095, -50.5702, -15.8829
1.18, -1, 6.16377, 26.266, 19.1444, 19.6024, -50.4614, -15.9524
1.184, -1, 6.22201, 26.2142, 19.1639, 19.6951, -50.3529, -16.0218
1.188, -1, 6.28015, 26.1626, 19.1833, 19.7876, -50.2445, -16.0911
1.192, -1, 6.33818, 26.1111, 19.2027, 19.88, -50.1363, -16.1603
1.196, -1, 6.39611, 26.0597, 19.222, 19.9723, -50.0283, -16.2293
1.2, -1, 6.45394, 26.0083, 19.2413, 20.0643, -49.9205, -16.2982
1.204, -1, 6.51167, 25.9571, 19.2606, 20.1562, -49.8129, -16.367
1.208, -1, 6.5693, 25.9059, 19.2798, 20.248, -49.7055, -16.4357
1.212, -1, 6.62683, 25.8548, 19.299, 20.3396, -49.5982, -16.5042
1.216, -1, 6.68426, 25.8038, 19.3182, 20.431, -49.4912, -16.5727
1.22, -1, 6.74159, 25.7529, 19.3374, 20.5223, -49.3843, -16.641
1.224, -1, 6.79882, 25.7021, 19.3565, 20.6134, -49.2776, -16.7092
1.228, -1, 6.85596, 25.6514, 19.3756, 20.7044, -49.1711, -16.7773
1.232, -1, 6.91299, 25.6008, 19.3946, 20.7952, -49.0648, -16.8453
1.236, -1, 6.96993, 25.5502, 19.4136, 20.8858, -48.9586, -16.9131
1.24, -1, 7.02678, 25.4997, 19.4326, 20.9763, -48.8526, -16.9809
1.244, -1, 7.08352, 25.4494, 19.4515, 21.0667, -48.7469, -17.0485
1.248, -1, 7.14018, 25.3991, 19.4705, 21.1569, -48.6413, -17.116
1.252, -1, 7.19673, 25.3488, 19.4893, 21.2469, -48.5358, -17.1834
1.256, -1, 7.25319, 25.2987, 19.5082, 21.3368, -48.4306, -17.2507
1.26, -1, 7.30956, 25.2487, 19.527, 21.4266, -48.3255, -17.3179
1.264, -1, 7.36583, 25.1987, 19.5458, 21.5161, -48.2206, -17.385
1.267, -1, 7.42201, 25.1488, 19.5646, 21.6056, -48.1158, -17.4519
1.272, -1, 7.4781, 25.099, 19.5833, 21.6949, -48.0113, -17.5188
1.276, -1, 7.53409, 25.0493, 19.602, 21.784, -47.9069, -17.5855
1.28, -1, 7.58999, 24.9997, 19.6207, 21.873, -47.8027, -17.6521
1.284, -1, 7.6458, 24.9501, 19.6393, 21.9619, -47.6986, -17.7186
1.288, -1, 7.70152, 24.9007, 19.6579, 22.0506, -47.5948, -17.785
1.292, -1, 7.75715, 24.8513, 19.6765, 22.1392, -47.4911, -17.8513
1.295, -1, 7.81268, 24.802, 19.695, 22.2276, -47.3875, -17.9175
1.3, -1, 7.86813, 24.7528, 19.7135, 22.3159, -47.2842, -17.9836
1.304, -1, 7.92348, 24.7036, 19.732, 22.404, -47.181, -18.0496
1.308, -1, 7.97875, 24.6545, 19.7505, 22.492, -47.0779, -18.1154
1.312, -1, 8.03393, 24.6055, 19.7689, 22.5798, -46.9751, -18.1812
1.316, -1, 8.08901, 24.5566, 19.7873, 22.6675, -46.8724, -18.2468
1.32, -1, 8.14401, 24.5078, 19.8057, 22.7551, -46.7699, -18.3124
1.324, -1, 8.19893, 24.4591, 19.824, 22.8425, -46.6675, -18.3778
1.328, -1, 8.25375, 24.4104, 19.8423, 22.9298, -46.5653, -18.4432
1.332, -1, 8.30849, 24.3618, 19.8606, 23.017, -46.4632, -18.5084
1.336, -1, 8.36314, 24.3133, 19.8788, 23.104, -46.3614, -18.5735
1.34, -1, 8.4177, 24.2648, 19.8971, 23.1909, -46.2596, -18.6386
1.344, -1, 8.47218, 24.2165, 19.9153, 23.2776, -46.1581, -18.7035
1.348, -1, 8.52657, 24.1682, 19.9334, 23.3642, -46.0567, -18.7683
1.352, -1, 8.58088, 24.1199, 19.9515, 23.4507, -45.9554, -18.833
1.356, -1, 8.6351, 24.0718, 19.9697, 23.537, -45.8543, -18.8976
1.36, -1, 8.68923, 24.0237, 19.9877, 23.6232, -45.7534, -18.9622
1.364, -1, 8.74328, 23.9757, 20.0058, 23.7092, -45.6526, -19.0266
1.368, -1, 8.79725, 23.9278, 20.0238, 23.7952, -45.552, -19.0909
1.372, -1, 8.85114, 23.88, 20.0418, 23.881, -45.4516, -19.1551
1.376, -1, 8.90494, 23.8322, 20.0598, 23.9666, -45.3513, -19.2192
1.38, -1, 8.95866, 23.7845, 20.0777, 24.0521, -45.2511, -19.2833
1.384, -1, 9.01229, 23.7369, 20.0956, 24.1375, -45.1511, -19.3472
1.388, -1, 9.06584, 23.6894, 20.1135, 24.2228, -45.0513, -19.411
1.392, -1, 9.11932, 23.6419, 20.1314, 24.3079, -44.9516, -19.4747
1.396, -1, 9.1727, 23.5945, 20.1492, 24.393, -44.8521, -19.5384
1.4, -1, 9.22601, 23.5472, 20.167, 24.4778, -44.7527, -19.6019
1.404, -1, 9.27924, 23.4999, 20.1848, 24.5626, -44.6535, -19.6653
1.408, -1, 9.33239, 23.4527, 20.2025, 24.6472, -44.5544, -19.7287
1.412, -1, 9.38546, 23.4056, 20.2202, 24.7317, -44.4554, -19.7919
1.416, -1, 9.43844, 23.3585, 20.2379, 24.8161, -44.3567, -19.8551
1.42, -1, 9.49135, 23.3116, 20.2556, 24.9003, -44.258, -19.9181
1.424, -1, 9.54418, 23.2647, 20.2732, 24.9844, -44.1595, -19.9811
1.428, -1, 9.59693, 23.2178, 20.2908, 25.0684, -44.0612, -20.044
1.432, -1, 9.6496, 23.1711, 20.3084, 25.1523, -43.963, -20.1067
1.436, -1, 9.7022, 23.1244, 20.326, 25.236, -43.865, -20.1694
1.44, -1, 9.75472, 23.0777, 20.3435, 25.3196, -43.767, -20.232
1.444, -1, 9.80716, 23.0312, 20.361, 25.4031, -43.6693, -20.2945
1.448, -1, 9.85952, 22.9847, 20.3785, 25.4865, -43.5717, -20.3569
1.452, -1, 9.91181, 22.9383, 20.396, 25.5697, -43.4742, -20.4192
1.456, -1, 9.96403, 22.8919, 20.4134, 25.6528, -43.3769, -20.4814
1.46, -1, 10.0162, 22.8456, 20.4308, 25.7358, -43.2797, -20.5436
1.464, -1, 10.0682, 22.7994, 20.4482, 25.8187, -43.1826, -20.6056
1.468, -1, 10.1202, 22.7533, 20.4656, 25.9015, -43.0857, -20.6676
1.472, -1, 10.1721, 22.7072, 20.4829, 25.9841, -42.989, -20.7294
1.476, -1, 10.224, 22.6612, 20.5002, 26.0666, -42.8923, -20.7912
1.48, -1, 10.2757, 22.6152, 20.5175, 26.149, -42.7958, -20.8529
1.484, -1, 10.3274, 22.5693, 20.5348, 26.2313, -42.6995, -20.9145
1.488, -1, 10.379, 22.5235, 20.552, 26.3135, -42.6033, -20.976
1.492, -1, 10.4306, 22.4777, 20.5692, 26.3956, -42.5072, -21.0374
1.496, -1, 10.482, 22.432, 20.5864, 26.4775, -42.4113, -21.0987
1.5, -1, 10.5334, 22.3864, 20.6035, 26.5593, -42.3154, -21.16
1.504, -1, 10.5848, 22.3408, 20.6207, 26.641, -42.2198, -21.2212
1.508, -1, 10.636, 22.2953, 20.6378, 26.7226, -42.1242, -21.2822
1.512, -1, 10.6872, 22.2499, 20.6549, 26.8041, -42.0288, -21.3432
1.516, -1, 10.7383, 22.2045, 20.6719, 26.8855, -41.9336, -21.4041
1.52, -1, 10.7893, 22.1592, 20.689, 26.9667, -41.8384, -21.4649
1.524, -1, 10.8403, 22.114, 20.706, 27.0479, -41.7434, -21.5257
1.528, -1, 10.8912, 22.0688, 20.723, 27.1289, -41.6485, -21.5863
1.532, -1, 10.942, 22.0237, 20.74, 27.2098, -41.5538, -21.6469
1.536, -1, 10.9928, 21.9786, 20.7569, 27.2906, -41.4592, -21.7074
1.54, -1, 11.0435, 21.9336, 20.7738, 27.3713, -41.3647, -21.7678
1.544, -1, 11.0941, 21.8887, 20.7908, 27.4519, -41.2703, -21.8281
1.548, -1, 11.1446, 21.8438, 20.8076, 27.5324, -41.1761, -21.8884
1.552, -1, 11.1951, 21.799, 20.8245, 27.6127, -41.082, -21.9485
1.556, -1, 11.2455, 21.7542, 20.8413, 27.693, -40.988, -22.0086
1.56, -1, 11.2959, 21.7095, 20.8581, 27.7732, -40.8941, -22.0686
1.564, -1, 11.3462, 21.6649, 20.8749, 27.8532, -40.8004, -22.1285
1.568, -1, 11.3964, 21.6203, 20.8917, 27.9331, -40.7068, -22.1884
1.572, -1, 11.4465, 21.5758, 20.9084, 28.013, -40.6133, -22.2481
1.576, -1, 11.4966, 21.5313, 20.9251, 28.0927, -40.52, -22.3078
1.58, -1, 11.5466, 21.4869, 20.9418, 28.1723, -40.4268, -22.3674
1.584, -1, 11.5965, 21.4426, 20.9585, 28.2518, -40.3336, -22.4269
1.588, -1, 11.6464, 21.3983, 20.9752, 28.3313, -40.2407, -22.4864
1.592, -1, 11.6962, 21.3541, 20.9918, 28.4106, -40.1478, -22.5457
1.596, -1, 11.746, 21.3099, 21.0084, 28.4898, -40.0551, -22.605
1.6, -1, 11.7957, 21.2658, 21.025, 28.5689, -39.9624, -22.6642
1.604, -1, 11.8453, 21.2217, 21.0416, 28.6479, -39.8699, -22.7234
1.608, -1, 11.8948, 21.1778, 21.0581, 28.7268, -39.7776, -22.7824
1.612, -1, 11.9443, 21.1338, 21.0747, 28.8055, -39.6853, -22.8414
1.616, -1, 11.9938, 21.0899, 21.0912, 28.8842, -39.5932, -22.9003
1.62, -1, 12.0431, 21.0461, 21.1076, 28.9628, -39.5011, -22.9591
1.624, -1, 12.0924, 21.0023, 21.1241, 29.0413, -39.4092, -23.0179
1.628, -1, 12.1417, 20.9586, 21.1405, 29.1197, -39.3174, -23.0765
1.632, -1, 12.1908, 20.915, 21.157, 29.198, -39.2258, -23.1352
1.636, -1, 12.2399, 20.8714, 21.1734, 29.2762, -39.1342, -23.1937
1.64, -1, 12.289, 20.8278, 21.1897, 29.3543, -39.0428, -23.2521
1.644, -1, 12.338, 20.7843, 21.2061, 29.4323, -38.9515, -23.3105
1.648, -1, 12.3869, 20.7409, 21.2224, 29.5102, -38.8603, -23.3688
1.652, -1, 12.4358, 20.6975, 21.2388, 29.588, -38.7692, -23.4271
1.656, -1, 12.4846, 20.6542, 21.2551, 29.6657, -38.6782, -23.4852
1.66, -1, 12.5333, 20.6109, 21.2713, 29.7433, -38.5873, -23.5433
1.664, -1, 12.582, 20.5677, 21.2876, 29.8208, -38.4966, -23.6013
1.668, -1, 12.6306, 20.5245, 21.3038, 29.8982, -38.4059, -23.6593
1.672, -1, 12.6792, 20.4814, 21.32, 29.9755, -38.3154, -23.7171
1.676, -1, 12.7277, 20.4384, 21.3362, 30.0527, -38.225, -23.7749
1.68, -1, 12.7761, 20.3953, 21.3524, 30.1298, -38.1347, -23.8327
1.684, -1, 12.8245, 20.3524, 21.3686, 30.2069, -38.0445, -23.8903
1.688, -1, 12.8728, 20.3095, 21.3847, 30.2838, -37.9544, -23.9479
1.692, -1, 12.9211, 20.2666, 21.4008, 30.3606, -37.8644, -24.0054
1.696, -1, 12.9693, 20.2238, 21.4169, 30.4374, -37.7746, -24.0629
1.7, -1, 13.0174, 20.1811, 21.433, 30.514, -37.6848, -24.1203
1.704, -1, 13.0655, 20.1384, 21.449, 30.5906, -37.5951, -24.1776
1.708, -1, 13.1136, 20.0958, 21.4651, 30.6671, -37.5056, -24.2348
1.712, -1, 13.1615, 20.0532, 21.4811, 30.7435, -37.4162, -24.292
1.716, -1, 13.2094, 20.0106, 21.4971, 30.8197, -37.3269, -24.3491
1.72, -1, 13.2573, 19.9681, 21.5131, 30.8959, -37.2376, -24.4061
1.724, -1, 13.3051, 19.9257, 21.529, 30.972, -37.1485, -24.4631
1.728, -1, 13.3528, 19.8833, 21.545, 31.0481, -37.0595, -24.52
1.732, -1, 13.4005, 19.841, 21.5609, 31.124, -36.9706, -24.5768
1.736, -1, 13.4482, 19.7987, 21.5768, 31.1998, -36.8818, -24.6336
1.74, -1, 13.4957, 19.7565, 21.5927, 31.2756, -36.7931, -24.6903
1.744, -1, 13.5433, 19.7143, 21.6086, 31.3512, -36.7045, -24.7469
1.748, -1, 13.5907, 19.6721, 21.6244, 31.4268, -36.6161, -24.8035
1.752, -1, 13.6381, 19.63, 21.6402, 31.5023, -36.5277, -24.86
1.756, -1, 13.6855, 19.588, 21.6561, 31.5776, -36.4394, -24.9164
1.76, -1, 13.7328, 19.546, 21.6719, 31.6529, -36.3512, -24.9728
1.764, -1, 13.78, 19.5041, 21.6876, 31.7282, -36.2632, -25.0291
1.768, -1, 13.8272, 19.4622, 21.7034, 31.8033, -36.1752, -25.0853
1.772, -1, 13.8743, 19.4203, 21.7191, 31.8783, -36.0873, -25.1415
1.776, -1, 13.9214, 19.3785, 21.7348, 31.9533, -35.9996, -25.1976
1.78, -1, 13.9684, 19.3368, 21.7505, 32.0281, -35.9119, -25.2536
1.784, -1, 14.0154, 19.2951, 21.7662, 32.1029, -35.8243, -25.3096
1.788, -1, 14.0623, 19.2534, 21.7819, 32.1776, -35.7369, -25.3655
1.792, -1, 14.1092, 19.2118, 21.7975, 32.2522, -35.6495, -25.4214
1.796, -1, 14.156, 19.1703, 21.8132, 32.3268, -35.5622, -25.4772
1.8, -1, 14.2027, 19.1288, 21.8288, 32.4012, -35.4751, -25.5329
1.804, -1, 14.2494, 19.0873, 21.8444, 32.4756, -35.388, -25.5886
1.808, -1, 14.2961, 19.0459, 21.86, 32.5498, -35.301, -25.6442
1.812, -1, 14.3427, 19.0045, 21.8755, 32.624, -35.2142, -25.6997
1.816, -1, 14.3892, 18.9632, 21.8911, 32.6981, -35.1274, -25.7552
1.82, -1, 14.4357, 18.9219, 21.9066, 32.7722, -35.0407, -25.8106
1.824, -1, 14.4822, 18.8807, 21.9221, 32.8461, -34.9541, -25.8659
1.828, -1, 14.5286, 18.8395, 21.9376, 32.92, -34.8676, -25.9212
1.832, -1, 14.5749, 18.7983, 21.9531, 32.9938, -34.7813, -25.9764
1.836, -1, 14.6212, 18.7572, 21.9685, 33.0675, -34.695, -26.0316
1.84, -1, 14.6674, 18.7162, 21.984, 33.1411, -34.6088, -26.0867
1.844, -1, 14.7136, 18.6752, 21.9994, 33.2146, -34.5227, -26.1418
1.848, -1, 14.7598, 18.6342, 22.0148, 33.2881, -34.4367, -26.1967
1.852, -1, 14.8058, 18.5933, 22.0302, 33.3614, -34.3507, -26.2517
1.856, -1, 14.8519, 18.5524, 22.0456, 33.4347, -34.2649, -26.3065
1.86, -1, 14.8979, 18.5116, 22.0609, 33.5079, -34.1792, -26.3613
1.864, -1, 14.9438, 18.4708, 22.0762, 33.5811, -34.0936, -26.4161
1.868, -1, 14.9897, 18.4301, 22.0916, 33.6541, -34.008, -26.4708
1.872, -1, 15.0355, 18.3894, 22.1069, 33.7271, -33.9226, -26.5254
1.876, -1, 15.0813, 18.3487, 22.1222, 33.8, -33.8372, -26.58
1.88, -1, 15.127, 18.3081, 22.1374, 33.8728, -33.7519, -26.6345
1.884, -1, 15.1727, 18.2676, 22.1527, 33.9456, -33.6668, -26.6889
1.888, -1, 15.2184, 18.227, 22.1679, 34.0182, -33.5817, -26.7433
1.892, -1, 15.264, 18.1866, 22.1832, 34.0908, -33.4967, -26.7976
1.896, -1, 15.3095, 18.1461, 22.1984, 34.1633, -33.4118, -26.8519
1.9, -1, 15.355, 18.1057, 22.2136, 34.2358, -33.3269, -26.9062
1.904, -1, 15.4004, 18.0654, 22.2287, 34.3081, -33.2422, -26.9603
1.908, -1, 15.4458, 18.0251, 22.2439, 34.3804, -33.1576, -27.0144
1.912, -1, 15.4912, 17.9848, 22.259, 34.4526, -33.073, -27.0685
1.916, -1, 15.5365, 17.9446, 22.2742, 34.5248, -32.9886, -27.1225
1.92, -1, 15.5818, 17.9044, 22.2893, 34.5968, -32.9042, -27.1764
1.924, -1, 15.627, 17.8643, 22.3044, 34.6688, -32.8199, -27.2303
1.928, -1, 15.6721, 17.8242, 22.3195, 34.7407, -32.7357, -27.2841
1.932, -1, 15.7173, 17.7841, 22.3345, 34.8126, -32.6516, -27.3379
1.936, -1, 15.7623, 17.7441, 22.3496, 34.8843, -32.5676, -27.3916
1.94, -1, 15.8073, 17.7041, 22.3646, 34.956, -32.4836, -27.4453
1.944, -1, 15.8523, 17.6642, 22.3796, 35.0276, -32.3997, -27.4989
1.948, -1, 15.8973, 17.6243, 22.3946, 35.0992, -32.316, -27.5524
1.952, -1, 15.9422, 17.5844, 22.4096, 35.1707, -32.2323, -27.6059
1.956, -1, 15.987, 17.5446, 22.4246, 35.2421, -32.1487, -27.6594
1.96, -1, 16.0318, 17.5048, 22.4396, 35.3134, -32.0652, -27.7128
1.964, -1, 16.0765, 17.4651, 22.4545, 35.3846, -31.9817, -27.7661
1.968, -1, 16.1212, 17.4254, 22.4694, 35.4558, -31.8984, -27.8194
1.972, -1, 16.1659, 17.3858, 22.4844, 35.5269, -31.8151, -27.8726
1.976, -1, 16.2105, 17.3461, 22.4993, 35.598, -31.7319, -27.9258
1.98, -1, 16.2551, 17.3066, 22.5141, 35.6689, -31.6488, -27.9789
1.984, -1, 16.2996, 17.267, 22.529, 35.7398, -31.5658, -28.032
1.988, -1, 16.3441, 17.2275, 22.5439, 35.8107, -31.4829, -28.085
1.992, -1, 16.3886, 17.1881, 22.5587, 35.8814, -31.4, -28.138
1.996, -1, 16.433, 17.1487, 22.5735, 35.9521, -31.3173, -28.1909
1.999, -1, 16.4773, 17.1093, 22.5883, 36.0228, -31.2346, -28.2438
2.004, -1, 16.5216, 17.0699, 22.6031, 36.0933, -31.1519, -28.2966
2.008, -1, 16.5659, 17.0306, 22.6179, 36.1638, -31.0694, -28.3493
2.012, -1, 16.6101, 16.9914, 22.6327, 36.2342, -30.987, -28.4021
2.015, -1, 16.6543, 16.9521, 22.6474, 36.3046, -30.9046, -28.4547
2.019, -1, 16.6984, 16.9129, 22.6622, 36.3748, -30.8223, -28.5073
2.024, -1, 16.7425, 16.8738, 22.6769, 36.445, -30.7401, -28.5599
2.028, -1, 16.7866, 16.8347, 22.6916, 36.5152, -30.658, -28.6124
2.031, -1, 16.8306, 16.7956, 22.7063, 36.5853, -30.5759, -28.6648
2.036, -1, 16.8746, 16.7566, 22.721, 36.6553, -30.4939, -28.7172
2.04, -1, 16.9185, 16.7176, 22.7357, 36.7252, -30.412, -28.7696
2.044, -1, 16.9624, 16.6786, 22.7503, 36.7951, -30.3302, -28.8219
2.048, -1, 17.0062, 16.6397, 22.765, 36.8649, -30.2485, -28.8742
2.051, -1, 17.05, 16.6008, 22.7796, 36.9346, -30.1668, -28.9264
2.055, -1, 17.0938, 16.5619, 22.7942, 37.0043, -30.0852, -28.9785
2.06, -1, 17.1375, 16.5231, 22.8088, 37.0739, -30.0037, -29.0306
2.064, -1, 17.1811, 16.4844, 22.8234, 37.1435, -29.9223, -29.0827
2.068, -1, 17.2244, 16.4458, 22.8379, 37.2129, -29.841, -29.1347
2.071, -1, 17.2671, 16.4077, 22.8523, 37.2823, -29.7597, -29.1866
2.076, -1, 17.3088, 16.3701, 22.8666, 37.3515, -29.6787, -29.2384
2.08, -1, 17.3495, 16.3335, 22.8807, 37.4204, -29.5981, -29.29
2.084, -1, 17.3888, 16.2979, 22.8945, 37.4888, -29.518, -29.3412
2.087, -1, 17.4267, 16.2635, 22.9079, 37.5564, -29.4389, -29.3918
2.092, -1, 17.4632, 16.2306, 22.921, 37.6229, -29.3611, -29.4417
2.096, -1, 17.4983, 16.1992, 22.9337, 37.6879, -29.2851, -29.4903
2.1, -1, 17.5321, 16.1694, 22.9459, 37.7508, -29.2115, -29.5374
2.104, -1, 17.5644, 16.1411, 22.9576, 37.8112, -29.1408, -29.5827
2.107, -1, 17.5951, 16.1145, 22.9686, 37.8686, -29.0737, -29.6257
2.111, -1, 17.624, 16.0896, 22.9791, 37.9226, -29.0106, -29.6661
2.116, -1, 17.6513, 16.0662, 22.9888, 37.9726, -28.9521, -29.7035
2.12, -1, 17.6768, 16.044, 22.9978, 38.0183, -28.8986, -29.7378
2.124, -1, 17.7009, 16.023, 23.0061, 38.0595, -28.8504, -29.7686
2.127, -1, 17.7234, 16.0029, 23.0136, 38.0959, -28.8078, -29.7958
2.132, -1, 17.7446, 15.9838, 23.0205, 38.1275, -28.7707, -29.8195
2.136, -1, 17.7642, 15.9657, 23.0267, 38.1546, -28.739, -29.8397
2.14, -1, 17.7823, 15.9489, 23.0321, 38.1772, -28.7125, -29.8566
2.143, -1, 17.7986, 15.9337, 23.0368, 38.1957, -28.6907, -29.8705
2.148, -1, 17.8131, 15.9202, 23.0409, 38.2106, -28.6732, -29.8816
2.152, -1, 17.8259, 15.9085, 23.0443, 38.2223, -28.6594, -29.8904
2.156, -1, 17.8371, 15.8987, 23.0471, 38.2313, -28.6488, -29.8971
2.16, -1, 17.8467, 15.8905, 23.0494, 38.2381, -28.6409, -29.9021
2.163, -1, 17.855, 15.8838, 23.0513, 38.243, -28.635, -29.9058
2.168, -1, 17.8619, 15.8785, 23.0527, 38.2465, -28.6308, -29.9084
2.172, -1, 17.8674, 15.8744, 23.0538, 38.249, -28.6279, -29.9103
2.176, 2, 17.8716, 15.8714, 23.0546, 38.2507, -28.6258, -29.9115
2.179, 2, 17.8747, 15.8692, 23.0552, 38.2519, -28.6245, -29.9124
2.184, 2, 17.8769, 15.8677, 23.0556, 38.2527, -28.6235, -29.913
2.188, 2, 17.8784, 15.8667, 23.0558, 38.2532, -28.6229, -29.9134
2.192, 2, 17.8794, 15.866, 23.056, 38.2536, -28.6224, -29.9137
2.196, 2, 17.8801, 15.8655, 23.0561, 38.2538, -28.6221, -29.9138
2.199, 2, 17.8806, 15.8652, 23.0562, 38.254, -28.6219, -29.914
2.204, 2, 17.8809, 15.865, 23.0563, 38.2541, -28.6218, -29.9141
2.208, 2, 17.8811, 15.8649, 23.0563, 38.2542, -28.6217, -29.9141
2.212, 2, 17.8813, 15.8648, 23.0563, 38.2543, -28.6217, -29.9141
2.216, 2, 17.8814, 15.8647, 23.0564, 38.2543, -28.6216, -29.9142
2.219, 2, 17.8814, 15.8646, 23.0564, 38.2543, -28.6216, -29.9142
2.224, 2, 17.8815, 15.8646, 23.0564, 38.2543, -28.6216, -29.9142
2.228, 2, 17.8815, 15.8646, 23.0564, 38.2543, -28.6215, -29.9142
2.232, 2, 17.8815, 15.8646, 23.0564, 38.2543, -28.6215, -29.9142
2.235, 2, 17.8815, 15.8646, 23.0564, 38.2544, -28.6215, -29.9142
2.24, 2, 17.8815, 15.8646, 23.0564, 38.2544, -28.6215, -29.9142
2.244, 2, 17.8816, 15.8646, 23.0564, 38.2544, -28.6215, -29.9142
2.248, 2, 17.8816, 15.8646, 23.0564, 38.2544, -28.6215, -29.9142
2.252, 2, 17.8816, 15.8646, 23.0564, 38.2544, -28.6215, -29.9142
2.255, 2, 17.8816, 15.8646, 23.0564, 38.2544, -28.6215, -29.9142
2.259, 2, 17.8816, 15.8646, 23.0564, 38.2544, -28.6215, -29.9142
2.264, 2, 17.8816, 15.8645, 23.0564, 38.2544, -28.6215, -29.9142
2.268, 2, 17.8816, 15.8645, 23.0564, 38.2544, -28.6215, -29.9142
2.272, 2, 17.8816, 15.8645, 23.0564, 38.2544, -28.6215, -29.9142
2.275, 2, 17.8816, 15.8645, 23.0564, 38.2544, -28.6215, -29.9142
2.28, 2, 17.8816, 15.8645, 23.0564, 38.2544, -28.6215, -29.9142
2.284, 2, 17.8816, 15.8645, 23.0564, 38.2544, -28.6215, -29.9142
2.288, 2, 17.8816, 15.8645, 23.0564, 38.2544, -28.6215, -29.9142
2.291, 2, 17.8816, 15.8645, 23.0564, 38.2544, -28.6215, -29.9142
2.296, 2, 17.8816, 15.8645, 23.0564, 38.2544, -28.6215, -29.9142
2.3, 2, 17.8816, 15.8645, 23.0564, 38.2544, -28.6215, -29.9142
2.304, 2, 17.8816, 15.8645, 23.0564, 38.2544, -28.6215, -29.9142
2.308, 2, 17.8816, 15.8645, 23.0564, 38.2544, -28.6215, -29.9142
2.311, 2, 17.8816, 15.8645, 23.0564, 38.2544, -28.6215, -29.9142
2.316, 2, 17.8816, 15.8645, 23.0564, 38.2544, -28.6215, -29.9142
2.32, 2, 17.8816, 15.8645, 23.0564, 38.2544, -28.6215, -29.9142
2.324, 2, 17.8816, 15.8645, 23.0564, 38.2544, -28.6215, -29.9142
2.328, 2, 17.8816, 15.8645, 23.0564, 38.2544, -28.6215, -29.9142
2.331, 2, 17.8816, 15.8645, 23.0564, 38.2544, -28.6215, -29.9142
2.336, 2, 17.8816, 15.8645, 23.0564, 38.2544, -28.6215, -29.9142
2.34, 2, 17.8816, 15.8645, 23.0564, 38.2544, -28.6215, -29.9142
2.344, 2, 17.8816, 15.8645, 23.0564, 38.2544, -28.6215, -29.9142
2.347, 2, 17.8816, 15.8645, 23.0564, 38.2544, -28.6215, -29.9142
2.352, 2, 17.8816, 15.8645, 23.0564, 38.2544, -28.6215, -29.9142
2.356, 2, 17.8816, 15.8645, 23.0564, 38.2544, -28.6215, -29.9142
2.36, 2, 17.8816, 15.8645, 23.0564, 38.2544, -28.6215, -29.9142
2.364, 2, 17.8816, 15.8645, 23.0564, 38.2544, -28.6215, -29.9142
2.367, 2, 17.8816, 15.8645, 23.0564, 38.2544, -28.6215, -29.9142
2.372, 2, 17.8816, 15.8645, 23.0564, 38.2544, -28.6215, -29.9142
2.376, 2, 17.8816, 15.8645, 23.0564, 38.2544, -28.6215, -29.9142
2.38, 2, 17.8816, 15.8645, 23.0564, 38.2544, -28.6215, -29.9142
2.383, 2, 17.8816, 15.8645, 23.0564, 38.2544, -28.6215, -29.9142
2.388, 2, 17.8816, 15.8645, 23.0564, 38.2544, -28.6215, -29.9142
2.392, 2, 17.8816, 15.8645, 23.0564, 38.2544, -28.6215, -29.9142
2.396, 2, 17.8816, 15.8645, 23.0564, 38.2544, -28.6215, -29.9142
2.4, 2, 17.8816, 15.8645, 23.0564, 38.2544, -28.6215, -29.9142
2.403, 2, 17.8816, 15.8645, 23.0564, 38.2544, -28.6215, -29.9142
2.408, 2, 17.8816, 15.8645, 23.0564, 38.2544, -28.6215, -29.9142
2.412, 2, 17.8816, 15.8645, 23.0564, 38.2544, -28.6215, -29.9142
2.416, 2, 17.8816, 15.8645, 23.0564, 38.2544, -28.6215, -29.9142
2.42, 2, 17.8816, 15.8645, 23.0564, 38.2544, -28.6215, -29.9142
2.423, 2, 17.8816, 15.8645, 23.0564, 38.2544, -28.6215, -29.9142
2.428, 2, 17.8816, 15.8645, 23.0564, 38.2544, -28.6215, -29.9142
2.432, 2, 17.8816, 15.8645, 23.0564, 38.2544, -28.6215, -29.9142
2.436, 2, 17.8816, 15.8645, 23.0564, 38.2544, -28.6215, -29.9142
2.439, 2, 17.8816, 15.8645, 23.0564, 38.2544, -28.6215, -29.9142
2.444, 2, 17.8816, 15.8645, 23.0564, 38.2544, -28.6215, -29.9142
2.448, 2, 17.8816, 15.8645, 23.0564, 38.2544, -28.6215, -29.9142
2.452, 2, 17.8816, 15.8645, 23.0564, 38.2544, -28.6215, -29.9142
2.456, 2, 17.8816, 15.8645, 23.0564, 38.2544, -28.6215, -29.9142
2.459, 2, 17.8816, 15.8645, 23.0564, 38.2544, -28.6215, -29.9142
2.464, 2, 17.8816, 15.8645, 23.0564, 38.2544, -28.6215, -29.9142
2.468, 2, 17.8816, 15.8645, 23.0564, 38.2544, -28.6215, -29.9142
2.472, 2, 17.8816, 15.8645, 23.0564, 38.2544, -28.6215, -29.9142
2.476, 2, 17.8816, 15.8645, 23.0564, 38.2544, -28.6215, -29.9142
2.479, 2, 17.8816, 15.8645, 23.0564, 38.2544, -28.6215, -29.9142
2.484, 2, 17.8816, 15.8645, 23.0564, 38.2544, -28.6215, -29.9142
2.488, 2, 17.8816, 15.8645, 23.0564, 38.2544, -28.6215, -29.9142
2.492, 2, 17.8816, 15.8645, 23.0564, 38.2544, -28.6215, -29.9142
2.495, 2, 17.8816, 15.8645, 23.0564, 38.2544, -28.6215, -29.9142
2.5, 2, 17.8816, 15.8645, 23.0564, 38.2544, -28.6215, -29.9142
2.504, 2, 17.8816, 15.8645, 23.0564, 38.2544, -28.6215, -29.9142
2.508, 2, 17.8816, 15.8645, 23.0564, 38.2544, -28.6215, -29.9142
2.512, 2, 17.8816, 15.8645, 23.0564, 38.2544, -28.6215, -29.9142
2.515, 2, 17.8816, 15.8645, 23.0564, 38.2544, -28.6215, -29.9142
2.52, 2, 17.8816, 15.8645, 23.0564, 38.2544, -28.6215, -29.9142
2.524, 2, 17.8816, 15.8645, 23.0564, 38.2544, -28.6215, -29.9142
2.528, 2, 17.8816, 15.8645, 23.0564, 38.2544, -28.6215, -29.9142
2.531, 2, 17.8816, 15.8645, 23.0564, 38.2544, -28.6215, -29.9142
2.536, 2, 17.8816, 15.8645, 23.0564, 38.2544, -28.6215, -29.9142
2.54, 2, 17.8816, 15.8645, 23.0564, 38.2544, -28.6215, -29.9142
2.544, 2, 17.8816, 15.8645, 23.0564, 38.2544, -28.6215, -29.9142
2.548, 2, 17.8816, 15.8645, 23.0564, 38.2544, -28.6215, -29.9142
2.551, 2, 17.8816, 15.8645, 23.0564, 38.2544, -28.6215, -29.9142
2.556, 2, 17.8816, 15.8645, 23.0564, 38.2544, -28.6215, -29.9142
2.56, 2, 17.8816, 15.8645, 23.0564, 38.2544, -28.6215, -29.9142
2.564, 2, 17.8816, 15.8645, 23.0564, 38.2544, -28.6215, -29.9142
2.568, 2, 17.8816, 15.8645, 23.0564, 38.2544, -28.6215, -29.9142
2.571, 2, 17.8816, 15.8645, 23.0564, 38.2544, -28.6215, -29.9142
2.576, 2, 17.8816, 15.8645, 23.0564, 38.2544, -28.6215, -29.9142
2.58, 2, 17.8816, 15.8645, 23.0564, 38.2544, -28.6215, -29.9142
2.584, 2, 17.8816, 15.8645, 23.0564, 38.2544, -28.6215, -29.9142
2.587, 2, 17.8816, 15.8645, 23.0564, 38.2544, -28.6215, -29.9142
2.592, 2, 17.8816, 15.8645, 23.0564, 38.2544, -28.6215, -29.9142
2.596, 2, 17.8816, 15.8645, 23.0564, 38.2544, -28.6215, -29.9142
2.6, 2, 17.8816, 15.8645, 23.0564, 38.2544, -28.6215, -29.9142
2.604, 2, 17.8816, 15.8645, 23.0564, 38.2544, -28.6215, -29.9142
2.607, 2, 17.8816, 15.8645, 23.0564, 38.2544, -28.6215, -29.9142
2.612, 2, 17.8816, 15.8645, 23.0564, 38.2544, -28.6215, -29.9142
2.616, 2, 17.8816, 15.8645, 23.0564, 38.2544, -28.6215, -29.9142
2.62, 2, 17.8816, 15.8645, 23.0564, 38.2544, -28.6215, -29.9142
2.624, 2, 17.8816, 15.8645, 23.0564, 38.2544, -28.6215, -29.9142
2.627, 2, 17.8816, 15.8645, 23.0564, 38.2544, -28.6215, -29.9142
2.632, 2, 17.8816, 15.8645, 23.0564, 38.2544, -28.6215, -29.9142
2.636, 2, 17.8816, 15.8645, 23.0564, 38.2544, -28.6215, -29.9142
2.64, 2, 17.8816, 15.8645, 23.0564, 38.2544, -28.6215, -29.9142
2.643, 2, 17.8816, 15.8645, 23.0564, 38.2544, -28.6215, -29.9142
2.648, 2, 17.8816, 15.8645, 23.0564, 38.2544, -28.6215, -29.9142
2.652, 2, 17.8816, 15.8645, 23.0564, 38.2544, -28.6215, -29.9142
2.656, 2, 17.8816, 15.8645, 23.0564, 38.2544, -28.6215, -29.9142
2.66, 2, 17.8816, 15.8645, 23.0564, 38.2544, -28.6215, -29.9142
2.663, 2, 17.8816, 15.8645, 23.0564, 38.2544, -28.6215, -29.9142
2.668, 2, 17.8816, 15.8645, 23.0564, 38.2544, -28.6215, -29.9142
2.672, 2, 17.8816, 15.8645, 23.0564, 38.2544, -28.6215, -29.9142
2.676, 2, 17.8816, 15.8645, 23.0564, 38.2544, -28.6215, -29.9142
2.679, 2, 17.8816, 15.8645, 23.0564, 38.2544, -28.6215, -29.9142
2.684, 2, 17.8816, 15.8645, 23.0564, 38.2544, -28.6215, -29.9142
2.688, 2, 17.8816, 15.8645, 23.0564, 38.2544, -28.6215, -29.9142
2.692, 2, 17.8816, 15.8645, 23.0564, 38.2544, -28.6215, -29.9142
2.696, 2, 17.8816, 15.8645, 23.0564, 38.2544, -28.6215, -29.9142
2.699, 2, 17.8816, 15.8645, 23.0564, 38.2544, -28.6215, -29.9142
2.704, 2, 17.8816, 15.8645, 23.0564, 38.2544, -28.6215, -29.9142
2.708, 2, 17.8816, 15.8645, 23.0564, 38.2544, -28.6215, -29.9142
2.712, 2, 17.8816, 15.8645, 23.0564, 38.2544, -28.6215, -29.9142
2.716, 2, 17.8816, 15.8645, 23.0564, 38.2544, -28.6215, -29.9142
2.719, 2, 17.8816, 15.8645, 23.0564, 38.2544, -28.6215, -29.9142
2.724, 2, 17.8816, 15.8645, 23.0564, 38.2544, -28.6215, -29.9142
2.728, 2, 17.8816, 15.8645, 23.0564, 38.2544, -28.6215, -29.9142
2.732, 2, 17.8816, 15.8645, 23.0564, 38.2544, -28.6215, -29.9142
2.735, 2, 17.8816, 15.8645, 23.0564, 38.2544, -28.6215, -29.9142
2.74, 2, 17.8816, 15.8645, 23.0564, 38.2544, -28.6215, -29.9142
2.744, 2, 17.8816, 15.8645, 23.0564, 38.2544, -28.6215, -29.9142
2.748, 2, 17.8816, 15.8645, 23.0564, 38.2544, -28.6215, -29.9142
2.752, 2, 17.8816, 15.8645, 23.0564, 38.2544, -28.6215, -29.9142
2.755, 2, 17.8816, 15.8645, 23.0564, 38.2544, -28.6215, -29.9142
2.76, 2, 17.8816, 15.8645, 23.0564, 38.2544, -28.6215, -29.9142
2.764, 2, 17.8816, 15.8645, 23.0564, 38.2544, -28.6215, -29.9142
2.768, 2, 17.8816, 15.8645, 23.0564, 38.2544, -28.6215, -29.9142
2.772, 2, 17.8816, 15.8645, 23.0564, 38.2544, -28.6215, -29.9142
2.775, 2, 17.8816, 15.8645, 23.0564, 38.2544, -28.6215, -29.9142
2.78, 2, 17.8816, 15.8645, 23.0564, 38.2544, -28.6215, -29.9142
2.784, 2, 17.8816, 15.8645, 23.0564, 38.2544, -28.6215, -29.9142
2.788, 2, 17.8816, 15.8645, 23.0564, 38.2544, -28.6215, -29.9142
2.791, 2, 17.8816, 15.8645, 23.0564, 38.2544, -28.6215, -29.9142
2.796, 2, 17.8816, 15.8645, 23.0564, 38.2544, -28.6215, -29.9142
2.8, 2, 17.8816, 15.8645, 23.0564, 38.2544, -28.6215, -29.9142
2.804, 2, 17.8816, 15.8645, 23.0564, 38.2544, -28.6215, -29.9142
2.808, 2, 17.8816, 15.8645, 23.0564, 38.2544, -28.6215, -29.9142
2.811, 2, 17.8816, 15.8645, 23.0564, 38.2544, -28.6215, -29.9142
2.816, 2, 17.8816, 15.8645, 23.0564, 38.2544, -28.6215, -29.9142
2.82, 2, 17.8816, 15.8645, 23.0564, 38.2544, -28.6215, -29.9142
2.824, 2, 17.8816, 15.8645, 23.0564, 38.2544, -28.6215, -29.9142
2.828, 2, 17.8816, 15.8645, 23.0564, 38.2544, -28.6215, -29.9142
2.831, 2, 17.8816, 15.8645, 23.0564, 38.2544, -28.6215, -29.9142
2.836, 2, 17.8816, 15.8645, 23.0564, 38.2544, -28.6215, -29.9142
2.84, 2, 17.8816, 15.8645, 23.0564, 38.2544, -28.6215, -29.9142
2.844, 2, 17.8816, 15.8645, 23.0564, 38.2544, -28.6215, -29.9142
2.847, 2, 17.8816, 15.8645, 23.0564, 38.2544, -28.6215, -29.9142
2.852, 2, 17.8816, 15.8645, 23.0564, 38.2544, -28.6215, -29.9142
2.856, 2, 17.8816, 15.8645, 23.0564, 38.2544, -28.6215, -29.9142
2.86, 2, 17.8816, 15.8645, 23.0564, 38.2544, -28.6215, -29.9142
2.864, 2, 17.8816, 15.8645, 23.0564, 38.2544, -28.6215, -29.9142
2.867, 2, 17.8816, 15.8645, 23.0564, 38.2544, -28.6215, -29.9142
2.872, 2, 17.8816, 15.8645, 23.0564, 38.2544, -28.6215, -29.9142
2.876, 2, 17.8816, 15.8645, 23.0564, 38.2544, -28.6215, -29.9142
2.88, 2, 17.8816, 15.8645, 23.0564, 38.2544, -28.6215, -29.9142
2.883, 2, 17.8816, 15.8645, 23.0564, 38.2544, -28.6215, -29.9142
2.888, 2, 17.8816, 15.8645, 23.0564, 38.2544, -28.6215, -29.9142
2.892, 2, 17.8816, 15.8645, 23.0564, 38.2544, -28.6215, -29.9142
2.896, 2, 17.8816, 15.8645, 23.0564, 38.2544, -28.6215, -29.9142
2.9, 2, 17.8816, 15.8645, 23.0564, 38.2544, -28.6215, -29.9142
2.903, 2, 17.8816, 15.8645, 23.0564, 38.2544, -28.6215, -29.9142
2.908, 2, 17.8816, 15.8645, 23.0564, 38.2544, -28.6215, -29.9142
2.912, 2, 17.8816, 15.8645, 23.0564, 38.2544, -28.6215, -29.9142
2.916, 2, 17.8816, 15.8645, 23.0564, 38.2544, -28.6215, -29.9142
2.92, 2, 17.8816, 15.8645, 23.0564, 38.2544, -28.6215, -29.9142
2.923, 2, 17.8816, 15.8645, 23.0564, 38.2544, -28.6215, -29.9142
2.928, 2, 17.8816, 15.8645, 23.0564, 38.2544, -28.6215, -29.9142
2.932, 2, 17.8816, 15.8645, 23.0564, 38.2544, -28.6215, -29.9142
2.936, 2, 17.8816, 15.8645, 23.0564, 38.2544, -28.6215, -29.9142
2.939, 2, 17.8816, 15.8645, 23.0564, 38.2544, -28.6215, -29.9142
2.944, 2, 17.8816, 15.8645, 23.0564, 38.2544, -28.6215, -29.9142
2.948, 2, 17.8816, 15.8645, 23.0564, 38.2544, -28.6215, -29.9142
2.952, 2, 17.8816, 15.8645, 23.0564, 38.2544, -28.6215, -29.9142
2.956, 2, 17.8816, 15.8645, 23.0564, 38.2544, -28.6215, -29.9142
2.959, 2, 17.8816, 15.8645, 23.0564, 38.2544, -28.6215, -29.9142
2.964, 2, 17.8816, 15.8645, 23.0564, 38.2544, -28.6215, -29.9142
2.968, 2, 17.8816, 15.8645, 23.0564, 38.2544, -28.6215, -29.9142
2.972, 2, 17.8816, 15.8645, 23.0564, 38.2544, -28.6215, -29.9142
2.976, 2, 17.8816, 15.8645, 23.0564, 38.2544, -28.6215, -29.9142
2.98, 2, 17.8816, 15.8645, 23.0564, 38.2544, -28.6215, -29.9142
2.984, 2, 17.8816, 15.8645, 23.0564, 38.2544, -28.6215, -29.9142
2.988, 2, 17.8816, 15.8645, 23.0564, 38.2544, -28.6215, -29.9142
2.992, 2, 17.8816, 15.8645, 23.0564, 38.2544, -28.6215, -29.9142
2.995, 2, 17.8816, 15.8645, 23.0564, 38.2544, -28.6215, -29.9142
3, 2, 17.8816, 15.8645, 23.0564, 38.2544, -28.6215, -29.9142
3.004, 2, 17.8816, 15.8645, 23.0564, 38.2544, -28.6215, -29.9142
3.008, 2, 17.8816, 15.8645, 23.0564, 38.2544, -28.6215, -29.9142
3.012, 2, 17.8816, 15.8645, 23.0564, 38.2544, -28.6215, -29.9142
3.015, 2, 17.8816, 15.8645, 23.0564, 38.2544, -28.6215, -29.9142
3.02, 2, 17.8816, 15.8645, 23.0564, 38.2544, -28.6215, -29.9142
3.024, 2, 17.8816, 15.8645, 23.0564, 38.2544, -28.6215, -29.9142
3.028, 2, 17.8816, 15.8645, 23.0564, 38.2544, -28.6215, -29.9142
3.031, 2, 17.8816, 15.8645, 23.0564, 38.2544, -28.6215, -29.9142
3.036, 2, 17.8816, 15.8645, 23.0564, 38.2544, -28.6215, -29.9142
3.04, 2, 17.8816, 15.8645, 23.0564, 38.2544, -28.6215, -29.9142
3.044, 2, 17.8816, 15.8645, 23.0564, 38.2544, -28.6215, -29.9142
3.048, 2, 17.8816, 15.8645, 23.0564, 38.2544, -28.6215, -29.9142
3.051, 2, 17.8816, 15.8645, 23.0564, 38.2544, -28.6215, -29.9142
3.056, 2, 17.8816, 15.8645, 23.0564, 38.2544, -28.6215, -29.9142
3.06, 2, 17.8816, 15.8645, 23.0564, 38.2544, -28.6215, -29.9142
3.064, 2, 17.8816, 15.8645, 23.0564, 38.2544, -28.6215, -29.9142
3.068, 2, 17.8816, 15.8645, 23.0564, 38.2544, -28.6215, -29.9142
3.071, 2, 17.8816, 15.8645, 23.0564, 38.2544, -28.6215, -29.9142
3.076, 2, 17.8816, 15.8645, 23.0564, 38.2544, -28.6215, -29.9142
3.08, 2, 17.8816, 15.8645, 23.0564, 38.2544, -28.6215, -29.9142
3.084, 2, 17.8816, 15.8645, 23.0564, 38.2544, -28.6215, -29.9142
3.087, 2, 17.8816, 15.8645, 23.0564, 38.2544, -28.6215, -29.9142
3.092, 2, 17.8816, 15.8645, 23.0564, 38.2544, -28.6215, -29.9142
3.096, 2, 17.8816, 15.8645, 23.0564, 38.2544, -28.6215, -29.9142
3.1, 2, 17.8816, 15.8645, 23.0564, 38.2544, -28.6215, -29.9142
3.104, 2, 17.8816, 15.8645, 23.0564, 38.2544, -28.6215, -29.9142
3.107, 2, 17.8816, 15.8645, 23.0564, 38.2544, -28.6215, -29.9142
3.112, 2, 17.8816, 15.8645, 23.0564, 38.2544, -28.6215, -29.9142
3.116, 2, 17.8816, 15.8645, 23.0564, 38.2544, -28.6215, -29.9142
3.12, 2, 17.8816, 15.8645, 23.0564, 38.2544, -28.6215, -29.9142
3.124, 2, 17.8816, 15.8645, 23.0564, 38.2544, -28.6215, -29.9142
3.128, 2, 17.8816, 15.8645, 23.0564, 38.2544, -28.6215, -29.9142
3.132, 2, 17.8816, 15.8645, 23.0564, 38.2544, -28.6215, -29.9142
3.136, 2, 17.8816, 15.8645, 23.0564, 38.2544, -28.6215, -29.9142
3.14, 2, 17.8816, 15.8645, 23.0564, 38.2544, -28.6215, -29.9142
3.143, 2, 17.8816, 15.8645, 23.0564, 38.2544, -28.6215, -29.9142
3.148, 2, 17.8816, 15.8645, 23.0564, 38.2544, -28.6215, -29.9142
3.152, 2, 17.8816, 15.8645, 23.0564, 38.2544, -28.6215, -29.9142
3.156, 2, 17.8816, 15.8645, 23.0564, 38.2544, -28.6215, -29.9142
3.16, 2, 17.8816, 15.8645, 23.0564, 38.2544, -28.6215, -29.9142
3.163, 2, 17.8816, 15.8645, 23.0564, 38.2544, -28.6215, -29.9142
3.168, 2, 17.8816, 15.8645, 23.0564, 38.2544, -28.6215, -29.9142
3.172, 2, 17.8816, 15.8645, 23.0564, 38.2544, -28.6215, -29.9142
3.176, 2, 17.8816, 15.8645, 23.0564, 38.2544, -28.6215, -29.9142
3.179, 2, 17.8816, 15.8645, 23.0564, 38.2544, -28.6215, -29.9142
3.184, 2, 17.8816, 15.8645, 23.0564, 38.2544, -28.6215, -29.9142
3.188, 2, 17.8816, 15.8645, 23.0564, 38.2544, -28.6215, -29.9142
3.192, 2, 17.8816, 15.8645, 23.0564, 38.2544, -28.6215, -29.9142
3.196, 2, 17.8816, 15.8645, 23.0564, 38.2544, -28.6215, -29.9142
3.199, 2, 17.8816, 15.8645, 23.0564, 38.2544, -28.6215, -29.9142
3.204, 2, 17.8816, 15.8645, 23.0564, 38.2544, -28.6215, -29.9142
3.208, 2, 17.8816, 15.8645, 23.0564, 38.2544, -28.6215, -29.9142
3.212, 2, 17.8816, 15.8645, 23.0564, 38.2544, -28.6215, -29.9142
3.216, 2, 17.8816, 15.8645, 23.0564, 38.2544, -28.6215, -29.9142
3.22, 2, 17.8816, 15.8645, 23.0564, 38.2544, -28.6215, -29.9142
3.224, 2, 17.8816, 15.8645, 23.0564, 38.2544, -28.6215, -29.9142
3.228, 2, 17.8816, 15.8645, 23.0564, 38.2544, -28.6215, -29.9142
3.232, 2, 17.8816, 15.8645, 23.0564, 38.2544, -28.6215, -29.9142
3.235, 2, 17.8816, 15.8645, 23.0564, 38.2544, -28.6215, -29.9142
3.24, 2, 17.8816, 15.8645, 23.0564, 38.2544, -28.6215, -29.9142
3.244, 2, 17.8816, 15.8645, 23.0564, 38.2544, -28.6215, -29.9142
3.248, 4, 17.8816, 15.8645, 23.0564, 38.2544, -28.6215, -29.9142
3.252, 4, 17.8816, 15.8645, 23.0564, 38.2544, -28.6215, -29.9142
3.255, 4, 17.8816, 15.8645, 23.0564, 38.2544, -28.6215, -29.9142
3.26, 4, 17.8816, 15.8645, 23.0564, 38.2544, -28.6215, -29.9142
3.264, 4, 17.8816, 15.8645, 23.0564, 38.2544, -28.6215, -29.9142
3.268, 4, 17.8816, 15.8645, 23.0564, 38.2544, -28.6215, -29.9142
3.272, 4, 17.8816, 15.8645, 23.0564, 38.2544, -28.6215, -29.9142
3.276, 4, 17.8816, 15.8645, 23.0564, 38.2544, -28.6215, -29.9142
3.28, 4, 17.8816, 15.8645, 23.0564, 38.2544, -28.6215, -29.9142
3.284, 4, 17.8816, 15.8645, 23.0564, 38.2544, -28.6215, -29.9142
3.288, 4, 17.8816, 15.8645, 23.0564, 38.2544, -28.6215, -29.9142
3.291, 4, 17.8816, 15.8645, 23.0564, 38.2544, -28.6215, -29.9142
3.296, 4, 17.8816, 15.8645, 23.0564, 38.2544, -28.6215, -29.9142
3.3, 4, 17.8816, 15.8645, 23.0564, 38.2544, -28.6215, -29.9142
3.304, 4, 17.8816, 15.8645, 23.0564, 38.2544, -28.6215, -29.9142
3.308, 4, 17.8816, 15.8645, 23.0564, 38.2544, -28.6215, -29.9142
3.312, 4, 17.8816, 15.8645, 23.0564, 38.2544, -28.6215, -29.9142
3.316, 4, 17.8816, 15.8645, 23.0564, 38.2544, -28.6215, -29.9142
3.32, 4, 17.8816, 15.8645, 23.0564, 38.2544, -28.6215, -29.9142
3.324, 4, 17.8816, 15.8645, 23.0564, 38.2544, -28.6215, -29.9142
3.328, 4, 17.8816, 15.8645, 23.0564, 38.2544, -28.6215, -29.9142
3.332, 4, 17.8816, 15.8645, 23.0564, 38.2544, -28.6215, -29.9142
3.336, 4, 17.8816, 15.8645, 23.0564, 38.2544, -28.6215, -29.9142
3.34, 4, 17.8816, 15.8645, 23.0564, 38.2544, -28.6215, -29.9142
3.344, 4, 17.8816, 15.8645, 23.0564, 38.2544, -28.6215, -29.9142
3.347, 4, 17.8816, 15.8645, 23.0564, 38.2544, -28.6215, -29.9142
3.354, 4, 17.8816, 15.8645, 23.0564, 38.2544, -28.6215, -29.9142
3.358, 4, 17.8816, 15.8645, 23.0564, 38.2544, -28.6215, -29.9142
3.362, 4, 17.8816, 15.8645, 23.0564, 38.2544, -28.6215, -29.9142
3.366, 4, 17.8816, 15.8645, 23.0564, 38.2544, -28.6215, -29.9142
3.37, 4, 17.8816, 15.8645, 23.0564, 38.2544, -28.6215, -29.9142
3.372, 4, 17.8816, 15.8645, 23.0564, 38.2544, -28.6215, -29.9142
3.376, 4, 17.8816, 15.8645, 23.0564, 38.2544, -28.6215, -29.9142
3.38, 4, 17.8816, 15.8645, 23.0564, 38.2544, -28.6215, -29.9142
3.383, 4, 17.8816, 15.8645, 23.0564, 38.2544, -28.6215, -29.9142
3.388, 4, 17.8815, 15.8645, 23.0564, 38.2544, -28.6215, -29.9142
3.392, 4, 17.8812, 15.8645, 23.0564, 38.2543, -28.6215, -29.9142
3.396, 4, 17.8806, 15.8645, 23.0565, 38.2542, -28.6216, -29.9141
3.4, 4, 17.8793, 15.8645, 23.0566, 38.2539, -28.6217, -29.9139
3.403, 4, 17.8773, 15.8644, 23.0569, 38.2532, -28.6219, -29.9133
3.408, 4, 17.8745, 15.8643, 23.0576, 38.2517, -28.6225, -29.912
3.412, 4, 17.8706, 15.864, 23.0586, 38.2489, -28.6235, -29.9095
3.416, 4, 17.8657, 15.8636, 23.0603, 38.2441, -28.6252, -29.9053
3.42, 5, 17.8595, 15.863, 23.063, 38.2364, -28.628, -29.8984
3.424, 5, 17.8519, 15.862, 23.067, 38.2246, -28.6323, -29.8881
3.428, 5, 17.8425, 15.8607, 23.0726, 38.2075, -28.6384, -29.873
3.432, 5, 17.8311, 15.8589, 23.0804, 38.1837, -28.647, -29.8519
3.436, 5, 17.8174, 15.8565, 23.0908, 38.1514, -28.6587, -29.8234
3.439, 5, 17.801, 15.8533, 23.1043, 38.1089, -28.674, -29.7858
3.444, 5, 17.7821, 15.8494, 23.1216, 38.0543, -28.6938, -29.7375
3.448, 5, 17.7607, 15.8444, 23.143, 37.9859, -28.7187, -29.677
3.452, 5, 17.7368, 15.8384, 23.1691, 37.9021, -28.7494, -29.6029
3.456, 5, 17.7105, 15.8313, 23.2001, 37.8018, -28.7862, -29.5141
3.46, 5, 17.6816, 15.823, 23.2364, 37.684, -28.8296, -29.4099
3.464, 5, 17.6502, 15.8134, 23.2781, 37.5487, -28.8797, -29.2902
3.468, 5, 17.6159, 15.8027, 23.325, 37.3959, -28.9366, -29.155
3.472, 5, 17.5788, 15.7909, 23.3771, 37.2262, -29.0002, -29.005
3.476, 5, 17.5389, 15.778, 23.434, 37.0407, -29.0701, -28.8411
3.48, 5, 17.4963, 15.7642, 23.4954, 36.8407, -29.146, -28.6644
3.484, 5, 17.4512, 15.7495, 23.5609, 36.6277, -29.2273, -28.4764
3.488, 5, 17.4039, 15.7341, 23.6299, 36.4036, -29.3135, -28.2787
3.492, 5, 17.3545, 15.7182, 23.7019, 36.1704, -29.404, -28.073
3.495, 5, 17.3028, 15.7018, 23.7762, 35.9299, -29.498, -27.8611
3.5, 5, 17.2491, 15.6851, 23.8525, 35.684, -29.5949, -27.6445
3.504, 5, 17.1932, 15.6683, 23.9302, 35.4344, -29.6942, -27.4249
3.508, 5, 17.1354, 15.6515, 24.0088, 35.1825, -29.7954, -27.2035
3.512, 5, 17.0757, 15.6346, 24.0881, 34.9294, -29.898, -26.9812
3.516, 5, 17.0146, 15.6179, 24.1678, 34.6759, -30.0018, -26.7588
3.52, 5, 16.9523, 15.6014, 24.2476, 34.4226, -30.1065, -26.5367
3.524, 5, 16.8893, 15.585, 24.3275, 34.17, -30.2119, -26.3155
3.528, 5, 16.8256, 15.5689, 24.4073, 33.9183, -30.3181, -26.0952
3.531, 5, 16.7615, 15.5529, 24.487, 33.6677, -30.4249, -25.876
3.536, 5, 16.6971, 15.5373, 24.5664, 33.4183, -30.5323, -25.6582
3.54, 5, 16.6324, 15.5219, 24.6457, 33.1701, -30.6402, -25.4416
3.544, 5, 16.5676, 15.5067, 24.7247, 32.9233, -30.7486, -25.2264
3.548, 5, 16.5026, 15.4918, 24.8035, 32.6779, -30.8574, -25.0126
3.552, 5, 16.4374, 15.4772, 24.8821, 32.4339, -30.9668, -24.8003
3.556, 5, 16.3721, 15.4628, 24.9603, 32.1912, -31.0766, -24.5893
3.56, 5, 16.3067, 15.4487, 25.0383, 31.9499, -31.1869, -24.3797
3.564, 5, 16.2412, 15.4349, 25.1161, 31.7101, -31.2976, -24.1716
3.568, 5, 16.1756, 15.4213, 25.1935, 31.4716, -31.4087, -23.9649
3.572, 5, 16.1099, 15.408, 25.2707, 31.2345, -31.5203, -23.7596
3.576, 5, 16.0441, 15.395, 25.3476, 30.9988, -31.6323, -23.5557
3.58, 5, 15.9782, 15.3822, 25.4242, 30.7645, -31.7447, -23.3532
3.584, 5, 15.9122, 15.3698, 25.5006, 30.5315, -31.8576, -23.152
3.587, 5, 15.8462, 15.3576, 25.5767, 30.2999, -31.9709, -22.9523
3.592, 5, 15.78, 15.3456, 25.6525, 30.0697, -32.0845, -22.7539
3.596, 5, 15.7138, 15.334, 25.728, 29.8407, -32.1986, -22.5569
3.6, 5, 15.6474, 15.3226, 25.8033, 29.6132, -32.3131, -22.3612
3.604, 5, 15.581, 15.3114, 25.8783, 29.3869, -32.428, -22.1669
3.608, 5, 15.5145, 15.3006, 25.9529, 29.1619, -32.5433, -21.9739
3.612, 5, 15.4479, 15.29, 26.0274, 28.9383, -32.659, -21.7822
3.616, 6, 15.3812, 15.2797, 26.1015, 28.7159, -32.7751, -21.5918
3.62, 6, 15.3144, 15.2697, 26.1754, 28.4949, -32.8916, -21.4028
3.624, 6, 15.2475, 15.2599, 26.249, 28.2751, -33.0084, -21.215
3.628, 6, 15.1806, 15.2504, 26.3223, 28.0566, -33.1257, -21.0285
3.632, 6, 15.1135, 15.2412, 26.3953, 27.8393, -33.2433, -20.8433
3.636, 6, 15.0464, 15.2323, 26.468, 27.6233, -33.3612, -20.6594
3.64, 6, 14.9792, 15.2236, 26.5405, 27.4085, -33.4796, -20.4767
3.644, 6, 14.9119, 15.2152, 26.6127, 27.195, -33.5983, -20.2953
3.648, 6, 14.8445, 15.2071, 26.6846, 26.9826, -33.7174, -20.1151
3.652, 6, 14.777, 15.1993, 26.7562, 26.7715, -33.8368, -19.9362
3.656, 6, 14.7094, 15.1917, 26.8276, 26.5616, -33.9566, -19.7584
3.66, 6, 14.6418, 15.1844, 26.8986, 26.3529, -34.0767, -19.5819
3.664, 6, 14.574, 15.1774, 26.9694, 26.1454, -34.1972, -19.4066
3.668, 6, 14.5062, 15.1706, 27.0399, 25.9391, -34.3181, -19.2325
3.672, 6, 14.4383, 15.1642, 27.1101, 25.7339, -34.4393, -19.0596
3.676, 6, 14.3703, 15.158, 27.1801, 25.5299, -34.5608, -18.8879
3.679, 6, 14.3023, 15.1521, 27.2497, 25.3271, -34.6826, -18.7174
3.684, 6, 14.2341, 15.1464, 27.3191, 25.1254, -34.8048, -18.548
3.688, 6, 14.1659, 15.1411, 27.3882, 24.9248, -34.9273, -18.3798
3.692, 6, 14.0976, 15.136, 27.457, 24.7254, -35.0502, -18.2127
3.696, 6, 14.0292, 15.1312, 27.5255, 24.5271, -35.1733, -18.0467
3.7, 6, 13.9607, 15.1267, 27.5937, 24.3299, -35.2968, -17.8819
3.704, 6, 13.8921, 15.1224, 27.6617, 24.1338, -35.4206, -17.7183
3.708, 6, 13.8234, 15.1184, 27.7294, 23.9388, -35.5447, -17.5557
3.712, 6, 13.7547, 15.1147, 27.7967, 23.7449, -35.6692, -17.3942
3.716, 6, 13.6859, 15.1113, 27.8638, 23.552, -35.7939, -17.2339
3.72, 6, 13.617, 15.1082, 27.9307, 23.3603, -35.919, -17.0746
3.724, 6, 13.548, 15.1053, 27.9972, 23.1696, -36.0443, -16.9164
3.728, 6, 13.479, 15.1027, 28.0634, 22.9799, -36.17, -16.7593
3.732, 6, 13.4098, 15.1004, 28.1294, 22.7913, -36.2959, -16.6033
3.735, 6, 13.3406, 15.0984, 28.1951, 22.6038, -36.4221, -16.4483
3.74, 6, 13.2713, 15.0966, 28.2604, 22.4172, -36.5487, -16.2944
3.744, 6, 13.202, 15.0952, 28.3255, 22.2317, -36.6755, -16.1415
3.748, 6, 13.1325, 15.094, 28.3904, 22.0472, -36.8026, -15.9896
3.752, 6, 13.063, 15.0931, 28.4549, 21.8638, -36.93, -15.8388
3.756, 6, 12.9934, 15.0924, 28.5191, 21.6813, -37.0577, -15.6889
3.76, 6, 12.9237, 15.0921, 28.5831, 21.4998, -37.1856, -15.5401
3.764, 6, 12.8539, 15.092, 28.6467, 21.3193, -37.3138, -15.3923
3.768, 6, 12.784, 15.0922, 28.7101, 21.1397, -37.4423, -15.2455
3.772, 6, 12.7141, 15.0927, 28.7732, 20.9612, -37.5711, -15.0997
3.776, 6, 12.6441, 15.0935, 28.836, 20.7836, -37.7001, -14.9549
3.78, 6, 12.574, 15.0945, 28.8985, 20.6069, -37.8294, -14.811
3.784, 6, 12.5039, 15.0958, 28.9607, 20.4312, -37.959, -14.6681
3.788, 6, 12.4337, 15.0974, 29.0226, 20.2564, -38.0888, -14.5262
3.792, 6, 12.3634, 15.0993, 29.0843, 20.0826, -38.2189, -14.3852
3.796, 6, 12.293, 15.1015, 29.1456, 19.9097, -38.3493, -14.2451
3.8, 7, 12.2225, 15.1039, 29.2067, 19.7377, -38.4799, -14.106
3.804, 7, 12.152, 15.1067, 29.2675, 19.5666, -38.6107, -13.9678
3.808, 7, 12.0814, 15.1097, 29.328, 19.3964, -38.7418, -13.8306
3.812, 7, 12.0107, 15.113, 29.3882, 19.2271, -38.8732, -13.6942
3.816, 7, 11.94, 15.1165, 29.4481, 19.0587, -39.0048, -13.5588
3.82, 7, 11.8691, 15.1204, 29.5077, 18.8911, -39.1366, -13.4242
3.824, 7, 11.7982, 15.1245, 29.567, 18.7245, -39.2687, -13.2906
3.828, 7, 11.7273, 15.1289, 29.626, 18.5587, -39.401, -13.1578
3.832, 7, 11.6562, 15.1336, 29.6847, 18.3938, -39.5335, -13.0259
3.836, 7, 11.5851, 15.1386, 29.7432, 18.2297, -39.6663, -12.8949
3.84, 7, 11.5139, 15.1438, 29.8013, 18.0665, -39.7993, -12.7648
3.844, 7, 11.4427, 15.1494, 29.8592, 17.9041, -39.9326, -12.6355
3.848, 7, 11.3713, 15.1552, 29.9167, 17.7425, -40.066, -12.5071
3.852, 7, 11.2999, 15.1613, 29.974, 17.5818, -40.1997, -12.3795
3.856, 7, 11.2285, 15.1677, 30.031, 17.4219, -40.3336, -12.2528
3.86, 7, 11.1569, 15.1743, 30.0877, 17.2628, -40.4678, -12.1269
3.864, 7, 11.0853, 15.1813, 30.1441, 17.1045, -40.6021, -12.0018
3.868, 7, 11.0137, 15.1885, 30.2001, 16.947, -40.7367, -11.8776
3.872, 7, 10.9419, 15.196, 30.2559, 16.7903, -40.8714, -11.7541
3.876, 7, 10.8701, 15.2038, 30.3114, 16.6344, -41.0064, -11.6315
3.88, 7, 10.7982, 15.2119, 30.3666, 16.4793, -41.1416, -11.5097
3.884, 7, 10.7263, 15.2203, 30.4215, 16.325, -41.277, -11.3887
3.888, 7, 10.6542, 15.2289, 30.4762, 16.1714, -41.4126, -11.2684
3.892, 7, 10.5822, 15.2378, 30.5305, 16.0186, -41.5484, -11.149
3.896, 7, 10.51, 15.247, 30.5845, 15.8666, -41.6844, -11.0303
3.9, 7, 10.4378, 15.2565, 30.6382, 15.7153, -41.8206, -10.9124
3.904, 7, 10.3655, 15.2663, 30.6916, 15.5648, -41.957, -10.7953
3.908, 7, 10.2932, 15.2763, 30.7447, 15.415, -42.0936, -10.6789
3.912, 7, 10.2208, 15.2866, 30.7976, 15.2659, -42.2304, -10.5633
3.916, 7, 10.1483, 15.2972, 30.8501, 15.1176, -42.3673, -10.4485
3.92, 7, 10.0758, 15.3081, 30.9023, 14.97, -42.5045, -10.3344
3.924, 7, 10.0032, 15.3193, 30.9543, 14.8231, -42.6418, -10.221
3.928, 7, 9.93049, 15.3308, 31.0059, 14.6769, -42.7794, -10.1083
3.932, 7, 9.85777, 15.3425, 31.0572, 14.5314, -42.9171, -9.99643
3.936, 7, 9.78498, 15.3545, 31.1083, 14.3867, -43.055, -9.88523
3.94, 7, 9.71213, 15.3668, 31.159, 14.2426, -43.193, -9.77476
3.944, 7, 9.63921, 15.3794, 31.2094, 14.0992, -43.3313, -9.66499
3.948, 7, 9.56624, 15.3923, 31.2596, 13.9565, -43.4697, -9.55594
3.952, 7, 9.4932, 15.4054, 31.3094, 13.8145, -43.6083, -9.44758
3.956, 7, 9.42011, 15.4189, 31.3589, 13.6732, -43.747, -9.33992
3.96, 7, 9.34695, 15.4326, 31.4081, 13.5325, -43.886, -9.23294
3.964, 7, 9.27374, 15.4466, 31.4571, 13.3925, -44.0251, -9.12666
3.968, 7, 9.20046, 15.4608, 31.5057, 13.2532, -44.1643, -9.02105
3.972, 7, 9.12713, 15.4754, 31.554, 13.1145, -44.3037, -8.91611
3.976, 7, 9.05374, 15.4902, 31.602, 12.9764, -44.4433, -8.81185
3.98, 8, 8.9803, 15.5053, 31.6497, 12.839, -44.5831, -8.70825
3.984, 8, 8.90679, 15.5207, 31.6972, 12.7023, -44.723, -8.6053
3.988, 8, 8.83323, 15.5364, 31.7443, 12.5662, -44.863, -8.50301
3.992, 8, 8.75961, 15.5524, 31.7911, 12.4307, -45.0033, -8.40138
3.996, 8, 8.68593, 15.5686, 31.8376, 12.2958, -45.1436, -8.30038
3.999, 8, 8.6122, 15.5851, 31.8838, 12.1615, -45.2841, -8.20002
4.004, 8, 8.53842, 15.6019, 31.9297, 12.0279, -45.4248, -8.1003
4.008, 8, 8.46457, 15.619, 31.9753, 11.8949, -45.5656, -8.00121
4.012, 8, 8.39068, 15.6364, 32.0205, 11.7624, -45.7066, -7.90275
4.016, 8, 8.31673, 15.654, 32.0655, 11.6306, -45.8477, -7.8049
4.02, 8, 8.24273, 15.672, 32.1102, 11.4994, -45.9889, -7.70767
4.024, 8, 8.16868, 15.6902, 32.1546, 11.3688, -46.1303, -7.61105
4.028, 8, 8.09457, 15.7086, 32.1986, 11.2387, -46.2719, -7.51504
4.032, 8, 8.02041, 15.7274, 32.2424, 11.1092, -46.4135, -7.41963
4.036, 8, 7.9462, 15.7464, 32.2858, 10.9804, -46.5553, -7.32482
4.04, 8, 7.87193, 15.7658, 32.329, 10.852, -46.6973, -7.2306
4.044, 8, 7.79762, 15.7854, 32.3718, 10.7243, -46.8393, -7.13697
4.048, 8, 7.72326, 15.8053, 32.4143, 10.5971, -46.9815, -7.04393
4.052, 8, 7.64884, 15.8254, 32.4565, 10.4705, -47.1238, -6.95147
4.056, 8, 7.57438, 15.8458, 32.4985, 10.3445, -47.2663, -6.85958
4.06, 8, 7.49987, 15.8666, 32.5401, 10.219, -47.4088, -6.76827
4.064, 8, 7.42531, 15.8876, 32.5813, 10.094, -47.5515, -6.67753
4.068, 8, 7.3507, 15.9088, 32.6223, 9.96959, -47.6943, -6.58735
4.072, 8, 7.27604, 15.9304, 32.663, 9.84572, -47.8372, -6.49773
4.076, 8, 7.20133, 15.9522, 32.7034, 9.72239, -47.9803, -6.40867
4.08, 8, 7.12659, 15.9743, 32.7434, 9.59959, -48.1235, -6.32016
4.084, 8, 7.05179, 15.9967, 32.7832, 9.47732, -48.2667, -6.2322
4.088, 8, 6.97695, 16.0194, 32.8226, 9.35557, -48.4101, -6.14478
4.092, 8, 6.90207, 16.0423, 32.8617, 9.23434, -48.5536, -6.0579
4.096, 8, 6.82714, 16.0655, 32.9005, 9.11363, -48.6972, -5.97155
4.1, 8, 6.75217, 16.089, 32.939, 8.99344, -48.8409, -5.88574
4.104, 8, 6.67715, 16.1128, 32.9772, 8.87375, -48.9848, -5.80046
4.108, 8, 6.60209, 16.1368, 33.0151, 8.75457, -49.1287, -5.71569
4.112, 8, 6.52699, 16.1611, 33.0527, 8.63589, -49.2727, -5.63145
4.116, 8, 6.45184, 16.1857, 33.0899, 8.5177, -49.4169, -5.54773
4.12, 8, 6.37665, 16.2106, 33.1269, 8.40001, -49.5611, -5.46452
4.124, 8, 6.30142, 16.2357, 33.1635, 8.28282, -49.7054, -5.38182
4.128, 8, 6.22615, 16.2611, 33.1998, 8.16611, -49.8498, -5.29962
4.132, 8, 6.15084, 16.2868, 33.2358, 8.04988, -49.9944, -5.21793
4.136, 8, 6.07549, 16.3128, 33.2715, 7.93413, -50.139, -5.13673
4.14, 8, 6.0001, 16.3391, 33.3069, 7.81886, -50.2837, -5.05603
4.144, 8, 5.92467, 16.3656, 33.3419, 7.70406, -50.4285, -4.97582
4.148, 8, 5.84921, 16.3924, 33.3767, 7.58973, -50.5734, -4.8961
4.152, 8, 5.7737, 16.4194, 33.4111, 7.47587, -50.7183, -4.81686
4.156, 8, 5.69816, 16.4468, 33.4452, 7.36247, -50.8634, -4.73811
4.16, 8, 5.62258, 16.4744, 33.479, 7.24953, -51.0085, -4.65983
4.164, 9, 5.54697, 16.5023, 33.5125, 7.13705, -51.1537, -4.58202
4.168, 9, 5.47132, 16.5304, 33.5456, 7.02502, -51.299, -4.50468
4.172, 9, 5.39563, 16.5589, 33.5784, 6.91343, -51.4444, -4.42782
4.176, 9, 5.31991, 16.5876, 33.611, 6.8023, -51.5899, -4.35141
4.18, 9, 5.24416, 16.6166, 33.6432, 6.6916, -51.7354, -4.27547
4.184, 9, 5.16837, 16.6458, 33.675, 6.58135, -51.881, -4.19998
4.188, 9, 5.09254, 16.6754, 33.7066, 6.47153, -52.0267, -4.12495
4.192, 9, 5.01669, 16.7052, 33.7378, 6.36215, -52.1725, -4.05037
4.196, 9, 4.9408, 16.7352, 33.7687, 6.25319, -52.3183, -3.97623
4.2, 9, 4.86488, 16.7656, 33.7993, 6.14467, -52.4642, -3.90254
4.204, 9, 4.78893, 16.7962, 33.8296, 6.03656, -52.6101, -3.82929
4.208, 9, 4.71295, 16.8271, 33.8596, 5.92888, -52.7562, -3.75648
4.212, 9, 4.63694, 16.8582, 33.8892, 5.82162, -52.9022, -3.6841
4.216, 9, 4.5609, 16.8897, 33.9185, 5.71477, -53.0484, -3.61215
4.22, 9, 4.48483, 16.9213, 33.9475, 5.60834, -53.1946, -3.54064
4.224, 9, 4.40873, 16.9533, 33.9762, 5.50231, -53.3409, -3.46955
4.228, 9, 4.33261, 16.9855, 34.0045, 5.39669, -53.4872, -3.39888
4.232, 9, 4.25645, 17.018, 34.0325, 5.29148, -53.6336, -3.32863
4.236, 9, 4.18027, 17.0508, 34.0602, 5.18667, -53.78, -3.2588
4.24, 9, 4.10407, 17.0838, 34.0876, 5.08225, -53.9265, -3.18939
4.244, 9, 4.02783, 17.1171, 34.1147, 4.97823, -54.073, -3.12038
4.248, 9, 3.95157, 17.1507, 34.1414, 4.87461, -54.2196, -3.05179
4.252, 9, 3.87529, 17.1845, 34.1678, 4.77137, -54.3662, -2.9836
4.256, 9, 3.79898, 17.2186, 34.1939, 4.66853, -54.5129, -2.91581
4.26, 9, 3.72264, 17.253, 34.2197, 4.56606, -54.6596, -2.84842
4.264, 9, 3.64629, 17.2876, 34.2452, 4.46398, -54.8064, -2.78143
4.268, 9, 3.56991, 17.3224, 34.2703, 4.36228, -54.9532, -2.71483
4.272, 9, 3.49351, 17.3576, 34.2951, 4.26095, -55.1001, -2.64862
4.276, 9, 3.41709, 17.393, 34.3196, 4.16, -55.2469, -2.5828
4.28, 9, 3.34065, 17.4286, 34.3437, 4.05942, -55.3939, -2.51736
4.284, 9, 3.26418, 17.4646, 34.3676, 3.9592, -55.5408, -2.45231
4.288, 9, 3.1877, 17.5007, 34.3911, 3.85936, -55.6878, -2.38764
4.292, 9, 3.1112, 17.5372, 34.4143, 3.75987, -55.8349, -2.32335
4.296, 9, 3.03468, 17.574, 34.4371, 3.66075, -55.9819, -2.25943
4.3, 9, 2.95816, 17.6111, 34.4596, 3.56199, -56.129, -2.19588
4.304, 9, 2.88164, 17.6485, 34.4817, 3.46359, -56.2761, -2.13272
4.308, 9, 2.80513, 17.6864, 34.5034, 3.36556, -56.4233, -2.06993
4.312, 9, 2.72864, 17.7248, 34.5246, 3.2679, -56.5704, -2.00753
4.316, 9, 2.65218, 17.7638, 34.5452, 3.17063, -56.7176, -1.94552
4.32, 9, 2.57575, 17.8033, 34.5653, 3.07377, -56.8647, -1.88393
4.324, 9, 2.49937, 17.8435, 34.5846, 2.97732, -57.0118, -1.82276
4.328, 9, 2.42305, 17.8845, 34.603, 2.88133, -57.1589, -1.76204
4.332, 9, 2.34679, 17.9262, 34.6206, 2.78581, -57.306, -1.7018
4.336, 9, 2.27061, 17.9689, 34.637, 2.69081, -57.4529, -1.64204
4.34, 9, 2.1945, 18.0125, 34.6522, 2.59634, -57.5998, -1.58281
4.344, 9, 2.11849, 18.0571, 34.666, 2.50244, -57.7465, -1.52412
4.348, 9, 2.04257, 18.1029, 34.6784, 2.40915, -57.8931, -1.466
4.352, 9, 1.96675, 18.1498, 34.689, 2.3165, -58.0395, -1.40846
4.356, 9, 1.89105, 18.1979, 34.6979, 2.22451, -58.1856, -1.35153
4.36, 9, 1.81547, 18.2473, 34.705, 2.13321, -58.3315, -1.29522
4.364, 9, 1.74004, 18.2978, 34.71, 2.0426, -58.4771, -1.23953
4.368, 9, 1.66476, 18.3497, 34.713, 1.95271, -58.6224, -1.18446
4.372, 9, 1.58963, 18.4028, 34.7139, 1.86354, -58.7673, -1.13002
4.376, 9, 1.51467, 18.4572, 34.7128, 1.77508, -58.9118, -1.07618
4.38, 9, 1.43985, 18.5129, 34.7095, 1.68731, -59.056, -1.02293
4.384, 9, 1.36515, 18.5699, 34.7043, 1.60021, -59.1997, -0.970242
4.388, 9, 1.29054, 18.6281, 34.6971, 1.51375, -59.3431, -0.918088
4.392, 9, 1.21601, 18.6875, 34.688, 1.42789, -59.4861, -0.866427
4.396, 9, 1.14152, 18.7482, 34.6772, 1.34257, -59.6287, -0.815219
4.4, 9, 1.06706, 18.8099, 34.6648, 1.25775, -59.771, -0.764416
4.404, 9, 0.99264, 18.8727, 34.6509, 1.17337, -59.913, -0.713968
4.408, 9, 0.91827, 18.9364, 34.6357, 1.08935, -60.0548, -0.663826
4.412, 9, 0.843961, 19.001, 34.6194, 1.00563, -60.1964, -0.613938
4.416, 9, 0.769731, 19.0664, 34.6021, 0.922164, -60.3379, -0.564255
4.42, 9, 0.69559, 19.1326, 34.5839, 0.838875, -60.4793, -0.514731
4.424, 9, 0.621545, 19.1993, 34.565, 0.75571, -60.6206, -0.465322
4.428, 9, 0.547591, 19.2666, 34.5456, 0.672618, -60.762, -0.415988
4.432, 9, 0.473719, 19.3345, 34.5257, 0.589553, -60.9034, -0.366695
4.436, 9, 0.399912, 19.4027, 34.5054, 0.506476, -61.0449, -0.317415
4.44, 9, 0.326146, 19.4713, 34.4849, 0.423357, -61.1866, -0.268124
4.444, 9, 0.2524, 19.5402, 34.4641, 0.340173, -61.3284, -0.218804
4.448, 9, 0.178656, 19.6094, 34.4432, 0.256907, -61.4703, -0.169443
4.452, 9, 0.104909, 19.6788, 34.4221, 0.173548, -61.6124, -0.120033
4.456, 9, 0.0311637, 19.7485, 34.4009, 0.0900943, -61.7547, -0.0705715
4.46, 9, -0.0425616, 19.8184, 34.3795, 0.00654755, -61.8972, -0.0210603
4.464, 9, -0.116239, 19.8887, 34.3579, -0.0770815, -62.0398, 0.0284936
4.468, 9, -0.189832, 19.9592, 34.3362, -0.160774, -62.1826, 0.0780776
4.472, 9, -0.263303, 20.0302, 34.314, -0.244504, -62.3254, 0.127673
4.476, 9, -0.33662, 20.1015, 34.2916, -0.328236, -62.4684, 0.177256
4.48, 9, -0.409761, 20.1733, 34.2686, -0.411923, -62.6113, 0.226796
4.484, 9, -0.482723, 20.2456, 34.245, -0.495512, -62.7542, 0.276256
4.488, 9, -0.555506, 20.3185, 34.2206, -0.57894, -62.897, 0.325593
4.492, 9, -0.628116, 20.3921, 34.1954, -0.662137, -63.0396, 0.37476
4.496, 9, -0.700557, 20.4663, 34.1691, -0.745025, -63.1819, 0.423704
4.5, 11, -0.772826, 20.5413, 34.1417, -0.827519, -63.3238, 0.47237
4.504, 11, -0.844901, 20.6171, 34.1128, -0.909533, -63.4653, 0.520698
4.508, 11, -0.91674, 20.6938, 34.0825, -0.990978, -63.6061, 0.568631
4.512, 11, -0.988293, 20.7714, 34.0505, -1.07177, -63.7463, 0.616112
4.516, 11, -1.05951, 20.8499, 34.0168, -1.15182, -63.8857, 0.663084
4.52, 11, -1.13034, 20.9293, 33.9812, -1.23106, -64.0242, 0.709499
4.524, 11, -1.20076, 21.0097, 33.9437, -1.30941, -64.1618, 0.75531
4.528, 11, -1.27074, 21.091, 33.9041, -1.38683, -64.2983, 0.800481
4.532, 11, -1.34028, 21.1734, 33.8626, -1.46326, -64.4337, 0.844983
4.536, 11, -1.40938, 21.2567, 33.819, -1.53868, -64.5681, 0.888797
4.54, 11, -1.47804, 21.3409, 33.7735, -1.61307, -64.7013, 0.931915
4.544, 11, -1.54626, 21.4261, 33.726, -1.68643, -64.8334, 0.974339
4.548, 11, -1.61405, 21.5123, 33.6767, -1.75879, -64.9644, 1.01609
4.552, 11, -1.68142, 21.5992, 33.6257, -1.83018, -65.0943, 1.05718
4.556, 11, -1.74838, 21.687, 33.5731, -1.90065, -65.2232, 1.09764
4.56, 11, -1.81497, 21.7756, 33.5189, -1.97025, -65.3512, 1.13753
4.564, 11, -1.88122, 21.8648, 33.4634, -2.03905, -65.4783, 1.17687
4.568, 11, -1.94717, 21.9547, 33.4067, -2.10712, -65.6046, 1.21571
4.572, 11, -2.01285, 22.0451, 33.349, -2.17452, -65.7303, 1.25411
4.576, 11, -2.07824, 22.136, 33.2902, -2.24133, -65.8553, 1.2921
4.58, 11, -2.14332, 22.2273, 33.2307, -2.30762, -65.9798, 1.32974
4.584, 11, -2.20808, 22.3191, 33.1704, -2.37343, -66.1039, 1.36706
4.588, 11, -2.2725, 22.4111, 33.1095, -2.43883, -66.2275, 1.40409
4.592, 11, -2.33657, 22.5034, 33.048, -2.50387, -66.3508, 1.44088
4.596, 11, -2.40031, 22.596, 32.9861, -2.56856, -66.4739, 1.47744
4.6, 11, -2.46377, 22.6888, 32.9237, -2.63295, -66.5966, 1.51378
4.604, 11, -2.52699, 22.7817, 32.8609, -2.69704, -66.7191, 1.54994
4.608, 11, -2.59, 22.8748, 32.7977, -2.76085, -66.8414, 1.5859
4.612, 11, -2.65285, 22.968, 32.7341, -2.8244, -66.9635, 1.62169
4.616, 11, -2.71556, 23.0613, 32.6702, -2.88768, -67.0854, 1.6573
4.62, 11, -2.77813, 23.1547, 32.606, -2.9507, -67.207, 1.69275
4.624, 11, -2.84059, 23.2482, 32.5414, -3.01346, -67.3285, 1.72802
4.628, 11, -2.90293, 23.3418, 32.4765, -3.07598, -67.4497, 1.76314
4.632, 11, -2.96517, 23.4355, 32.4113, -3.13824, -67.5708, 1.7981
4.636, 11, -3.0273, 23.5293, 32.3457, -3.20026, -67.6916, 1.83289
4.64, 11, -3.08932, 23.6232, 32.2799, -3.26203, -67.8122, 1.86753
4.644, 11, -3.15124, 23.7172, 32.2137, -3.32355, -67.9326, 1.90202
4.648, 11, -3.21306, 23.8113, 32.1471, -3.38483, -68.0529, 1.93636
4.652, 11, -3.27477, 23.9054, 32.0803, -3.44587, -68.1729, 1.97054
4.656, 11, -3.33639, 23.9997, 32.0131, -3.50667, -68.2927, 2.00458
4.66, 11, -3.3979, 24.094, 31.9456, -3.56723, -68.4123, 2.03847
4.664, 11, -3.45931, 24.1884, 31.8778, -3.62755, -68.5317, 2.07221
4.668, 11, -3.52062, 24.2829, 31.8097, -3.68763, -68.6508, 2.10581
4.672, 11, -3.58183, 24.3775, 31.7412, -3.74747, -68.7698, 2.13927
4.676, 11, -3.64293, 24.4722, 31.6724, -3.80708, -68.8885, 2.17258
4.68, 12, -3.70394, 24.5669, 31.6033, -3.86645, -69.0071, 2.20576
4.684, 12, -3.76484, 24.6618, 31.5339, -3.92559, -69.1254, 2.2388
4.688, 12, -3.82564, 24.7567, 31.4642, -3.9845, -69.2435, 2.27171
4.692, 12, -3.88634, 24.8517, 31.3941, -4.04317, -69.3614, 2.30447
4.696, 12, -3.94694, 24.9468, 31.3237, -4.10161, -69.4791, 2.33711
4.7, 12, -4.00744, 25.042, 31.253, -4.15982, -69.5965, 2.36962
4.704, 12, -4.06783, 25.1372, 31.1819, -4.2178, -69.7138, 2.40199
4.708, 12, -4.12813, 25.2325, 31.1105, -4.27555, -69.8308, 2.43424
4.712, 12, -4.18832, 25.3279, 31.0388, -4.33307, -69.9476, 2.46636
4.716, 12, -4.2484, 25.4234, 30.9668, -4.39037, -70.0642, 2.49835
4.72, 12, -4.30839, 25.519, 30.8945, -4.44744, -70.1805, 2.53022
4.724, 12, -4.36827, 25.6146, 30.8218, -4.50428, -70.2966, 2.56197
4.728, 12, -4.42804, 25.7103, 30.7488, -4.56091, -70.4125, 2.5936
4.732, 12, -4.48772, 25.8061, 30.6755, -4.61731, -70.5282, 2.62511
4.736, 12, -4.54729, 25.902, 30.6019, -4.67348, -70.6437, 2.6565
4.74, 12, -4.60676, 25.9979, 30.5279, -4.72944, -70.7589, 2.68778
4.744, 12, -4.66613, 26.0939, 30.4536, -4.78517, -70.8739, 2.71894
4.748, 12, -4.7254, 26.19, 30.379, -4.84069, -70.9887, 2.74999
4.752, 12, -4.78456, 26.2862, 30.3041, -4.89599, -71.1032, 2.78093
4.756, 12, -4.84362, 26.3824, 30.2289, -4.95107, -71.2176, 2.81175
4.76, 12, -4.90258, 26.4787, 30.1533, -5.00593, -71.3316, 2.84247
4.764, 12, -4.96143, 26.5751, 30.0774, -5.06058, -71.4455, 2.87308
4.768, 12, -5.02018, 26.6716, 30.0012, -5.11502, -71.5591, 2.90359
4.772, 12, -5.07883, 26.7681, 29.9247, -5.16924, -71.6725, 2.93399
4.776, 12, -5.13737, 26.8647, 29.8478, -5.22325, -71.7857, 2.96429
4.78, 12, -5.19581, 26.9613, 29.7706, -5.27705, -71.8987, 2.99449
4.784, 12, -5.25415, 27.0581, 29.6931, -5.33063, -72.0114, 3.02459
4.788, 12, -5.31238, 27.1549, 29.6153, -5.38401, -72.1238, 3.05459
4.792, 12, -5.37051, 27.2517, 29.5372, -5.43718, -72.2361, 3.08449
4.796, 12, -5.42854, 27.3487, 29.4587, -5.49014, -72.3481, 3.1143
4.8, 12, -5.48646, 27.4457, 29.38, -5.54289, -72.4599, 3.14401
4.804, 12, -5.54429, 27.5427, 29.3009, -5.59543, -72.5714, 3.17363
4.808, 12, -5.602, 27.6399, 29.2214, -5.64777, -72.6827, 3.20316
4.812, 12, -5.65962, 27.7371, 29.1417, -5.6999, -72.7938, 3.2326
4.816, 12, -5.71713, 27.8343, 29.0616, -5.75183, -72.9046, 3.26195
4.82, 12, -5.77454, 27.9317, 28.9813, -5.80356, -73.0152, 3.29121
4.824, 12, -5.83185, 28.0291, 28.9006, -5.85507, -73.1256, 3.32039
4.828, 12, -5.88905, 28.1265, 28.8195, -5.90639, -73.2357, 3.34948
4.832, 12, -5.94615, 28.224, 28.7382, -5.95751, -73.3456, 3.37849
4.836, 12, -6.00315, 28.3216, 28.6565, -6.00842, -73.4552, 3.40741
4.84, 12, -6.06004, 28.4193, 28.5746, -6.05913, -73.5646, 3.43625
4.844, 12, -6.11683, 28.517, 28.4923, -6.10965, -73.6738, 3.46502
4.848, 12, -6.17352, 28.6147, 28.4096, -6.15996, -73.7827, 3.4937
4.852, 12, -6.2301, 28.7126, 28.3267, -6.21007, -73.8914, 3.52231
4.856, 12, -6.28658, 28.8105, 28.2434, -6.25999, -73.9998, 3.55084
4.86, 12, -6.34296, 28.9084, 28.1599, -6.30971, -74.108, 3.5793
4.864, 13, -6.39923, 29.0065, 28.076, -6.35923, -74.216, 3.60768
4.868, 13, -6.4554, 29.1045, 27.9917, -6.40856, -74.3237, 3.63599
4.872, 13, -6.51147, 29.2027, 27.9072, -6.45768, -74.4311, 3.66423
4.876, 13, -6.56743, 29.3009, 27.8223, -6.50662, -74.5383, 3.6924
4.88, 13, -6.62329, 29.3991, 27.7371, -6.55536, -74.6453, 3.7205
4.884, 13, -6.67905, 29.4975, 27.6516, -6.6039, -74.752, 3.74853
4.888, 13, -6.73471, 29.5958, 27.5658, -6.65225, -74.8585, 3.7765
4.892, 13, -6.79026, 29.6943, 27.4797, -6.70041, -74.9648, 3.8044
4.896, 13, -6.84571, 29.7928, 27.3932, -6.74838, -75.0707, 3.83223
4.9, 13, -6.90105, 29.8913, 27.3064, -6.79615, -75.1765, 3.86
4.904, 13, -6.95628, 29.9899, 27.2193, -6.84373, -75.282, 3.88771
4.908, 13, -7.01142, 30.0886, 27.1319, -6.89113, -75.3872, 3.91536
4.912, 13, -7.06645, 30.1873, 27.0441, -6.93833, -75.4922, 3.94295
4.916, 13, -7.12137, 30.2861, 26.956, -6.98534, -75.597, 3.97048
4.92, 13, -7.1762, 30.3849, 26.8677, -7.03216, -75.7014, 3.99796
4.924, 13, -7.23092, 30.4838, 26.7789, -7.07879, -75.8057, 4.02537
4.928, 13, -7.28554, 30.5828, 26.6899, -7.12524, -75.9097, 4.05274
4.932, 13, -7.34005, 30.6818, 26.6006, -7.17149, -76.0134, 4.08004
4.936, 13, -7.39446, 30.7809, 26.5109, -7.21756, -76.1169, 4.1073
4.94, 13, -7.44877, 30.88, 26.4209, -7.26344, -76.2201, 4.1345
4.944, 13, -7.50297, 30.9792, 26.3306, -7.30914, -76.3231, 4.16165
4.948, 13, -7.55708, 31.0784, 26.2399, -7.35465, -76.4258, 4.18876
4.952, 13, -7.61107, 31.1777, 26.149, -7.39997, -76.5283, 4.21581
4.956, 13, -7.66497, 31.277, 26.0577, -7.44511, -76.6305, 4.24281
4.96, 13, -7.71876, 31.3764, 25.9661, -7.49006, -76.7325, 4.26977
4.964, 13, -7.77245, 31.4758, 25.8741, -7.53483, -76.8342, 4.29669
4.968, 13, -7.82603, 31.5753, 25.7819, -7.57941, -76.9357, 4.32355
4.972, 13, -7.87951, 31.6749, 25.6893, -7.62382, -77.0369, 4.35038
4.976, 13, -7.93289, 31.7745, 25.5964, -7.66803, -77.1378, 4.37716
4.98, 13, -7.98616, 31.8741, 25.5032, -7.71207, -77.2385, 4.4039
4.984, 13, -8.03933, 31.9739, 25.4097, -7.75592, -77.339, 4.4306
4.988, 13, -8.0924, 32.0736, 25.3158, -7.79959, -77.4391, 4.45726
4.992, 13, -8.14536, 32.1734, 25.2217, -7.84308, -77.539, 4.48388
4.996, 13, -8.19822, 32.2733, 25.1272, -7.88639, -77.6387, 4.51047
5, 13, -8.25098, 32.3732, 25.0323, -7.92952, -77.7381, 4.53702
5.004, 13, -8.30364, 32.4732, 24.9372, -7.97247, -77.8372, 4.56353
5.008, 13, -8.35619, 32.5732, 24.8417, -8.01523, -77.9361, 4.59001
5.012, 13, -8.40864, 32.6733, 24.7459, -8.05782, -78.0348, 4.61645
5.016, 13, -8.46099, 32.7734, 24.6498, -8.10023, -78.1331, 4.64287
5.02, 13, -8.51323, 32.8736, 24.5534, -8.14246, -78.2312, 4.66925
5.024, 13, -8.56537, 32.9739, 24.4566, -8.18451, -78.3291, 4.6956
5.028, 13, -8.61741, 33.0741, 24.3595, -8.22638, -78.4266, 4.72192
5.032, 13, -8.66935, 33.1745, 24.2621, -8.26807, -78.524, 4.74821
5.036, 13, -8.72118, 33.2749, 24.1644, -8.30959, -78.621, 4.77447
5.04, 13, -8.77291, 33.3753, 24.0663, -8.35093, -78.7178, 4.80071
5.044, 13, -8.82453, 33.4758, 23.968, -8.39209, -78.8144, 4.82692
5.048, 14, -8.87606, 33.5763, 23.8693, -8.43307, -78.9106, 4.8531
5.052, 14, -8.92748, 33.6769, 23.7702, -8.47388, -79.0067, 4.87926
5.056, 14, -8.9788, 33.7776, 23.6709, -8.51452, -79.1024, 4.9054
5.06, 14, -9.03002, 33.8783, 23.5712, -8.55497, -79.1979, 4.93152
5.064, 14, -9.08113, 33.979, 23.4712, -8.59525, -79.2931, 4.95761
5.068, 14, -9.13215, 34.0798, 23.3709, -8.63536, -79.3881, 4.98369
5.072, 14, -9.18306, 34.1807, 23.2702, -8.67529, -79.4828, 5.00974
5.076, 14, -9.23386, 34.2815, 23.1693, -8.71505, -79.5772, 5.03578
5.08, 14, -9.28457, 34.3825, 23.068, -8.75463, -79.6714, 5.06179
5.084, 14, -9.33517, 34.4835, 22.9663, -8.79404, -79.7653, 5.08779
5.088, 14, -9.38567, 34.5845, 22.8644, -8.83327, -79.8589, 5.11378
5.092, 14, -9.43606, 34.6856, 22.7621, -8.87234, -79.9523, 5.13975
5.096, 14, -9.48636, 34.7868, 22.6595, -8.91122, -80.0454, 5.1657
5.1, 14, -9.53655, 34.888, 22.5566, -8.94994, -80.1382, 5.19164
5.104, 14, -9.58665, 34.9892, 22.4533, -8.98848, -80.2308, 5.21757
5.108, 14, -9.63664, 35.0905, 22.3498, -9.02685, -80.3231, 5.24349
5.112, 14, -9.68653, 35.1919, 22.2459, -9.06505, -80.4151, 5.26939
5.116, 14, -9.73632, 35.2933, 22.1416, -9.10307, -80.5069, 5.29529
5.12, 14, -9.786, 35.3947, 22.0371, -9.14092, -80.5984, 5.32117
5.124, 14, -9.83559, 35.4962, 21.9322, -9.1786, -80.6896, 5.34705
5.128, 14, -9.88507, 35.5978, 21.827, -9.21611, -80.7806, 5.37292
5.132, 14, -9.93446, 35.6994, 21.7214, -9.25345, -80.8713, 5.39878
5.136, 14, -9.98374, 35.801, 21.6155, -9.29062, -80.9617, 5.42464
5.14, 14, -10.0329, 35.9027, 21.5093, -9.32762, -81.0519, 5.45049
5.144, 14, -10.082, 36.0045, 21.4028, -9.36444, -81.1418, 5.47634
5.148, 14, -10.131, 36.1063, 21.296, -9.4011, -81.2314, 5.50218
5.152, 14, -10.1799, 36.2081, 21.1888, -9.43758, -81.3207, 5.52802
5.156, 14, -10.2286, 36.31, 21.0813, -9.4739, -81.4098, 5.55385
5.16, 14, -10.2773, 36.412, 20.9734, -9.51004, -81.4986, 5.57969
5.164, 14, -10.3259, 36.514, 20.8653, -9.54602, -81.5872, 5.60552
5.168, 14, -10.3743, 36.616, 20.7567, -9.58183, -81.6754, 5.63136
5.172, 14, -10.4227, 36.7181, 20.6479, -9.61746, -81.7634, 5.6572
5.176, 14, -10.471, 36.8203, 20.5388, -9.65293, -81.8512, 5.68303
5.18, 14, -10.5192, 36.9225, 20.4293, -9.68823, -81.9386, 5.70887
5.184, 14, -10.5672, 37.0247, 20.3194, -9.72336, -82.0258, 5.73472
5.188, 14, -10.6152, 37.1271, 20.2093, -9.75833, -82.1127, 5.76056
5.192, 14, -10.6631, 37.2294, 20.0988, -9.79312, -82.1994, 5.78641
5.196, 14, -10.7109, 37.3318, 19.988, -9.82775, -82.2857, 5.81227
5.2, 14, -10.7585, 37.4343, 19.8768, -9.8622, -82.3718, 5.83813
5.204, 14, -10.8061, 37.5368, 19.7653, -9.89649, -82.4576, 5.864
5.208, 14, -10.8536, 37.6394, 19.6535, -9.93062, -82.5432, 5.88988
5.212, 14, -10.9009, 37.742, 19.5414, -9.96457, -82.6284, 5.91577
5.216, 14, -10.9482, 37.8447, 19.4289, -9.99836, -82.7134, 5.94166
5.22, 14, -10.9954, 37.9474, 19.316, -10.032, -82.7982, 5.96757
5.224, 14, -11.0425, 38.0502, 19.2029, -10.0654, -82.8826, 5.99348
5.228, 15, -11.0894, 38.153, 19.0894, -10.0987, -82.9668, 6.01941
5.232, 15, -11.1363, 38.2559, 18.9756, -10.1318, -83.0507, 6.04535
5.236, 15, -11.1831, 38.3588, 18.8614, -10.1648, -83.1343, 6.0713
5.24, 15, -11.2298, 38.4618, 18.7469, -10.1976, -83.2177, 6.09726
5.244, 15, -11.2763, 38.5649, 18.6321, -10.2302, -83.3008, 6.12324
5.248, 15, -11.3228, 38.6679, 18.5169, -10.2627, -83.3836, 6.14923
5.252, 15, -11.3692, 38.7711, 18.4014, -10.2949, -83.4661, 6.17524
5.256, 15, -11.4155, 38.8743, 18.2856, -10.3271, -83.5483, 6.20126
5.26, 15, -11.4617, 38.9776, 18.1694, -10.359, -83.6303, 6.2273
5.264, 15, -11.5078, 39.0809, 18.0529, -10.3908, -83.712, 6.25335
5.268, 15, -11.5538, 39.1842, 17.936, -10.4224, -83.7934, 6.27943
5.272, 15, -11.5996, 39.2877, 17.8188, -10.4539, -83.8746, 6.30552
5.276, 15, -11.6454, 39.3911, 17.7013, -10.4852, -83.9554, 6.33163
5.28, 15, -11.6911, 39.4947, 17.5834, -10.5163, -84.036, 6.35777
5.284, 15, -11.7367, 39.5983, 17.4652, -10.5473, -84.1163, 6.38392
5.288, 15, -11.7822, 39.7019, 17.3466, -10.5781, -84.1964, 6.41009
5.292, 15, -11.8276, 39.8056, 17.2277, -10.6087, -84.2761, 6.43629
5.296, 15, -11.8729, 39.9094, 17.1085, -10.6392, -84.3556, 6.4625
5.3, 15, -11.9181, 40.0132, 16.9889, -10.6695, -84.4348, 6.48874
5.304, 15, -11.9632, 40.1171, 16.869, -10.6996, -84.5137, 6.51501
5.308, 15, -12.0082, 40.221, 16.7487, -10.7296, -84.5923, 6.5413
5.312, 15, -12.0531, 40.325, 16.6281, -10.7594, -84.6707, 6.56761
5.316, 15, -12.0979, 40.429, 16.5072, -10.789, -84.7488, 6.59395
5.32, 15, -12.1426, 40.5331, 16.3859, -10.8185, -84.8265, 6.62032
5.324, 15, -12.1873, 40.6373, 16.2642, -10.8478, -84.9041, 6.64671
5.328, 15, -12.2318, 40.7415, 16.1422, -10.877, -84.9813, 6.67313
5.332, 15, -12.2762, 40.8458, 16.0199, -10.9059, -85.0582, 6.69958
5.336, 15, -12.3205, 40.9501, 15.8972, -10.9348, -85.1349, 6.72605
5.34, 15, -12.3648, 41.0545, 15.7741, -10.9634, -85.2113, 6.75256
5.344, 15, -12.4089, 41.1589, 15.6508, -10.9919, -85.2874, 6.7791
5.348, 15, -12.4528, 41.2633, 15.527, -11.0202, -85.3632, 6.80566
5.352, 15, -12.4965, 41.3676, 15.403, -11.0484, -85.4387, 6.83226
5.356, 15, -12.54, 41.4718, 15.2787, -11.0764, -85.514, 6.85888
5.36, 15, -12.5831, 41.5757, 15.1541, -11.1042, -85.5889, 6.88552
5.364, 15, -12.626, 41.6794, 15.0294, -11.1318, -85.6635, 6.91218
5.368, 15, -12.6684, 41.7826, 14.9044, -11.1593, -85.7378, 6.93884
5.372, 15, -12.7104, 41.8854, 14.7795, -11.1865, -85.8117, 6.96549
5.376, 15, -12.7518, 41.9873, 14.6547, -11.2136, -85.8851, 6.99211
5.38, 15, -12.7924, 42.0883, 14.5303, -11.2403, -85.958, 7.01867
5.384, 15, -12.8322, 42.1879, 14.4066, -11.2668, -86.0303, 7.04511
5.388, 15, -12.8709, 42.286, 14.2838, -11.293, -86.1018, 7.07138
5.392, 15, -12.9085, 42.3822, 14.1623, -11.3187, -86.1723, 7.0974
5.396, 15, -12.9449, 42.4763, 14.0427, -11.3439, -86.2416, 7.12308
5.4, 15, -12.9801, 42.568, 13.9253, -11.3686, -86.3094, 7.14829
5.404, 15, -13.0141, 42.6571, 13.8106, -11.3925, -86.3753, 7.17292
5.408, 15, -13.0469, 42.7433, 13.6993, -11.4156, -86.4391, 7.19684
5.412, 15, -13.0783, 42.8262, 13.5919, -11.4377, -86.5003, 7.21991
5.416, 15, -13.1083, 42.9056, 13.4891, -11.4588, -86.5587, 7.24199
5.42, 15, -13.1369, 42.9811, 13.3912, -11.4787, -86.614, 7.26296
5.424, 15, -13.1642, 43.0528, 13.2988, -11.4973, -86.6658, 7.28269
5.428, 15, -13.1901, 43.1204, 13.2123, -11.5146, -86.714, 7.3011
5.432, 15, -13.2148, 43.1838, 13.1319, -11.5305, -86.7583, 7.31809
5.436, 15, -13.2381, 43.2429, 13.0581, -11.545, -86.7986, 7.33362
5.44, 15, -13.2601, 43.2976, 12.9908, -11.558, -86.8349, 7.34766
5.444, 15, -13.2807, 43.3478, 12.9301, -11.5695, -86.8672, 7.36021
5.448, 15, -13.2998, 43.3936, 12.8759, -11.5797, -86.8956, 7.3713
5.452, 15, -13.3175, 43.435, 12.8281, -11.5886, -86.9204, 7.38098
5.456, 15, -13.3337, 43.472, 12.7864, -11.5962, -86.9416, 7.38933
5.46, 15, -13.3485, 43.505, 12.7503, -11.6026, -86.9596, 7.39643
5.464, 15, -13.3619, 43.5339, 12.7195, -11.608, -86.9747, 7.40239
5.468, 15, -13.3738, 43.5591, 12.6936, -11.6124, -86.9871, 7.40733
5.472, 15, -13.3844, 43.5807, 12.6721, -11.616, -86.9971, 7.41135
5.476, 15, -13.3936, 43.599, 12.6544, -11.6189, -87.0052, 7.41459
5.48, 15, -13.4016, 43.6145, 12.6402, -11.6212, -87.0115, 7.41714
5.484, 15, -13.4085, 43.6275, 12.6288, -11.6229, -87.0163, 7.41912
5.488, 15, -13.4146, 43.6385, 12.6199, -11.6243, -87.02, 7.42063
5.492, 15, -13.4199, 43.6477, 12.613, -11.6252, -87.0227, 7.42175
5.496, 15, -13.4244, 43.6553, 12.6078, -11.6259, -87.0247, 7.42256
5.5, 15, -13.4282, 43.6615, 12.6039, -11.6264, -87.026, 7.42314
5.504, 16, -13.4313, 43.6665, 12.6011, -11.6268, -87.027, 7.42354
5.508, 16, -13.4337, 43.6702, 12.599, -11.627, -87.0276, 7.42382
5.512, 16, -13.4355, 43.6729, 12.5976, -11.6272, -87.0281, 7.42401
5.516, 16, -13.4367, 43.6747, 12.5966, -11.6273, -87.0284, 7.42414
5.52, 16, -13.4375, 43.676, 12.596, -11.6274, -87.0286, 7.42423
5.524, 16, -13.4381, 43.6768, 12.5955, -11.6274, -87.0287, 7.42429
5.528, 16, -13.4385, 43.6774, 12.5952, -11.6274, -87.0288, 7.42433
5.532, 16, -13.4387, 43.6778, 12.595, -11.6275, -87.0289, 7.42435
5.536, 16, -13.4389, 43.6781, 12.5949, -11.6275, -87.0289, 7.42437
5.54, 16, -13.439, 43.6783, 12.5948, -11.6275, -87.0289, 7.42438
5.544, 16, -13.4391, 43.6784, 12.5947, -11.6275, -87.0289, 7.42439
5.548, 16, -13.4392, 43.6785, 12.5947, -11.6275, -87.029, 7.4244
5.552, 16, -13.4392, 43.6785, 12.5947, -11.6275, -87.029, 7.4244
5.556, 16, -13.4392, 43.6786, 12.5946, -11.6275, -87.029, 7.42441
5.56, 16, -13.4393, 43.6786, 12.5946, -11.6275, -87.029, 7.42441
5.564, 16, -13.4393, 43.6786, 12.5946, -11.6275, -87.029, 7.42441
5.568, 16, -13.4393, 43.6786, 12.5946, -11.6275, -87.029, 7.42441
5.572, 16, -13.4393, 43.6786, 12.5946, -11.6275, -87.029, 7.42441
5.576, 16, -13.4393, 43.6786, 12.5946, -11.6275, -87.029, 7.42441
5.58, 16, -13.4393, 43.6786, 12.5946, -11.6275, -87.029, 7.42441
5.584, 16, -13.4393, 43.6787, 12.5946, -11.6275, -87.029, 7.42441
5.588, 16, -13.4393, 43.6787, 12.5946, -11.6275, -87.029, 7.42441
5.592, 16, -13.4393, 43.6787, 12.5946, -11.6275, -87.029, 7.42441
5.596, 16, -13.4393, 43.6787, 12.5946, -11.6275, -87.029, 7.42441
5.6, 16, -13.4393, 43.6787, 12.5946, -11.6275, -87.029, 7.42441
5.604, 16, -13.4393, 43.6787, 12.5946, -11.6275, -87.029, 7.42441
5.608, 16, -13.4393, 43.6787, 12.5946, -11.6275, -87.029, 7.42441
5.612, 16, -13.4393, 43.6787, 12.5946, -11.6275, -87.029, 7.42441
5.616, 16, -13.4393, 43.6787, 12.5946, -11.6275, -87.029, 7.42441
5.62, 16, -13.4393, 43.6787, 12.5946, -11.6275, -87.029, 7.42441
