hehonglu123/ABB_Primitive_Study/execution/moveljl_30_car/curve_exe_v500_z10.csv
timestamp, cmd_num, J1, J2, J3, J4, J5, J6
0, -1, -13.4393, 43.6787, 12.5946, -11.6275, -87.029, 7.42441
0.002, -1, -13.4393, 43.6787, 12.5946, -11.6275, -87.029, 7.42441
0.006, -1, -13.4393, 43.6787, 12.5946, -11.6275, -87.029, 7.42441
0.008, -1, -13.4393, 43.6787, 12.5946, -11.6275, -87.029, 7.42441
0.011, -1, -13.4393, 43.6787, 12.5946, -11.6275, -87.029, 7.42441
0.016, -1, -13.4393, 43.6787, 12.5946, -11.6275, -87.029, 7.42441
0.02, -1, -13.4393, 43.6787, 12.5946, -11.6275, -87.029, 7.42441
0.024, -1, -13.4393, 43.6787, 12.5946, -11.6275, -87.029, 7.42441
0.028, -1, -13.4393, 43.6787, 12.5946, -11.6275, -87.029, 7.42441
0.032, -1, -13.4393, 43.6787, 12.5946, -11.6275, -87.029, 7.42441
0.036, -1, -13.4392, 43.6786, 12.5946, -11.6275, -87.029, 7.42441
0.04, -1, -13.439, 43.6785, 12.5946, -11.6275, -87.029, 7.42441
0.044, -1, -13.4384, 43.678, 12.5947, -11.6275, -87.029, 7.42439
0.048, -1, -13.4372, 43.6772, 12.5949, -11.6274, -87.0289, 7.42434
0.052, -1, -13.4355, 43.6758, 12.5951, -11.6273, -87.0287, 7.42422
0.056, -1, -13.433, 43.6738, 12.5955, -11.627, -87.0284, 7.42397
0.06, -1, -13.4296, 43.671, 12.5961, -11.6264, -87.0277, 7.42349
0.064, -1, -13.4254, 43.6675, 12.5969, -11.6253, -87.0264, 7.42266
0.068, -1, -13.4203, 43.6631, 12.598, -11.6236, -87.0244, 7.42132
0.072, -1, -13.4141, 43.6579, 12.5994, -11.6209, -87.0213, 7.41928
0.076, -1, -13.4066, 43.6516, 12.6011, -11.617, -87.0167, 7.4163
0.08, -1, -13.3977, 43.6442, 12.6034, -11.6115, -87.0103, 7.41213
0.084, -1, -13.3869, 43.6352, 12.6062, -11.604, -87.0016, 7.40644
0.088, -1, -13.3743, 43.6247, 12.6097, -11.5941, -86.9899, 7.39892
0.092, -1, -13.3596, 43.6124, 12.6138, -11.5812, -86.9748, 7.38918
0.096, -1, -13.3427, 43.5982, 12.6186, -11.5648, -86.9557, 7.37685
0.1, -1, -13.3235, 43.582, 12.6243, -11.5444, -86.9319, 7.36155
0.104, -1, -13.3019, 43.5636, 12.6308, -11.5196, -86.9029, 7.3429
0.108, -1, -13.2776, 43.5427, 12.6382, -11.4899, -86.868, 7.32054
0.112, -1, -13.2505, 43.5193, 12.6467, -11.4547, -86.8269, 7.29416
0.116, -1, -13.2206, 43.4932, 12.6562, -11.4137, -86.7789, 7.26346
0.12, -1, -13.1877, 43.4644, 12.6669, -11.3667, -86.7238, 7.22818
0.124, -1, -13.1519, 43.4328, 12.6786, -11.3132, -86.6612, 7.18814
0.128, -1, -13.113, 43.3984, 12.6916, -11.2532, -86.591, 7.14319
0.131, -1, -13.071, 43.3611, 12.7056, -11.1865, -86.5129, 7.09326
0.136, -1, -13.026, 43.321, 12.7209, -11.1131, -86.4269, 7.03835
0.139, -1, -12.9779, 43.2779, 12.7373, -11.0331, -86.3333, 6.9785
0.144, -1, -12.9267, 43.232, 12.7548, -10.9467, -86.2321, 6.91384
0.148, -1, -12.8726, 43.1833, 12.7734, -10.854, -86.1236, 6.84454
0.152, -1, -12.8155, 43.132, 12.7932, -10.7555, -86.0082, 6.77084
0.156, -1, -12.7557, 43.0781, 12.8139, -10.6514, -85.8863, 6.69301
0.16, -1, -12.6932, 43.0219, 12.8355, -10.5422, -85.7585, 6.61137
0.164, -1, -12.6282, 42.9633, 12.8581, -10.4284, -85.6253, 6.52627
0.168, -1, -12.5607, 42.9025, 12.8815, -10.3105, -85.4872, 6.43809
0.172, -1, -12.4909, 42.8396, 12.9056, -10.189, -85.3449, 6.34721
0.176, -1, -12.4189, 42.7749, 12.9305, -10.0644, -85.1989, 6.25399
0.18, -1, -12.345, 42.7085, 12.956, -9.93711, -85.0499, 6.15879
0.184, -1, -12.2694, 42.6406, 12.9821, -9.80765, -84.8983, 6.06194
0.188, -1, -12.1925, 42.5714, 13.0086, -9.6764, -84.7446, 5.96375
0.192, -1, -12.1142, 42.5011, 13.0356, -9.54373, -84.5892, 5.86449
0.196, -1, -12.0348, 42.4297, 13.0629, -9.40995, -84.4326, 5.76439
0.2, -1, -11.9542, 42.3573, 13.0906, -9.27534, -84.2749, 5.66366
0.204, -1, -11.8724, 42.2841, 13.1185, -9.14011, -84.1166, 5.56246
0.208, -1, -11.7897, 42.21, 13.1466, -9.00443, -83.9577, 5.46092
0.212, -1, -11.7061, 42.1354, 13.1749, -8.86843, -83.7985, 5.35913
0.216, -1, -11.6218, 42.0602, 13.2033, -8.7322, -83.6389, 5.25717
0.22, -1, -11.5371, 41.9847, 13.2318, -8.5958, -83.4792, 5.15507
0.224, -1, -11.452, 41.909, 13.2603, -8.45928, -83.3194, 5.05288
0.228, -1, -11.3667, 41.8332, 13.2889, -8.32266, -83.1594, 4.95062
0.232, -1, -11.2813, 41.7572, 13.3176, -8.18597, -82.9993, 4.8483
0.236, -1, -11.1957, 41.6811, 13.3462, -8.04922, -82.8392, 4.74595
0.24, -1, -11.11, 41.605, 13.3749, -7.91243, -82.679, 4.64355
0.244, -1, -11.0243, 41.5288, 13.4035, -7.77561, -82.5188, 4.54114
0.248, -1, -10.9386, 41.4526, 13.4322, -7.63876, -82.3586, 4.4387
0.252, -1, -10.8528, 41.3764, 13.4609, -7.50189, -82.1983, 4.33625
0.256, -1, -10.767, 41.3002, 13.4896, -7.36501, -82.0381, 4.2338
0.26, -1, -10.6811, 41.2239, 13.5183, -7.22813, -81.8778, 4.13133
0.264, -1, -10.5953, 41.1477, 13.547, -7.09125, -81.7175, 4.02887
0.268, -1, -10.5094, 41.0714, 13.5757, -6.95436, -81.5572, 3.92641
0.272, -1, -10.4236, 40.9952, 13.6044, -6.81749, -81.397, 3.82396
0.276, -1, -10.3378, 40.9189, 13.6331, -6.68063, -81.2367, 3.72151
0.28, -1, -10.252, 40.8427, 13.6618, -6.54379, -81.0765, 3.61908
0.284, -1, -10.1661, 40.7665, 13.6904, -6.40697, -80.9163, 3.51666
0.288, -1, -10.0803, 40.6903, 13.7191, -6.27017, -80.7561, 3.41427
0.292, -1, -9.99456, 40.6141, 13.7478, -6.13341, -80.596, 3.31189
0.296, -1, -9.9088, 40.538, 13.7764, -5.99668, -80.4359, 3.20955
0.3, -1, -9.82306, 40.4618, 13.8051, -5.85999, -80.2758, 3.10723
0.304, -1, -9.73734, 40.3857, 13.8337, -5.72334, -80.1158, 3.00494
0.308, -1, -9.65166, 40.3096, 13.8624, -5.58674, -79.9558, 2.90269
0.312, -1, -9.566, 40.2336, 13.891, -5.45019, -79.796, 2.80048
0.316, -1, -9.48038, 40.1575, 13.9196, -5.31369, -79.6361, 2.69831
0.32, -1, -9.3948, 40.0815, 13.9482, -5.17726, -79.4764, 2.59618
0.324, -1, -9.30925, 40.0055, 13.9768, -5.04089, -79.3167, 2.4941
0.328, -1, -9.22375, 39.9296, 14.0054, -4.90458, -79.1571, 2.39207
0.332, -1, -9.13829, 39.8537, 14.0339, -4.76835, -78.9976, 2.2901
0.336, -1, -9.05287, 39.7778, 14.0625, -4.63219, -78.8382, 2.18818
0.34, -1, -8.9675, 39.702, 14.091, -4.49612, -78.6788, 2.08632
0.344, -1, -8.88219, 39.6262, 14.1195, -4.36012, -78.5196, 1.98452
0.348, -1, -8.79692, 39.5505, 14.148, -4.22421, -78.3604, 1.88279
0.352, -1, -8.71172, 39.4748, 14.1765, -4.0884, -78.2014, 1.78113
0.356, -1, -8.62657, 39.3992, 14.2049, -3.95267, -78.0425, 1.67953
0.36, -1, -8.54148, 39.3236, 14.2334, -3.81705, -77.8837, 1.57801
0.364, -1, -8.45646, 39.2481, 14.2618, -3.68152, -77.725, 1.47657
0.368, -1, -8.3715, 39.1727, 14.2902, -3.54611, -77.5664, 1.3752
0.372, -1, -8.28661, 39.0973, 14.3185, -3.4108, -77.408, 1.27392
0.376, -1, -8.20179, 39.0219, 14.3469, -3.2756, -77.2497, 1.17272
0.38, -1, -8.11704, 38.9467, 14.3752, -3.14052, -77.0915, 1.07161
0.384, -1, -8.03237, 38.8715, 14.4035, -3.00557, -76.9335, 0.970588
0.388, -1, -7.94777, 38.7963, 14.4318, -2.87073, -76.7756, 0.869659
0.392, -1, -7.86325, 38.7212, 14.46, -2.73602, -76.6179, 0.768825
0.396, -1, -7.77881, 38.6463, 14.4882, -2.60145, -76.4603, 0.668089
0.4, -1, -7.69446, 38.5713, 14.5164, -2.467, -76.3029, 0.567454
0.404, -1, -7.61019, 38.4965, 14.5446, -2.3327, -76.1456, 0.466921
0.408, -1, -7.526, 38.4217, 14.5727, -2.19854, -75.9885, 0.366494
0.412, -1, -7.44191, 38.347, 14.6008, -2.06452, -75.8316, 0.266176
0.416, -1, -7.35791, 38.2724, 14.6288, -1.93064, -75.6748, 0.165968
0.42, -1, -7.274, 38.1979, 14.6569, -1.79692, -75.5183, 0.0658724
0.424, -1, -7.19019, 38.1235, 14.6849, -1.66336, -75.3619, -0.0341072
0.428, -1, -7.10648, 38.0491, 14.7128, -1.52995, -75.2057, -0.133969
0.432, -1, -7.02287, 37.9748, 14.7408, -1.3967, -75.0496, -0.233711
0.436, -1, -6.93935, 37.9007, 14.7687, -1.26362, -74.8938, -0.33333
0.44, -1, -6.85595, 37.8266, 14.7965, -1.1307, -74.7382, -0.432824
0.444, -1, -6.77264, 37.7526, 14.8244, -0.99795, -74.5827, -0.532191
0.448, -1, -6.68945, 37.6787, 14.8522, -0.865375, -74.4275, -0.631429
0.452, -1, -6.60636, 37.6049, 14.8799, -0.732975, -74.2725, -0.730535
0.456, -1, -6.52339, 37.5312, 14.9077, -0.600755, -74.1176, -0.829507
0.46, -1, -6.44053, 37.4576, 14.9353, -0.468716, -73.963, -0.928344
0.464, -1, -6.35778, 37.3842, 14.963, -0.336861, -73.8086, -1.02704
0.468, -1, -6.27515, 37.3108, 14.9906, -0.205193, -73.6545, -1.1256
0.472, -1, -6.19264, 37.2375, 15.0181, -0.0737153, -73.5005, -1.22402
0.476, -1, -6.11024, 37.1643, 15.0457, 0.0575699, -73.3468, -1.32229
0.48, -1, -6.02797, 37.0912, 15.0732, 0.18866, -73.1933, -1.42042
0.484, -1, -5.94582, 37.0183, 15.1006, 0.319552, -73.04, -1.51839
0.488, -1, -5.8638, 36.9454, 15.128, 0.450244, -72.887, -1.61622
0.492, -1, -5.7819, 36.8727, 15.1554, 0.580734, -72.7342, -1.7139
0.496, -1, -5.70012, 36.8001, 15.1827, 0.711018, -72.5817, -1.81142
0.5, -1, -5.61848, 36.7276, 15.2099, 0.841096, -72.4294, -1.90879
0.504, -1, -5.53697, 36.6552, 15.2372, 0.970964, -72.2773, -2.006
0.508, -1, -5.45558, 36.5829, 15.2644, 1.10062, -72.1255, -2.10306
0.512, -1, -5.37433, 36.5108, 15.2915, 1.23006, -71.9739, -2.19995
0.516, -1, -5.29321, 36.4387, 15.3186, 1.35929, -71.8226, -2.29668
0.52, -1, -5.21223, 36.3668, 15.3456, 1.4883, -71.6715, -2.39325
0.524, -1, -5.13138, 36.295, 15.3726, 1.6171, -71.5207, -2.48966
0.528, -1, -5.05067, 36.2233, 15.3996, 1.74567, -71.3702, -2.5859
0.532, -1, -4.97009, 36.1518, 15.4265, 1.87402, -71.2199, -2.68198
0.536, -1, -4.88966, 36.0803, 15.4534, 2.00215, -71.0698, -2.77789
0.54, -1, -4.80936, 36.009, 15.4802, 2.13005, -70.9201, -2.87363
0.544, -1, -4.7292, 35.9378, 15.507, 2.25773, -70.7706, -2.9692
0.548, -1, -4.64919, 35.8668, 15.5337, 2.38518, -70.6213, -3.0646
0.552, -1, -4.56931, 35.7959, 15.5604, 2.51241, -70.4724, -3.15984
0.556, -1, -4.48958, 35.725, 15.587, 2.6394, -70.3237, -3.2549
0.56, -1, -4.41, 35.6544, 15.6136, 2.76617, -70.1752, -3.34979
0.564, -1, -4.33056, 35.5838, 15.6401, 2.8927, -70.0271, -3.44451
0.568, -1, -4.25126, 35.5134, 15.6666, 3.01901, -69.8792, -3.53905
0.572, -1, -4.17211, 35.4431, 15.693, 3.14508, -69.7316, -3.63342
0.576, -1, -4.0931, 35.373, 15.7194, 3.27092, -69.5842, -3.72761
0.58, -1, -4.01424, 35.3029, 15.7458, 3.39652, -69.4372, -3.82163
0.584, -1, -3.93553, 35.233, 15.772, 3.52189, -69.2904, -3.91547
0.588, -1, -3.85696, 35.1633, 15.7983, 3.64702, -69.1438, -4.00914
0.592, -1, -3.77855, 35.0936, 15.8245, 3.77191, -68.9976, -4.10263
0.596, -1, -3.70028, 35.0241, 15.8506, 3.89657, -68.8516, -4.19594
0.6, -1, -3.62216, 34.9548, 15.8767, 4.02099, -68.7059, -4.28908
0.604, -1, -3.54419, 34.8855, 15.9027, 4.14517, -68.5605, -4.38203
0.608, -1, -3.46637, 34.8164, 15.9287, 4.26911, -68.4154, -4.47481
0.612, -1, -3.3887, 34.7474, 15.9547, 4.39281, -68.2706, -4.5674
0.616, -1, -3.31118, 34.6786, 15.9806, 4.51628, -68.126, -4.65982
0.62, -1, -3.23382, 34.6099, 16.0064, 4.63949, -67.9817, -4.75205
0.624, -1, -3.1566, 34.5413, 16.0322, 4.76247, -67.8377, -4.84411
0.628, -1, -3.07954, 34.4729, 16.0579, 4.88521, -67.694, -4.93598
0.632, -1, -3.00262, 34.4046, 16.0836, 5.0077, -67.5506, -5.02767
0.636, -1, -2.92586, 34.3364, 16.1092, 5.12995, -67.4074, -5.11918
0.64, -1, -2.84926, 34.2684, 16.1348, 5.25195, -67.2646, -5.2105
0.644, -1, -2.7728, 34.2005, 16.1604, 5.37371, -67.122, -5.30165
0.648, -1, -2.6965, 34.1328, 16.1858, 5.49523, -66.9797, -5.39261
0.652, -1, -2.62035, 34.0652, 16.2113, 5.6165, -66.8377, -5.48338
0.656, -1, -2.54436, 33.9977, 16.2366, 5.73753, -66.696, -5.57398
0.66, -1, -2.46852, 33.9303, 16.262, 5.85831, -66.5546, -5.66439
0.664, -1, -2.39283, 33.8631, 16.2872, 5.97884, -66.4135, -5.75461
0.668, -1, -2.3173, 33.7961, 16.3125, 6.09913, -66.2726, -5.84465
0.672, -1, -2.24192, 33.7291, 16.3376, 6.21917, -66.1321, -5.93451
0.676, -1, -2.1667, 33.6623, 16.3628, 6.33897, -65.9918, -6.02418
0.68, -1, -2.09163, 33.5957, 16.3878, 6.45851, -65.8518, -6.11367
0.684, -1, -2.01672, 33.5292, 16.4129, 6.57781, -65.7121, -6.20297
0.688, -1, -1.94196, 33.4628, 16.4378, 6.69687, -65.5727, -6.29208
0.692, -1, -1.86736, 33.3965, 16.4627, 6.81567, -65.4336, -6.38101
0.696, -1, -1.79291, 33.3304, 16.4876, 6.93423, -65.2948, -6.46976
0.7, -1, -1.71862, 33.2645, 16.5124, 7.05254, -65.1562, -6.55832
0.704, -1, -1.64448, 33.1986, 16.5372, 7.1706, -65.018, -6.64669
0.708, -1, -1.5705, 33.1329, 16.5619, 7.28841, -64.8801, -6.73488
0.712, -1, -1.49668, 33.0674, 16.5865, 7.40597, -64.7424, -6.82288
0.716, -1, -1.42301, 33.002, 16.6111, 7.52329, -64.605, -6.9107
0.72, -1, -1.34949, 32.9367, 16.6357, 7.64036, -64.468, -6.99833
0.724, -1, -1.27614, 32.8715, 16.6602, 7.75718, -64.3312, -7.08577
0.728, -1, -1.20293, 32.8065, 16.6846, 7.87375, -64.1947, -7.17303
0.732, -1, -1.12989, 32.7417, 16.709, 7.99007, -64.0585, -7.2601
0.736, -1, -1.057, 32.677, 16.7333, 8.10615, -63.9226, -7.34699
0.74, -1, -0.984259, 32.6124, 16.7576, 8.22197, -63.7869, -7.43369
0.744, -1, -0.911678, 32.5479, 16.7819, 8.33755, -63.6516, -7.52021
0.748, -1, -0.839252, 32.4836, 16.8061, 8.45288, -63.5166, -7.60653
0.752, -1, -0.766981, 32.4194, 16.8302, 8.56796, -63.3818, -7.69268
0.756, -1, -0.694864, 32.3554, 16.8543, 8.6828, -63.2474, -7.77864
0.76, -1, -0.622901, 32.2915, 16.8783, 8.79738, -63.1132, -7.86441
0.764, -1, -0.551092, 32.2277, 16.9023, 8.91172, -62.9793, -7.95
0.768, -1, -0.479437, 32.1641, 16.9262, 9.02582, -62.8457, -8.0354
0.772, -1, -0.407935, 32.1006, 16.9501, 9.13966, -62.7124, -8.12062
0.776, -1, -0.336586, 32.0373, 16.9739, 9.25326, -62.5794, -8.20566
0.78, -1, -0.26539, 31.9741, 16.9977, 9.36662, -62.4467, -8.29051
0.784, -1, -0.194346, 31.911, 17.0214, 9.47973, -62.3142, -8.37518
0.788, -1, -0.123455, 31.848, 17.0451, 9.5926, -62.182, -8.45966
0.792, -1, -0.0527154, 31.7852, 17.0687, 9.70522, -62.0502, -8.54397
0.796, -1, 0.0178725, 31.7226, 17.0923, 9.81761, -61.9186, -8.62809
0.8, -1, 0.0883091, 31.66, 17.1158, 9.92975, -61.7873, -8.71204
0.804, -1, 0.158595, 31.5976, 17.1393, 10.0417, -61.6562, -8.7958
0.808, -1, 0.22873, 31.5353, 17.1627, 10.1533, -61.5255, -8.87938
0.812, -1, 0.298716, 31.4732, 17.186, 10.2647, -61.395, -8.96279
0.816, -1, 0.368552, 31.4112, 17.2094, 10.3759, -61.2648, -9.04602
0.82, -1, 0.438239, 31.3493, 17.2326, 10.4869, -61.1349, -9.12907
0.824, -1, 0.507778, 31.2876, 17.2559, 10.5976, -61.0053, -9.21194
0.828, -1, 0.577169, 31.226, 17.279, 10.7081, -60.8759, -9.29464
0.832, -1, 0.646413, 31.1645, 17.3021, 10.8183, -60.7468, -9.37716
0.836, -1, 0.71551, 31.1031, 17.3252, 10.9283, -60.618, -9.45951
0.84, -1, 0.78446, 31.0419, 17.3482, 11.0381, -60.4895, -9.54168
0.844, -1, 0.853266, 30.9808, 17.3712, 11.1476, -60.3612, -9.62368
0.848, -1, 0.921925, 30.9199, 17.3941, 11.2569, -60.2332, -9.7055
0.852, -1, 0.990441, 30.859, 17.417, 11.366, -60.1055, -9.78716
0.856, -1, 1.05881, 30.7983, 17.4398, 11.4749, -59.9781, -9.86864
0.86, -1, 1.12704, 30.7378, 17.4626, 11.5835, -59.8509, -9.94995
0.864, -1, 1.19512, 30.6773, 17.4854, 11.6919, -59.7239, -10.0311
0.868, -1, 1.26307, 30.617, 17.508, 11.8001, -59.5973, -10.1121
0.872, -1, 1.33087, 30.5568, 17.5307, 11.908, -59.4709, -10.1929
0.876, -1, 1.39853, 30.4967, 17.5533, 12.0157, -59.3448, -10.2735
0.88, -1, 1.46604, 30.4368, 17.5758, 12.1232, -59.2189, -10.354
0.884, -1, 1.53342, 30.377, 17.5983, 12.2305, -59.0933, -10.4343
0.888, -1, 1.60066, 30.3173, 17.6208, 12.3375, -58.9679, -10.5144
0.892, -1, 1.66775, 30.2577, 17.6432, 12.4444, -58.8429, -10.5943
0.896, -1, 1.73471, 30.1982, 17.6655, 12.551, -58.718, -10.6741
0.9, -1, 1.80153, 30.1389, 17.6878, 12.6574, -58.5935, -10.7538
0.904, -1, 1.86821, 30.0797, 17.7101, 12.7635, -58.4692, -10.8332
0.908, -1, 1.93476, 30.0206, 17.7323, 12.8695, -58.3451, -10.9125
0.912, -1, 2.00117, 29.9617, 17.7545, 12.9752, -58.2213, -10.9917
0.916, -1, 2.06744, 29.9028, 17.7766, 13.0807, -58.0978, -11.0707
0.92, -1, 2.13357, 29.8441, 17.7987, 13.186, -57.9745, -11.1495
0.924, -1, 2.19957, 29.7855, 17.8207, 13.2911, -57.8514, -11.2281
0.928, -1, 2.26543, 29.727, 17.8427, 13.3959, -57.7287, -11.3066
0.932, -1, 2.33116, 29.6687, 17.8647, 13.5006, -57.6061, -11.385
0.936, -1, 2.39676, 29.6104, 17.8866, 13.605, -57.4838, -11.4631
0.94, -1, 2.46222, 29.5523, 17.9084, 13.7092, -57.3618, -11.5412
0.944, -1, 2.52755, 29.4943, 17.9303, 13.8133, -57.24, -11.619
0.948, -1, 2.59275, 29.4364, 17.952, 13.9171, -57.1185, -11.6967
0.952, -1, 2.65781, 29.3787, 17.9738, 14.0206, -56.9972, -11.7743
0.956, -1, 2.72274, 29.321, 17.9954, 14.124, -56.8761, -11.8516
0.96, -1, 2.78755, 29.2635, 18.0171, 14.2272, -56.7553, -11.9289
0.964, -1, 2.85222, 29.2061, 18.0387, 14.3302, -56.6348, -12.0059
0.968, -1, 2.91676, 29.1488, 18.0602, 14.4329, -56.5144, -12.0829
0.972, -1, 2.98117, 29.0916, 18.0817, 14.5355, -56.3944, -12.1596
0.976, -1, 3.04545, 29.0345, 18.1032, 14.6378, -56.2745, -12.2362
0.98, -1, 3.10961, 28.9775, 18.1246, 14.7399, -56.1549, -12.3127
0.984, -1, 3.17363, 28.9207, 18.146, 14.8419, -56.0356, -12.389
0.988, -1, 3.23753, 28.864, 18.1673, 14.9436, -55.9165, -12.4651
0.992, -1, 3.3013, 28.8074, 18.1886, 15.0451, -55.7976, -12.5411
0.996, -1, 3.36494, 28.7508, 18.2099, 15.1465, -55.6789, -12.617
1, -1, 3.42846, 28.6945, 18.2311, 15.2476, -55.5605, -12.6927
1.004, -1, 3.49185, 28.6382, 18.2523, 15.3485, -55.4423, -12.7682
1.008, -1, 3.55512, 28.582, 18.2734, 15.4492, -55.3244, -12.8436
1.012, -1, 3.61826, 28.5259, 18.2945, 15.5498, -55.2067, -12.9189
1.016, -1, 3.68127, 28.47, 18.3155, 15.6501, -55.0892, -12.994
1.02, -1, 3.74416, 28.4142, 18.3365, 15.7502, -54.972, -13.0689
1.024, -1, 3.80693, 28.3584, 18.3575, 15.8502, -54.855, -13.1437
1.027, -1, 3.86958, 28.3028, 18.3784, 15.9499, -54.7382, -13.2184
1.032, -1, 3.9321, 28.2473, 18.3993, 16.0494, -54.6216, -13.2929
1.036, -1, 3.9945, 28.1919, 18.4201, 16.1488, -54.5053, -13.3673
1.04, -1, 4.05678, 28.1366, 18.4409, 16.2479, -54.3892, -13.4415
1.044, -1, 4.11893, 28.0814, 18.4616, 16.3469, -54.2733, -13.5156
1.048, -1, 4.18097, 28.0263, 18.4824, 16.4457, -54.1577, -13.5895
1.052, -1, 4.24289, 27.9714, 18.503, 16.5442, -54.0422, -13.6633
1.055, -1, 4.30468, 27.9165, 18.5237, 16.6426, -53.927, -13.7369
1.06, -1, 4.36636, 27.8617, 18.5443, 16.7408, -53.8121, -13.8104
1.064, -1, 4.42792, 27.8071, 18.5648, 16.8388, -53.6973, -13.8838
1.068, -1, 4.48936, 27.7525, 18.5853, 16.9366, -53.5828, -13.957
1.072, -1, 4.55068, 27.6981, 18.6058, 17.0343, -53.4685, -14.0301
1.076, -1, 4.61188, 27.6438, 18.6262, 17.1317, -53.3544, -14.103
1.08, -1, 4.67297, 27.5895, 18.6466, 17.229, -53.2405, -14.1758
1.084, -1, 4.73394, 27.5354, 18.667, 17.326, -53.1268, -14.2485
1.088, -1, 4.7948, 27.4814, 18.6873, 17.4229, -53.0134, -14.321
1.091, -1, 4.85554, 27.4274, 18.7076, 17.5196, -52.9002, -14.3934
1.096, -1, 4.91617, 27.3736, 18.7278, 17.6161, -52.7871, -14.4656
1.1, -1, 4.97668, 27.3199, 18.7481, 17.7125, -52.6743, -14.5378
1.104, -1, 5.03708, 27.2663, 18.7682, 17.8086, -52.5618, -14.6097
1.108, -1, 5.09737, 27.2127, 18.7883, 17.9046, -52.4494, -14.6816
1.112, -1, 5.15754, 27.1593, 18.8084, 18.0004, -52.3372, -14.7533
1.116, -1, 5.2176, 27.106, 18.8285, 18.096, -52.2253, -14.8249
1.119, -1, 5.27755, 27.0528, 18.8485, 18.1915, -52.1135, -14.8963
1.124, -1, 5.33739, 26.9996, 18.8685, 18.2867, -52.0019, -14.9676
1.128, -1, 5.39712, 26.9466, 18.8884, 18.3818, -51.8906, -15.0388
1.132, -1, 5.45673, 26.8937, 18.9083, 18.4767, -51.7795, -15.1098
1.136, -1, 5.51624, 26.8408, 18.9282, 18.5715, -51.6685, -15.1807
1.14, -1, 5.57564, 26.7881, 18.948, 18.666, -51.5578, -15.2515
1.144, -1, 5.63493, 26.7355, 18.9678, 18.7604, -51.4473, -15.3222
1.147, -1, 5.69412, 26.6829, 18.9876, 18.8547, -51.337, -15.3927
1.152, -1, 5.75319, 26.6305, 19.0073, 18.9487, -51.2268, -15.4631
1.156, -1, 5.81216, 26.5781, 19.027, 19.0426, -51.1169, -15.5334
1.16, -1, 5.87103, 26.5259, 19.0467, 19.1363, -51.0072, -15.6035
1.164, -1, 5.92979, 26.4737, 19.0663, 19.2298, -50.8976, -15.6736
1.168, -1, 5.98844, 26.4216, 19.0859, 19.3232, -50.7883, -15.7435
1.172, -1, 6.04699, 26.3696, 19.1054, 19.4164, -50.6792, -15.8132
1.175, -1, 6.10543, 26.3177, 19.1249, 19.5095, -50.5702, -15.8829
1.18, -1, 6.16377, 26.266, 19.1444, 19.6024, -50.4614, -15.9524
1.184, -1, 6.22201, 26.2142, 19.1639, 19.6951, -50.3529, -16.0218
1.188, -1, 6.28015, 26.1626, 19.1833, 19.7876, -50.2445, -16.0911
1.192, -1, 6.33818, 26.1111, 19.2027, 19.88, -50.1363, -16.1603
1.196, -1, 6.39611, 26.0597, 19.222, 19.9723, -50.0283, -16.2293
1.2, -1, 6.45394, 26.0083, 19.2413, 20.0643, -49.9205, -16.2982
1.204, -1, 6.51167, 25.9571, 19.2606, 20.1562, -49.8129, -16.367
1.208, -1, 6.5693, 25.9059, 19.2798, 20.248, -49.7055, -16.4357
1.212, -1, 6.62683, 25.8548, 19.299, 20.3396, -49.5982, -16.5042
1.216, -1, 6.68426, 25.8038, 19.3182, 20.431, -49.4912, -16.5727
1.22, -1, 6.74159, 25.7529, 19.3374, 20.5223, -49.3843, -16.641
1.224, -1, 6.79882, 25.7021, 19.3565, 20.6134, -49.2776, -16.7092
1.228, -1, 6.85596, 25.6514, 19.3756, 20.7044, -49.1711, -16.7773
1.232, -1, 6.91299, 25.6008, 19.3946, 20.7952, -49.0648, -16.8453
1.236, -1, 6.96993, 25.5502, 19.4136, 20.8858, -48.9586, -16.9131
1.24, -1, 7.02678, 25.4997, 19.4326, 20.9763, -48.8526, -16.9809
1.244, -1, 7.08352, 25.4494, 19.4515, 21.0667, -48.7469, -17.0485
1.248, -1, 7.14018, 25.3991, 19.4705, 21.1569, -48.6413, -17.116
1.252, -1, 7.19673, 25.3488, 19.4893, 21.2469, -48.5358, -17.1834
1.256, -1, 7.25319, 25.2987, 19.5082, 21.3368, -48.4306, -17.2507
1.26, -1, 7.30956, 25.2487, 19.527, 21.4266, -48.3255, -17.3179
1.264, -1, 7.36583, 25.1987, 19.5458, 21.5161, -48.2206, -17.385
1.267, -1, 7.42201, 25.1488, 19.5646, 21.6056, -48.1158, -17.4519
1.272, -1, 7.4781, 25.099, 19.5833, 21.6949, -48.0113, -17.5188
1.276, -1, 7.53409, 25.0493, 19.602, 21.784, -47.9069, -17.5855
1.28, -1, 7.58999, 24.9997, 19.6207, 21.873, -47.8027, -17.6521
1.284, -1, 7.6458, 24.9501, 19.6393, 21.9619, -47.6986, -17.7186
1.288, -1, 7.70152, 24.9007, 19.6579, 22.0506, -47.5948, -17.785
1.292, -1, 7.75715, 24.8513, 19.6765, 22.1392, -47.4911, -17.8513
1.295, -1, 7.81268, 24.802, 19.695, 22.2276, -47.3875, -17.9175
1.3, -1, 7.86813, 24.7528, 19.7135, 22.3159, -47.2842, -17.9836
1.304, -1, 7.92348, 24.7036, 19.732, 22.404, -47.181, -18.0496
1.308, -1, 7.97875, 24.6545, 19.7505, 22.492, -47.0779, -18.1154
1.312, -1, 8.03393, 24.6055, 19.7689, 22.5798, -46.9751, -18.1812
1.316, -1, 8.08901, 24.5566, 19.7873, 22.6675, -46.8724, -18.2468
1.32, -1, 8.14401, 24.5078, 19.8057, 22.7551, -46.7699, -18.3124
1.324, -1, 8.19893, 24.4591, 19.824, 22.8425, -46.6675, -18.3778
1.328, -1, 8.25375, 24.4104, 19.8423, 22.9298, -46.5653, -18.4432
1.332, -1, 8.30849, 24.3618, 19.8606, 23.017, -46.4632, -18.5084
1.336, -1, 8.36314, 24.3133, 19.8788, 23.104, -46.3614, -18.5735
1.34, -1, 8.4177, 24.2648, 19.8971, 23.1909, -46.2596, -18.6386
1.344, -1, 8.47218, 24.2165, 19.9153, 23.2776, -46.1581, -18.7035
1.348, -1, 8.52657, 24.1682, 19.9334, 23.3642, -46.0567, -18.7683
1.352, -1, 8.58088, 24.1199, 19.9515, 23.4507, -45.9554, -18.833
1.356, -1, 8.6351, 24.0718, 19.9697, 23.537, -45.8543, -18.8976
1.36, -1, 8.68923, 24.0237, 19.9877, 23.6232, -45.7534, -18.9622
1.364, -1, 8.74328, 23.9757, 20.0058, 23.7092, -45.6526, -19.0266
1.368, -1, 8.79725, 23.9278, 20.0238, 23.7952, -45.552, -19.0909
1.372, -1, 8.85114, 23.88, 20.0418, 23.881, -45.4516, -19.1551
1.376, -1, 8.90494, 23.8322, 20.0598, 23.9666, -45.3513, -19.2192
1.38, -1, 8.95866, 23.7845, 20.0777, 24.0521, -45.2511, -19.2833
1.384, -1, 9.01229, 23.7369, 20.0956, 24.1375, -45.1511, -19.3472
1.388, -1, 9.06584, 23.6894, 20.1135, 24.2228, -45.0513, -19.411
1.392, -1, 9.11932, 23.6419, 20.1314, 24.3079, -44.9516, -19.4747
1.396, -1, 9.1727, 23.5945, 20.1492, 24.393, -44.8521, -19.5384
1.4, -1, 9.22601, 23.5472, 20.167, 24.4778, -44.7527, -19.6019
1.404, -1, 9.27924, 23.4999, 20.1848, 24.5626, -44.6535, -19.6653
1.408, -1, 9.33239, 23.4527, 20.2025, 24.6472, -44.5544, -19.7287
1.412, -1, 9.38546, 23.4056, 20.2202, 24.7317, -44.4554, -19.7919
1.416, -1, 9.43844, 23.3585, 20.2379, 24.8161, -44.3567, -19.8551
1.42, -1, 9.49135, 23.3116, 20.2556, 24.9003, -44.258, -19.9181
1.424, -1, 9.54418, 23.2647, 20.2732, 24.9844, -44.1595, -19.9811
1.428, -1, 9.59693, 23.2178, 20.2908, 25.0684, -44.0612, -20.044
1.432, -1, 9.6496, 23.1711, 20.3084, 25.1523, -43.963, -20.1067
1.436, -1, 9.7022, 23.1244, 20.326, 25.236, -43.865, -20.1694
1.44, -1, 9.75472, 23.0777, 20.3435, 25.3196, -43.767, -20.232
1.444, -1, 9.80716, 23.0312, 20.361, 25.4031, -43.6693, -20.2945
1.448, -1, 9.85952, 22.9847, 20.3785, 25.4865, -43.5717, -20.3569
1.452, -1, 9.91181, 22.9383, 20.396, 25.5697, -43.4742, -20.4192
1.456, -1, 9.96403, 22.8919, 20.4134, 25.6528, -43.3769, -20.4814
1.46, -1, 10.0162, 22.8456, 20.4308, 25.7358, -43.2797, -20.5436
1.464, -1, 10.0682, 22.7994, 20.4482, 25.8187, -43.1826, -20.6056
1.468, -1, 10.1202, 22.7533, 20.4656, 25.9015, -43.0857, -20.6676
1.472, -1, 10.1721, 22.7072, 20.4829, 25.9841, -42.989, -20.7294
1.476, -1, 10.224, 22.6612, 20.5002, 26.0666, -42.8923, -20.7912
1.48, -1, 10.2757, 22.6152, 20.5175, 26.149, -42.7958, -20.8529
1.484, -1, 10.3274, 22.5693, 20.5348, 26.2313, -42.6995, -20.9145
1.488, -1, 10.379, 22.5235, 20.552, 26.3135, -42.6033, -20.976
1.492, -1, 10.4306, 22.4777, 20.5692, 26.3956, -42.5072, -21.0374
1.496, -1, 10.482, 22.432, 20.5864, 26.4775, -42.4113, -21.0987
1.5, -1, 10.5334, 22.3864, 20.6035, 26.5593, -42.3154, -21.16
1.504, -1, 10.5848, 22.3408, 20.6207, 26.641, -42.2198, -21.2212
1.508, -1, 10.636, 22.2953, 20.6378, 26.7226, -42.1242, -21.2822
1.512, -1, 10.6872, 22.2499, 20.6549, 26.8041, -42.0288, -21.3432
1.516, -1, 10.7383, 22.2045, 20.6719, 26.8855, -41.9336, -21.4041
1.52, -1, 10.7893, 22.1592, 20.689, 26.9667, -41.8384, -21.4649
1.524, -1, 10.8403, 22.114, 20.706, 27.0479, -41.7434, -21.5257
1.528, -1, 10.8912, 22.0688, 20.723, 27.1289, -41.6485, -21.5863
1.532, -1, 10.942, 22.0237, 20.74, 27.2098, -41.5538, -21.6469
1.536, -1, 10.9928, 21.9786, 20.7569, 27.2906, -41.4592, -21.7074
1.54, -1, 11.0435, 21.9336, 20.7738, 27.3713, -41.3647, -21.7678
1.544, -1, 11.0941, 21.8887, 20.7908, 27.4519, -41.2703, -21.8281
1.548, -1, 11.1446, 21.8438, 20.8076, 27.5324, -41.1761, -21.8884
1.552, -1, 11.1951, 21.799, 20.8245, 27.6127, -41.082, -21.9485
1.556, -1, 11.2455, 21.7542, 20.8413, 27.693, -40.988, -22.0086
1.56, -1, 11.2959, 21.7095, 20.8581, 27.7732, -40.8941, -22.0686
1.564, -1, 11.3462, 21.6649, 20.8749, 27.8532, -40.8004, -22.1285
1.568, -1, 11.3964, 21.6203, 20.8917, 27.9331, -40.7068, -22.1884
1.572, -1, 11.4465, 21.5758, 20.9084, 28.013, -40.6133, -22.2481
1.576, -1, 11.4966, 21.5313, 20.9251, 28.0927, -40.52, -22.3078
1.58, -1, 11.5466, 21.4869, 20.9418, 28.1723, -40.4268, -22.3674
1.584, -1, 11.5965, 21.4426, 20.9585, 28.2518, -40.3336, -22.4269
1.588, -1, 11.6464, 21.3983, 20.9752, 28.3313, -40.2407, -22.4864
1.592, -1, 11.6962, 21.3541, 20.9918, 28.4106, -40.1478, -22.5457
1.596, -1, 11.746, 21.3099, 21.0084, 28.4898, -40.0551, -22.605
1.6, -1, 11.7957, 21.2658, 21.025, 28.5689, -39.9624, -22.6642
1.604, -1, 11.8453, 21.2217, 21.0416, 28.6479, -39.8699, -22.7234
1.608, -1, 11.8948, 21.1778, 21.0581, 28.7268, -39.7776, -22.7824
1.612, -1, 11.9443, 21.1338, 21.0747, 28.8055, -39.6853, -22.8414
1.616, -1, 11.9938, 21.0899, 21.0912, 28.8842, -39.5932, -22.9003
1.62, -1, 12.0431, 21.0461, 21.1076, 28.9628, -39.5011, -22.9591
1.624, -1, 12.0924, 21.0023, 21.1241, 29.0413, -39.4092, -23.0179
1.628, -1, 12.1417, 20.9586, 21.1405, 29.1197, -39.3174, -23.0765
1.632, -1, 12.1908, 20.915, 21.157, 29.198, -39.2258, -23.1352
1.636, -1, 12.2399, 20.8714, 21.1734, 29.2762, -39.1342, -23.1937
1.64, -1, 12.289, 20.8278, 21.1897, 29.3543, -39.0428, -23.2521
1.644, -1, 12.338, 20.7843, 21.2061, 29.4323, -38.9515, -23.3105
1.648, -1, 12.3869, 20.7409, 21.2224, 29.5102, -38.8603, -23.3688
1.652, -1, 12.4358, 20.6975, 21.2388, 29.588, -38.7692, -23.4271
1.656, -1, 12.4846, 20.6542, 21.2551, 29.6657, -38.6782, -23.4852
1.66, -1, 12.5333, 20.6109, 21.2713, 29.7433, -38.5873, -23.5433
1.664, -1, 12.582, 20.5677, 21.2876, 29.8208, -38.4966, -23.6013
1.668, -1, 12.6306, 20.5245, 21.3038, 29.8982, -38.4059, -23.6593
1.672, -1, 12.6792, 20.4814, 21.32, 29.9755, -38.3154, -23.7171
1.676, -1, 12.7277, 20.4384, 21.3362, 30.0527, -38.225, -23.7749
1.68, -1, 12.7761, 20.3953, 21.3524, 30.1298, -38.1347, -23.8327
1.684, -1, 12.8245, 20.3524, 21.3686, 30.2069, -38.0445, -23.8903
1.688, -1, 12.8728, 20.3095, 21.3847, 30.2838, -37.9544, -23.9479
1.692, -1, 12.9211, 20.2666, 21.4008, 30.3606, -37.8644, -24.0054
1.696, -1, 12.9693, 20.2238, 21.4169, 30.4374, -37.7746, -24.0629
1.7, -1, 13.0174, 20.1811, 21.433, 30.514, -37.6848, -24.1203
1.704, -1, 13.0655, 20.1384, 21.449, 30.5906, -37.5951, -24.1776
1.708, -1, 13.1136, 20.0958, 21.4651, 30.6671, -37.5056, -24.2348
1.712, -1, 13.1615, 20.0532, 21.4811, 30.7435, -37.4162, -24.292
1.716, -1, 13.2094, 20.0106, 21.4971, 30.8197, -37.3269, -24.3491
1.72, -1, 13.2573, 19.9681, 21.5131, 30.8959, -37.2376, -24.4061
1.724, -1, 13.3051, 19.9257, 21.529, 30.972, -37.1485, -24.4631
1.728, -1, 13.3528, 19.8833, 21.545, 31.0481, -37.0595, -24.52
1.732, -1, 13.4005, 19.841, 21.5609, 31.124, -36.9706, -24.5768
1.736, -1, 13.4482, 19.7987, 21.5768, 31.1998, -36.8818, -24.6336
1.74, -1, 13.4957, 19.7565, 21.5927, 31.2756, -36.7931, -24.6903
1.744, -1, 13.5433, 19.7143, 21.6086, 31.3512, -36.7045, -24.7469
1.748, -1, 13.5907, 19.6721, 21.6244, 31.4268, -36.6161, -24.8035
1.752, -1, 13.6381, 19.63, 21.6402, 31.5023, -36.5277, -24.86
1.756, -1, 13.6855, 19.588, 21.6561, 31.5776, -36.4394, -24.9164
1.76, -1, 13.7328, 19.546, 21.6719, 31.6529, -36.3512, -24.9728
1.764, -1, 13.78, 19.5041, 21.6876, 31.7282, -36.2632, -25.0291
1.768, -1, 13.8272, 19.4622, 21.7034, 31.8033, -36.1752, -25.0853
1.772, -1, 13.8743, 19.4203, 21.7191, 31.8783, -36.0873, -25.1415
1.776, -1, 13.9214, 19.3785, 21.7348, 31.9533, -35.9996, -25.1976
1.78, -1, 13.9684, 19.3368, 21.7505, 32.0281, -35.9119, -25.2536
1.784, -1, 14.0154, 19.2951, 21.7662, 32.1029, -35.8243, -25.3096
1.788, -1, 14.0623, 19.2534, 21.7819, 32.1776, -35.7369, -25.3655
1.792, -1, 14.1092, 19.2118, 21.7975, 32.2522, -35.6495, -25.4214
1.796, -1, 14.156, 19.1703, 21.8132, 32.3268, -35.5622, -25.4772
1.8, -1, 14.2027, 19.1288, 21.8288, 32.4012, -35.4751, -25.5329
1.804, -1, 14.2494, 19.0873, 21.8444, 32.4756, -35.388, -25.5886
1.808, -1, 14.2961, 19.0459, 21.86, 32.5498, -35.301, -25.6442
1.812, -1, 14.3427, 19.0045, 21.8755, 32.624, -35.2142, -25.6997
1.816, -1, 14.3892, 18.9632, 21.8911, 32.6981, -35.1274, -25.7552
1.82, -1, 14.4357, 18.9219, 21.9066, 32.7722, -35.0407, -25.8106
1.824, -1, 14.4822, 18.8807, 21.9221, 32.8461, -34.9541, -25.8659
1.828, -1, 14.5286, 18.8395, 21.9376, 32.92, -34.8676, -25.9212
1.832, -1, 14.5749, 18.7983, 21.9531, 32.9938, -34.7813, -25.9764
1.836, -1, 14.6212, 18.7572, 21.9685, 33.0675, -34.695, -26.0316
1.84, -1, 14.6674, 18.7162, 21.984, 33.1411, -34.6088, -26.0867
1.844, -1, 14.7136, 18.6752, 21.9994, 33.2146, -34.5227, -26.1418
1.848, -1, 14.7598, 18.6342, 22.0148, 33.2881, -34.4367, -26.1967
1.852, -1, 14.8058, 18.5933, 22.0302, 33.3614, -34.3507, -26.2517
1.856, -1, 14.8519, 18.5524, 22.0456, 33.4347, -34.2649, -26.3065
1.86, -1, 14.8979, 18.5116, 22.0609, 33.5079, -34.1792, -26.3613
1.864, -1, 14.9438, 18.4708, 22.0762, 33.5811, -34.0936, -26.4161
1.868, -1, 14.9897, 18.4301, 22.0916, 33.6541, -34.008, -26.4708
1.872, -1, 15.0355, 18.3894, 22.1069, 33.7271, -33.9226, -26.5254
1.876, -1, 15.0813, 18.3487, 22.1222, 33.8, -33.8372, -26.58
1.88, -1, 15.127, 18.3081, 22.1374, 33.8728, -33.7519, -26.6345
1.884, -1, 15.1727, 18.2676, 22.1527, 33.9456, -33.6668, -26.6889
1.888, -1, 15.2184, 18.227, 22.1679, 34.0182, -33.5817, -26.7433
1.892, -1, 15.264, 18.1866, 22.1832, 34.0908, -33.4967, -26.7976
1.896, -1, 15.3095, 18.1461, 22.1984, 34.1633, -33.4118, -26.8519
1.9, -1, 15.355, 18.1057, 22.2136, 34.2358, -33.3269, -26.9062
1.904, -1, 15.4004, 18.0654, 22.2287, 34.3081, -33.2422, -26.9603
1.908, -1, 15.4458, 18.0251, 22.2439, 34.3804, -33.1576, -27.0144
1.912, -1, 15.4912, 17.9848, 22.259, 34.4526, -33.073, -27.0685
1.916, -1, 15.5365, 17.9446, 22.2742, 34.5248, -32.9886, -27.1225
1.92, -1, 15.5818, 17.9044, 22.2893, 34.5968, -32.9042, -27.1764
1.924, -1, 15.627, 17.8643, 22.3044, 34.6688, -32.8199, -27.2303
1.928, -1, 15.6721, 17.8242, 22.3195, 34.7407, -32.7357, -27.2841
1.932, -1, 15.7173, 17.7841, 22.3345, 34.8126, -32.6516, -27.3379
1.936, -1, 15.7623, 17.7441, 22.3496, 34.8843, -32.5676, -27.3916
1.94, -1, 15.8073, 17.7041, 22.3646, 34.956, -32.4836, -27.4453
1.944, -1, 15.8523, 17.6642, 22.3796, 35.0276, -32.3997, -27.4989
1.948, -1, 15.8973, 17.6243, 22.3946, 35.0992, -32.316, -27.5524
1.952, -1, 15.9422, 17.5844, 22.4096, 35.1707, -32.2323, -27.6059
1.956, -1, 15.987, 17.5446, 22.4246, 35.2421, -32.1487, -27.6594
1.96, -1, 16.0318, 17.5048, 22.4396, 35.3134, -32.0652, -27.7128
1.964, -1, 16.0765, 17.4651, 22.4545, 35.3846, -31.9817, -27.7661
1.968, -1, 16.1212, 17.4254, 22.4694, 35.4558, -31.8984, -27.8194
1.972, -1, 16.1659, 17.3858, 22.4844, 35.5269, -31.8151, -27.8726
1.976, -1, 16.2105, 17.3461, 22.4993, 35.598, -31.7319, -27.9258
1.98, -1, 16.2551, 17.3066, 22.5141, 35.6689, -31.6488, -27.9789
1.984, -1, 16.2996, 17.267, 22.529, 35.7398, -31.5658, -28.032
1.988, -1, 16.3441, 17.2275, 22.5439, 35.8107, -31.4829, -28.085
1.992, -1, 16.3886, 17.1881, 22.5587, 35.8814, -31.4, -28.138
1.996, -1, 16.433, 17.1487, 22.5735, 35.9521, -31.3173, -28.1909
1.999, -1, 16.4773, 17.1093, 22.5883, 36.0228, -31.2346, -28.2438
2.004, -1, 16.5216, 17.0699, 22.6031, 36.0933, -31.1519, -28.2966
2.008, -1, 16.5659, 17.0306, 22.6179, 36.1638, -31.0694, -28.3493
2.012, -1, 16.6101, 16.9914, 22.6327, 36.2342, -30.987, -28.4021
2.015, -1, 16.6543, 16.9521, 22.6474, 36.3046, -30.9046, -28.4547
2.019, -1, 16.6984, 16.9129, 22.6622, 36.3748, -30.8223, -28.5073
2.024, -1, 16.7425, 16.8738, 22.6769, 36.445, -30.7401, -28.5599
2.028, -1, 16.7866, 16.8347, 22.6916, 36.5152, -30.658, -28.6124
2.031, -1, 16.8306, 16.7956, 22.7063, 36.5853, -30.5759, -28.6648
2.036, -1, 16.8746, 16.7566, 22.721, 36.6553, -30.4939, -28.7172
2.04, -1, 16.9185, 16.7176, 22.7357, 36.7252, -30.412, -28.7696
2.044, -1, 16.9624, 16.6786, 22.7503, 36.7951, -30.3302, -28.8219
2.048, -1, 17.0062, 16.6397, 22.765, 36.8649, -30.2485, -28.8742
2.051, -1, 17.05, 16.6008, 22.7796, 36.9346, -30.1668, -28.9264
2.055, -1, 17.0938, 16.5619, 22.7942, 37.0043, -30.0852, -28.9785
2.06, -1, 17.1375, 16.5231, 22.8088, 37.0739, -30.0037, -29.0306
2.064, -1, 17.1811, 16.4844, 22.8234, 37.1435, -29.9223, -29.0827
2.068, -1, 17.2244, 16.4458, 22.8379, 37.2129, -29.841, -29.1347
2.071, -1, 17.2671, 16.4077, 22.8523, 37.2823, -29.7597, -29.1866
2.076, -1, 17.3088, 16.3701, 22.8666, 37.3515, -29.6787, -29.2384
2.08, -1, 17.3495, 16.3335, 22.8807, 37.4204, -29.5981, -29.29
2.084, -1, 17.3888, 16.2979, 22.8945, 37.4888, -29.518, -29.3412
2.087, -1, 17.4267, 16.2635, 22.9079, 37.5564, -29.4389, -29.3918
2.092, -1, 17.4632, 16.2306, 22.921, 37.6229, -29.3611, -29.4417
2.096, -1, 17.4983, 16.1992, 22.9337, 37.6879, -29.2851, -29.4903
2.1, -1, 17.5321, 16.1694, 22.9459, 37.7508, -29.2115, -29.5374
2.104, -1, 17.5644, 16.1411, 22.9576, 37.8112, -29.1408, -29.5827
2.107, -1, 17.5951, 16.1145, 22.9686, 37.8686, -29.0737, -29.6257
2.111, -1, 17.624, 16.0896, 22.9791, 37.9226, -29.0106, -29.6661
2.116, -1, 17.6513, 16.0662, 22.9888, 37.9726, -28.9521, -29.7035
2.12, -1, 17.6768, 16.044, 22.9978, 38.0183, -28.8986, -29.7378
2.124, -1, 17.7009, 16.023, 23.0061, 38.0595, -28.8504, -29.7686
2.127, -1, 17.7234, 16.0029, 23.0137, 38.0959, -28.8078, -29.7958
2.132, -1, 17.7446, 15.9838, 23.0205, 38.1275, -28.7707, -29.8195
2.136, -1, 17.7642, 15.9657, 23.0267, 38.1546, -28.739, -29.8397
2.14, -1, 17.7823, 15.9489, 23.0321, 38.1772, -28.7125, -29.8566
2.143, -1, 17.7986, 15.9337, 23.0368, 38.1957, -28.6907, -29.8705
2.148, -1, 17.8131, 15.9202, 23.0409, 38.2106, -28.6732, -29.8816
2.152, -1, 17.8259, 15.9085, 23.0443, 38.2223, -28.6594, -29.8904
2.156, -1, 17.8371, 15.8987, 23.0471, 38.2313, -28.6488, -29.8971
2.16, -1, 17.8467, 15.8905, 23.0494, 38.2381, -28.6409, -29.9021
2.163, -1, 17.855, 15.8838, 23.0513, 38.243, -28.635, -29.9058
2.168, -1, 17.8619, 15.8785, 23.0527, 38.2465, -28.6308, -29.9084
2.172, -1, 17.8674, 15.8744, 23.0538, 38.249, -28.6279, -29.9103
2.176, 2, 17.8716, 15.8714, 23.0546, 38.2507, -28.6258, -29.9115
2.179, 2, 17.8747, 15.8692, 23.0552, 38.2519, -28.6245, -29.9124
2.184, 2, 17.8769, 15.8677, 23.0556, 38.2527, -28.6235, -29.913
2.188, 2, 17.8784, 15.8667, 23.0558, 38.2532, -28.6229, -29.9134
2.192, 2, 17.8794, 15.866, 23.056, 38.2536, -28.6224, -29.9137
2.196, 2, 17.8801, 15.8655, 23.0561, 38.2538, -28.6221, -29.9138
2.199, 2, 17.8806, 15.8652, 23.0562, 38.254, -28.6219, -29.914
2.204, 2, 17.8809, 15.865, 23.0563, 38.2541, -28.6218, -29.9141
2.208, 2, 17.8811, 15.8649, 23.0563, 38.2542, -28.6217, -29.9141
2.212, 2, 17.8813, 15.8648, 23.0563, 38.2543, -28.6217, -29.9141
2.216, 2, 17.8814, 15.8647, 23.0564, 38.2543, -28.6216, -29.9142
2.219, 2, 17.8814, 15.8646, 23.0564, 38.2543, -28.6216, -29.9142
2.224, 2, 17.8815, 15.8646, 23.0564, 38.2543, -28.6216, -29.9142
2.228, 2, 17.8815, 15.8646, 23.0564, 38.2543, -28.6215, -29.9142
2.232, 2, 17.8815, 15.8646, 23.0564, 38.2543, -28.6215, -29.9142
2.235, 2, 17.8815, 15.8646, 23.0564, 38.2544, -28.6215, -29.9142
2.24, 2, 17.8815, 15.8646, 23.0564, 38.2544, -28.6215, -29.9142
2.244, 2, 17.8816, 15.8646, 23.0564, 38.2544, -28.6215, -29.9142
2.248, 2, 17.8816, 15.8646, 23.0564, 38.2544, -28.6215, -29.9142
2.252, 2, 17.8816, 15.8646, 23.0564, 38.2544, -28.6215, -29.9142
2.255, 2, 17.8816, 15.8646, 23.0564, 38.2544, -28.6215, -29.9142
2.259, 2, 17.8816, 15.8646, 23.0564, 38.2544, -28.6215, -29.9142
2.264, 2, 17.8816, 15.8645, 23.0564, 38.2544, -28.6215, -29.9142
2.268, 2, 17.8816, 15.8645, 23.0564, 38.2544, -28.6215, -29.9142
2.272, 2, 17.8816, 15.8645, 23.0564, 38.2544, -28.6215, -29.9142
2.275, 2, 17.8816, 15.8645, 23.0564, 38.2544, -28.6215, -29.9142
2.28, 2, 17.8816, 15.8645, 23.0564, 38.2544, -28.6215, -29.9142
2.284, 2, 17.8816, 15.8645, 23.0564, 38.2544, -28.6215, -29.9142
2.288, 2, 17.8816, 15.8645, 23.0564, 38.2544, -28.6215, -29.9142
2.291, 2, 17.8816, 15.8645, 23.0564, 38.2544, -28.6215, -29.9142
2.296, 2, 17.8816, 15.8645, 23.0564, 38.2544, -28.6215, -29.9142
2.3, 2, 17.8816, 15.8645, 23.0564, 38.2544, -28.6215, -29.9142
2.304, 2, 17.8816, 15.8645, 23.0564, 38.2544, -28.6215, -29.9142
2.308, 2, 17.8816, 15.8645, 23.0564, 38.2544, -28.6215, -29.9142
2.311, 2, 17.8816, 15.8645, 23.0564, 38.2544, -28.6215, -29.9142
2.316, 2, 17.8816, 15.8645, 23.0564, 38.2544, -28.6215, -29.9142
2.32, 2, 17.8816, 15.8645, 23.0564, 38.2544, -28.6215, -29.9142
2.324, 2, 17.8816, 15.8645, 23.0564, 38.2544, -28.6215, -29.9142
2.328, 2, 17.8816, 15.8645, 23.0564, 38.2544, -28.6215, -29.9142
2.331, 2, 17.8816, 15.8645, 23.0564, 38.2544, -28.6215, -29.9142
2.336, 2, 17.8816, 15.8645, 23.0564, 38.2544, -28.6215, -29.9142
2.34, 2, 17.8816, 15.8645, 23.0564, 38.2544, -28.6215, -29.9142
2.344, 2, 17.8816, 15.8645, 23.0564, 38.2544, -28.6215, -29.9142
2.347, 2, 17.8816, 15.8645, 23.0564, 38.2544, -28.6215, -29.9142
2.352, 2, 17.8816, 15.8645, 23.0564, 38.2544, -28.6215, -29.9142
2.356, 2, 17.8816, 15.8645, 23.0564, 38.2544, -28.6215, -29.9142
2.36, 2, 17.8816, 15.8645, 23.0564, 38.2544, -28.6215, -29.9142
2.364, 2, 17.8816, 15.8645, 23.0564, 38.2544, -28.6215, -29.9142
2.367, 2, 17.8816, 15.8645, 23.0564, 38.2544, -28.6215, -29.9142
2.372, 2, 17.8816, 15.8645, 23.0564, 38.2544, -28.6215, -29.9142
2.376, 2, 17.8816, 15.8645, 23.0564, 38.2544, -28.6215, -29.9142
2.38, 2, 17.8816, 15.8645, 23.0564, 38.2544, -28.6215, -29.9142
2.383, 2, 17.8816, 15.8645, 23.0564, 38.2544, -28.6215, -29.9142
2.388, 2, 17.8816, 15.8645, 23.0564, 38.2544, -28.6215, -29.9142
2.392, 2, 17.8816, 15.8645, 23.0564, 38.2544, -28.6215, -29.9142
2.396, 2, 17.8816, 15.8645, 23.0564, 38.2544, -28.6215, -29.9142
2.4, 2, 17.8816, 15.8645, 23.0564, 38.2544, -28.6215, -29.9142
2.403, 2, 17.8816, 15.8645, 23.0564, 38.2544, -28.6215, -29.9142
2.408, 2, 17.8816, 15.8645, 23.0564, 38.2544, -28.6215, -29.9142
2.412, 2, 17.8816, 15.8645, 23.0564, 38.2544, -28.6215, -29.9142
2.416, 2, 17.8816, 15.8645, 23.0564, 38.2544, -28.6215, -29.9142
2.42, 2, 17.8816, 15.8645, 23.0564, 38.2544, -28.6215, -29.9142
2.423, 2, 17.8816, 15.8645, 23.0564, 38.2544, -28.6215, -29.9142
2.428, 2, 17.8816, 15.8645, 23.0564, 38.2544, -28.6215, -29.9142
2.432, 2, 17.8816, 15.8645, 23.0564, 38.2544, -28.6215, -29.9142
2.436, 2, 17.8816, 15.8645, 23.0564, 38.2544, -28.6215, -29.9142
2.439, 2, 17.8816, 15.8645, 23.0564, 38.2544, -28.6215, -29.9142
2.444, 2, 17.8816, 15.8645, 23.0564, 38.2544, -28.6215, -29.9142
2.448, 2, 17.8816, 15.8645, 23.0564, 38.2544, -28.6215, -29.9142
2.452, 2, 17.8816, 15.8645, 23.0564, 38.2544, -28.6215, -29.9142
2.456, 2, 17.8816, 15.8645, 23.0564, 38.2544, -28.6215, -29.9142
2.459, 2, 17.8816, 15.8645, 23.0564, 38.2544, -28.6215, -29.9142
2.464, 2, 17.8816, 15.8645, 23.0564, 38.2544, -28.6215, -29.9142
2.468, 2, 17.8816, 15.8645, 23.0564, 38.2544, -28.6215, -29.9142
2.472, 2, 17.8816, 15.8645, 23.0564, 38.2544, -28.6215, -29.9142
2.476, 2, 17.8816, 15.8645, 23.0564, 38.2544, -28.6215, -29.9142
2.479, 2, 17.8816, 15.8645, 23.0564, 38.2544, -28.6215, -29.9142
2.484, 2, 17.8816, 15.8645, 23.0564, 38.2544, -28.6215, -29.9142
2.488, 2, 17.8816, 15.8645, 23.0564, 38.2544, -28.6215, -29.9142
2.492, 2, 17.8816, 15.8645, 23.0564, 38.2544, -28.6215, -29.9142
2.495, 2, 17.8816, 15.8645, 23.0564, 38.2544, -28.6215, -29.9142
2.5, 2, 17.8816, 15.8645, 23.0564, 38.2544, -28.6215, -29.9142
2.504, 2, 17.8816, 15.8645, 23.0564, 38.2544, -28.6215, -29.9142
2.508, 2, 17.8816, 15.8645, 23.0564, 38.2544, -28.6215, -29.9142
2.512, 2, 17.8816, 15.8645, 23.0564, 38.2544, -28.6215, -29.9142
2.515, 2, 17.8816, 15.8645, 23.0564, 38.2544, -28.6215, -29.9142
2.52, 2, 17.8816, 15.8645, 23.0564, 38.2544, -28.6215, -29.9142
2.524, 2, 17.8816, 15.8645, 23.0564, 38.2544, -28.6215, -29.9142
2.528, 2, 17.8816, 15.8645, 23.0564, 38.2544, -28.6215, -29.9142
2.531, 2, 17.8816, 15.8645, 23.0564, 38.2544, -28.6215, -29.9142
2.536, 2, 17.8816, 15.8645, 23.0564, 38.2544, -28.6215, -29.9142
2.54, 2, 17.8816, 15.8645, 23.0564, 38.2544, -28.6215, -29.9142
2.544, 2, 17.8816, 15.8645, 23.0564, 38.2544, -28.6215, -29.9142
2.548, 2, 17.8816, 15.8645, 23.0564, 38.2544, -28.6215, -29.9142
2.551, 2, 17.8816, 15.8645, 23.0564, 38.2544, -28.6215, -29.9142
2.556, 2, 17.8816, 15.8645, 23.0564, 38.2544, -28.6215, -29.9142
2.56, 2, 17.8816, 15.8645, 23.0564, 38.2544, -28.6215, -29.9142
2.564, 2, 17.8816, 15.8645, 23.0564, 38.2544, -28.6215, -29.9142
2.568, 2, 17.8816, 15.8645, 23.0564, 38.2544, -28.6215, -29.9142
2.571, 2, 17.8816, 15.8645, 23.0564, 38.2544, -28.6215, -29.9142
2.576, 2, 17.8816, 15.8645, 23.0564, 38.2544, -28.6215, -29.9142
2.58, 2, 17.8816, 15.8645, 23.0564, 38.2544, -28.6215, -29.9142
2.584, 2, 17.8816, 15.8645, 23.0564, 38.2544, -28.6215, -29.9142
2.587, 2, 17.8816, 15.8645, 23.0564, 38.2544, -28.6215, -29.9142
2.592, 2, 17.8816, 15.8645, 23.0564, 38.2544, -28.6215, -29.9142
2.596, 2, 17.8816, 15.8645, 23.0564, 38.2544, -28.6215, -29.9142
2.6, 2, 17.8816, 15.8645, 23.0564, 38.2544, -28.6215, -29.9142
2.604, 2, 17.8816, 15.8645, 23.0564, 38.2544, -28.6215, -29.9142
2.607, 2, 17.8816, 15.8645, 23.0564, 38.2544, -28.6215, -29.9142
2.612, 2, 17.8816, 15.8645, 23.0564, 38.2544, -28.6215, -29.9142
2.616, 2, 17.8816, 15.8645, 23.0564, 38.2544, -28.6215, -29.9142
2.62, 2, 17.8816, 15.8645, 23.0564, 38.2544, -28.6215, -29.9142
2.624, 2, 17.8816, 15.8645, 23.0564, 38.2544, -28.6215, -29.9142
2.627, 2, 17.8816, 15.8645, 23.0564, 38.2544, -28.6215, -29.9142
2.632, 2, 17.8816, 15.8645, 23.0564, 38.2544, -28.6215, -29.9142
2.636, 2, 17.8816, 15.8645, 23.0564, 38.2544, -28.6215, -29.9142
2.64, 2, 17.8816, 15.8645, 23.0564, 38.2544, -28.6215, -29.9142
2.643, 2, 17.8816, 15.8645, 23.0564, 38.2544, -28.6215, -29.9142
2.648, 2, 17.8816, 15.8645, 23.0564, 38.2544, -28.6215, -29.9142
2.652, 2, 17.8816, 15.8645, 23.0564, 38.2544, -28.6215, -29.9142
2.656, 2, 17.8816, 15.8645, 23.0564, 38.2544, -28.6215, -29.9142
2.66, 2, 17.8816, 15.8645, 23.0564, 38.2544, -28.6215, -29.9142
2.663, 2, 17.8816, 15.8645, 23.0564, 38.2544, -28.6215, -29.9142
2.668, 2, 17.8816, 15.8645, 23.0564, 38.2544, -28.6215, -29.9142
2.672, 2, 17.8816, 15.8645, 23.0564, 38.2544, -28.6215, -29.9142
2.676, 2, 17.8816, 15.8645, 23.0564, 38.2544, -28.6215, -29.9142
2.679, 2, 17.8816, 15.8645, 23.0564, 38.2544, -28.6215, -29.9142
2.684, 2, 17.8816, 15.8645, 23.0564, 38.2544, -28.6215, -29.9142
2.688, 2, 17.8816, 15.8645, 23.0564, 38.2544, -28.6215, -29.9142
2.692, 2, 17.8816, 15.8645, 23.0564, 38.2544, -28.6215, -29.9142
2.696, 2, 17.8816, 15.8645, 23.0564, 38.2544, -28.6215, -29.9142
2.699, 2, 17.8816, 15.8645, 23.0564, 38.2544, -28.6215, -29.9142
2.704, 2, 17.8816, 15.8645, 23.0564, 38.2544, -28.6215, -29.9142
2.708, 2, 17.8816, 15.8645, 23.0564, 38.2544, -28.6215, -29.9142
2.712, 2, 17.8816, 15.8645, 23.0564, 38.2544, -28.6215, -29.9142
2.716, 2, 17.8816, 15.8645, 23.0564, 38.2544, -28.6215, -29.9142
2.719, 2, 17.8816, 15.8645, 23.0564, 38.2544, -28.6215, -29.9142
2.724, 2, 17.8816, 15.8645, 23.0564, 38.2544, -28.6215, -29.9142
2.728, 2, 17.8816, 15.8645, 23.0564, 38.2544, -28.6215, -29.9142
2.732, 2, 17.8816, 15.8645, 23.0564, 38.2544, -28.6215, -29.9142
2.735, 2, 17.8816, 15.8645, 23.0564, 38.2544, -28.6215, -29.9142
2.74, 2, 17.8816, 15.8645, 23.0564, 38.2544, -28.6215, -29.9142
2.744, 2, 17.8816, 15.8645, 23.0564, 38.2544, -28.6215, -29.9142
2.748, 2, 17.8816, 15.8645, 23.0564, 38.2544, -28.6215, -29.9142
2.752, 2, 17.8816, 15.8645, 23.0564, 38.2544, -28.6215, -29.9142
2.755, 2, 17.8816, 15.8645, 23.0564, 38.2544, -28.6215, -29.9142
2.76, 2, 17.8816, 15.8645, 23.0564, 38.2544, -28.6215, -29.9142
2.764, 2, 17.8816, 15.8645, 23.0564, 38.2544, -28.6215, -29.9142
2.768, 2, 17.8816, 15.8645, 23.0564, 38.2544, -28.6215, -29.9142
2.772, 2, 17.8816, 15.8645, 23.0564, 38.2544, -28.6215, -29.9142
2.775, 2, 17.8816, 15.8645, 23.0564, 38.2544, -28.6215, -29.9142
2.78, 2, 17.8816, 15.8645, 23.0564, 38.2544, -28.6215, -29.9142
2.784, 2, 17.8816, 15.8645, 23.0564, 38.2544, -28.6215, -29.9142
2.788, 2, 17.8816, 15.8645, 23.0564, 38.2544, -28.6215, -29.9142
2.791, 2, 17.8816, 15.8645, 23.0564, 38.2544, -28.6215, -29.9142
2.796, 2, 17.8816, 15.8645, 23.0564, 38.2544, -28.6215, -29.9142
2.8, 2, 17.8816, 15.8645, 23.0564, 38.2544, -28.6215, -29.9142
2.804, 2, 17.8816, 15.8645, 23.0564, 38.2544, -28.6215, -29.9142
2.808, 2, 17.8816, 15.8645, 23.0564, 38.2544, -28.6215, -29.9142
2.811, 2, 17.8816, 15.8645, 23.0564, 38.2544, -28.6215, -29.9142
2.816, 2, 17.8816, 15.8645, 23.0564, 38.2544, -28.6215, -29.9142
2.82, 2, 17.8816, 15.8645, 23.0564, 38.2544, -28.6215, -29.9142
2.824, 2, 17.8816, 15.8645, 23.0564, 38.2544, -28.6215, -29.9142
2.828, 2, 17.8816, 15.8645, 23.0564, 38.2544, -28.6215, -29.9142
2.831, 2, 17.8816, 15.8645, 23.0564, 38.2544, -28.6215, -29.9142
2.836, 2, 17.8816, 15.8645, 23.0564, 38.2544, -28.6215, -29.9142
2.84, 2, 17.8816, 15.8645, 23.0564, 38.2544, -28.6215, -29.9142
2.844, 2, 17.8816, 15.8645, 23.0564, 38.2544, -28.6215, -29.9142
2.847, 2, 17.8816, 15.8645, 23.0564, 38.2544, -28.6215, -29.9142
2.852, 2, 17.8816, 15.8645, 23.0564, 38.2544, -28.6215, -29.9142
2.856, 2, 17.8816, 15.8645, 23.0564, 38.2544, -28.6215, -29.9142
2.86, 2, 17.8816, 15.8645, 23.0564, 38.2544, -28.6215, -29.9142
2.864, 2, 17.8816, 15.8645, 23.0564, 38.2544, -28.6215, -29.9142
2.867, 2, 17.8816, 15.8645, 23.0564, 38.2544, -28.6215, -29.9142
2.872, 2, 17.8816, 15.8645, 23.0564, 38.2544, -28.6215, -29.9142
2.876, 2, 17.8816, 15.8645, 23.0564, 38.2544, -28.6215, -29.9142
2.88, 2, 17.8816, 15.8645, 23.0564, 38.2544, -28.6215, -29.9142
2.883, 2, 17.8816, 15.8645, 23.0564, 38.2544, -28.6215, -29.9142
2.888, 2, 17.8816, 15.8645, 23.0564, 38.2544, -28.6215, -29.9142
2.892, 2, 17.8816, 15.8645, 23.0564, 38.2544, -28.6215, -29.9142
2.896, 2, 17.8816, 15.8645, 23.0564, 38.2544, -28.6215, -29.9142
2.9, 2, 17.8816, 15.8645, 23.0564, 38.2544, -28.6215, -29.9142
2.903, 2, 17.8816, 15.8645, 23.0564, 38.2544, -28.6215, -29.9142
2.908, 2, 17.8816, 15.8645, 23.0564, 38.2544, -28.6215, -29.9142
2.912, 2, 17.8816, 15.8645, 23.0564, 38.2544, -28.6215, -29.9142
2.916, 2, 17.8816, 15.8645, 23.0564, 38.2544, -28.6215, -29.9142
2.92, 2, 17.8816, 15.8645, 23.0564, 38.2544, -28.6215, -29.9142
2.923, 2, 17.8816, 15.8645, 23.0564, 38.2544, -28.6215, -29.9142
2.928, 2, 17.8816, 15.8645, 23.0564, 38.2544, -28.6215, -29.9142
2.932, 2, 17.8816, 15.8645, 23.0564, 38.2544, -28.6215, -29.9142
2.936, 2, 17.8816, 15.8645, 23.0564, 38.2544, -28.6215, -29.9142
2.939, 2, 17.8816, 15.8645, 23.0564, 38.2544, -28.6215, -29.9142
2.944, 2, 17.8816, 15.8645, 23.0564, 38.2544, -28.6215, -29.9142
2.948, 2, 17.8816, 15.8645, 23.0564, 38.2544, -28.6215, -29.9142
2.952, 2, 17.8816, 15.8645, 23.0564, 38.2544, -28.6215, -29.9142
2.956, 2, 17.8816, 15.8645, 23.0564, 38.2544, -28.6215, -29.9142
2.959, 2, 17.8816, 15.8645, 23.0564, 38.2544, -28.6215, -29.9142
2.964, 2, 17.8816, 15.8645, 23.0564, 38.2544, -28.6215, -29.9142
2.968, 2, 17.8816, 15.8645, 23.0564, 38.2544, -28.6215, -29.9142
2.972, 2, 17.8816, 15.8645, 23.0564, 38.2544, -28.6215, -29.9142
2.976, 2, 17.8816, 15.8645, 23.0564, 38.2544, -28.6215, -29.9142
2.98, 2, 17.8816, 15.8645, 23.0564, 38.2544, -28.6215, -29.9142
2.984, 2, 17.8816, 15.8645, 23.0564, 38.2544, -28.6215, -29.9142
2.988, 2, 17.8816, 15.8645, 23.0564, 38.2544, -28.6215, -29.9142
2.992, 2, 17.8816, 15.8645, 23.0564, 38.2544, -28.6215, -29.9142
2.995, 2, 17.8816, 15.8645, 23.0564, 38.2544, -28.6215, -29.9142
3, 2, 17.8816, 15.8645, 23.0564, 38.2544, -28.6215, -29.9142
3.004, 2, 17.8816, 15.8645, 23.0564, 38.2544, -28.6215, -29.9142
3.008, 2, 17.8816, 15.8645, 23.0564, 38.2544, -28.6215, -29.9142
3.012, 2, 17.8816, 15.8645, 23.0564, 38.2544, -28.6215, -29.9142
3.015, 2, 17.8816, 15.8645, 23.0564, 38.2544, -28.6215, -29.9142
3.02, 2, 17.8816, 15.8645, 23.0564, 38.2544, -28.6215, -29.9142
3.024, 2, 17.8816, 15.8645, 23.0564, 38.2544, -28.6215, -29.9142
3.028, 2, 17.8816, 15.8645, 23.0564, 38.2544, -28.6215, -29.9142
3.031, 2, 17.8816, 15.8645, 23.0564, 38.2544, -28.6215, -29.9142
3.036, 2, 17.8816, 15.8645, 23.0564, 38.2544, -28.6215, -29.9142
3.04, 2, 17.8816, 15.8645, 23.0564, 38.2544, -28.6215, -29.9142
3.044, 2, 17.8816, 15.8645, 23.0564, 38.2544, -28.6215, -29.9142
3.048, 2, 17.8816, 15.8645, 23.0564, 38.2544, -28.6215, -29.9142
3.051, 2, 17.8816, 15.8645, 23.0564, 38.2544, -28.6215, -29.9142
3.056, 2, 17.8816, 15.8645, 23.0564, 38.2544, -28.6215, -29.9142
3.06, 2, 17.8816, 15.8645, 23.0564, 38.2544, -28.6215, -29.9142
3.064, 2, 17.8816, 15.8645, 23.0564, 38.2544, -28.6215, -29.9142
3.068, 2, 17.8816, 15.8645, 23.0564, 38.2544, -28.6215, -29.9142
3.071, 2, 17.8816, 15.8645, 23.0564, 38.2544, -28.6215, -29.9142
3.076, 2, 17.8816, 15.8645, 23.0564, 38.2544, -28.6215, -29.9142
3.08, 2, 17.8816, 15.8645, 23.0564, 38.2544, -28.6215, -29.9142
3.084, 2, 17.8816, 15.8645, 23.0564, 38.2544, -28.6215, -29.9142
3.087, 2, 17.8816, 15.8645, 23.0564, 38.2544, -28.6215, -29.9142
3.092, 2, 17.8816, 15.8645, 23.0564, 38.2544, -28.6215, -29.9142
3.096, 2, 17.8816, 15.8645, 23.0564, 38.2544, -28.6215, -29.9142
3.1, 2, 17.8816, 15.8645, 23.0564, 38.2544, -28.6215, -29.9142
3.104, 2, 17.8816, 15.8645, 23.0564, 38.2544, -28.6215, -29.9142
3.107, 2, 17.8816, 15.8645, 23.0564, 38.2544, -28.6215, -29.9142
3.112, 2, 17.8816, 15.8645, 23.0564, 38.2544, -28.6215, -29.9142
3.116, 2, 17.8816, 15.8645, 23.0564, 38.2544, -28.6215, -29.9142
3.12, 2, 17.8816, 15.8645, 23.0564, 38.2544, -28.6215, -29.9142
3.124, 2, 17.8816, 15.8645, 23.0564, 38.2544, -28.6215, -29.9142
3.128, 2, 17.8816, 15.8645, 23.0564, 38.2544, -28.6215, -29.9142
3.132, 2, 17.8816, 15.8645, 23.0564, 38.2544, -28.6215, -29.9142
3.136, 2, 17.8816, 15.8645, 23.0564, 38.2544, -28.6215, -29.9142
3.14, 2, 17.8816, 15.8645, 23.0564, 38.2544, -28.6215, -29.9142
3.143, 2, 17.8816, 15.8645, 23.0564, 38.2544, -28.6215, -29.9142
3.148, 2, 17.8816, 15.8645, 23.0564, 38.2544, -28.6215, -29.9142
3.152, 2, 17.8816, 15.8645, 23.0564, 38.2544, -28.6215, -29.9142
3.156, 2, 17.8816, 15.8645, 23.0564, 38.2544, -28.6215, -29.9142
3.16, 2, 17.8816, 15.8645, 23.0564, 38.2544, -28.6215, -29.9142
3.163, 2, 17.8816, 15.8645, 23.0564, 38.2544, -28.6215, -29.9142
3.168, 2, 17.8816, 15.8645, 23.0564, 38.2544, -28.6215, -29.9142
3.172, 2, 17.8816, 15.8645, 23.0564, 38.2544, -28.6215, -29.9142
3.176, 2, 17.8816, 15.8645, 23.0564, 38.2544, -28.6215, -29.9142
3.179, 2, 17.8816, 15.8645, 23.0564, 38.2544, -28.6215, -29.9142
3.184, 2, 17.8816, 15.8645, 23.0564, 38.2544, -28.6215, -29.9142
3.188, 2, 17.8816, 15.8645, 23.0564, 38.2544, -28.6215, -29.9142
3.192, 2, 17.8816, 15.8645, 23.0564, 38.2544, -28.6215, -29.9142
3.196, 2, 17.8816, 15.8645, 23.0564, 38.2544, -28.6215, -29.9142
3.199, 2, 17.8816, 15.8645, 23.0564, 38.2544, -28.6215, -29.9142
3.204, 2, 17.8816, 15.8645, 23.0564, 38.2544, -28.6215, -29.9142
3.208, 2, 17.8816, 15.8645, 23.0564, 38.2544, -28.6215, -29.9142
3.212, 2, 17.8816, 15.8645, 23.0564, 38.2544, -28.6215, -29.9142
3.216, 2, 17.8816, 15.8645, 23.0564, 38.2544, -28.6215, -29.9142
3.22, 2, 17.8816, 15.8645, 23.0564, 38.2544, -28.6215, -29.9142
3.224, 2, 17.8816, 15.8645, 23.0564, 38.2544, -28.6215, -29.9142
3.228, 2, 17.8816, 15.8645, 23.0564, 38.2544, -28.6215, -29.9142
3.232, 2, 17.8816, 15.8645, 23.0564, 38.2544, -28.6215, -29.9142
3.235, 2, 17.8816, 15.8645, 23.0564, 38.2544, -28.6215, -29.9142
3.24, 2, 17.8816, 15.8645, 23.0564, 38.2544, -28.6215, -29.9142
3.244, 2, 17.8816, 15.8645, 23.0564, 38.2544, -28.6215, -29.9142
3.248, 4, 17.8816, 15.8645, 23.0564, 38.2544, -28.6215, -29.9142
3.252, 4, 17.8816, 15.8645, 23.0564, 38.2544, -28.6215, -29.9142
3.255, 4, 17.8816, 15.8645, 23.0564, 38.2544, -28.6215, -29.9142
3.26, 4, 17.8816, 15.8645, 23.0564, 38.2544, -28.6215, -29.9142
3.264, 4, 17.8816, 15.8645, 23.0564, 38.2544, -28.6215, -29.9142
3.268, 4, 17.8816, 15.8645, 23.0564, 38.2544, -28.6215, -29.9142
3.272, 4, 17.8816, 15.8645, 23.0564, 38.2544, -28.6215, -29.9142
3.276, 4, 17.8816, 15.8645, 23.0564, 38.2544, -28.6215, -29.9142
3.28, 4, 17.8816, 15.8645, 23.0564, 38.2544, -28.6215, -29.9142
3.284, 4, 17.8816, 15.8645, 23.0564, 38.2544, -28.6215, -29.9142
3.288, 4, 17.8816, 15.8645, 23.0564, 38.2544, -28.6215, -29.9142
3.291, 4, 17.8816, 15.8645, 23.0564, 38.2544, -28.6215, -29.9142
3.296, 4, 17.8816, 15.8645, 23.0564, 38.2544, -28.6215, -29.9142
3.3, 4, 17.8816, 15.8645, 23.0564, 38.2544, -28.6215, -29.9142
3.304, 4, 17.8816, 15.8645, 23.0564, 38.2544, -28.6215, -29.9142
3.308, 4, 17.8816, 15.8645, 23.0564, 38.2544, -28.6215, -29.9142
3.312, 4, 17.8816, 15.8645, 23.0564, 38.2544, -28.6215, -29.9142
3.316, 4, 17.8816, 15.8645, 23.0564, 38.2544, -28.6215, -29.9142
3.32, 4, 17.8816, 15.8645, 23.0564, 38.2544, -28.6215, -29.9142
3.324, 4, 17.8816, 15.8645, 23.0564, 38.2544, -28.6215, -29.9142
3.328, 4, 17.8816, 15.8645, 23.0564, 38.2544, -28.6215, -29.9142
3.332, 4, 17.8816, 15.8645, 23.0564, 38.2544, -28.6215, -29.9142
3.336, 4, 17.8816, 15.8645, 23.0564, 38.2544, -28.6215, -29.9142
3.34, 4, 17.8816, 15.8645, 23.0564, 38.2544, -28.6215, -29.9142
3.344, 4, 17.8816, 15.8645, 23.0564, 38.2544, -28.6215, -29.9142
3.347, 4, 17.8816, 15.8645, 23.0564, 38.2544, -28.6215, -29.9142
3.353, 4, 17.8816, 15.8645, 23.0564, 38.2544, -28.6215, -29.9142
3.358, 4, 17.8816, 15.8645, 23.0564, 38.2544, -28.6215, -29.9142
3.362, 4, 17.8816, 15.8645, 23.0564, 38.2544, -28.6215, -29.9142
3.364, 4, 17.8816, 15.8645, 23.0564, 38.2544, -28.6215, -29.9142
3.368, 4, 17.8816, 15.8645, 23.0564, 38.2544, -28.6215, -29.9142
3.372, 4, 17.8816, 15.8645, 23.0564, 38.2544, -28.6215, -29.9142
3.376, 4, 17.8816, 15.8645, 23.0564, 38.2544, -28.6215, -29.9142
3.38, 4, 17.8816, 15.8645, 23.0564, 38.2544, -28.6215, -29.9142
3.383, 4, 17.8816, 15.8645, 23.0564, 38.2544, -28.6215, -29.9142
3.388, 4, 17.8815, 15.8645, 23.0564, 38.2544, -28.6215, -29.9142
3.392, 4, 17.8812, 15.8645, 23.0564, 38.2543, -28.6215, -29.9142
3.396, 4, 17.8806, 15.8645, 23.0565, 38.2542, -28.6216, -29.9141
3.4, 4, 17.8793, 15.8645, 23.0566, 38.2539, -28.6217, -29.9139
3.403, 4, 17.8773, 15.8644, 23.0569, 38.2532, -28.6219, -29.9133
3.408, 4, 17.8745, 15.8643, 23.0576, 38.2517, -28.6225, -29.912
3.412, 4, 17.8706, 15.864, 23.0586, 38.2489, -28.6235, -29.9095
3.416, 4, 17.8657, 15.8636, 23.0603, 38.2441, -28.6252, -29.9053
3.42, 5, 17.8595, 15.863, 23.063, 38.2364, -28.628, -29.8984
3.424, 5, 17.8519, 15.862, 23.067, 38.2246, -28.6323, -29.8881
3.428, 5, 17.8425, 15.8607, 23.0726, 38.2075, -28.6384, -29.873
3.432, 5, 17.8311, 15.8589, 23.0804, 38.1837, -28.647, -29.8519
3.436, 5, 17.8174, 15.8565, 23.0908, 38.1514, -28.6587, -29.8234
3.439, 5, 17.801, 15.8533, 23.1043, 38.1089, -28.674, -29.7858
3.444, 5, 17.7821, 15.8494, 23.1216, 38.0543, -28.6938, -29.7375
3.448, 5, 17.7607, 15.8444, 23.143, 37.9859, -28.7187, -29.677
3.452, 5, 17.7368, 15.8384, 23.1691, 37.9021, -28.7494, -29.6029
3.456, 5, 17.7105, 15.8313, 23.2001, 37.8018, -28.7862, -29.5141
3.46, 5, 17.6816, 15.823, 23.2364, 37.684, -28.8296, -29.4099
3.464, 5, 17.6502, 15.8134, 23.2781, 37.5487, -28.8797, -29.2902
3.468, 5, 17.6159, 15.8027, 23.325, 37.3959, -28.9366, -29.155
3.472, 5, 17.5788, 15.7909, 23.3771, 37.2262, -29.0002, -29.005
3.476, 5, 17.5389, 15.778, 23.434, 37.0407, -29.0701, -28.8411
3.48, 5, 17.4963, 15.7641, 23.4954, 36.8407, -29.146, -28.6644
3.484, 5, 17.4512, 15.7495, 23.5609, 36.6277, -29.2273, -28.4764
3.488, 5, 17.4039, 15.7341, 23.6299, 36.4036, -29.3135, -28.2787
3.492, 5, 17.3545, 15.7181, 23.7019, 36.1704, -29.404, -28.073
3.495, 5, 17.3028, 15.7018, 23.7763, 35.9299, -29.498, -27.8611
3.5, 5, 17.2491, 15.6851, 23.8525, 35.684, -29.5949, -27.6445
3.504, 5, 17.1932, 15.6683, 23.9302, 35.4344, -29.6942, -27.4249
3.508, 5, 17.1354, 15.6514, 24.0089, 35.1825, -29.7954, -27.2035
3.512, 5, 17.0757, 15.6346, 24.0882, 34.9294, -29.898, -26.9812
3.516, 5, 17.0146, 15.6179, 24.1678, 34.6759, -30.0018, -26.7588
3.52, 5, 16.9524, 15.6013, 24.2477, 34.4226, -30.1065, -26.5367
3.524, 5, 16.8893, 15.585, 24.3275, 34.17, -30.2119, -26.3155
3.528, 5, 16.8256, 15.5688, 24.4073, 33.9183, -30.3181, -26.0952
3.531, 5, 16.7615, 15.5529, 24.487, 33.6677, -30.4249, -25.876
3.536, 5, 16.6971, 15.5372, 24.5665, 33.4183, -30.5323, -25.6582
3.54, 5, 16.6324, 15.5218, 24.6458, 33.1701, -30.6402, -25.4416
3.544, 5, 16.5676, 15.5066, 24.7248, 32.9233, -30.7486, -25.2264
3.548, 5, 16.5025, 15.4917, 24.8036, 32.6779, -30.8574, -25.0126
3.552, 5, 16.4374, 15.4771, 24.8821, 32.4338, -30.9668, -24.8002
3.556, 5, 16.3721, 15.4627, 24.9604, 32.1912, -31.0766, -24.5893
3.56, 5, 16.3067, 15.4486, 25.0384, 31.9499, -31.1869, -24.3797
3.564, 5, 16.2412, 15.4348, 25.1161, 31.7101, -31.2976, -24.1716
3.568, 5, 16.1756, 15.4213, 25.1936, 31.4716, -31.4087, -23.9649
3.572, 5, 16.1099, 15.408, 25.2708, 31.2345, -31.5203, -23.7596
3.576, 5, 16.0441, 15.3949, 25.3477, 30.9988, -31.6323, -23.5556
3.58, 5, 15.9782, 15.3822, 25.4243, 30.7644, -31.7448, -23.3531
3.584, 5, 15.9122, 15.3697, 25.5007, 30.5315, -31.8576, -23.152
3.587, 5, 15.8462, 15.3575, 25.5768, 30.2999, -31.9709, -22.9522
3.592, 5, 15.78, 15.3456, 25.6526, 30.0696, -32.0846, -22.7539
3.596, 5, 15.7138, 15.3339, 25.7281, 29.8407, -32.1987, -22.5568
3.6, 5, 15.6474, 15.3225, 25.8033, 29.6131, -32.3132, -22.3611
3.604, 5, 15.581, 15.3114, 25.8783, 29.3868, -32.4281, -22.1668
3.608, 5, 15.5145, 15.3006, 25.953, 29.1619, -32.5434, -21.9738
3.612, 5, 15.4479, 15.29, 26.0274, 28.9382, -32.659, -21.7821
3.616, 6, 15.3812, 15.2797, 26.1015, 28.7159, -32.7751, -21.5918
3.62, 6, 15.3144, 15.2696, 26.1754, 28.4948, -32.8916, -21.4027
3.624, 6, 15.2475, 15.2599, 26.249, 28.275, -33.0084, -21.2149
3.628, 6, 15.1806, 15.2504, 26.3223, 28.0565, -33.1257, -21.0285
3.632, 6, 15.1135, 15.2412, 26.3953, 27.8393, -33.2433, -20.8433
3.636, 6, 15.0464, 15.2323, 26.468, 27.6233, -33.3612, -20.6594
3.64, 6, 14.9792, 15.2236, 26.5405, 27.4085, -33.4796, -20.4767
3.644, 6, 14.9119, 15.2152, 26.6127, 27.195, -33.5983, -20.2953
3.648, 6, 14.8445, 15.2071, 26.6846, 26.9827, -33.7174, -20.1151
3.652, 6, 14.777, 15.1993, 26.7562, 26.7716, -33.8368, -19.9362
3.656, 6, 14.7095, 15.1917, 26.8275, 26.5617, -33.9566, -19.7585
3.66, 6, 14.6418, 15.1844, 26.8986, 26.353, -34.0767, -19.582
3.664, 6, 14.5741, 15.1774, 26.9694, 26.1455, -34.1972, -19.4067
3.668, 6, 14.5063, 15.1706, 27.0399, 25.9392, -34.318, -19.2326
3.672, 6, 14.4384, 15.1642, 27.1101, 25.734, -34.4392, -19.0597
3.676, 6, 14.3704, 15.158, 27.18, 25.5301, -34.5607, -18.888
3.679, 6, 14.3023, 15.1521, 27.2497, 25.3272, -34.6825, -18.7175
3.684, 6, 14.2341, 15.1464, 27.319, 25.1255, -34.8047, -18.5481
3.688, 6, 14.1659, 15.1411, 27.3881, 24.925, -34.9272, -18.3799
3.692, 6, 14.0976, 15.136, 27.4569, 24.7256, -35.0501, -18.2129
3.696, 6, 14.0292, 15.1312, 27.5255, 24.5273, -35.1733, -18.047
3.7, 6, 13.9607, 15.1266, 27.5937, 24.3301, -35.2967, -17.8822
3.704, 6, 13.8921, 15.1224, 27.6617, 24.134, -35.4205, -17.7185
3.708, 6, 13.8235, 15.1184, 27.7293, 23.939, -35.5447, -17.5559
3.712, 6, 13.7548, 15.1147, 27.7967, 23.7451, -35.6691, -17.3945
3.716, 6, 13.6859, 15.1113, 27.8638, 23.5523, -35.7938, -17.2341
3.72, 6, 13.6171, 15.1081, 27.9306, 23.3606, -35.9189, -17.0749
3.724, 6, 13.5481, 15.1053, 27.9972, 23.1699, -36.0442, -16.9167
3.728, 6, 13.479, 15.1027, 28.0634, 22.9802, -36.1699, -16.7596
3.732, 6, 13.4099, 15.1004, 28.1294, 22.7916, -36.2958, -16.6035
3.735, 6, 13.3407, 15.0984, 28.195, 22.6041, -36.4221, -16.4485
3.74, 6, 13.2714, 15.0966, 28.2604, 22.4175, -36.5486, -16.2946
3.744, 6, 13.202, 15.0951, 28.3255, 22.232, -36.6754, -16.1417
3.748, 6, 13.1325, 15.0939, 28.3903, 22.0475, -36.8025, -15.9898
3.752, 6, 13.063, 15.093, 28.4549, 21.864, -36.9299, -15.839
3.756, 6, 12.9934, 15.0924, 28.5191, 21.6815, -37.0576, -15.6892
3.76, 6, 12.9237, 15.0921, 28.5831, 21.5, -37.1855, -15.5403
3.764, 6, 12.8539, 15.092, 28.6467, 21.3195, -37.3138, -15.3925
3.768, 6, 12.7841, 15.0922, 28.7101, 21.1399, -37.4423, -15.2457
3.772, 6, 12.7142, 15.0927, 28.7732, 20.9613, -37.571, -15.0999
3.776, 6, 12.6442, 15.0934, 28.836, 20.7837, -37.7001, -14.955
3.78, 6, 12.5741, 15.0945, 28.8985, 20.6071, -37.8294, -14.8111
3.784, 6, 12.5039, 15.0958, 28.9607, 20.4313, -37.959, -14.6682
3.788, 6, 12.4337, 15.0974, 29.0226, 20.2565, -38.0888, -14.5263
3.792, 6, 12.3634, 15.0993, 29.0843, 20.0827, -38.2189, -14.3853
3.796, 6, 12.293, 15.1015, 29.1456, 19.9098, -38.3492, -14.2452
3.8, 7, 12.2226, 15.1039, 29.2067, 19.7378, -38.4798, -14.1061
3.804, 7, 12.1521, 15.1066, 29.2674, 19.5667, -38.6107, -13.9679
3.808, 7, 12.0815, 15.1097, 29.3279, 19.3965, -38.7418, -13.8306
3.812, 7, 12.0108, 15.1129, 29.3881, 19.2272, -38.8731, -13.6943
3.816, 7, 11.94, 15.1165, 29.448, 19.0588, -39.0047, -13.5589
3.82, 7, 11.8692, 15.1204, 29.5076, 18.8912, -39.1365, -13.4243
3.824, 7, 11.7983, 15.1245, 29.5669, 18.7246, -39.2686, -13.2907
3.828, 7, 11.7273, 15.1289, 29.626, 18.5588, -39.4009, -13.1579
3.832, 7, 11.6563, 15.1336, 29.6847, 18.3939, -39.5334, -13.026
3.836, 7, 11.5852, 15.1386, 29.7431, 18.2298, -39.6662, -12.895
3.84, 7, 11.514, 15.1438, 29.8013, 18.0666, -39.7992, -12.7649
3.844, 7, 11.4427, 15.1494, 29.8591, 17.9042, -39.9324, -12.6356
3.848, 7, 11.3714, 15.1552, 29.9167, 17.7427, -40.0659, -12.5072
3.852, 7, 11.3, 15.1613, 29.9739, 17.582, -40.1996, -12.3797
3.856, 7, 11.2285, 15.1677, 30.0309, 17.4221, -40.3335, -12.2529
3.86, 7, 11.157, 15.1743, 30.0876, 17.263, -40.4676, -12.1271
3.864, 7, 11.0854, 15.1813, 30.144, 17.1047, -40.6019, -12.002
3.868, 7, 11.0137, 15.1885, 30.2001, 16.9473, -40.7365, -11.8778
3.872, 7, 10.942, 15.196, 30.2559, 16.7906, -40.8713, -11.7543
3.876, 7, 10.8702, 15.2038, 30.3114, 16.6347, -41.0062, -11.6317
3.88, 7, 10.7983, 15.2119, 30.3666, 16.4796, -41.1414, -11.5099
3.884, 7, 10.7263, 15.2203, 30.4215, 16.3253, -41.2768, -11.3889
3.888, 7, 10.6543, 15.2289, 30.4761, 16.1717, -41.4124, -11.2687
3.892, 7, 10.5823, 15.2378, 30.5304, 16.0189, -41.5482, -11.1492
3.896, 7, 10.5101, 15.247, 30.5844, 15.8669, -41.6842, -11.0306
3.9, 7, 10.4379, 15.2565, 30.6381, 15.7156, -41.8204, -10.9127
3.904, 7, 10.3656, 15.2663, 30.6916, 15.5651, -41.9568, -10.7956
3.908, 7, 10.2933, 15.2763, 30.7447, 15.4153, -42.0934, -10.6792
3.912, 7, 10.2209, 15.2866, 30.7975, 15.2662, -42.2302, -10.5636
3.916, 7, 10.1484, 15.2972, 30.85, 15.1179, -42.3672, -10.4487
3.92, 7, 10.0758, 15.3081, 30.9023, 14.9703, -42.5043, -10.3346
3.924, 7, 10.0032, 15.3193, 30.9542, 14.8234, -42.6417, -10.2212
3.928, 7, 9.93058, 15.3308, 31.0058, 14.6772, -42.7792, -10.1086
3.932, 7, 9.85785, 15.3425, 31.0572, 14.5317, -42.9169, -9.99667
3.936, 7, 9.78506, 15.3545, 31.1082, 14.3869, -43.0548, -9.88547
3.94, 7, 9.71221, 15.3668, 31.1589, 14.2429, -43.1929, -9.77499
3.944, 7, 9.6393, 15.3794, 31.2094, 14.0995, -43.3311, -9.66521
3.948, 7, 9.56632, 15.3923, 31.2595, 13.9568, -43.4695, -9.55614
3.952, 7, 9.49329, 15.4054, 31.3093, 13.8148, -43.6081, -9.44777
3.956, 7, 9.4202, 15.4188, 31.3588, 13.6734, -43.7469, -9.3401
3.96, 7, 9.34704, 15.4326, 31.4081, 13.5327, -43.8858, -9.23312
3.964, 7, 9.27383, 15.4465, 31.457, 13.3927, -44.0249, -9.12682
3.968, 7, 9.20055, 15.4608, 31.5056, 13.2534, -44.1642, -9.0212
3.972, 7, 9.12722, 15.4754, 31.5539, 13.1147, -44.3036, -8.91626
3.976, 7, 9.05383, 15.4902, 31.602, 12.9766, -44.4432, -8.81198
3.98, 8, 8.98039, 15.5053, 31.6497, 12.8392, -44.5829, -8.70838
3.984, 8, 8.90689, 15.5207, 31.6971, 12.7024, -44.7228, -8.60543
3.988, 8, 8.83333, 15.5364, 31.7442, 12.5663, -44.8629, -8.50314
3.992, 8, 8.75971, 15.5524, 31.791, 12.4308, -45.0031, -8.40149
3.996, 8, 8.68604, 15.5686, 31.8375, 12.2959, -45.1435, -8.3005
3.999, 8, 8.61231, 15.5851, 31.8837, 12.1617, -45.284, -8.20014
4.004, 8, 8.53852, 15.6019, 31.9296, 12.0281, -45.4246, -8.10042
4.008, 8, 8.46468, 15.619, 31.9752, 11.895, -45.5654, -8.00133
4.012, 8, 8.39079, 15.6364, 32.0205, 11.7626, -45.7064, -7.90287
4.016, 8, 8.31684, 15.654, 32.0655, 11.6308, -45.8475, -7.80503
4.02, 8, 8.24284, 15.6719, 32.1101, 11.4996, -45.9887, -7.7078
4.024, 8, 8.16879, 15.6901, 32.1545, 11.3689, -46.1301, -7.61119
4.028, 8, 8.09468, 15.7086, 32.1986, 11.2389, -46.2716, -7.51518
4.032, 8, 8.02052, 15.7274, 32.2423, 11.1094, -46.4133, -7.41978
4.036, 8, 7.94631, 15.7464, 32.2858, 10.9806, -46.5551, -7.32497
4.04, 8, 7.87204, 15.7657, 32.3289, 10.8523, -46.697, -7.23076
4.044, 8, 7.79773, 15.7853, 32.3717, 10.7245, -46.8391, -7.13714
4.048, 8, 7.72337, 15.8052, 32.4142, 10.5974, -46.9813, -7.0441
4.052, 8, 7.64895, 15.8254, 32.4565, 10.4708, -47.1236, -6.95165
4.056, 8, 7.57449, 15.8458, 32.4984, 10.3447, -47.266, -6.85977
4.06, 8, 7.49998, 15.8665, 32.54, 10.2192, -47.4086, -6.76846
4.064, 8, 7.42542, 15.8875, 32.5813, 10.0943, -47.5513, -6.67773
4.068, 8, 7.35082, 15.9088, 32.6222, 9.96985, -47.6941, -6.58755
4.072, 8, 7.27617, 15.9304, 32.6629, 9.84598, -47.837, -6.49794
4.076, 8, 7.20146, 15.9522, 32.7033, 9.72265, -47.98, -6.40888
4.08, 8, 7.12672, 15.9743, 32.7433, 9.59986, -48.1232, -6.32037
4.084, 8, 7.05192, 15.9967, 32.7831, 9.47759, -48.2665, -6.23241
4.088, 8, 6.97708, 16.0193, 32.8225, 9.35584, -48.4099, -6.14499
4.092, 8, 6.9022, 16.0423, 32.8616, 9.23461, -48.5534, -6.05811
4.096, 8, 6.82727, 16.0655, 32.9005, 9.1139, -48.697, -5.97176
4.1, 8, 6.75229, 16.089, 32.9389, 8.99371, -48.8407, -5.88595
4.104, 8, 6.67728, 16.1127, 32.9771, 8.87402, -48.9845, -5.80066
4.108, 8, 6.60221, 16.1368, 33.015, 8.75483, -49.1285, -5.7159
4.112, 8, 6.52711, 16.1611, 33.0526, 8.63615, -49.2725, -5.63166
4.116, 8, 6.45196, 16.1857, 33.0898, 8.51796, -49.4166, -5.54793
4.12, 8, 6.37677, 16.2106, 33.1268, 8.40026, -49.5608, -5.46471
4.124, 8, 6.30154, 16.2357, 33.1634, 8.28306, -49.7052, -5.382
4.128, 8, 6.22627, 16.2611, 33.1997, 8.16634, -49.8496, -5.2998
4.132, 8, 6.15097, 16.2868, 33.2357, 8.05011, -49.9941, -5.2181
4.136, 8, 6.07562, 16.3128, 33.2714, 7.93435, -50.1387, -5.1369
4.14, 8, 6.00023, 16.339, 33.3068, 7.81908, -50.2834, -5.05619
4.144, 8, 5.9248, 16.3655, 33.3419, 7.70427, -50.4282, -4.97597
4.148, 8, 5.84933, 16.3923, 33.3766, 7.58993, -50.5731, -4.89624
4.152, 8, 5.77383, 16.4194, 33.411, 7.47607, -50.7181, -4.817
4.156, 8, 5.69829, 16.4467, 33.4452, 7.36266, -50.8631, -4.73824
4.16, 8, 5.62271, 16.4743, 33.479, 7.24971, -51.0083, -4.65995
4.164, 9, 5.5471, 16.5022, 33.5124, 7.13722, -51.1535, -4.58214
4.168, 9, 5.47145, 16.5304, 33.5456, 7.02519, -51.2988, -4.5048
4.172, 9, 5.39576, 16.5588, 33.5784, 6.9136, -51.4442, -4.42793
4.176, 9, 5.32004, 16.5875, 33.611, 6.80246, -51.5896, -4.35152
4.18, 9, 5.24429, 16.6165, 33.6432, 6.69177, -51.7352, -4.27557
4.184, 9, 5.1685, 16.6457, 33.675, 6.58151, -51.8808, -4.20009
4.188, 9, 5.09268, 16.6753, 33.7066, 6.4717, -52.0264, -4.12505
4.192, 9, 5.01682, 16.7051, 33.7378, 6.36231, -52.1722, -4.05047
4.196, 9, 4.94094, 16.7351, 33.7688, 6.25336, -52.318, -3.97634
4.2, 9, 4.86502, 16.7655, 33.7993, 6.14484, -52.4639, -3.90265
4.204, 9, 4.78907, 16.7961, 33.8296, 6.03674, -52.6099, -3.8294
4.208, 9, 4.71309, 16.827, 33.8596, 5.92906, -52.7559, -3.75659
4.212, 9, 4.63708, 16.8581, 33.8892, 5.8218, -52.902, -3.68422
4.216, 9, 4.56104, 16.8896, 33.9185, 5.71496, -53.0481, -3.61228
4.22, 9, 4.48497, 16.9213, 33.9475, 5.60853, -53.1943, -3.54077
4.224, 9, 4.40887, 16.9532, 33.9761, 5.50251, -53.3406, -3.46968
4.228, 9, 4.33275, 16.9855, 34.0045, 5.3969, -53.4869, -3.39902
4.232, 9, 4.25659, 17.018, 34.0325, 5.29169, -53.6333, -3.32877
4.236, 9, 4.18041, 17.0507, 34.0602, 5.18688, -53.7797, -3.25895
4.24, 9, 4.10421, 17.0838, 34.0876, 5.08247, -53.9262, -3.18954
4.244, 9, 4.02798, 17.1171, 34.1146, 4.97845, -54.0727, -3.12053
4.248, 9, 3.95172, 17.1506, 34.1414, 4.87483, -54.2193, -3.05194
4.252, 9, 3.87543, 17.1845, 34.1678, 4.7716, -54.3659, -2.98375
4.256, 9, 3.79913, 17.2185, 34.1939, 4.66875, -54.5126, -2.91596
4.26, 9, 3.7228, 17.2529, 34.2196, 4.56629, -54.6593, -2.84858
4.264, 9, 3.64644, 17.2875, 34.2451, 4.4642, -54.8061, -2.78158
4.268, 9, 3.57006, 17.3224, 34.2702, 4.3625, -54.9529, -2.71498
4.272, 9, 3.49366, 17.3575, 34.295, 4.26117, -55.0998, -2.64878
4.276, 9, 3.41724, 17.3929, 34.3195, 4.16022, -55.2467, -2.58296
4.28, 9, 3.3408, 17.4286, 34.3437, 4.05964, -55.3936, -2.51752
4.284, 9, 3.26433, 17.4645, 34.3675, 3.95943, -55.5405, -2.45247
4.288, 9, 3.18785, 17.5007, 34.391, 3.85958, -55.6875, -2.3878
4.292, 9, 3.11135, 17.5371, 34.4142, 3.76009, -55.8346, -2.3235
4.296, 9, 3.03482, 17.5738, 34.4371, 3.66097, -55.9816, -2.25958
4.3, 9, 2.95828, 17.6108, 34.4597, 3.5622, -56.1287, -2.19603
4.304, 9, 2.88172, 17.648, 34.4819, 3.46379, -56.2758, -2.13285
4.308, 9, 2.80515, 17.6855, 34.5038, 3.36574, -56.423, -2.07003
4.312, 9, 2.72856, 17.7232, 34.5254, 3.26803, -56.5702, -2.00758
4.316, 9, 2.65198, 17.7614, 34.5466, 3.17068, -56.7174, -1.9455
4.32, 9, 2.57541, 17.7999, 34.5673, 3.07368, -56.8646, -1.88378
4.324, 9, 2.49889, 17.839, 34.5877, 2.97703, -57.0118, -1.82242
4.328, 9, 2.42244, 17.8788, 34.6074, 2.88075, -57.159, -1.76145
4.332, 9, 2.34609, 17.9195, 34.6264, 2.78486, -57.3062, -1.70088
4.336, 9, 2.26987, 17.961, 34.6446, 2.68939, -57.4534, -1.64073
4.34, 9, 2.19378, 18.0037, 34.6618, 2.59439, -57.6005, -1.58105
4.344, 9, 2.11782, 18.0475, 34.6777, 2.49991, -57.7475, -1.52186
4.348, 9, 2.04201, 18.0926, 34.6922, 2.40602, -57.8943, -1.46323
4.352, 9, 1.96631, 18.1391, 34.705, 2.31279, -58.0409, -1.4052
4.356, 9, 1.89075, 18.1869, 34.7159, 2.22029, -58.1872, -1.34783
4.36, 9, 1.8153, 18.236, 34.7247, 2.12858, -58.3332, -1.29116
4.364, 9, 1.74, 18.2865, 34.7311, 2.03773, -58.4787, -1.23523
4.368, 9, 1.66485, 18.3382, 34.7352, 1.94777, -58.6237, -1.18007
4.372, 9, 1.58988, 18.3911, 34.7367, 1.85874, -58.7683, -1.12568
4.376, 9, 1.51508, 18.4452, 34.7356, 1.77062, -58.9123, -1.07206
4.38, 9, 1.44044, 18.5005, 34.7319, 1.6834, -59.0557, -1.01918
4.384, 9, 1.36594, 18.5571, 34.7258, 1.59703, -59.1987, -0.967007
4.388, 9, 1.29152, 18.615, 34.7173, 1.51145, -59.3411, -0.915478
4.392, 9, 1.21714, 18.6742, 34.7066, 1.42656, -59.4831, -0.864526
4.396, 9, 1.14278, 18.7348, 34.694, 1.34229, -59.6246, -0.814071
4.4, 9, 1.06845, 18.7967, 34.6796, 1.25852, -59.7659, -0.764033
4.404, 9, 0.994172, 18.8599, 34.6638, 1.17514, -59.9069, -0.714325
4.408, 9, 0.920006, 18.9242, 34.6467, 1.09206, -60.0478, -0.66487
4.412, 9, 0.845992, 18.9896, 34.6286, 1.00918, -60.1885, -0.615592
4.416, 9, 0.772154, 19.0559, 34.6097, 0.926413, -60.3293, -0.56643
4.42, 9, 0.698484, 19.1229, 34.5901, 0.843698, -60.4701, -0.517331
4.424, 9, 0.624945, 19.1906, 34.5701, 0.760981, -60.611, -0.468256
4.428, 9, 0.551488, 19.2587, 34.5497, 0.678226, -60.752, -0.419175
4.432, 9, 0.478062, 19.3272, 34.5291, 0.595405, -60.8931, -0.370068
4.436, 9, 0.404624, 19.396, 34.5083, 0.512502, -61.0344, -0.32092
4.44, 9, 0.331144, 19.465, 34.4874, 0.429504, -61.1759, -0.271721
4.444, 9, 0.257601, 19.5342, 34.4664, 0.346404, -61.3176, -0.222465
4.448, 9, 0.183983, 19.6035, 34.4452, 0.263195, -61.4595, -0.173148
4.452, 9, 0.110279, 19.673, 34.4241, 0.179875, -61.6016, -0.123766
4.456, 9, 0.0364824, 19.7427, 34.4029, 0.0964412, -61.7439, -0.0743178
4.46, 9, -0.0374078, 19.8124, 34.3816, 0.0128914, -61.8863, -0.0248019
4.464, 9, -0.111383, 19.8823, 34.3603, -0.0707748, -62.029, 0.0247823
4.468, 9, -0.185415, 19.9523, 34.3389, -0.154557, -62.1719, 0.0744339
4.472, 9, -0.259444, 20.0225, 34.3174, -0.238452, -62.315, 0.12415
4.476, 9, -0.333386, 20.0931, 34.2958, -0.32245, -62.4582, 0.173922
4.48, 9, -0.407146, 20.164, 34.2739, -0.40653, -62.6016, 0.223736
4.484, 9, -0.480639, 20.2355, 34.2517, -0.490657, -62.7451, 0.273566
4.488, 9, -0.553815, 20.3075, 34.2291, -0.574777, -62.8887, 0.323375
4.492, 9, -0.626655, 20.3802, 34.2057, -0.658813, -63.0322, 0.37311
4.496, 9, -0.699166, 20.4536, 34.1815, -0.742664, -63.1756, 0.422704
4.5, 11, -0.771373, 20.5279, 34.1562, -0.826208, -63.3186, 0.472075
4.504, 11, -0.843306, 20.603, 34.1296, -0.909306, -63.4612, 0.521131
4.508, 11, -0.914979, 20.6791, 34.1015, -0.991806, -63.6032, 0.569771
4.512, 11, -0.98638, 20.7562, 34.0715, -1.07355, -63.7444, 0.617895
4.516, 11, -1.05747, 20.8342, 34.0395, -1.1544, -63.8846, 0.665405
4.52, 11, -1.12821, 20.9132, 34.0052, -1.23421, -64.0237, 0.712212
4.524, 11, -1.19855, 20.9932, 33.9687, -1.31288, -64.1615, 0.758245
4.528, 11, -1.26846, 21.0743, 33.9296, -1.39032, -64.2979, 0.803448
4.532, 11, -1.33791, 21.1563, 33.888, -1.46648, -64.4329, 0.847791
4.536, 11, -1.40689, 21.2394, 33.844, -1.54134, -64.5665, 0.891264
4.54, 11, -1.47541, 21.3234, 33.7976, -1.61494, -64.6986, 0.933879
4.544, 11, -1.5435, 21.4085, 33.7489, -1.68731, -64.8294, 0.975671
4.548, 11, -1.61121, 21.4947, 33.6982, -1.75854, -64.9589, 1.01669
4.552, 11, -1.67857, 21.5818, 33.6455, -1.82872, -65.0873, 1.05701
4.556, 11, -1.74558, 21.6699, 33.5912, -1.89798, -65.2147, 1.09669
4.56, 11, -1.81221, 21.7588, 33.5354, -1.96642, -65.3412, 1.13582
4.564, 11, -1.87841, 21.8486, 33.4783, -2.03417, -65.4669, 1.17448
4.568, 11, -1.94415, 21.939, 33.4202, -2.10133, -65.5921, 1.21273
4.572, 11, -2.0094, 22.03, 33.3612, -2.16799, -65.7167, 1.25064
4.576, 11, -2.07418, 22.1215, 33.3014, -2.23421, -65.841, 1.28824
4.58, 11, -2.13852, 22.2134, 33.2411, -2.30006, -65.9649, 1.32559
4.584, 11, -2.2025, 22.3055, 33.1802, -2.36557, -66.0885, 1.3627
4.588, 11, -2.26621, 22.3979, 33.1188, -2.43076, -66.2119, 1.39959
4.592, 11, -2.32968, 22.4905, 33.057, -2.49566, -66.335, 1.43629
4.596, 11, -2.39298, 22.5833, 32.9949, -2.56028, -66.4579, 1.47279
4.6, 11, -2.45612, 22.6762, 32.9323, -2.62462, -66.5806, 1.50911
4.604, 11, -2.51912, 22.7692, 32.8695, -2.68869, -66.7031, 1.54524
4.608, 11, -2.582, 22.8623, 32.8062, -2.7525, -66.8253, 1.58121
4.612, 11, -2.64476, 22.9555, 32.7427, -2.81606, -66.9474, 1.617
4.616, 11, -2.70741, 23.0488, 32.6788, -2.87935, -67.0693, 1.65262
4.62, 11, -2.76995, 23.1423, 32.6146, -2.94239, -67.1909, 1.68808
4.624, 11, -2.83239, 23.2358, 32.55, -3.00519, -67.3124, 1.72337
4.628, 11, -2.89473, 23.3294, 32.4851, -3.06773, -67.4337, 1.75851
4.632, 11, -2.95696, 23.4231, 32.42, -3.13002, -67.5547, 1.79348
4.636, 11, -3.01909, 23.5169, 32.3544, -3.19207, -67.6756, 1.8283
4.64, 11, -3.08112, 23.6108, 32.2886, -3.25387, -67.7962, 1.86296
4.644, 11, -3.14305, 23.7047, 32.2225, -3.31542, -67.9167, 1.89747
4.648, 11, -3.20488, 23.7988, 32.156, -3.37674, -68.0369, 1.93182
4.652, 11, -3.2666, 23.8929, 32.0892, -3.43781, -68.157, 1.96603
4.656, 11, -3.32823, 23.9872, 32.022, -3.49864, -68.2768, 2.00008
4.66, 11, -3.38976, 24.0815, 31.9546, -3.55923, -68.3964, 2.03399
4.664, 11, -3.45118, 24.1759, 31.8868, -3.61958, -68.5159, 2.06775
4.668, 11, -3.51251, 24.2704, 31.8187, -3.67969, -68.6351, 2.10137
4.672, 11, -3.57373, 24.365, 31.7503, -3.73957, -68.7541, 2.13485
4.676, 11, -3.63485, 24.4596, 31.6816, -3.79921, -68.8728, 2.16819
4.68, 11, -3.69587, 24.5544, 31.6125, -3.85862, -68.9914, 2.20139
4.684, 12, -3.75678, 24.6492, 31.5432, -3.91779, -69.1098, 2.23445
4.688, 12, -3.81759, 24.7441, 31.4735, -3.97673, -69.2279, 2.26737
4.692, 12, -3.8783, 24.8391, 31.4034, -4.03544, -69.3458, 2.30016
4.696, 12, -3.93891, 24.9342, 31.3331, -4.09391, -69.4635, 2.33281
4.7, 12, -3.99942, 25.0293, 31.2624, -4.15215, -69.581, 2.36534
4.704, 12, -4.05982, 25.1246, 31.1914, -4.21016, -69.6983, 2.39773
4.708, 12, -4.12013, 25.2199, 31.1201, -4.26794, -69.8153, 2.42999
4.712, 12, -4.18033, 25.3153, 31.0484, -4.3255, -69.9322, 2.46213
4.716, 12, -4.24043, 25.4107, 30.9764, -4.38282, -70.0488, 2.49414
4.72, 12, -4.30044, 25.5063, 30.9041, -4.43992, -70.1652, 2.52603
4.724, 12, -4.36033, 25.6019, 30.8315, -4.49679, -70.2813, 2.55779
4.728, 12, -4.42013, 25.6976, 30.7586, -4.55344, -70.3972, 2.58943
4.732, 12, -4.47982, 25.7934, 30.6853, -4.60986, -70.5129, 2.62096
4.736, 12, -4.53941, 25.8892, 30.6117, -4.66607, -70.6284, 2.65236
4.74, 12, -4.5989, 25.9852, 30.5378, -4.72205, -70.7437, 2.68365
4.744, 12, -4.65828, 26.0812, 30.4635, -4.77781, -70.8587, 2.71483
4.748, 12, -4.71756, 26.1773, 30.389, -4.83335, -70.9735, 2.74589
4.752, 12, -4.77673, 26.2734, 30.3141, -4.88868, -71.0881, 2.77684
4.756, 12, -4.83581, 26.3696, 30.2389, -4.94378, -71.2024, 2.80768
4.76, 12, -4.89477, 26.4659, 30.1633, -4.99867, -71.3165, 2.83841
4.764, 12, -4.95364, 26.5623, 30.0875, -5.05335, -71.4304, 2.86903
4.768, 12, -5.0124, 26.6588, 30.0113, -5.10781, -71.5441, 2.89955
4.772, 12, -5.07106, 26.7553, 29.9348, -5.16206, -71.6575, 2.92997
4.776, 12, -5.12961, 26.8518, 29.858, -5.2161, -71.7707, 2.96028
4.78, 12, -5.18806, 26.9485, 29.7809, -5.26993, -71.8837, 2.99049
4.784, 12, -5.24641, 27.0452, 29.7034, -5.32354, -71.9964, 3.0206
4.788, 12, -5.30466, 27.142, 29.6257, -5.37695, -72.1089, 3.05062
4.792, 12, -5.3628, 27.2389, 29.5476, -5.43014, -72.2212, 3.08053
4.796, 12, -5.42084, 27.3358, 29.4692, -5.48313, -72.3332, 3.11035
4.8, 12, -5.47878, 27.4328, 29.3904, -5.53591, -72.445, 3.14008
4.804, 12, -5.53662, 27.5298, 29.3114, -5.58848, -72.5566, 3.16971
4.808, 12, -5.59435, 27.627, 29.232, -5.64084, -72.668, 3.19925
4.812, 12, -5.65198, 27.7242, 29.1523, -5.693, -72.7791, 3.2287
4.816, 12, -5.70951, 27.8214, 29.0723, -5.74496, -72.8899, 3.25807
4.82, 12, -5.76693, 27.9187, 28.9919, -5.79671, -73.0005, 3.28734
4.824, 12, -5.82425, 28.0161, 28.9113, -5.84825, -73.1109, 3.31653
4.828, 12, -5.88147, 28.1136, 28.8303, -5.8996, -73.2211, 3.34563
4.832, 12, -5.93858, 28.2111, 28.749, -5.95074, -73.331, 3.37465
4.836, 12, -5.99559, 28.3087, 28.6674, -6.00168, -73.4407, 3.40358
4.84, 12, -6.05249, 28.4063, 28.5855, -6.05242, -73.5501, 3.43243
4.844, 12, -6.1093, 28.504, 28.5032, -6.10296, -73.6593, 3.46121
4.848, 12, -6.166, 28.6018, 28.4206, -6.1533, -73.7683, 3.4899
4.852, 12, -6.2226, 28.6996, 28.3377, -6.20344, -73.877, 3.51852
4.856, 12, -6.27909, 28.7975, 28.2545, -6.25338, -73.9854, 3.54706
4.86, 12, -6.33548, 28.8954, 28.171, -6.30312, -74.0937, 3.57553
4.864, 13, -6.39177, 28.9934, 28.0871, -6.35267, -74.2017, 3.60392
4.868, 13, -6.44795, 29.0915, 28.0029, -6.40202, -74.3094, 3.63224
4.872, 13, -6.50403, 29.1897, 27.9184, -6.45118, -74.4169, 3.66049
4.876, 13, -6.56, 29.2878, 27.8336, -6.50014, -74.5241, 3.68866
4.88, 13, -6.61587, 29.3861, 27.7485, -6.5489, -74.6311, 3.71677
4.884, 13, -6.67164, 29.4844, 27.663, -6.59747, -74.7379, 3.74481
4.888, 13, -6.72731, 29.5828, 27.5772, -6.64585, -74.8444, 3.77279
4.892, 13, -6.78287, 29.6812, 27.4911, -6.69403, -74.9507, 3.8007
4.896, 13, -6.83833, 29.7797, 27.4047, -6.74202, -75.0567, 3.82854
4.9, 13, -6.89369, 29.8782, 27.3179, -6.78982, -75.1625, 3.85632
4.904, 13, -6.94894, 29.9768, 27.2309, -6.83743, -75.268, 3.88404
4.908, 13, -7.00409, 30.0755, 27.1435, -6.88485, -75.3733, 3.9117
4.912, 13, -7.05914, 30.1742, 27.0558, -6.93207, -75.4783, 3.93929
4.916, 13, -7.11408, 30.273, 26.9678, -6.97911, -75.5831, 3.96683
4.92, 13, -7.16892, 30.3718, 26.8794, -7.02595, -75.6876, 3.99431
4.924, 13, -7.22365, 30.4707, 26.7907, -7.07261, -75.7919, 4.02174
4.928, 13, -7.27828, 30.5696, 26.7017, -7.11908, -75.8959, 4.04911
4.932, 13, -7.33281, 30.6686, 26.6124, -7.16536, -75.9996, 4.07642
4.936, 13, -7.38723, 30.7677, 26.5228, -7.21145, -76.1032, 4.10368
4.94, 13, -7.44155, 30.8668, 26.4328, -7.25736, -76.2064, 4.13089
4.944, 13, -7.49577, 30.966, 26.3426, -7.30308, -76.3095, 4.15805
4.948, 13, -7.54988, 31.0652, 26.252, -7.34861, -76.4122, 4.18516
4.952, 13, -7.6039, 31.1645, 26.1611, -7.39396, -76.5147, 4.21222
4.956, 13, -7.6578, 31.2638, 26.0698, -7.43912, -76.617, 4.23923
4.96, 13, -7.71161, 31.3632, 25.9783, -7.4841, -76.719, 4.2662
4.964, 13, -7.76531, 31.4626, 25.8864, -7.5289, -76.8207, 4.29312
4.968, 13, -7.81891, 31.5621, 25.7942, -7.5735, -76.9222, 4.31999
4.972, 13, -7.8724, 31.6616, 25.7016, -7.61793, -77.0234, 4.34683
4.976, 13, -7.92579, 31.7612, 25.6088, -7.66217, -77.1244, 4.37361
4.98, 13, -7.97908, 31.8609, 25.5156, -7.70623, -77.2251, 4.40036
4.984, 13, -8.03227, 31.9606, 25.4221, -7.75011, -77.3256, 4.42707
4.988, 13, -8.08535, 32.0604, 25.3283, -7.7938, -77.4258, 4.45373
4.992, 13, -8.13833, 32.1602, 25.2342, -7.83732, -77.5258, 4.48036
4.996, 13, -8.1912, 32.26, 25.1397, -7.88065, -77.6255, 4.50695
5, 13, -8.24398, 32.36, 25.0449, -7.9238, -77.7249, 4.5335
5.004, 13, -8.29665, 32.4599, 24.9498, -7.96677, -77.8241, 4.56002
5.008, 13, -8.34921, 32.5599, 24.8544, -8.00956, -77.923, 4.5865
5.012, 13, -8.40168, 32.66, 24.7587, -8.05218, -78.0217, 4.61295
5.016, 13, -8.45403, 32.7601, 24.6626, -8.09461, -78.1201, 4.63937
5.02, 13, -8.50629, 32.8603, 24.5662, -8.13686, -78.2182, 4.66575
5.024, 13, -8.55844, 32.9605, 24.4695, -8.17894, -78.3161, 4.6921
5.028, 13, -8.61049, 33.0608, 24.3724, -8.22083, -78.4137, 4.71843
5.032, 13, -8.66244, 33.1611, 24.2751, -8.26255, -78.5111, 4.74472
5.036, 13, -8.71429, 33.2615, 24.1774, -8.30409, -78.6082, 4.77099
5.04, 13, -8.76604, 33.362, 24.0794, -8.34545, -78.705, 4.79723
5.044, 13, -8.81768, 33.4624, 23.981, -8.38664, -78.8016, 4.82344
5.048, 14, -8.86922, 33.563, 23.8824, -8.42764, -78.8979, 4.84963
5.052, 14, -8.92065, 33.6636, 23.7834, -8.46848, -78.9939, 4.87579
5.056, 14, -8.97198, 33.7642, 23.6841, -8.50913, -79.0897, 4.90193
5.06, 14, -9.02321, 33.8649, 23.5845, -8.54961, -79.1852, 4.92805
5.064, 14, -9.07434, 33.9656, 23.4845, -8.58992, -79.2805, 4.95415
5.068, 14, -9.12536, 34.0664, 23.3842, -8.63005, -79.3755, 4.98023
5.072, 14, -9.17628, 34.1673, 23.2836, -8.67, -79.4702, 5.00628
5.076, 14, -9.22711, 34.2681, 23.1827, -8.70978, -79.5647, 5.03232
5.08, 14, -9.27783, 34.3691, 23.0814, -8.74939, -79.6589, 5.05834
5.084, 14, -9.32844, 34.4701, 22.9799, -8.78882, -79.7528, 5.08434
5.088, 14, -9.37896, 34.5711, 22.878, -8.82807, -79.8465, 5.11033
5.092, 14, -9.42937, 34.6722, 22.7757, -8.86716, -79.9399, 5.1363
5.096, 14, -9.47968, 34.7733, 22.6732, -8.90607, -80.033, 5.16225
5.1, 14, -9.52989, 34.8745, 22.5703, -8.9448, -80.1259, 5.1882
5.104, 14, -9.58, 34.9758, 22.4671, -8.98337, -80.2185, 5.21413
5.108, 14, -9.63, 35.0771, 22.3635, -9.02176, -80.3108, 5.24005
5.112, 14, -9.6799, 35.1784, 22.2597, -9.05998, -80.4029, 5.26595
5.116, 14, -9.72971, 35.2798, 22.1555, -9.09803, -80.4947, 5.29185
5.12, 14, -9.77941, 35.3812, 22.051, -9.1359, -80.5862, 5.31774
5.124, 14, -9.829, 35.4827, 21.9461, -9.1736, -80.6775, 5.34362
5.128, 14, -9.8785, 35.5843, 21.841, -9.21114, -80.7685, 5.36949
5.132, 14, -9.9279, 35.6859, 21.7355, -9.2485, -80.8592, 5.39535
5.136, 14, -9.97719, 35.7875, 21.6296, -9.28569, -80.9497, 5.42121
5.14, 14, -10.0264, 35.8892, 21.5235, -9.32271, -81.0399, 5.44706
5.144, 14, -10.0755, 35.9909, 21.417, -9.35955, -81.1298, 5.47291
5.148, 14, -10.1245, 36.0927, 21.3102, -9.39623, -81.2195, 5.49875
5.152, 14, -10.1734, 36.1946, 21.203, -9.43274, -81.3089, 5.52459
5.156, 14, -10.2221, 36.2965, 21.0956, -9.46908, -81.398, 5.55043
5.16, 14, -10.2708, 36.3984, 20.9878, -9.50525, -81.4868, 5.57627
5.164, 14, -10.3194, 36.5004, 20.8796, -9.54124, -81.5754, 5.6021
5.168, 14, -10.3679, 36.6025, 20.7712, -9.57707, -81.6637, 5.62794
5.172, 14, -10.4163, 36.7046, 20.6624, -9.61273, -81.7517, 5.65377
5.176, 14, -10.4646, 36.8067, 20.5533, -9.64823, -81.8395, 5.67961
5.18, 14, -10.5128, 36.9089, 20.4438, -9.68355, -81.927, 5.70545
5.184, 14, -10.5609, 37.0112, 20.334, -9.7187, -82.0142, 5.73129
5.188, 14, -10.6088, 37.1135, 20.2239, -9.75369, -82.1012, 5.75714
5.192, 14, -10.6567, 37.2158, 20.1135, -9.7885, -82.1878, 5.78299
5.196, 14, -10.7045, 37.3182, 20.0027, -9.82315, -82.2742, 5.80884
5.2, 14, -10.7522, 37.4207, 19.8916, -9.85763, -82.3604, 5.8347
5.204, 14, -10.7998, 37.5232, 19.7801, -9.89195, -82.4462, 5.86057
5.208, 14, -10.8473, 37.6257, 19.6684, -9.92609, -82.5318, 5.88645
5.212, 14, -10.8946, 37.7284, 19.5563, -9.96007, -82.6171, 5.91233
5.216, 14, -10.9419, 37.831, 19.4438, -9.99388, -82.7022, 5.93823
5.22, 14, -10.9891, 37.9337, 19.331, -10.0275, -82.7869, 5.96413
5.224, 14, -11.0362, 38.0365, 19.2179, -10.061, -82.8714, 5.99004
5.228, 15, -11.0832, 38.1393, 19.1045, -10.0943, -82.9556, 6.01596
5.232, 15, -11.1301, 38.2422, 18.9907, -10.1274, -83.0396, 6.0419
5.236, 15, -11.1769, 38.3451, 18.8766, -10.1604, -83.1232, 6.06785
5.24, 15, -11.2236, 38.4481, 18.7622, -10.1932, -83.2066, 6.09381
5.244, 15, -11.2701, 38.5512, 18.6474, -10.2259, -83.2897, 6.11978
5.248, 15, -11.3166, 38.6542, 18.5322, -10.2584, -83.3726, 6.14577
5.252, 15, -11.363, 38.7574, 18.4168, -10.2907, -83.4551, 6.17178
5.256, 15, -11.4093, 38.8606, 18.301, -10.3228, -83.5374, 6.1978
5.26, 15, -11.4555, 38.9638, 18.1849, -10.3548, -83.6194, 6.22384
5.264, 15, -11.5016, 39.0671, 18.0684, -10.3866, -83.7012, 6.24989
5.268, 15, -11.5476, 39.1705, 17.9516, -10.4182, -83.7826, 6.27596
5.272, 15, -11.5935, 39.2739, 17.8344, -10.4497, -83.8638, 6.30205
5.276, 15, -11.6393, 39.3774, 17.7169, -10.481, -83.9447, 6.32816
5.28, 15, -11.685, 39.4809, 17.5991, -10.5122, -84.0253, 6.35429
5.284, 15, -11.7306, 39.5845, 17.4809, -10.5432, -84.1057, 6.38044
5.288, 15, -11.7761, 39.6881, 17.3624, -10.574, -84.1857, 6.40661
5.292, 15, -11.8215, 39.7918, 17.2435, -10.6046, -84.2655, 6.43281
5.296, 15, -11.8669, 39.8956, 17.1243, -10.6351, -84.345, 6.45902
5.3, 15, -11.9121, 39.9994, 17.0048, -10.6654, -84.4242, 6.48526
5.304, 15, -11.9572, 40.1032, 16.8849, -10.6956, -84.5032, 6.51153
5.308, 15, -12.0022, 40.2072, 16.7647, -10.7256, -84.5818, 6.53781
5.312, 15, -12.0471, 40.3111, 16.6441, -10.7554, -84.6602, 6.56413
5.316, 15, -12.0919, 40.4152, 16.5232, -10.7851, -84.7383, 6.59047
5.32, 15, -12.1367, 40.5193, 16.4019, -10.8145, -84.8161, 6.61683
5.324, 15, -12.1813, 40.6234, 16.2803, -10.8439, -84.8937, 6.64322
5.328, 15, -12.2258, 40.7276, 16.1583, -10.873, -84.9709, 6.66964
5.332, 15, -12.2703, 40.8319, 16.036, -10.902, -85.0479, 6.69609
5.336, 15, -12.3146, 40.9362, 15.9134, -10.9309, -85.1246, 6.72257
5.34, 15, -12.3589, 41.0406, 15.7904, -10.9595, -85.201, 6.74907
5.344, 15, -12.403, 41.1451, 15.667, -10.988, -85.2771, 6.7756
5.348, 15, -12.4471, 41.2496, 15.5433, -11.0164, -85.353, 6.80217
5.352, 15, -12.491, 41.3542, 15.4193, -11.0446, -85.4286, 6.82876
5.356, 15, -12.5349, 41.4588, 15.2949, -11.0726, -85.5038, 6.85538
5.36, 15, -12.5786, 41.5634, 15.1702, -11.1004, -85.5788, 6.88204
5.364, 15, -12.622, 41.6679, 15.0451, -11.1281, -85.6536, 6.90873
5.368, 15, -12.665, 41.7719, 14.9199, -11.1557, -85.728, 6.93544
5.372, 15, -12.7073, 41.8751, 14.7946, -11.183, -85.8021, 6.96217
5.376, 15, -12.7487, 41.9774, 14.6694, -11.2102, -85.8759, 6.98889
5.38, 15, -12.7892, 42.0783, 14.5446, -11.2371, -85.9492, 7.01557
5.384, 15, -12.8286, 42.1778, 14.4203, -11.2638, -86.022, 7.04216
5.388, 15, -12.8668, 42.2756, 14.2971, -11.2901, -86.094, 7.06859
5.392, 15, -12.904, 42.3715, 14.1752, -11.316, -86.165, 7.09476
5.396, 15, -12.9401, 42.4654, 14.0551, -11.3414, -86.2347, 7.12056
5.4, 15, -12.9752, 42.5571, 13.9373, -11.3661, -86.3028, 7.14588
5.404, 15, -13.009, 42.646, 13.8225, -11.3902, -86.369, 7.17058
5.408, 15, -13.0416, 42.732, 13.7112, -11.4133, -86.4329, 7.19453
5.412, 15, -13.0728, 42.8147, 13.6039, -11.4354, -86.4942, 7.21758
5.416, 15, -13.1028, 42.8939, 13.5013, -11.4565, -86.5525, 7.2396
5.42, 15, -13.1316, 42.9695, 13.4038, -11.4763, -86.6075, 7.26046
5.424, 15, -13.1592, 43.0414, 13.3118, -11.4948, -86.659, 7.28006
5.428, 15, -13.1857, 43.1094, 13.2257, -11.512, -86.7067, 7.29829
5.432, 15, -13.2109, 43.1732, 13.1458, -11.5278, -86.7505, 7.31512
5.436, 15, -13.2347, 43.2328, 13.0723, -11.5421, -86.7905, 7.3305
5.44, 15, -13.2571, 43.288, 13.0052, -11.555, -86.8265, 7.34444
5.444, 15, -13.278, 43.3385, 12.9446, -11.5665, -86.8587, 7.35693
5.448, 15, -13.2973, 43.3845, 12.8904, -11.5767, -86.8872, 7.36804
5.452, 15, -13.315, 43.426, 12.8422, -11.5857, -86.9121, 7.3778
5.456, 15, -13.3312, 43.4633, 12.7999, -11.5934, -86.9338, 7.38629
5.46, 15, -13.3459, 43.4965, 12.763, -11.6, -86.9523, 7.39359
5.464, 15, -13.3592, 43.5257, 12.7313, -11.6056, -86.968, 7.39981
5.468, 15, -13.371, 43.5512, 12.7043, -11.6103, -86.9812, 7.40503
5.472, 15, -13.3814, 43.5732, 12.6816, -11.6142, -86.992, 7.40936
5.476, 15, -13.3905, 43.5919, 12.6627, -11.6174, -87.0009, 7.41291
5.48, 15, -13.3985, 43.6078, 12.6473, -11.6199, -87.008, 7.41576
5.484, 15, -13.4054, 43.6213, 12.6347, -11.622, -87.0136, 7.41802
5.488, 15, -13.4116, 43.6328, 12.6247, -11.6235, -87.0179, 7.41978
5.492, 15, -13.417, 43.6426, 12.6169, -11.6247, -87.0212, 7.4211
5.496, 15, -13.4218, 43.6509, 12.6108, -11.6255, -87.0235, 7.42209
5.5, 15, -13.426, 43.6579, 12.6062, -11.6261, -87.0252, 7.4228
5.504, 15, -13.4294, 43.6635, 12.6027, -11.6266, -87.0264, 7.42331
5.508, 16, -13.4322, 43.6679, 12.6002, -11.6269, -87.0273, 7.42366
5.512, 16, -13.4344, 43.6712, 12.5984, -11.6271, -87.0278, 7.4239
5.516, 16, -13.4359, 43.6736, 12.5972, -11.6272, -87.0282, 7.42407
5.52, 16, -13.437, 43.6752, 12.5964, -11.6273, -87.0284, 7.42418
5.524, 16, -13.4378, 43.6763, 12.5958, -11.6274, -87.0286, 7.42425
5.528, 16, -13.4383, 43.6771, 12.5954, -11.6274, -87.0287, 7.4243
5.532, 16, -13.4386, 43.6776, 12.5952, -11.6274, -87.0288, 7.42434
5.536, 16, -13.4388, 43.6779, 12.595, -11.6275, -87.0289, 7.42436
5.54, 16, -13.439, 43.6782, 12.5949, -11.6275, -87.0289, 7.42438
5.544, 16, -13.4391, 43.6783, 12.5948, -11.6275, -87.0289, 7.42439
5.548, 16, -13.4391, 43.6784, 12.5947, -11.6275, -87.0289, 7.4244
5.552, 16, -13.4392, 43.6785, 12.5947, -11.6275, -87.029, 7.4244
5.556, 16, -13.4392, 43.6786, 12.5947, -11.6275, -87.029, 7.4244
5.56, 16, -13.4392, 43.6786, 12.5946, -11.6275, -87.029, 7.42441
5.564, 16, -13.4393, 43.6786, 12.5946, -11.6275, -87.029, 7.42441
5.568, 16, -13.4393, 43.6786, 12.5946, -11.6275, -87.029, 7.42441
5.572, 16, -13.4393, 43.6786, 12.5946, -11.6275, -87.029, 7.42441
5.576, 16, -13.4393, 43.6786, 12.5946, -11.6275, -87.029, 7.42441
5.58, 16, -13.4393, 43.6786, 12.5946, -11.6275, -87.029, 7.42441
5.584, 16, -13.4393, 43.6786, 12.5946, -11.6275, -87.029, 7.42441
5.588, 16, -13.4393, 43.6787, 12.5946, -11.6275, -87.029, 7.42441
5.592, 16, -13.4393, 43.6787, 12.5946, -11.6275, -87.029, 7.42441
5.596, 16, -13.4393, 43.6787, 12.5946, -11.6275, -87.029, 7.42441
5.6, 16, -13.4393, 43.6787, 12.5946, -11.6275, -87.029, 7.42441
5.604, 16, -13.4393, 43.6787, 12.5946, -11.6275, -87.029, 7.42441
5.608, 16, -13.4393, 43.6787, 12.5946, -11.6275, -87.029, 7.42441
5.612, 16, -13.4393, 43.6787, 12.5946, -11.6275, -87.029, 7.42441
5.616, 16, -13.4393, 43.6787, 12.5946, -11.6275, -87.029, 7.42441
5.62, 16, -13.4393, 43.6787, 12.5946, -11.6275, -87.029, 7.42441
5.624, 16, -13.4393, 43.6787, 12.5946, -11.6275, -87.029, 7.42441
