hehonglu123/ABB_Primitive_Study/execution/moveljl_30_car/curve_exe_v500_z1.csv
timestamp, cmd_num, J1, J2, J3, J4, J5, J6
0, -1, -13.4393, 43.6787, 12.5946, -11.6275, -87.029, 7.42441
0.002, -1, -13.4393, 43.6787, 12.5946, -11.6275, -87.029, 7.42441
0.006, -1, -13.4393, 43.6787, 12.5946, -11.6275, -87.029, 7.42441
0.008, -1, -13.4393, 43.6787, 12.5946, -11.6275, -87.029, 7.42441
0.011, -1, -13.4393, 43.6787, 12.5946, -11.6275, -87.029, 7.42441
0.016, -1, -13.4393, 43.6787, 12.5946, -11.6275, -87.029, 7.42441
0.02, -1, -13.4393, 43.6787, 12.5946, -11.6275, -87.029, 7.42441
0.024, -1, -13.4393, 43.6787, 12.5946, -11.6275, -87.029, 7.42441
0.028, -1, -13.4393, 43.6787, 12.5946, -11.6275, -87.029, 7.42441
0.032, -1, -13.4393, 43.6787, 12.5946, -11.6275, -87.029, 7.42441
0.036, -1, -13.4392, 43.6786, 12.5946, -11.6275, -87.029, 7.42441
0.04, -1, -13.439, 43.6785, 12.5946, -11.6275, -87.029, 7.42441
0.044, -1, -13.4384, 43.678, 12.5947, -11.6275, -87.029, 7.42439
0.048, -1, -13.4372, 43.6772, 12.5949, -11.6274, -87.0289, 7.42434
0.052, -1, -13.4355, 43.6758, 12.5951, -11.6273, -87.0287, 7.42422
0.056, -1, -13.433, 43.6738, 12.5955, -11.627, -87.0284, 7.42397
0.06, -1, -13.4296, 43.671, 12.5961, -11.6264, -87.0277, 7.42349
0.064, -1, -13.4254, 43.6675, 12.5969, -11.6253, -87.0264, 7.42266
0.068, -1, -13.4203, 43.6631, 12.598, -11.6236, -87.0244, 7.42132
0.072, -1, -13.4141, 43.6579, 12.5994, -11.6209, -87.0213, 7.41928
0.076, -1, -13.4066, 43.6516, 12.6011, -11.617, -87.0167, 7.4163
0.08, -1, -13.3977, 43.6442, 12.6034, -11.6115, -87.0103, 7.41213
0.084, -1, -13.3869, 43.6352, 12.6062, -11.604, -87.0016, 7.40644
0.088, -1, -13.3743, 43.6247, 12.6097, -11.5941, -86.9899, 7.39892
0.092, -1, -13.3596, 43.6124, 12.6138, -11.5812, -86.9748, 7.38918
0.096, -1, -13.3427, 43.5982, 12.6186, -11.5648, -86.9557, 7.37685
0.1, -1, -13.3235, 43.582, 12.6243, -11.5444, -86.9319, 7.36155
0.104, -1, -13.3019, 43.5636, 12.6308, -11.5196, -86.9029, 7.3429
0.108, -1, -13.2776, 43.5427, 12.6382, -11.4899, -86.868, 7.32054
0.112, -1, -13.2505, 43.5193, 12.6467, -11.4547, -86.8269, 7.29416
0.116, -1, -13.2206, 43.4932, 12.6562, -11.4137, -86.7789, 7.26346
0.12, -1, -13.1877, 43.4644, 12.6669, -11.3667, -86.7238, 7.22818
0.124, -1, -13.1519, 43.4328, 12.6786, -11.3132, -86.6612, 7.18814
0.128, -1, -13.113, 43.3984, 12.6916, -11.2532, -86.591, 7.14319
0.131, -1, -13.071, 43.3611, 12.7056, -11.1865, -86.5129, 7.09326
0.136, -1, -13.026, 43.321, 12.7209, -11.1131, -86.4269, 7.03835
0.139, -1, -12.9779, 43.2779, 12.7373, -11.0331, -86.3333, 6.9785
0.144, -1, -12.9267, 43.232, 12.7548, -10.9467, -86.2321, 6.91384
0.148, -1, -12.8726, 43.1833, 12.7734, -10.854, -86.1236, 6.84454
0.152, -1, -12.8155, 43.132, 12.7932, -10.7555, -86.0082, 6.77084
0.156, -1, -12.7557, 43.0781, 12.8139, -10.6514, -85.8863, 6.69301
0.16, -1, -12.6932, 43.0219, 12.8355, -10.5422, -85.7585, 6.61137
0.164, -1, -12.6282, 42.9633, 12.8581, -10.4284, -85.6253, 6.52627
0.168, -1, -12.5607, 42.9025, 12.8815, -10.3105, -85.4872, 6.43809
0.172, -1, -12.4909, 42.8396, 12.9056, -10.189, -85.3449, 6.34721
0.176, -1, -12.4189, 42.7749, 12.9305, -10.0644, -85.1989, 6.25399
0.18, -1, -12.345, 42.7085, 12.956, -9.93711, -85.0499, 6.15879
0.184, -1, -12.2694, 42.6406, 12.9821, -9.80765, -84.8983, 6.06194
0.188, -1, -12.1925, 42.5714, 13.0086, -9.6764, -84.7446, 5.96375
0.192, -1, -12.1142, 42.5011, 13.0356, -9.54373, -84.5892, 5.86449
0.196, -1, -12.0348, 42.4297, 13.0629, -9.40995, -84.4326, 5.76439
0.2, -1, -11.9542, 42.3573, 13.0906, -9.27534, -84.2749, 5.66366
0.204, -1, -11.8724, 42.2841, 13.1185, -9.14011, -84.1166, 5.56246
0.208, -1, -11.7897, 42.21, 13.1466, -9.00443, -83.9577, 5.46092
0.212, -1, -11.7061, 42.1354, 13.1749, -8.86843, -83.7985, 5.35913
0.216, -1, -11.6218, 42.0602, 13.2033, -8.7322, -83.6389, 5.25717
0.22, -1, -11.5371, 41.9847, 13.2318, -8.5958, -83.4792, 5.15507
0.224, -1, -11.452, 41.909, 13.2603, -8.45928, -83.3194, 5.05288
0.228, -1, -11.3667, 41.8332, 13.2889, -8.32266, -83.1594, 4.95062
0.232, -1, -11.2813, 41.7572, 13.3176, -8.18597, -82.9993, 4.8483
0.236, -1, -11.1957, 41.6811, 13.3462, -8.04922, -82.8392, 4.74595
0.24, -1, -11.11, 41.605, 13.3749, -7.91243, -82.679, 4.64355
0.244, -1, -11.0243, 41.5288, 13.4035, -7.77561, -82.5188, 4.54114
0.248, -1, -10.9386, 41.4526, 13.4322, -7.63876, -82.3586, 4.4387
0.252, -1, -10.8528, 41.3764, 13.4609, -7.50189, -82.1983, 4.33625
0.256, -1, -10.767, 41.3002, 13.4896, -7.36501, -82.0381, 4.2338
0.26, -1, -10.6811, 41.2239, 13.5183, -7.22813, -81.8778, 4.13133
0.264, -1, -10.5953, 41.1477, 13.547, -7.09125, -81.7175, 4.02887
0.268, -1, -10.5094, 41.0714, 13.5757, -6.95436, -81.5572, 3.92641
0.272, -1, -10.4236, 40.9952, 13.6044, -6.81749, -81.397, 3.82396
0.276, -1, -10.3378, 40.9189, 13.6331, -6.68063, -81.2367, 3.72151
0.28, -1, -10.252, 40.8427, 13.6618, -6.54379, -81.0765, 3.61908
0.284, -1, -10.1661, 40.7665, 13.6904, -6.40697, -80.9163, 3.51666
0.288, -1, -10.0803, 40.6903, 13.7191, -6.27017, -80.7561, 3.41427
0.292, -1, -9.99456, 40.6141, 13.7478, -6.13341, -80.596, 3.31189
0.296, -1, -9.9088, 40.538, 13.7764, -5.99668, -80.4359, 3.20955
0.3, -1, -9.82306, 40.4618, 13.8051, -5.85999, -80.2758, 3.10723
0.304, -1, -9.73734, 40.3857, 13.8337, -5.72334, -80.1158, 3.00494
0.308, -1, -9.65166, 40.3096, 13.8624, -5.58674, -79.9558, 2.90269
0.312, -1, -9.566, 40.2336, 13.891, -5.45019, -79.796, 2.80048
0.316, -1, -9.48038, 40.1575, 13.9196, -5.31369, -79.6361, 2.69831
0.32, -1, -9.3948, 40.0815, 13.9482, -5.17726, -79.4764, 2.59618
0.324, -1, -9.30925, 40.0055, 13.9768, -5.04089, -79.3167, 2.4941
0.328, -1, -9.22375, 39.9296, 14.0054, -4.90458, -79.1571, 2.39207
0.332, -1, -9.13829, 39.8537, 14.0339, -4.76835, -78.9976, 2.2901
0.336, -1, -9.05287, 39.7778, 14.0625, -4.63219, -78.8382, 2.18818
0.34, -1, -8.9675, 39.702, 14.091, -4.49612, -78.6788, 2.08632
0.344, -1, -8.88219, 39.6262, 14.1195, -4.36012, -78.5196, 1.98452
0.348, -1, -8.79692, 39.5505, 14.148, -4.22421, -78.3604, 1.88279
0.352, -1, -8.71172, 39.4748, 14.1765, -4.0884, -78.2014, 1.78113
0.356, -1, -8.62657, 39.3992, 14.2049, -3.95267, -78.0425, 1.67953
0.36, -1, -8.54148, 39.3236, 14.2334, -3.81705, -77.8837, 1.57801
0.364, -1, -8.45646, 39.2481, 14.2618, -3.68152, -77.725, 1.47657
0.368, -1, -8.3715, 39.1727, 14.2902, -3.54611, -77.5664, 1.3752
0.372, -1, -8.28661, 39.0973, 14.3185, -3.4108, -77.408, 1.27392
0.376, -1, -8.20179, 39.0219, 14.3469, -3.2756, -77.2497, 1.17272
0.38, -1, -8.11704, 38.9467, 14.3752, -3.14052, -77.0915, 1.07161
0.384, -1, -8.03237, 38.8715, 14.4035, -3.00557, -76.9335, 0.970588
0.388, -1, -7.94777, 38.7963, 14.4318, -2.87073, -76.7756, 0.869659
0.392, -1, -7.86325, 38.7212, 14.46, -2.73602, -76.6179, 0.768825
0.396, -1, -7.77881, 38.6463, 14.4882, -2.60145, -76.4603, 0.668089
0.4, -1, -7.69446, 38.5713, 14.5164, -2.467, -76.3029, 0.567454
0.404, -1, -7.61019, 38.4965, 14.5446, -2.3327, -76.1456, 0.466921
0.408, -1, -7.526, 38.4217, 14.5727, -2.19854, -75.9885, 0.366494
0.412, -1, -7.44191, 38.347, 14.6008, -2.06452, -75.8316, 0.266176
0.416, -1, -7.35791, 38.2724, 14.6288, -1.93064, -75.6748, 0.165968
0.42, -1, -7.274, 38.1979, 14.6569, -1.79692, -75.5183, 0.0658724
0.424, -1, -7.19019, 38.1235, 14.6849, -1.66336, -75.3619, -0.0341072
0.428, -1, -7.10648, 38.0491, 14.7128, -1.52995, -75.2057, -0.133969
0.432, -1, -7.02287, 37.9748, 14.7408, -1.3967, -75.0496, -0.233711
0.436, -1, -6.93935, 37.9007, 14.7687, -1.26362, -74.8938, -0.33333
0.44, -1, -6.85595, 37.8266, 14.7965, -1.1307, -74.7382, -0.432824
0.444, -1, -6.77264, 37.7526, 14.8244, -0.99795, -74.5827, -0.532191
0.448, -1, -6.68945, 37.6787, 14.8522, -0.865375, -74.4275, -0.631429
0.452, -1, -6.60636, 37.6049, 14.8799, -0.732975, -74.2725, -0.730535
0.456, -1, -6.52339, 37.5312, 14.9077, -0.600755, -74.1176, -0.829507
0.46, -1, -6.44053, 37.4576, 14.9353, -0.468716, -73.963, -0.928344
0.464, -1, -6.35778, 37.3842, 14.963, -0.336861, -73.8086, -1.02704
0.468, -1, -6.27515, 37.3108, 14.9906, -0.205193, -73.6545, -1.1256
0.472, -1, -6.19264, 37.2375, 15.0181, -0.0737153, -73.5005, -1.22402
0.476, -1, -6.11024, 37.1643, 15.0457, 0.0575699, -73.3468, -1.32229
0.48, -1, -6.02797, 37.0912, 15.0732, 0.18866, -73.1933, -1.42042
0.484, -1, -5.94582, 37.0183, 15.1006, 0.319552, -73.04, -1.51839
0.488, -1, -5.8638, 36.9454, 15.128, 0.450244, -72.887, -1.61622
0.492, -1, -5.7819, 36.8727, 15.1554, 0.580734, -72.7342, -1.7139
0.496, -1, -5.70012, 36.8001, 15.1827, 0.711018, -72.5817, -1.81142
0.5, -1, -5.61848, 36.7276, 15.2099, 0.841096, -72.4294, -1.90879
0.504, -1, -5.53697, 36.6552, 15.2372, 0.970964, -72.2773, -2.006
0.508, -1, -5.45558, 36.5829, 15.2644, 1.10062, -72.1255, -2.10306
0.512, -1, -5.37433, 36.5108, 15.2915, 1.23006, -71.9739, -2.19995
0.516, -1, -5.29321, 36.4387, 15.3186, 1.35929, -71.8226, -2.29668
0.52, -1, -5.21223, 36.3668, 15.3456, 1.4883, -71.6715, -2.39325
0.524, -1, -5.13138, 36.295, 15.3726, 1.6171, -71.5207, -2.48966
0.528, -1, -5.05067, 36.2233, 15.3996, 1.74567, -71.3702, -2.5859
0.532, -1, -4.97009, 36.1518, 15.4265, 1.87402, -71.2199, -2.68198
0.536, -1, -4.88966, 36.0803, 15.4534, 2.00215, -71.0698, -2.77789
0.54, -1, -4.80936, 36.009, 15.4802, 2.13005, -70.9201, -2.87363
0.544, -1, -4.7292, 35.9378, 15.507, 2.25773, -70.7706, -2.9692
0.548, -1, -4.64919, 35.8668, 15.5337, 2.38518, -70.6213, -3.0646
0.552, -1, -4.56931, 35.7959, 15.5604, 2.51241, -70.4724, -3.15984
0.556, -1, -4.48958, 35.725, 15.587, 2.6394, -70.3237, -3.2549
0.56, -1, -4.41, 35.6544, 15.6136, 2.76617, -70.1752, -3.34979
0.564, -1, -4.33056, 35.5838, 15.6401, 2.8927, -70.0271, -3.44451
0.568, -1, -4.25126, 35.5134, 15.6666, 3.01901, -69.8792, -3.53905
0.572, -1, -4.17211, 35.4431, 15.693, 3.14508, -69.7316, -3.63342
0.576, -1, -4.0931, 35.373, 15.7194, 3.27092, -69.5842, -3.72761
0.58, -1, -4.01424, 35.3029, 15.7458, 3.39652, -69.4372, -3.82163
0.584, -1, -3.93553, 35.233, 15.772, 3.52189, -69.2904, -3.91547
0.588, -1, -3.85696, 35.1633, 15.7983, 3.64702, -69.1438, -4.00914
0.592, -1, -3.77855, 35.0936, 15.8245, 3.77191, -68.9976, -4.10263
0.596, -1, -3.70028, 35.0241, 15.8506, 3.89657, -68.8516, -4.19594
0.6, -1, -3.62216, 34.9548, 15.8767, 4.02099, -68.7059, -4.28908
0.604, -1, -3.54419, 34.8855, 15.9027, 4.14517, -68.5605, -4.38203
0.608, -1, -3.46637, 34.8164, 15.9287, 4.26911, -68.4154, -4.47481
0.612, -1, -3.3887, 34.7474, 15.9547, 4.39281, -68.2706, -4.5674
0.616, -1, -3.31118, 34.6786, 15.9806, 4.51628, -68.126, -4.65982
0.62, -1, -3.23382, 34.6099, 16.0064, 4.63949, -67.9817, -4.75205
0.624, -1, -3.1566, 34.5413, 16.0322, 4.76247, -67.8377, -4.84411
0.628, -1, -3.07954, 34.4729, 16.0579, 4.88521, -67.694, -4.93598
0.632, -1, -3.00262, 34.4046, 16.0836, 5.0077, -67.5506, -5.02767
0.636, -1, -2.92586, 34.3364, 16.1092, 5.12995, -67.4074, -5.11918
0.64, -1, -2.84926, 34.2684, 16.1348, 5.25195, -67.2646, -5.2105
0.644, -1, -2.7728, 34.2005, 16.1604, 5.37371, -67.122, -5.30165
0.648, -1, -2.6965, 34.1328, 16.1858, 5.49523, -66.9797, -5.39261
0.652, -1, -2.62035, 34.0652, 16.2113, 5.6165, -66.8377, -5.48338
0.656, -1, -2.54436, 33.9977, 16.2366, 5.73753, -66.696, -5.57398
0.66, -1, -2.46852, 33.9303, 16.262, 5.85831, -66.5546, -5.66439
0.664, -1, -2.39283, 33.8631, 16.2872, 5.97884, -66.4135, -5.75461
0.668, -1, -2.3173, 33.7961, 16.3125, 6.09913, -66.2726, -5.84465
0.672, -1, -2.24192, 33.7291, 16.3376, 6.21917, -66.1321, -5.93451
0.676, -1, -2.1667, 33.6623, 16.3628, 6.33897, -65.9918, -6.02418
0.68, -1, -2.09163, 33.5957, 16.3878, 6.45851, -65.8518, -6.11367
0.684, -1, -2.01672, 33.5292, 16.4129, 6.57781, -65.7121, -6.20297
0.688, -1, -1.94196, 33.4628, 16.4378, 6.69687, -65.5727, -6.29208
0.692, -1, -1.86736, 33.3965, 16.4627, 6.81567, -65.4336, -6.38101
0.696, -1, -1.79291, 33.3304, 16.4876, 6.93423, -65.2948, -6.46976
0.7, -1, -1.71862, 33.2645, 16.5124, 7.05254, -65.1562, -6.55832
0.704, -1, -1.64448, 33.1986, 16.5372, 7.1706, -65.018, -6.64669
0.708, -1, -1.5705, 33.1329, 16.5619, 7.28841, -64.8801, -6.73488
0.712, -1, -1.49668, 33.0674, 16.5865, 7.40597, -64.7424, -6.82288
0.716, -1, -1.42301, 33.002, 16.6111, 7.52329, -64.605, -6.9107
0.72, -1, -1.34949, 32.9367, 16.6357, 7.64036, -64.468, -6.99833
0.724, -1, -1.27614, 32.8715, 16.6602, 7.75718, -64.3312, -7.08577
0.728, -1, -1.20293, 32.8065, 16.6846, 7.87375, -64.1947, -7.17303
0.732, -1, -1.12989, 32.7417, 16.709, 7.99007, -64.0585, -7.2601
0.736, -1, -1.057, 32.677, 16.7333, 8.10615, -63.9226, -7.34699
0.74, -1, -0.984259, 32.6124, 16.7576, 8.22197, -63.7869, -7.43369
0.744, -1, -0.911678, 32.5479, 16.7819, 8.33755, -63.6516, -7.52021
0.748, -1, -0.839252, 32.4836, 16.8061, 8.45288, -63.5166, -7.60653
0.752, -1, -0.766981, 32.4194, 16.8302, 8.56796, -63.3818, -7.69268
0.756, -1, -0.694864, 32.3554, 16.8543, 8.6828, -63.2474, -7.77864
0.76, -1, -0.622901, 32.2915, 16.8783, 8.79738, -63.1132, -7.86441
0.764, -1, -0.551092, 32.2277, 16.9023, 8.91172, -62.9793, -7.95
0.768, -1, -0.479437, 32.1641, 16.9262, 9.02582, -62.8457, -8.0354
0.772, -1, -0.407935, 32.1006, 16.9501, 9.13966, -62.7124, -8.12062
0.776, -1, -0.336586, 32.0373, 16.9739, 9.25326, -62.5794, -8.20566
0.78, -1, -0.26539, 31.9741, 16.9977, 9.36662, -62.4467, -8.29051
0.784, -1, -0.194346, 31.911, 17.0214, 9.47973, -62.3142, -8.37518
0.788, -1, -0.123455, 31.848, 17.0451, 9.5926, -62.182, -8.45966
0.792, -1, -0.0527154, 31.7852, 17.0687, 9.70522, -62.0502, -8.54397
0.796, -1, 0.0178725, 31.7226, 17.0923, 9.81761, -61.9186, -8.62809
0.8, -1, 0.0883091, 31.66, 17.1158, 9.92975, -61.7873, -8.71204
0.804, -1, 0.158595, 31.5976, 17.1393, 10.0417, -61.6562, -8.7958
0.808, -1, 0.22873, 31.5353, 17.1627, 10.1533, -61.5255, -8.87938
0.812, -1, 0.298716, 31.4732, 17.186, 10.2647, -61.395, -8.96279
0.816, -1, 0.368552, 31.4112, 17.2094, 10.3759, -61.2648, -9.04602
0.82, -1, 0.438239, 31.3493, 17.2326, 10.4869, -61.1349, -9.12907
0.824, -1, 0.507778, 31.2876, 17.2559, 10.5976, -61.0053, -9.21194
0.828, -1, 0.577169, 31.226, 17.279, 10.7081, -60.8759, -9.29464
0.832, -1, 0.646413, 31.1645, 17.3021, 10.8183, -60.7468, -9.37716
0.836, -1, 0.71551, 31.1031, 17.3252, 10.9283, -60.618, -9.45951
0.84, -1, 0.78446, 31.0419, 17.3482, 11.0381, -60.4895, -9.54168
0.844, -1, 0.853265, 30.9808, 17.3712, 11.1476, -60.3612, -9.62368
0.848, -1, 0.921925, 30.9199, 17.3941, 11.2569, -60.2332, -9.7055
0.852, -1, 0.990441, 30.859, 17.417, 11.366, -60.1055, -9.78716
0.856, -1, 1.05881, 30.7983, 17.4398, 11.4749, -59.9781, -9.86864
0.86, -1, 1.12704, 30.7378, 17.4626, 11.5835, -59.8509, -9.94995
0.864, -1, 1.19512, 30.6773, 17.4854, 11.6919, -59.7239, -10.0311
0.868, -1, 1.26307, 30.617, 17.508, 11.8001, -59.5973, -10.1121
0.872, -1, 1.33087, 30.5568, 17.5307, 11.908, -59.4709, -10.1929
0.876, -1, 1.39853, 30.4967, 17.5533, 12.0157, -59.3448, -10.2735
0.88, -1, 1.46604, 30.4368, 17.5758, 12.1232, -59.2189, -10.354
0.884, -1, 1.53342, 30.377, 17.5983, 12.2305, -59.0933, -10.4343
0.888, -1, 1.60066, 30.3173, 17.6208, 12.3375, -58.9679, -10.5144
0.892, -1, 1.66775, 30.2577, 17.6432, 12.4444, -58.8429, -10.5943
0.896, -1, 1.73471, 30.1982, 17.6655, 12.551, -58.718, -10.6741
0.9, -1, 1.80153, 30.1389, 17.6878, 12.6574, -58.5935, -10.7538
0.904, -1, 1.86821, 30.0797, 17.7101, 12.7635, -58.4692, -10.8332
0.908, -1, 1.93476, 30.0206, 17.7323, 12.8695, -58.3451, -10.9125
0.912, -1, 2.00117, 29.9617, 17.7545, 12.9752, -58.2213, -10.9917
0.916, -1, 2.06744, 29.9028, 17.7766, 13.0807, -58.0978, -11.0707
0.92, -1, 2.13357, 29.8441, 17.7987, 13.186, -57.9745, -11.1495
0.924, -1, 2.19957, 29.7855, 17.8207, 13.2911, -57.8514, -11.2281
0.928, -1, 2.26543, 29.727, 17.8427, 13.3959, -57.7287, -11.3066
0.932, -1, 2.33116, 29.6687, 17.8647, 13.5006, -57.6061, -11.385
0.936, -1, 2.39676, 29.6104, 17.8866, 13.605, -57.4838, -11.4631
0.94, -1, 2.46222, 29.5523, 17.9084, 13.7092, -57.3618, -11.5412
0.944, -1, 2.52755, 29.4943, 17.9303, 13.8133, -57.24, -11.619
0.948, -1, 2.59275, 29.4364, 17.952, 13.9171, -57.1185, -11.6967
0.952, -1, 2.65781, 29.3787, 17.9738, 14.0206, -56.9972, -11.7743
0.956, -1, 2.72274, 29.321, 17.9954, 14.124, -56.8761, -11.8516
0.96, -1, 2.78755, 29.2635, 18.0171, 14.2272, -56.7553, -11.9289
0.964, -1, 2.85222, 29.2061, 18.0387, 14.3302, -56.6348, -12.0059
0.968, -1, 2.91676, 29.1488, 18.0602, 14.4329, -56.5144, -12.0829
0.972, -1, 2.98117, 29.0916, 18.0817, 14.5355, -56.3944, -12.1596
0.976, -1, 3.04545, 29.0345, 18.1032, 14.6378, -56.2745, -12.2362
0.98, -1, 3.10961, 28.9775, 18.1246, 14.7399, -56.1549, -12.3127
0.984, -1, 3.17363, 28.9207, 18.146, 14.8419, -56.0356, -12.389
0.988, -1, 3.23753, 28.864, 18.1673, 14.9436, -55.9165, -12.4651
0.992, -1, 3.3013, 28.8074, 18.1886, 15.0451, -55.7976, -12.5411
0.996, -1, 3.36494, 28.7508, 18.2099, 15.1465, -55.6789, -12.617
1, -1, 3.42846, 28.6945, 18.2311, 15.2476, -55.5605, -12.6927
1.004, -1, 3.49185, 28.6382, 18.2523, 15.3485, -55.4423, -12.7682
1.008, -1, 3.55512, 28.582, 18.2734, 15.4492, -55.3244, -12.8436
1.012, -1, 3.61826, 28.5259, 18.2945, 15.5498, -55.2067, -12.9189
1.016, -1, 3.68127, 28.47, 18.3155, 15.6501, -55.0892, -12.994
1.02, -1, 3.74416, 28.4142, 18.3365, 15.7502, -54.972, -13.0689
1.024, -1, 3.80693, 28.3584, 18.3575, 15.8502, -54.855, -13.1437
1.027, -1, 3.86958, 28.3028, 18.3784, 15.9499, -54.7382, -13.2184
1.032, -1, 3.9321, 28.2473, 18.3993, 16.0494, -54.6216, -13.2929
1.036, -1, 3.9945, 28.1919, 18.4201, 16.1488, -54.5053, -13.3673
1.04, -1, 4.05678, 28.1366, 18.4409, 16.2479, -54.3892, -13.4415
1.044, -1, 4.11893, 28.0814, 18.4616, 16.3469, -54.2733, -13.5156
1.048, -1, 4.18097, 28.0263, 18.4824, 16.4457, -54.1577, -13.5895
1.052, -1, 4.24289, 27.9714, 18.503, 16.5442, -54.0422, -13.6633
1.055, -1, 4.30468, 27.9165, 18.5237, 16.6426, -53.927, -13.7369
1.06, -1, 4.36636, 27.8617, 18.5443, 16.7408, -53.8121, -13.8104
1.064, -1, 4.42792, 27.8071, 18.5648, 16.8388, -53.6973, -13.8838
1.068, -1, 4.48936, 27.7525, 18.5853, 16.9366, -53.5828, -13.957
1.072, -1, 4.55068, 27.6981, 18.6058, 17.0343, -53.4685, -14.0301
1.076, -1, 4.61188, 27.6438, 18.6262, 17.1317, -53.3544, -14.103
1.08, -1, 4.67297, 27.5895, 18.6466, 17.229, -53.2405, -14.1758
1.084, -1, 4.73394, 27.5354, 18.667, 17.326, -53.1268, -14.2485
1.088, -1, 4.7948, 27.4814, 18.6873, 17.4229, -53.0134, -14.321
1.091, -1, 4.85554, 27.4274, 18.7076, 17.5196, -52.9002, -14.3934
1.096, -1, 4.91617, 27.3736, 18.7278, 17.6161, -52.7871, -14.4656
1.1, -1, 4.97668, 27.3199, 18.7481, 17.7125, -52.6743, -14.5378
1.104, -1, 5.03708, 27.2663, 18.7682, 17.8086, -52.5618, -14.6097
1.108, -1, 5.09737, 27.2127, 18.7883, 17.9046, -52.4494, -14.6816
1.112, -1, 5.15754, 27.1593, 18.8084, 18.0004, -52.3372, -14.7533
1.116, -1, 5.2176, 27.106, 18.8285, 18.096, -52.2253, -14.8249
1.119, -1, 5.27755, 27.0528, 18.8485, 18.1915, -52.1135, -14.8963
1.124, -1, 5.33739, 26.9996, 18.8685, 18.2867, -52.0019, -14.9676
1.128, -1, 5.39712, 26.9466, 18.8884, 18.3818, -51.8906, -15.0388
1.132, -1, 5.45673, 26.8937, 18.9083, 18.4767, -51.7795, -15.1098
1.136, -1, 5.51624, 26.8408, 18.9282, 18.5715, -51.6685, -15.1807
1.14, -1, 5.57564, 26.7881, 18.948, 18.666, -51.5578, -15.2515
1.144, -1, 5.63493, 26.7355, 18.9678, 18.7604, -51.4473, -15.3222
1.147, -1, 5.69412, 26.6829, 18.9876, 18.8547, -51.337, -15.3927
1.152, -1, 5.75319, 26.6305, 19.0073, 18.9487, -51.2268, -15.4631
1.156, -1, 5.81216, 26.5781, 19.027, 19.0426, -51.1169, -15.5334
1.16, -1, 5.87103, 26.5259, 19.0467, 19.1363, -51.0072, -15.6035
1.164, -1, 5.92979, 26.4737, 19.0663, 19.2298, -50.8976, -15.6736
1.168, -1, 5.98844, 26.4216, 19.0859, 19.3232, -50.7883, -15.7435
1.172, -1, 6.04699, 26.3696, 19.1054, 19.4164, -50.6792, -15.8132
1.175, -1, 6.10543, 26.3177, 19.1249, 19.5095, -50.5702, -15.8829
1.18, -1, 6.16377, 26.266, 19.1444, 19.6024, -50.4614, -15.9524
1.184, -1, 6.22201, 26.2142, 19.1639, 19.6951, -50.3529, -16.0218
1.188, -1, 6.28015, 26.1626, 19.1833, 19.7876, -50.2445, -16.0911
1.192, -1, 6.33818, 26.1111, 19.2027, 19.88, -50.1363, -16.1603
1.196, -1, 6.39611, 26.0597, 19.222, 19.9723, -50.0283, -16.2293
1.2, -1, 6.45394, 26.0083, 19.2413, 20.0643, -49.9205, -16.2982
1.204, -1, 6.51167, 25.9571, 19.2606, 20.1562, -49.8129, -16.367
1.208, -1, 6.5693, 25.9059, 19.2798, 20.248, -49.7055, -16.4357
1.212, -1, 6.62683, 25.8548, 19.299, 20.3396, -49.5982, -16.5042
1.216, -1, 6.68426, 25.8038, 19.3182, 20.431, -49.4912, -16.5727
1.22, -1, 6.74159, 25.7529, 19.3374, 20.5223, -49.3843, -16.641
1.224, -1, 6.79882, 25.7021, 19.3565, 20.6134, -49.2776, -16.7092
1.228, -1, 6.85596, 25.6514, 19.3756, 20.7044, -49.1711, -16.7773
1.232, -1, 6.91299, 25.6008, 19.3946, 20.7952, -49.0648, -16.8453
1.236, -1, 6.96993, 25.5502, 19.4136, 20.8858, -48.9586, -16.9131
1.24, -1, 7.02678, 25.4997, 19.4326, 20.9763, -48.8526, -16.9809
1.244, -1, 7.08352, 25.4494, 19.4515, 21.0667, -48.7469, -17.0485
1.248, -1, 7.14018, 25.3991, 19.4705, 21.1569, -48.6413, -17.116
1.252, -1, 7.19673, 25.3488, 19.4893, 21.2469, -48.5358, -17.1834
1.256, -1, 7.25319, 25.2987, 19.5082, 21.3368, -48.4306, -17.2507
1.26, -1, 7.30956, 25.2487, 19.527, 21.4266, -48.3255, -17.3179
1.264, -1, 7.36583, 25.1987, 19.5458, 21.5161, -48.2206, -17.385
1.267, -1, 7.42201, 25.1488, 19.5646, 21.6056, -48.1158, -17.4519
1.272, -1, 7.4781, 25.099, 19.5833, 21.6949, -48.0113, -17.5188
1.276, -1, 7.53409, 25.0493, 19.602, 21.784, -47.9069, -17.5855
1.28, -1, 7.58999, 24.9997, 19.6207, 21.873, -47.8027, -17.6521
1.284, -1, 7.6458, 24.9501, 19.6393, 21.9619, -47.6986, -17.7186
1.288, -1, 7.70152, 24.9007, 19.6579, 22.0506, -47.5948, -17.785
1.292, -1, 7.75715, 24.8513, 19.6765, 22.1392, -47.4911, -17.8513
1.295, -1, 7.81268, 24.802, 19.695, 22.2276, -47.3875, -17.9175
1.3, -1, 7.86813, 24.7528, 19.7135, 22.3159, -47.2842, -17.9836
1.304, -1, 7.92348, 24.7036, 19.732, 22.404, -47.181, -18.0496
1.308, -1, 7.97875, 24.6545, 19.7505, 22.492, -47.0779, -18.1154
1.312, -1, 8.03393, 24.6055, 19.7689, 22.5798, -46.9751, -18.1812
1.316, -1, 8.08901, 24.5566, 19.7873, 22.6675, -46.8724, -18.2468
1.32, -1, 8.14401, 24.5078, 19.8057, 22.7551, -46.7699, -18.3124
1.324, -1, 8.19893, 24.4591, 19.824, 22.8425, -46.6675, -18.3778
1.328, -1, 8.25375, 24.4104, 19.8423, 22.9298, -46.5653, -18.4432
1.332, -1, 8.30849, 24.3618, 19.8606, 23.017, -46.4632, -18.5084
1.336, -1, 8.36314, 24.3133, 19.8788, 23.104, -46.3614, -18.5735
1.34, -1, 8.4177, 24.2648, 19.8971, 23.1909, -46.2596, -18.6386
1.344, -1, 8.47218, 24.2165, 19.9153, 23.2776, -46.1581, -18.7035
1.348, -1, 8.52657, 24.1682, 19.9334, 23.3642, -46.0567, -18.7683
1.352, -1, 8.58088, 24.1199, 19.9515, 23.4507, -45.9554, -18.833
1.356, -1, 8.6351, 24.0718, 19.9697, 23.537, -45.8543, -18.8976
1.36, -1, 8.68923, 24.0237, 19.9877, 23.6232, -45.7534, -18.9622
1.364, -1, 8.74328, 23.9757, 20.0058, 23.7092, -45.6526, -19.0266
1.368, -1, 8.79725, 23.9278, 20.0238, 23.7952, -45.552, -19.0909
1.372, -1, 8.85114, 23.88, 20.0418, 23.881, -45.4516, -19.1551
1.376, -1, 8.90494, 23.8322, 20.0598, 23.9666, -45.3513, -19.2192
1.38, -1, 8.95866, 23.7845, 20.0777, 24.0521, -45.2511, -19.2833
1.384, -1, 9.01229, 23.7369, 20.0956, 24.1375, -45.1511, -19.3472
1.388, -1, 9.06584, 23.6894, 20.1135, 24.2228, -45.0513, -19.411
1.392, -1, 9.11932, 23.6419, 20.1314, 24.3079, -44.9516, -19.4747
1.396, -1, 9.1727, 23.5945, 20.1492, 24.393, -44.8521, -19.5384
1.4, -1, 9.22601, 23.5472, 20.167, 24.4778, -44.7527, -19.6019
1.404, -1, 9.27924, 23.4999, 20.1848, 24.5626, -44.6535, -19.6653
1.408, -1, 9.33239, 23.4527, 20.2025, 24.6472, -44.5544, -19.7287
1.412, -1, 9.38546, 23.4056, 20.2202, 24.7317, -44.4554, -19.7919
1.416, -1, 9.43844, 23.3585, 20.2379, 24.8161, -44.3567, -19.8551
1.42, -1, 9.49135, 23.3116, 20.2556, 24.9003, -44.258, -19.9181
1.424, -1, 9.54418, 23.2647, 20.2732, 24.9844, -44.1595, -19.9811
1.428, -1, 9.59693, 23.2178, 20.2908, 25.0684, -44.0612, -20.044
1.432, -1, 9.6496, 23.1711, 20.3084, 25.1523, -43.963, -20.1067
1.436, -1, 9.7022, 23.1244, 20.326, 25.236, -43.865, -20.1694
1.44, -1, 9.75472, 23.0777, 20.3435, 25.3196, -43.767, -20.232
1.444, -1, 9.80716, 23.0312, 20.361, 25.4031, -43.6693, -20.2945
1.448, -1, 9.85952, 22.9847, 20.3785, 25.4865, -43.5717, -20.3569
1.452, -1, 9.91181, 22.9383, 20.396, 25.5697, -43.4742, -20.4192
1.456, -1, 9.96403, 22.8919, 20.4134, 25.6528, -43.3769, -20.4814
1.46, -1, 10.0162, 22.8456, 20.4308, 25.7358, -43.2797, -20.5436
1.464, -1, 10.0682, 22.7994, 20.4482, 25.8187, -43.1826, -20.6056
1.468, -1, 10.1202, 22.7533, 20.4656, 25.9015, -43.0857, -20.6676
1.472, -1, 10.1721, 22.7072, 20.4829, 25.9841, -42.989, -20.7294
1.476, -1, 10.224, 22.6612, 20.5002, 26.0666, -42.8923, -20.7912
1.48, -1, 10.2757, 22.6152, 20.5175, 26.149, -42.7958, -20.8529
1.484, -1, 10.3274, 22.5693, 20.5348, 26.2313, -42.6995, -20.9145
1.488, -1, 10.379, 22.5235, 20.552, 26.3135, -42.6033, -20.976
1.492, -1, 10.4306, 22.4777, 20.5692, 26.3956, -42.5072, -21.0374
1.496, -1, 10.482, 22.432, 20.5864, 26.4775, -42.4113, -21.0987
1.5, -1, 10.5334, 22.3864, 20.6035, 26.5593, -42.3154, -21.16
1.504, -1, 10.5848, 22.3408, 20.6207, 26.641, -42.2198, -21.2212
1.508, -1, 10.636, 22.2953, 20.6378, 26.7226, -42.1242, -21.2822
1.512, -1, 10.6872, 22.2499, 20.6549, 26.8041, -42.0288, -21.3432
1.516, -1, 10.7383, 22.2045, 20.6719, 26.8855, -41.9336, -21.4041
1.52, -1, 10.7893, 22.1592, 20.689, 26.9667, -41.8384, -21.4649
1.524, -1, 10.8403, 22.114, 20.706, 27.0479, -41.7434, -21.5257
1.528, -1, 10.8912, 22.0688, 20.723, 27.1289, -41.6485, -21.5863
1.532, -1, 10.942, 22.0237, 20.74, 27.2098, -41.5538, -21.6469
1.536, -1, 10.9928, 21.9786, 20.7569, 27.2906, -41.4592, -21.7074
1.54, -1, 11.0435, 21.9336, 20.7738, 27.3713, -41.3647, -21.7678
1.544, -1, 11.0941, 21.8887, 20.7908, 27.4519, -41.2703, -21.8281
1.548, -1, 11.1446, 21.8438, 20.8076, 27.5324, -41.1761, -21.8884
1.552, -1, 11.1951, 21.799, 20.8245, 27.6127, -41.082, -21.9485
1.556, -1, 11.2455, 21.7542, 20.8413, 27.693, -40.988, -22.0086
1.56, -1, 11.2959, 21.7095, 20.8581, 27.7732, -40.8941, -22.0686
1.564, -1, 11.3462, 21.6649, 20.8749, 27.8532, -40.8004, -22.1285
1.568, -1, 11.3964, 21.6203, 20.8917, 27.9331, -40.7068, -22.1884
1.572, -1, 11.4465, 21.5758, 20.9084, 28.013, -40.6133, -22.2481
1.576, -1, 11.4966, 21.5313, 20.9251, 28.0927, -40.52, -22.3078
1.58, -1, 11.5466, 21.4869, 20.9418, 28.1723, -40.4268, -22.3674
1.584, -1, 11.5965, 21.4426, 20.9585, 28.2518, -40.3336, -22.4269
1.588, -1, 11.6464, 21.3983, 20.9752, 28.3313, -40.2407, -22.4864
1.592, -1, 11.6962, 21.3541, 20.9918, 28.4106, -40.1478, -22.5457
1.596, -1, 11.746, 21.3099, 21.0084, 28.4898, -40.0551, -22.605
1.6, -1, 11.7957, 21.2658, 21.025, 28.5689, -39.9624, -22.6642
1.604, -1, 11.8453, 21.2217, 21.0416, 28.6479, -39.8699, -22.7234
1.608, -1, 11.8948, 21.1778, 21.0581, 28.7268, -39.7776, -22.7824
1.612, -1, 11.9443, 21.1338, 21.0747, 28.8055, -39.6853, -22.8414
1.616, -1, 11.9938, 21.0899, 21.0912, 28.8842, -39.5932, -22.9003
1.62, -1, 12.0431, 21.0461, 21.1076, 28.9628, -39.5011, -22.9591
1.624, -1, 12.0924, 21.0023, 21.1241, 29.0413, -39.4092, -23.0179
1.628, -1, 12.1417, 20.9586, 21.1405, 29.1197, -39.3174, -23.0765
1.632, -1, 12.1908, 20.915, 21.157, 29.198, -39.2258, -23.1352
1.636, -1, 12.2399, 20.8714, 21.1734, 29.2762, -39.1342, -23.1937
1.64, -1, 12.289, 20.8278, 21.1897, 29.3543, -39.0428, -23.2521
1.644, -1, 12.338, 20.7843, 21.2061, 29.4323, -38.9515, -23.3105
1.648, -1, 12.3869, 20.7409, 21.2224, 29.5102, -38.8603, -23.3688
1.652, -1, 12.4358, 20.6975, 21.2388, 29.588, -38.7692, -23.4271
1.656, -1, 12.4846, 20.6542, 21.2551, 29.6657, -38.6782, -23.4852
1.66, -1, 12.5333, 20.6109, 21.2713, 29.7433, -38.5873, -23.5433
1.664, -1, 12.582, 20.5677, 21.2876, 29.8208, -38.4966, -23.6013
1.668, -1, 12.6306, 20.5245, 21.3038, 29.8982, -38.4059, -23.6593
1.672, -1, 12.6792, 20.4814, 21.32, 29.9755, -38.3154, -23.7171
1.676, -1, 12.7277, 20.4384, 21.3362, 30.0527, -38.225, -23.7749
1.68, -1, 12.7761, 20.3953, 21.3524, 30.1298, -38.1347, -23.8327
1.684, -1, 12.8245, 20.3524, 21.3686, 30.2069, -38.0445, -23.8903
1.688, -1, 12.8728, 20.3095, 21.3847, 30.2838, -37.9544, -23.9479
1.692, -1, 12.9211, 20.2666, 21.4008, 30.3606, -37.8644, -24.0054
1.696, -1, 12.9693, 20.2238, 21.4169, 30.4374, -37.7746, -24.0629
1.7, -1, 13.0174, 20.1811, 21.433, 30.514, -37.6848, -24.1203
1.704, -1, 13.0655, 20.1384, 21.449, 30.5906, -37.5951, -24.1776
1.708, -1, 13.1136, 20.0958, 21.4651, 30.6671, -37.5056, -24.2348
1.712, -1, 13.1615, 20.0532, 21.4811, 30.7435, -37.4162, -24.292
1.716, -1, 13.2094, 20.0106, 21.4971, 30.8197, -37.3269, -24.3491
1.72, -1, 13.2573, 19.9681, 21.5131, 30.8959, -37.2376, -24.4061
1.724, -1, 13.3051, 19.9257, 21.529, 30.972, -37.1485, -24.4631
1.728, -1, 13.3528, 19.8833, 21.545, 31.0481, -37.0595, -24.52
1.732, -1, 13.4005, 19.841, 21.5609, 31.124, -36.9706, -24.5768
1.736, -1, 13.4482, 19.7987, 21.5768, 31.1998, -36.8818, -24.6336
1.74, -1, 13.4957, 19.7565, 21.5927, 31.2756, -36.7931, -24.6903
1.744, -1, 13.5433, 19.7143, 21.6086, 31.3512, -36.7045, -24.7469
1.748, -1, 13.5907, 19.6721, 21.6244, 31.4268, -36.6161, -24.8035
1.752, -1, 13.6381, 19.63, 21.6402, 31.5023, -36.5277, -24.86
1.756, -1, 13.6855, 19.588, 21.6561, 31.5776, -36.4394, -24.9164
1.76, -1, 13.7328, 19.546, 21.6719, 31.6529, -36.3512, -24.9728
1.764, -1, 13.78, 19.5041, 21.6876, 31.7282, -36.2632, -25.0291
1.768, -1, 13.8272, 19.4622, 21.7034, 31.8033, -36.1752, -25.0853
1.772, -1, 13.8743, 19.4203, 21.7191, 31.8783, -36.0873, -25.1415
1.776, -1, 13.9214, 19.3785, 21.7348, 31.9533, -35.9996, -25.1976
1.78, -1, 13.9684, 19.3368, 21.7505, 32.0281, -35.9119, -25.2536
1.784, -1, 14.0154, 19.2951, 21.7662, 32.1029, -35.8243, -25.3096
1.788, -1, 14.0623, 19.2534, 21.7819, 32.1776, -35.7369, -25.3655
1.792, -1, 14.1092, 19.2118, 21.7975, 32.2522, -35.6495, -25.4214
1.796, -1, 14.156, 19.1703, 21.8132, 32.3268, -35.5622, -25.4772
1.8, -1, 14.2027, 19.1288, 21.8288, 32.4012, -35.4751, -25.5329
1.804, -1, 14.2494, 19.0873, 21.8444, 32.4756, -35.388, -25.5886
1.808, -1, 14.2961, 19.0459, 21.86, 32.5498, -35.301, -25.6442
1.812, -1, 14.3427, 19.0045, 21.8755, 32.624, -35.2142, -25.6997
1.816, -1, 14.3892, 18.9632, 21.8911, 32.6981, -35.1274, -25.7552
1.82, -1, 14.4357, 18.9219, 21.9066, 32.7722, -35.0407, -25.8106
1.824, -1, 14.4822, 18.8807, 21.9221, 32.8461, -34.9541, -25.8659
1.828, -1, 14.5286, 18.8395, 21.9376, 32.92, -34.8676, -25.9212
1.832, -1, 14.5749, 18.7983, 21.9531, 32.9938, -34.7813, -25.9764
1.836, -1, 14.6212, 18.7572, 21.9685, 33.0675, -34.695, -26.0316
1.84, -1, 14.6674, 18.7162, 21.984, 33.1411, -34.6088, -26.0867
1.844, -1, 14.7136, 18.6752, 21.9994, 33.2146, -34.5227, -26.1418
1.848, -1, 14.7598, 18.6342, 22.0148, 33.2881, -34.4367, -26.1967
1.852, -1, 14.8058, 18.5933, 22.0302, 33.3614, -34.3507, -26.2517
1.856, -1, 14.8519, 18.5524, 22.0456, 33.4347, -34.2649, -26.3065
1.86, -1, 14.8979, 18.5116, 22.0609, 33.5079, -34.1792, -26.3613
1.864, -1, 14.9438, 18.4708, 22.0762, 33.5811, -34.0936, -26.4161
1.868, -1, 14.9897, 18.4301, 22.0916, 33.6541, -34.008, -26.4708
1.872, -1, 15.0355, 18.3894, 22.1069, 33.7271, -33.9226, -26.5254
1.876, -1, 15.0813, 18.3487, 22.1222, 33.8, -33.8372, -26.58
1.88, -1, 15.127, 18.3081, 22.1374, 33.8728, -33.7519, -26.6345
1.884, -1, 15.1727, 18.2676, 22.1527, 33.9456, -33.6668, -26.6889
1.888, -1, 15.2184, 18.227, 22.1679, 34.0182, -33.5817, -26.7433
1.892, -1, 15.264, 18.1866, 22.1832, 34.0908, -33.4967, -26.7976
1.896, -1, 15.3095, 18.1461, 22.1984, 34.1633, -33.4118, -26.8519
1.9, -1, 15.355, 18.1057, 22.2136, 34.2358, -33.3269, -26.9062
1.904, -1, 15.4004, 18.0654, 22.2287, 34.3081, -33.2422, -26.9603
1.908, -1, 15.4458, 18.0251, 22.2439, 34.3804, -33.1576, -27.0144
1.912, -1, 15.4912, 17.9848, 22.259, 34.4526, -33.073, -27.0685
1.916, -1, 15.5365, 17.9446, 22.2742, 34.5248, -32.9886, -27.1225
1.92, -1, 15.5818, 17.9044, 22.2893, 34.5968, -32.9042, -27.1764
1.924, -1, 15.627, 17.8643, 22.3044, 34.6688, -32.8199, -27.2303
1.928, -1, 15.6721, 17.8242, 22.3195, 34.7407, -32.7357, -27.2841
1.932, -1, 15.7173, 17.7841, 22.3345, 34.8126, -32.6516, -27.3379
1.936, -1, 15.7623, 17.7441, 22.3496, 34.8843, -32.5676, -27.3916
1.94, -1, 15.8073, 17.7041, 22.3646, 34.956, -32.4836, -27.4453
1.944, -1, 15.8523, 17.6642, 22.3796, 35.0276, -32.3997, -27.4989
1.948, -1, 15.8973, 17.6243, 22.3946, 35.0992, -32.316, -27.5524
1.952, -1, 15.9422, 17.5844, 22.4096, 35.1707, -32.2323, -27.6059
1.956, -1, 15.987, 17.5446, 22.4246, 35.2421, -32.1487, -27.6594
1.96, -1, 16.0318, 17.5048, 22.4396, 35.3134, -32.0652, -27.7128
1.964, -1, 16.0765, 17.4651, 22.4545, 35.3846, -31.9817, -27.7661
1.968, -1, 16.1212, 17.4254, 22.4694, 35.4558, -31.8984, -27.8194
1.972, -1, 16.1659, 17.3858, 22.4844, 35.5269, -31.8151, -27.8726
1.976, -1, 16.2105, 17.3461, 22.4993, 35.598, -31.7319, -27.9258
1.98, -1, 16.2551, 17.3066, 22.5141, 35.6689, -31.6488, -27.9789
1.984, -1, 16.2996, 17.267, 22.529, 35.7398, -31.5658, -28.032
1.988, -1, 16.3441, 17.2275, 22.5439, 35.8107, -31.4829, -28.085
1.992, -1, 16.3886, 17.1881, 22.5587, 35.8814, -31.4, -28.138
1.996, -1, 16.433, 17.1487, 22.5735, 35.9521, -31.3173, -28.1909
1.999, -1, 16.4773, 17.1093, 22.5883, 36.0228, -31.2346, -28.2438
2.004, -1, 16.5216, 17.0699, 22.6031, 36.0933, -31.1519, -28.2966
2.008, -1, 16.5659, 17.0306, 22.6179, 36.1638, -31.0694, -28.3493
2.012, -1, 16.6101, 16.9914, 22.6327, 36.2342, -30.987, -28.4021
2.015, -1, 16.6543, 16.9521, 22.6474, 36.3046, -30.9046, -28.4547
2.019, -1, 16.6984, 16.9129, 22.6622, 36.3748, -30.8223, -28.5073
2.024, -1, 16.7425, 16.8738, 22.6769, 36.445, -30.7401, -28.5599
2.028, -1, 16.7866, 16.8347, 22.6916, 36.5152, -30.658, -28.6124
2.031, -1, 16.8306, 16.7956, 22.7063, 36.5853, -30.5759, -28.6648
2.036, -1, 16.8746, 16.7566, 22.721, 36.6553, -30.4939, -28.7172
2.04, -1, 16.9185, 16.7176, 22.7357, 36.7252, -30.412, -28.7696
2.044, -1, 16.9624, 16.6786, 22.7503, 36.7951, -30.3302, -28.8219
2.048, -1, 17.0062, 16.6397, 22.765, 36.8649, -30.2485, -28.8742
2.051, -1, 17.05, 16.6008, 22.7796, 36.9346, -30.1668, -28.9264
2.055, -1, 17.0938, 16.5619, 22.7942, 37.0043, -30.0852, -28.9785
2.06, -1, 17.1375, 16.5231, 22.8088, 37.0739, -30.0037, -29.0306
2.064, -1, 17.1811, 16.4844, 22.8234, 37.1435, -29.9223, -29.0827
2.068, -1, 17.2244, 16.4458, 22.8379, 37.2129, -29.841, -29.1347
2.071, -1, 17.2671, 16.4077, 22.8523, 37.2823, -29.7597, -29.1866
2.076, -1, 17.3088, 16.3701, 22.8666, 37.3515, -29.6787, -29.2384
2.08, -1, 17.3495, 16.3335, 22.8807, 37.4204, -29.5981, -29.29
2.084, -1, 17.3888, 16.2979, 22.8945, 37.4888, -29.518, -29.3412
2.087, -1, 17.4267, 16.2635, 22.9079, 37.5564, -29.4389, -29.3918
2.092, -1, 17.4632, 16.2306, 22.921, 37.6229, -29.3611, -29.4417
2.096, -1, 17.4983, 16.1992, 22.9337, 37.6879, -29.2851, -29.4903
2.1, -1, 17.5321, 16.1694, 22.9459, 37.7508, -29.2115, -29.5374
2.104, -1, 17.5644, 16.1411, 22.9576, 37.8112, -29.1408, -29.5827
2.107, -1, 17.5951, 16.1145, 22.9686, 37.8686, -29.0737, -29.6257
2.111, -1, 17.624, 16.0896, 22.9791, 37.9226, -29.0106, -29.6661
2.116, -1, 17.6513, 16.0662, 22.9888, 37.9726, -28.9521, -29.7035
2.12, -1, 17.6768, 16.044, 22.9978, 38.0183, -28.8986, -29.7378
2.124, -1, 17.7009, 16.023, 23.0061, 38.0595, -28.8504, -29.7686
2.127, -1, 17.7234, 16.0029, 23.0136, 38.0959, -28.8078, -29.7958
2.132, -1, 17.7446, 15.9838, 23.0205, 38.1275, -28.7707, -29.8195
2.136, -1, 17.7642, 15.9657, 23.0267, 38.1546, -28.739, -29.8397
2.14, -1, 17.7823, 15.9489, 23.0321, 38.1772, -28.7125, -29.8566
2.143, -1, 17.7986, 15.9337, 23.0368, 38.1957, -28.6907, -29.8705
2.148, -1, 17.8131, 15.9202, 23.0409, 38.2106, -28.6732, -29.8816
2.152, -1, 17.8259, 15.9085, 23.0443, 38.2223, -28.6594, -29.8904
2.156, -1, 17.8371, 15.8987, 23.0471, 38.2313, -28.6488, -29.8971
2.16, -1, 17.8467, 15.8905, 23.0494, 38.2381, -28.6409, -29.9021
2.163, -1, 17.855, 15.8838, 23.0513, 38.243, -28.635, -29.9058
2.168, -1, 17.8619, 15.8785, 23.0527, 38.2465, -28.6308, -29.9084
2.172, -1, 17.8674, 15.8744, 23.0538, 38.249, -28.6279, -29.9103
2.176, 2, 17.8716, 15.8714, 23.0546, 38.2507, -28.6258, -29.9115
2.179, 2, 17.8747, 15.8692, 23.0552, 38.2519, -28.6245, -29.9124
2.184, 2, 17.8769, 15.8677, 23.0556, 38.2527, -28.6235, -29.913
2.188, 2, 17.8784, 15.8667, 23.0558, 38.2532, -28.6229, -29.9134
2.192, 2, 17.8794, 15.866, 23.056, 38.2536, -28.6224, -29.9137
2.196, 2, 17.8801, 15.8655, 23.0561, 38.2538, -28.6221, -29.9138
2.199, 2, 17.8806, 15.8652, 23.0562, 38.254, -28.6219, -29.914
2.204, 2, 17.8809, 15.865, 23.0563, 38.2541, -28.6218, -29.9141
2.208, 2, 17.8811, 15.8649, 23.0563, 38.2542, -28.6217, -29.9141
2.212, 2, 17.8813, 15.8648, 23.0563, 38.2543, -28.6217, -29.9141
2.216, 2, 17.8814, 15.8647, 23.0564, 38.2543, -28.6216, -29.9142
2.219, 2, 17.8814, 15.8646, 23.0564, 38.2543, -28.6216, -29.9142
2.224, 2, 17.8815, 15.8646, 23.0564, 38.2543, -28.6216, -29.9142
2.228, 2, 17.8815, 15.8646, 23.0564, 38.2543, -28.6215, -29.9142
2.232, 2, 17.8815, 15.8646, 23.0564, 38.2543, -28.6215, -29.9142
2.235, 2, 17.8815, 15.8646, 23.0564, 38.2544, -28.6215, -29.9142
2.24, 2, 17.8815, 15.8646, 23.0564, 38.2544, -28.6215, -29.9142
2.244, 2, 17.8816, 15.8646, 23.0564, 38.2544, -28.6215, -29.9142
2.248, 2, 17.8816, 15.8646, 23.0564, 38.2544, -28.6215, -29.9142
2.252, 2, 17.8816, 15.8646, 23.0564, 38.2544, -28.6215, -29.9142
2.255, 2, 17.8816, 15.8646, 23.0564, 38.2544, -28.6215, -29.9142
2.259, 2, 17.8816, 15.8646, 23.0564, 38.2544, -28.6215, -29.9142
2.264, 2, 17.8816, 15.8645, 23.0564, 38.2544, -28.6215, -29.9142
2.268, 2, 17.8816, 15.8645, 23.0564, 38.2544, -28.6215, -29.9142
2.272, 2, 17.8816, 15.8645, 23.0564, 38.2544, -28.6215, -29.9142
2.275, 2, 17.8816, 15.8645, 23.0564, 38.2544, -28.6215, -29.9142
2.28, 2, 17.8816, 15.8645, 23.0564, 38.2544, -28.6215, -29.9142
2.284, 2, 17.8816, 15.8645, 23.0564, 38.2544, -28.6215, -29.9142
2.288, 2, 17.8816, 15.8645, 23.0564, 38.2544, -28.6215, -29.9142
2.291, 2, 17.8816, 15.8645, 23.0564, 38.2544, -28.6215, -29.9142
2.296, 2, 17.8816, 15.8645, 23.0564, 38.2544, -28.6215, -29.9142
2.3, 2, 17.8816, 15.8645, 23.0564, 38.2544, -28.6215, -29.9142
2.304, 2, 17.8816, 15.8645, 23.0564, 38.2544, -28.6215, -29.9142
2.308, 2, 17.8816, 15.8645, 23.0564, 38.2544, -28.6215, -29.9142
2.311, 2, 17.8816, 15.8645, 23.0564, 38.2544, -28.6215, -29.9142
2.316, 2, 17.8816, 15.8645, 23.0564, 38.2544, -28.6215, -29.9142
2.32, 2, 17.8816, 15.8645, 23.0564, 38.2544, -28.6215, -29.9142
2.324, 2, 17.8816, 15.8645, 23.0564, 38.2544, -28.6215, -29.9142
2.328, 2, 17.8816, 15.8645, 23.0564, 38.2544, -28.6215, -29.9142
2.331, 2, 17.8816, 15.8645, 23.0564, 38.2544, -28.6215, -29.9142
2.336, 2, 17.8816, 15.8645, 23.0564, 38.2544, -28.6215, -29.9142
2.34, 2, 17.8816, 15.8645, 23.0564, 38.2544, -28.6215, -29.9142
2.344, 2, 17.8816, 15.8645, 23.0564, 38.2544, -28.6215, -29.9142
2.347, 2, 17.8816, 15.8645, 23.0564, 38.2544, -28.6215, -29.9142
2.352, 2, 17.8816, 15.8645, 23.0564, 38.2544, -28.6215, -29.9142
2.356, 2, 17.8816, 15.8645, 23.0564, 38.2544, -28.6215, -29.9142
2.36, 2, 17.8816, 15.8645, 23.0564, 38.2544, -28.6215, -29.9142
2.364, 2, 17.8816, 15.8645, 23.0564, 38.2544, -28.6215, -29.9142
2.367, 2, 17.8816, 15.8645, 23.0564, 38.2544, -28.6215, -29.9142
2.372, 2, 17.8816, 15.8645, 23.0564, 38.2544, -28.6215, -29.9142
2.376, 2, 17.8816, 15.8645, 23.0564, 38.2544, -28.6215, -29.9142
2.38, 2, 17.8816, 15.8645, 23.0564, 38.2544, -28.6215, -29.9142
2.383, 2, 17.8816, 15.8645, 23.0564, 38.2544, -28.6215, -29.9142
2.388, 2, 17.8816, 15.8645, 23.0564, 38.2544, -28.6215, -29.9142
2.392, 2, 17.8816, 15.8645, 23.0564, 38.2544, -28.6215, -29.9142
2.396, 2, 17.8816, 15.8645, 23.0564, 38.2544, -28.6215, -29.9142
2.4, 2, 17.8816, 15.8645, 23.0564, 38.2544, -28.6215, -29.9142
2.403, 2, 17.8816, 15.8645, 23.0564, 38.2544, -28.6215, -29.9142
2.408, 2, 17.8816, 15.8645, 23.0564, 38.2544, -28.6215, -29.9142
2.412, 2, 17.8816, 15.8645, 23.0564, 38.2544, -28.6215, -29.9142
2.416, 2, 17.8816, 15.8645, 23.0564, 38.2544, -28.6215, -29.9142
2.42, 2, 17.8816, 15.8645, 23.0564, 38.2544, -28.6215, -29.9142
2.423, 2, 17.8816, 15.8645, 23.0564, 38.2544, -28.6215, -29.9142
2.428, 2, 17.8816, 15.8645, 23.0564, 38.2544, -28.6215, -29.9142
2.432, 2, 17.8816, 15.8645, 23.0564, 38.2544, -28.6215, -29.9142
2.436, 2, 17.8816, 15.8645, 23.0564, 38.2544, -28.6215, -29.9142
2.439, 2, 17.8816, 15.8645, 23.0564, 38.2544, -28.6215, -29.9142
2.444, 2, 17.8816, 15.8645, 23.0564, 38.2544, -28.6215, -29.9142
2.448, 2, 17.8816, 15.8645, 23.0564, 38.2544, -28.6215, -29.9142
2.452, 2, 17.8816, 15.8645, 23.0564, 38.2544, -28.6215, -29.9142
2.456, 2, 17.8816, 15.8645, 23.0564, 38.2544, -28.6215, -29.9142
2.459, 2, 17.8816, 15.8645, 23.0564, 38.2544, -28.6215, -29.9142
2.464, 2, 17.8816, 15.8645, 23.0564, 38.2544, -28.6215, -29.9142
2.468, 2, 17.8816, 15.8645, 23.0564, 38.2544, -28.6215, -29.9142
2.472, 2, 17.8816, 15.8645, 23.0564, 38.2544, -28.6215, -29.9142
2.476, 2, 17.8816, 15.8645, 23.0564, 38.2544, -28.6215, -29.9142
2.479, 2, 17.8816, 15.8645, 23.0564, 38.2544, -28.6215, -29.9142
2.484, 2, 17.8816, 15.8645, 23.0564, 38.2544, -28.6215, -29.9142
2.488, 2, 17.8816, 15.8645, 23.0564, 38.2544, -28.6215, -29.9142
2.492, 2, 17.8816, 15.8645, 23.0564, 38.2544, -28.6215, -29.9142
2.495, 2, 17.8816, 15.8645, 23.0564, 38.2544, -28.6215, -29.9142
2.5, 2, 17.8816, 15.8645, 23.0564, 38.2544, -28.6215, -29.9142
2.504, 2, 17.8816, 15.8645, 23.0564, 38.2544, -28.6215, -29.9142
2.508, 2, 17.8816, 15.8645, 23.0564, 38.2544, -28.6215, -29.9142
2.512, 2, 17.8816, 15.8645, 23.0564, 38.2544, -28.6215, -29.9142
2.515, 2, 17.8816, 15.8645, 23.0564, 38.2544, -28.6215, -29.9142
2.52, 2, 17.8816, 15.8645, 23.0564, 38.2544, -28.6215, -29.9142
2.524, 2, 17.8816, 15.8645, 23.0564, 38.2544, -28.6215, -29.9142
2.528, 2, 17.8816, 15.8645, 23.0564, 38.2544, -28.6215, -29.9142
2.531, 2, 17.8816, 15.8645, 23.0564, 38.2544, -28.6215, -29.9142
2.536, 2, 17.8816, 15.8645, 23.0564, 38.2544, -28.6215, -29.9142
2.54, 2, 17.8816, 15.8645, 23.0564, 38.2544, -28.6215, -29.9142
2.544, 2, 17.8816, 15.8645, 23.0564, 38.2544, -28.6215, -29.9142
2.548, 2, 17.8816, 15.8645, 23.0564, 38.2544, -28.6215, -29.9142
2.551, 2, 17.8816, 15.8645, 23.0564, 38.2544, -28.6215, -29.9142
2.556, 2, 17.8816, 15.8645, 23.0564, 38.2544, -28.6215, -29.9142
2.56, 2, 17.8816, 15.8645, 23.0564, 38.2544, -28.6215, -29.9142
2.564, 2, 17.8816, 15.8645, 23.0564, 38.2544, -28.6215, -29.9142
2.568, 2, 17.8816, 15.8645, 23.0564, 38.2544, -28.6215, -29.9142
2.571, 2, 17.8816, 15.8645, 23.0564, 38.2544, -28.6215, -29.9142
2.576, 2, 17.8816, 15.8645, 23.0564, 38.2544, -28.6215, -29.9142
2.58, 2, 17.8816, 15.8645, 23.0564, 38.2544, -28.6215, -29.9142
2.584, 2, 17.8816, 15.8645, 23.0564, 38.2544, -28.6215, -29.9142
2.587, 2, 17.8816, 15.8645, 23.0564, 38.2544, -28.6215, -29.9142
2.592, 2, 17.8816, 15.8645, 23.0564, 38.2544, -28.6215, -29.9142
2.596, 2, 17.8816, 15.8645, 23.0564, 38.2544, -28.6215, -29.9142
2.6, 2, 17.8816, 15.8645, 23.0564, 38.2544, -28.6215, -29.9142
2.604, 2, 17.8816, 15.8645, 23.0564, 38.2544, -28.6215, -29.9142
2.607, 2, 17.8816, 15.8645, 23.0564, 38.2544, -28.6215, -29.9142
2.612, 2, 17.8816, 15.8645, 23.0564, 38.2544, -28.6215, -29.9142
2.616, 2, 17.8816, 15.8645, 23.0564, 38.2544, -28.6215, -29.9142
2.62, 2, 17.8816, 15.8645, 23.0564, 38.2544, -28.6215, -29.9142
2.624, 2, 17.8816, 15.8645, 23.0564, 38.2544, -28.6215, -29.9142
2.627, 2, 17.8816, 15.8645, 23.0564, 38.2544, -28.6215, -29.9142
2.632, 2, 17.8816, 15.8645, 23.0564, 38.2544, -28.6215, -29.9142
2.636, 2, 17.8816, 15.8645, 23.0564, 38.2544, -28.6215, -29.9142
2.64, 2, 17.8816, 15.8645, 23.0564, 38.2544, -28.6215, -29.9142
2.643, 2, 17.8816, 15.8645, 23.0564, 38.2544, -28.6215, -29.9142
2.648, 2, 17.8816, 15.8645, 23.0564, 38.2544, -28.6215, -29.9142
2.652, 2, 17.8816, 15.8645, 23.0564, 38.2544, -28.6215, -29.9142
2.656, 2, 17.8816, 15.8645, 23.0564, 38.2544, -28.6215, -29.9142
2.66, 2, 17.8816, 15.8645, 23.0564, 38.2544, -28.6215, -29.9142
2.663, 2, 17.8816, 15.8645, 23.0564, 38.2544, -28.6215, -29.9142
2.668, 2, 17.8816, 15.8645, 23.0564, 38.2544, -28.6215, -29.9142
2.672, 2, 17.8816, 15.8645, 23.0564, 38.2544, -28.6215, -29.9142
2.676, 2, 17.8816, 15.8645, 23.0564, 38.2544, -28.6215, -29.9142
2.679, 2, 17.8816, 15.8645, 23.0564, 38.2544, -28.6215, -29.9142
2.684, 2, 17.8816, 15.8645, 23.0564, 38.2544, -28.6215, -29.9142
2.688, 2, 17.8816, 15.8645, 23.0564, 38.2544, -28.6215, -29.9142
2.692, 2, 17.8816, 15.8645, 23.0564, 38.2544, -28.6215, -29.9142
2.696, 2, 17.8816, 15.8645, 23.0564, 38.2544, -28.6215, -29.9142
2.699, 2, 17.8816, 15.8645, 23.0564, 38.2544, -28.6215, -29.9142
2.704, 2, 17.8816, 15.8645, 23.0564, 38.2544, -28.6215, -29.9142
2.708, 2, 17.8816, 15.8645, 23.0564, 38.2544, -28.6215, -29.9142
2.712, 2, 17.8816, 15.8645, 23.0564, 38.2544, -28.6215, -29.9142
2.716, 2, 17.8816, 15.8645, 23.0564, 38.2544, -28.6215, -29.9142
2.719, 2, 17.8816, 15.8645, 23.0564, 38.2544, -28.6215, -29.9142
2.724, 2, 17.8816, 15.8645, 23.0564, 38.2544, -28.6215, -29.9142
2.728, 2, 17.8816, 15.8645, 23.0564, 38.2544, -28.6215, -29.9142
2.732, 2, 17.8816, 15.8645, 23.0564, 38.2544, -28.6215, -29.9142
2.735, 2, 17.8816, 15.8645, 23.0564, 38.2544, -28.6215, -29.9142
2.74, 2, 17.8816, 15.8645, 23.0564, 38.2544, -28.6215, -29.9142
2.744, 2, 17.8816, 15.8645, 23.0564, 38.2544, -28.6215, -29.9142
2.748, 2, 17.8816, 15.8645, 23.0564, 38.2544, -28.6215, -29.9142
2.752, 2, 17.8816, 15.8645, 23.0564, 38.2544, -28.6215, -29.9142
2.755, 2, 17.8816, 15.8645, 23.0564, 38.2544, -28.6215, -29.9142
2.76, 2, 17.8816, 15.8645, 23.0564, 38.2544, -28.6215, -29.9142
2.764, 2, 17.8816, 15.8645, 23.0564, 38.2544, -28.6215, -29.9142
2.768, 2, 17.8816, 15.8645, 23.0564, 38.2544, -28.6215, -29.9142
2.772, 2, 17.8816, 15.8645, 23.0564, 38.2544, -28.6215, -29.9142
2.775, 2, 17.8816, 15.8645, 23.0564, 38.2544, -28.6215, -29.9142
2.78, 2, 17.8816, 15.8645, 23.0564, 38.2544, -28.6215, -29.9142
2.784, 2, 17.8816, 15.8645, 23.0564, 38.2544, -28.6215, -29.9142
2.788, 2, 17.8816, 15.8645, 23.0564, 38.2544, -28.6215, -29.9142
2.791, 2, 17.8816, 15.8645, 23.0564, 38.2544, -28.6215, -29.9142
2.796, 2, 17.8816, 15.8645, 23.0564, 38.2544, -28.6215, -29.9142
2.8, 2, 17.8816, 15.8645, 23.0564, 38.2544, -28.6215, -29.9142
2.804, 2, 17.8816, 15.8645, 23.0564, 38.2544, -28.6215, -29.9142
2.808, 2, 17.8816, 15.8645, 23.0564, 38.2544, -28.6215, -29.9142
2.811, 2, 17.8816, 15.8645, 23.0564, 38.2544, -28.6215, -29.9142
2.816, 2, 17.8816, 15.8645, 23.0564, 38.2544, -28.6215, -29.9142
2.82, 2, 17.8816, 15.8645, 23.0564, 38.2544, -28.6215, -29.9142
2.824, 2, 17.8816, 15.8645, 23.0564, 38.2544, -28.6215, -29.9142
2.828, 2, 17.8816, 15.8645, 23.0564, 38.2544, -28.6215, -29.9142
2.831, 2, 17.8816, 15.8645, 23.0564, 38.2544, -28.6215, -29.9142
2.836, 2, 17.8816, 15.8645, 23.0564, 38.2544, -28.6215, -29.9142
2.84, 2, 17.8816, 15.8645, 23.0564, 38.2544, -28.6215, -29.9142
2.844, 2, 17.8816, 15.8645, 23.0564, 38.2544, -28.6215, -29.9142
2.847, 2, 17.8816, 15.8645, 23.0564, 38.2544, -28.6215, -29.9142
2.852, 2, 17.8816, 15.8645, 23.0564, 38.2544, -28.6215, -29.9142
2.856, 2, 17.8816, 15.8645, 23.0564, 38.2544, -28.6215, -29.9142
2.86, 2, 17.8816, 15.8645, 23.0564, 38.2544, -28.6215, -29.9142
2.864, 2, 17.8816, 15.8645, 23.0564, 38.2544, -28.6215, -29.9142
2.867, 2, 17.8816, 15.8645, 23.0564, 38.2544, -28.6215, -29.9142
2.872, 2, 17.8816, 15.8645, 23.0564, 38.2544, -28.6215, -29.9142
2.876, 2, 17.8816, 15.8645, 23.0564, 38.2544, -28.6215, -29.9142
2.88, 2, 17.8816, 15.8645, 23.0564, 38.2544, -28.6215, -29.9142
2.883, 2, 17.8816, 15.8645, 23.0564, 38.2544, -28.6215, -29.9142
2.888, 2, 17.8816, 15.8645, 23.0564, 38.2544, -28.6215, -29.9142
2.892, 2, 17.8816, 15.8645, 23.0564, 38.2544, -28.6215, -29.9142
2.896, 2, 17.8816, 15.8645, 23.0564, 38.2544, -28.6215, -29.9142
2.9, 2, 17.8816, 15.8645, 23.0564, 38.2544, -28.6215, -29.9142
2.903, 2, 17.8816, 15.8645, 23.0564, 38.2544, -28.6215, -29.9142
2.908, 2, 17.8816, 15.8645, 23.0564, 38.2544, -28.6215, -29.9142
2.912, 2, 17.8816, 15.8645, 23.0564, 38.2544, -28.6215, -29.9142
2.916, 2, 17.8816, 15.8645, 23.0564, 38.2544, -28.6215, -29.9142
2.92, 2, 17.8816, 15.8645, 23.0564, 38.2544, -28.6215, -29.9142
2.923, 2, 17.8816, 15.8645, 23.0564, 38.2544, -28.6215, -29.9142
2.928, 2, 17.8816, 15.8645, 23.0564, 38.2544, -28.6215, -29.9142
2.932, 2, 17.8816, 15.8645, 23.0564, 38.2544, -28.6215, -29.9142
2.936, 2, 17.8816, 15.8645, 23.0564, 38.2544, -28.6215, -29.9142
2.939, 2, 17.8816, 15.8645, 23.0564, 38.2544, -28.6215, -29.9142
2.944, 2, 17.8816, 15.8645, 23.0564, 38.2544, -28.6215, -29.9142
2.948, 2, 17.8816, 15.8645, 23.0564, 38.2544, -28.6215, -29.9142
2.952, 2, 17.8816, 15.8645, 23.0564, 38.2544, -28.6215, -29.9142
2.956, 2, 17.8816, 15.8645, 23.0564, 38.2544, -28.6215, -29.9142
2.959, 2, 17.8816, 15.8645, 23.0564, 38.2544, -28.6215, -29.9142
2.964, 2, 17.8816, 15.8645, 23.0564, 38.2544, -28.6215, -29.9142
2.968, 2, 17.8816, 15.8645, 23.0564, 38.2544, -28.6215, -29.9142
2.972, 2, 17.8816, 15.8645, 23.0564, 38.2544, -28.6215, -29.9142
2.976, 2, 17.8816, 15.8645, 23.0564, 38.2544, -28.6215, -29.9142
2.98, 2, 17.8816, 15.8645, 23.0564, 38.2544, -28.6215, -29.9142
2.984, 2, 17.8816, 15.8645, 23.0564, 38.2544, -28.6215, -29.9142
2.988, 2, 17.8816, 15.8645, 23.0564, 38.2544, -28.6215, -29.9142
2.992, 2, 17.8816, 15.8645, 23.0564, 38.2544, -28.6215, -29.9142
2.995, 2, 17.8816, 15.8645, 23.0564, 38.2544, -28.6215, -29.9142
3, 2, 17.8816, 15.8645, 23.0564, 38.2544, -28.6215, -29.9142
3.004, 2, 17.8816, 15.8645, 23.0564, 38.2544, -28.6215, -29.9142
3.008, 2, 17.8816, 15.8645, 23.0564, 38.2544, -28.6215, -29.9142
3.012, 2, 17.8816, 15.8645, 23.0564, 38.2544, -28.6215, -29.9142
3.015, 2, 17.8816, 15.8645, 23.0564, 38.2544, -28.6215, -29.9142
3.02, 2, 17.8816, 15.8645, 23.0564, 38.2544, -28.6215, -29.9142
3.024, 2, 17.8816, 15.8645, 23.0564, 38.2544, -28.6215, -29.9142
3.028, 2, 17.8816, 15.8645, 23.0564, 38.2544, -28.6215, -29.9142
3.031, 2, 17.8816, 15.8645, 23.0564, 38.2544, -28.6215, -29.9142
3.036, 2, 17.8816, 15.8645, 23.0564, 38.2544, -28.6215, -29.9142
3.04, 2, 17.8816, 15.8645, 23.0564, 38.2544, -28.6215, -29.9142
3.044, 2, 17.8816, 15.8645, 23.0564, 38.2544, -28.6215, -29.9142
3.048, 2, 17.8816, 15.8645, 23.0564, 38.2544, -28.6215, -29.9142
3.051, 2, 17.8816, 15.8645, 23.0564, 38.2544, -28.6215, -29.9142
3.056, 2, 17.8816, 15.8645, 23.0564, 38.2544, -28.6215, -29.9142
3.06, 2, 17.8816, 15.8645, 23.0564, 38.2544, -28.6215, -29.9142
3.064, 2, 17.8816, 15.8645, 23.0564, 38.2544, -28.6215, -29.9142
3.068, 2, 17.8816, 15.8645, 23.0564, 38.2544, -28.6215, -29.9142
3.071, 2, 17.8816, 15.8645, 23.0564, 38.2544, -28.6215, -29.9142
3.076, 2, 17.8816, 15.8645, 23.0564, 38.2544, -28.6215, -29.9142
3.08, 2, 17.8816, 15.8645, 23.0564, 38.2544, -28.6215, -29.9142
3.084, 2, 17.8816, 15.8645, 23.0564, 38.2544, -28.6215, -29.9142
3.087, 2, 17.8816, 15.8645, 23.0564, 38.2544, -28.6215, -29.9142
3.092, 2, 17.8816, 15.8645, 23.0564, 38.2544, -28.6215, -29.9142
3.096, 2, 17.8816, 15.8645, 23.0564, 38.2544, -28.6215, -29.9142
3.1, 2, 17.8816, 15.8645, 23.0564, 38.2544, -28.6215, -29.9142
3.104, 2, 17.8816, 15.8645, 23.0564, 38.2544, -28.6215, -29.9142
3.107, 2, 17.8816, 15.8645, 23.0564, 38.2544, -28.6215, -29.9142
3.112, 2, 17.8816, 15.8645, 23.0564, 38.2544, -28.6215, -29.9142
3.116, 2, 17.8816, 15.8645, 23.0564, 38.2544, -28.6215, -29.9142
3.12, 2, 17.8816, 15.8645, 23.0564, 38.2544, -28.6215, -29.9142
3.124, 2, 17.8816, 15.8645, 23.0564, 38.2544, -28.6215, -29.9142
3.128, 2, 17.8816, 15.8645, 23.0564, 38.2544, -28.6215, -29.9142
3.132, 2, 17.8816, 15.8645, 23.0564, 38.2544, -28.6215, -29.9142
3.136, 2, 17.8816, 15.8645, 23.0564, 38.2544, -28.6215, -29.9142
3.14, 2, 17.8816, 15.8645, 23.0564, 38.2544, -28.6215, -29.9142
3.143, 2, 17.8816, 15.8645, 23.0564, 38.2544, -28.6215, -29.9142
3.148, 2, 17.8816, 15.8645, 23.0564, 38.2544, -28.6215, -29.9142
3.152, 2, 17.8816, 15.8645, 23.0564, 38.2544, -28.6215, -29.9142
3.156, 2, 17.8816, 15.8645, 23.0564, 38.2544, -28.6215, -29.9142
3.16, 2, 17.8816, 15.8645, 23.0564, 38.2544, -28.6215, -29.9142
3.163, 2, 17.8816, 15.8645, 23.0564, 38.2544, -28.6215, -29.9142
3.168, 2, 17.8816, 15.8645, 23.0564, 38.2544, -28.6215, -29.9142
3.172, 2, 17.8816, 15.8645, 23.0564, 38.2544, -28.6215, -29.9142
3.176, 2, 17.8816, 15.8645, 23.0564, 38.2544, -28.6215, -29.9142
3.179, 2, 17.8816, 15.8645, 23.0564, 38.2544, -28.6215, -29.9142
3.184, 2, 17.8816, 15.8645, 23.0564, 38.2544, -28.6215, -29.9142
3.188, 2, 17.8816, 15.8645, 23.0564, 38.2544, -28.6215, -29.9142
3.192, 2, 17.8816, 15.8645, 23.0564, 38.2544, -28.6215, -29.9142
3.196, 2, 17.8816, 15.8645, 23.0564, 38.2544, -28.6215, -29.9142
3.199, 2, 17.8816, 15.8645, 23.0564, 38.2544, -28.6215, -29.9142
3.204, 2, 17.8816, 15.8645, 23.0564, 38.2544, -28.6215, -29.9142
3.208, 2, 17.8816, 15.8645, 23.0564, 38.2544, -28.6215, -29.9142
3.212, 2, 17.8816, 15.8645, 23.0564, 38.2544, -28.6215, -29.9142
3.216, 2, 17.8816, 15.8645, 23.0564, 38.2544, -28.6215, -29.9142
3.22, 2, 17.8816, 15.8645, 23.0564, 38.2544, -28.6215, -29.9142
3.224, 2, 17.8816, 15.8645, 23.0564, 38.2544, -28.6215, -29.9142
3.228, 2, 17.8816, 15.8645, 23.0564, 38.2544, -28.6215, -29.9142
3.232, 2, 17.8816, 15.8645, 23.0564, 38.2544, -28.6215, -29.9142
3.235, 2, 17.8816, 15.8645, 23.0564, 38.2544, -28.6215, -29.9142
3.24, 2, 17.8816, 15.8645, 23.0564, 38.2544, -28.6215, -29.9142
3.244, 2, 17.8816, 15.8645, 23.0564, 38.2544, -28.6215, -29.9142
3.248, 4, 17.8816, 15.8645, 23.0564, 38.2544, -28.6215, -29.9142
3.252, 4, 17.8816, 15.8645, 23.0564, 38.2544, -28.6215, -29.9142
3.255, 4, 17.8816, 15.8645, 23.0564, 38.2544, -28.6215, -29.9142
3.26, 4, 17.8816, 15.8645, 23.0564, 38.2544, -28.6215, -29.9142
3.264, 4, 17.8816, 15.8645, 23.0564, 38.2544, -28.6215, -29.9142
3.268, 4, 17.8816, 15.8645, 23.0564, 38.2544, -28.6215, -29.9142
3.272, 4, 17.8816, 15.8645, 23.0564, 38.2544, -28.6215, -29.9142
3.276, 4, 17.8816, 15.8645, 23.0564, 38.2544, -28.6215, -29.9142
3.28, 4, 17.8816, 15.8645, 23.0564, 38.2544, -28.6215, -29.9142
3.284, 4, 17.8816, 15.8645, 23.0564, 38.2544, -28.6215, -29.9142
3.288, 4, 17.8816, 15.8645, 23.0564, 38.2544, -28.6215, -29.9142
3.291, 4, 17.8816, 15.8645, 23.0564, 38.2544, -28.6215, -29.9142
3.296, 4, 17.8816, 15.8645, 23.0564, 38.2544, -28.6215, -29.9142
3.3, 4, 17.8816, 15.8645, 23.0564, 38.2544, -28.6215, -29.9142
3.304, 4, 17.8816, 15.8645, 23.0564, 38.2544, -28.6215, -29.9142
3.308, 4, 17.8816, 15.8645, 23.0564, 38.2544, -28.6215, -29.9142
3.312, 4, 17.8816, 15.8645, 23.0564, 38.2544, -28.6215, -29.9142
3.316, 4, 17.8816, 15.8645, 23.0564, 38.2544, -28.6215, -29.9142
3.32, 4, 17.8816, 15.8645, 23.0564, 38.2544, -28.6215, -29.9142
3.324, 4, 17.8816, 15.8645, 23.0564, 38.2544, -28.6215, -29.9142
3.328, 4, 17.8816, 15.8645, 23.0564, 38.2544, -28.6215, -29.9142
3.332, 4, 17.8816, 15.8645, 23.0564, 38.2544, -28.6215, -29.9142
3.336, 4, 17.8816, 15.8645, 23.0564, 38.2544, -28.6215, -29.9142
3.34, 4, 17.8816, 15.8645, 23.0564, 38.2544, -28.6215, -29.9142
3.344, 4, 17.8816, 15.8645, 23.0564, 38.2544, -28.6215, -29.9142
3.347, 4, 17.8816, 15.8645, 23.0564, 38.2544, -28.6215, -29.9142
3.354, 4, 17.8816, 15.8645, 23.0564, 38.2544, -28.6215, -29.9142
3.359, 4, 17.8816, 15.8645, 23.0564, 38.2544, -28.6215, -29.9142
3.362, 4, 17.8816, 15.8645, 23.0564, 38.2544, -28.6215, -29.9142
3.364, 4, 17.8816, 15.8645, 23.0564, 38.2544, -28.6215, -29.9142
3.368, 4, 17.8816, 15.8645, 23.0564, 38.2544, -28.6215, -29.9142
3.372, 4, 17.8816, 15.8645, 23.0564, 38.2544, -28.6215, -29.9142
3.376, 4, 17.8816, 15.8645, 23.0564, 38.2544, -28.6215, -29.9142
3.38, 4, 17.8816, 15.8645, 23.0564, 38.2544, -28.6215, -29.9142
3.383, 4, 17.8816, 15.8645, 23.0564, 38.2544, -28.6215, -29.9142
3.388, 4, 17.8815, 15.8645, 23.0564, 38.2544, -28.6215, -29.9142
3.392, 4, 17.8812, 15.8645, 23.0564, 38.2543, -28.6215, -29.9142
3.396, 4, 17.8806, 15.8645, 23.0565, 38.2542, -28.6216, -29.9141
3.4, 4, 17.8793, 15.8645, 23.0566, 38.2539, -28.6217, -29.9139
3.403, 4, 17.8773, 15.8644, 23.0569, 38.2532, -28.6219, -29.9133
3.408, 4, 17.8745, 15.8643, 23.0576, 38.2517, -28.6225, -29.912
3.412, 4, 17.8706, 15.864, 23.0586, 38.2489, -28.6235, -29.9095
3.416, 4, 17.8657, 15.8636, 23.0603, 38.2441, -28.6252, -29.9053
3.42, 5, 17.8595, 15.863, 23.063, 38.2364, -28.628, -29.8984
3.424, 5, 17.8519, 15.862, 23.067, 38.2246, -28.6323, -29.8881
3.428, 5, 17.8425, 15.8607, 23.0726, 38.2075, -28.6384, -29.873
3.432, 5, 17.8311, 15.8589, 23.0804, 38.1837, -28.647, -29.8519
3.436, 5, 17.8174, 15.8565, 23.0908, 38.1514, -28.6587, -29.8234
3.439, 5, 17.801, 15.8533, 23.1043, 38.1089, -28.674, -29.7858
3.444, 5, 17.7821, 15.8494, 23.1216, 38.0543, -28.6938, -29.7375
3.448, 5, 17.7607, 15.8444, 23.143, 37.9859, -28.7187, -29.677
3.452, 5, 17.7368, 15.8384, 23.1691, 37.9021, -28.7494, -29.6029
3.456, 5, 17.7105, 15.8313, 23.2001, 37.8018, -28.7862, -29.5141
3.46, 5, 17.6816, 15.823, 23.2364, 37.684, -28.8296, -29.4099
3.464, 5, 17.6502, 15.8134, 23.2781, 37.5487, -28.8797, -29.2902
3.468, 5, 17.6159, 15.8027, 23.325, 37.3959, -28.9366, -29.155
3.472, 5, 17.5788, 15.7909, 23.3771, 37.2262, -29.0002, -29.005
3.476, 5, 17.5389, 15.778, 23.434, 37.0407, -29.0701, -28.8411
3.48, 5, 17.4963, 15.7641, 23.4954, 36.8407, -29.146, -28.6644
3.484, 5, 17.4512, 15.7495, 23.5609, 36.6277, -29.2273, -28.4764
3.488, 5, 17.4039, 15.7341, 23.6299, 36.4036, -29.3135, -28.2787
3.492, 5, 17.3545, 15.7181, 23.7019, 36.1704, -29.404, -28.073
3.495, 5, 17.3028, 15.7018, 23.7763, 35.9299, -29.498, -27.8611
3.5, 5, 17.2491, 15.6851, 23.8525, 35.684, -29.5949, -27.6445
3.504, 5, 17.1932, 15.6683, 23.9302, 35.4344, -29.6942, -27.4249
3.508, 5, 17.1354, 15.6514, 24.0089, 35.1825, -29.7954, -27.2035
3.512, 5, 17.0757, 15.6346, 24.0882, 34.9294, -29.898, -26.9812
3.516, 5, 17.0146, 15.6179, 24.1679, 34.6759, -30.0018, -26.7588
3.52, 5, 16.9524, 15.6013, 24.2477, 34.4227, -30.1065, -26.5367
3.524, 5, 16.8893, 15.5849, 24.3276, 34.17, -30.212, -26.3155
3.528, 5, 16.8256, 15.5688, 24.4074, 33.9183, -30.3181, -26.0952
3.531, 5, 16.7615, 15.5528, 24.4871, 33.6677, -30.4249, -25.876
3.536, 5, 16.6971, 15.5371, 24.5666, 33.4183, -30.5323, -25.6582
3.54, 5, 16.6324, 15.5217, 24.6459, 33.1702, -30.6402, -25.4416
3.544, 5, 16.5676, 15.5066, 24.7249, 32.9234, -30.7486, -25.2264
3.548, 5, 16.5026, 15.4916, 24.8037, 32.6779, -30.8574, -25.0126
3.552, 5, 16.4374, 15.477, 24.8823, 32.4339, -30.9668, -24.8003
3.556, 5, 16.3721, 15.4626, 24.9605, 32.1912, -31.0766, -24.5893
3.56, 5, 16.3067, 15.4485, 25.0386, 31.9499, -31.1869, -24.3797
3.564, 5, 16.2412, 15.4347, 25.1163, 31.7101, -31.2976, -24.1716
3.568, 5, 16.1756, 15.4211, 25.1938, 31.4716, -31.4087, -23.9649
3.572, 5, 16.1099, 15.4078, 25.2709, 31.2345, -31.5203, -23.7596
3.576, 5, 16.0441, 15.3948, 25.3478, 30.9988, -31.6323, -23.5557
3.58, 5, 15.9783, 15.3821, 25.4245, 30.7645, -31.7448, -23.3531
3.584, 5, 15.9124, 15.3696, 25.5008, 30.5315, -31.8576, -23.152
3.587, 5, 15.8464, 15.3574, 25.5769, 30.2999, -31.9709, -22.9523
3.592, 5, 15.7804, 15.3454, 25.6527, 30.0697, -32.0845, -22.7539
3.596, 5, 15.7144, 15.3338, 25.7282, 29.8408, -32.1986, -22.557
3.6, 5, 15.6483, 15.3224, 25.8034, 29.6134, -32.313, -22.3614
3.604, 5, 15.5821, 15.3113, 25.8782, 29.3873, -32.4278, -22.1672
3.608, 5, 15.5158, 15.3004, 25.9528, 29.1626, -32.543, -21.9744
3.612, 5, 15.4494, 15.2899, 26.0271, 28.9394, -32.6584, -21.7831
3.616, 6, 15.3829, 15.2796, 26.1011, 28.7175, -32.7743, -21.5931
3.62, 6, 15.3163, 15.2696, 26.1747, 28.497, -32.8904, -21.4046
3.624, 6, 15.2495, 15.2599, 26.248, 28.2779, -33.0068, -21.2174
3.628, 6, 15.1826, 15.2504, 26.3211, 28.0602, -33.1236, -21.0316
3.632, 6, 15.1156, 15.2413, 26.3938, 27.8438, -33.2407, -20.8471
3.636, 6, 15.0485, 15.2324, 26.4662, 27.6287, -33.3582, -20.6639
3.64, 6, 14.9813, 15.2238, 26.5384, 27.4148, -33.476, -20.4821
3.644, 6, 14.914, 15.2154, 26.6103, 27.2022, -33.5942, -20.3014
3.648, 6, 14.8466, 15.2073, 26.6819, 26.9908, -33.7127, -20.122
3.652, 6, 14.7791, 15.1995, 26.7532, 26.7806, -33.8316, -19.9438
3.656, 6, 14.7116, 15.192, 26.8243, 26.5715, -33.9509, -19.7668
3.66, 6, 14.6441, 15.1847, 26.8951, 26.3635, -34.0706, -19.5909
3.664, 6, 14.5765, 15.1777, 26.9657, 26.1566, -34.1907, -19.4161
3.668, 6, 14.5089, 15.171, 27.036, 25.9508, -34.3113, -19.2425
3.672, 6, 14.4412, 15.1645, 27.1061, 25.7461, -34.4322, -19.0699
3.676, 6, 14.3735, 15.1583, 27.176, 25.5424, -34.5535, -18.8984
3.679, 6, 14.3057, 15.1524, 27.2456, 25.3398, -34.6752, -18.7281
3.684, 6, 14.2378, 15.1467, 27.3149, 25.1382, -34.7973, -18.5588
3.688, 6, 14.1697, 15.1413, 27.384, 24.9378, -34.9197, -18.3907
3.692, 6, 14.1015, 15.1362, 27.4528, 24.7384, -35.0425, -18.2237
3.696, 6, 14.0333, 15.1314, 27.5213, 24.5402, -35.1656, -18.0578
3.7, 6, 13.9649, 15.1268, 27.5896, 24.343, -35.289, -17.893
3.704, 6, 13.8964, 15.1225, 27.6575, 24.1469, -35.4128, -17.7293
3.708, 6, 13.8278, 15.1185, 27.7252, 23.9519, -35.5369, -17.5667
3.712, 6, 13.7591, 15.1148, 27.7926, 23.7579, -35.6613, -17.4052
3.716, 6, 13.6903, 15.1114, 27.8597, 23.565, -35.786, -17.2448
3.72, 6, 13.6214, 15.1082, 27.9266, 23.3732, -35.9111, -17.0855
3.724, 6, 13.5524, 15.1053, 27.9931, 23.1825, -36.0364, -16.9272
3.728, 6, 13.4834, 15.1027, 28.0594, 22.9928, -36.162, -16.7701
3.732, 6, 13.4143, 15.1004, 28.1254, 22.8041, -36.2879, -16.614
3.735, 6, 13.3451, 15.0983, 28.1911, 22.6165, -36.4142, -16.4589
3.74, 6, 13.2758, 15.0966, 28.2565, 22.4299, -36.5407, -16.3049
3.744, 6, 13.2064, 15.0951, 28.3216, 22.2443, -36.6675, -16.1519
3.748, 6, 13.1369, 15.0939, 28.3864, 22.0597, -36.7946, -16
3.752, 6, 13.0674, 15.093, 28.4509, 21.8762, -36.9219, -15.849
3.756, 6, 12.9978, 15.0923, 28.5152, 21.6936, -37.0496, -15.6991
3.76, 6, 12.9281, 15.0919, 28.5792, 21.512, -37.1775, -15.5502
3.764, 6, 12.8584, 15.0919, 28.6428, 21.3314, -37.3057, -15.4023
3.768, 6, 12.7885, 15.0921, 28.7062, 21.1518, -37.4342, -15.2554
3.772, 6, 12.7186, 15.0925, 28.7693, 20.9731, -37.5629, -15.1095
3.776, 6, 12.6487, 15.0933, 28.8321, 20.7954, -37.6919, -14.9646
3.78, 6, 12.5788, 15.0943, 28.8946, 20.6186, -37.8212, -14.8206
3.784, 6, 12.5088, 15.0956, 28.9568, 20.4429, -37.9507, -14.6776
3.788, 6, 12.4387, 15.0972, 29.0187, 20.268, -38.0805, -14.5356
3.792, 6, 12.3687, 15.099, 29.0804, 20.0942, -38.2105, -14.3946
3.796, 6, 12.2985, 15.1012, 29.1417, 19.9213, -38.3407, -14.2546
3.8, 7, 12.2282, 15.1036, 29.2027, 19.7494, -38.4711, -14.1155
3.804, 7, 12.1578, 15.1063, 29.2634, 19.5785, -38.6017, -13.9774
3.808, 7, 12.0873, 15.1093, 29.3237, 19.4085, -38.7325, -13.8403
3.812, 7, 12.0167, 15.1126, 29.3838, 19.2395, -38.8636, -13.7042
3.816, 7, 11.946, 15.1161, 29.4436, 19.0715, -38.9948, -13.5691
3.82, 7, 11.8752, 15.12, 29.503, 18.9043, -39.1262, -13.4348
3.824, 7, 11.8044, 15.1241, 29.5622, 18.7381, -39.2578, -13.3015
3.828, 7, 11.7334, 15.1285, 29.621, 18.5728, -39.3897, -13.1691
3.832, 7, 11.6624, 15.1332, 29.6796, 18.4084, -39.5218, -13.0376
3.836, 7, 11.5913, 15.1381, 29.7378, 18.2448, -39.6541, -12.907
3.84, 7, 11.5201, 15.1434, 29.7958, 18.082, -39.7867, -12.7772
3.844, 7, 11.4488, 15.1489, 29.8535, 17.92, -39.9195, -12.6482
3.848, 7, 11.3776, 15.1547, 29.911, 17.7588, -40.0526, -12.5201
3.852, 7, 11.3063, 15.1608, 29.9682, 17.5984, -40.186, -12.3927
3.856, 7, 11.235, 15.1671, 30.0251, 17.4387, -40.3196, -12.2662
3.86, 7, 11.1637, 15.1737, 30.0817, 17.2798, -40.4536, -12.1404
3.864, 7, 11.0923, 15.1806, 30.138, 17.1217, -40.5878, -12.0154
3.868, 7, 11.0208, 15.1878, 30.1941, 16.9643, -40.7222, -11.8912
3.872, 7, 10.9492, 15.1953, 30.2499, 16.8076, -40.8569, -11.7678
3.876, 7, 10.8776, 15.203, 30.3054, 16.6518, -40.9918, -11.6452
3.88, 7, 10.8058, 15.2111, 30.3606, 16.4966, -41.1269, -11.5234
3.884, 7, 10.734, 15.2194, 30.4156, 16.3423, -41.2623, -11.4023
3.888, 7, 10.662, 15.228, 30.4702, 16.1887, -41.3979, -11.282
3.892, 7, 10.59, 15.2369, 30.5245, 16.0358, -41.5336, -11.1625
3.896, 7, 10.5178, 15.246, 30.5786, 15.8837, -41.6696, -11.0438
3.9, 7, 10.4457, 15.2555, 30.6323, 15.7324, -41.8058, -10.9258
3.904, 7, 10.3734, 15.2652, 30.6858, 15.5818, -41.9422, -10.8087
3.908, 7, 10.3011, 15.2752, 30.7389, 15.4319, -42.0788, -10.6922
3.912, 7, 10.2287, 15.2855, 30.7918, 15.2828, -42.2155, -10.5765
3.916, 7, 10.1562, 15.2961, 30.8444, 15.1344, -42.3525, -10.4616
3.92, 7, 10.0837, 15.307, 30.8966, 14.9867, -42.4896, -10.3474
3.924, 7, 10.0111, 15.3181, 30.9486, 14.8397, -42.6269, -10.2339
3.928, 7, 9.93842, 15.3296, 31.0002, 14.6934, -42.7644, -10.1212
3.932, 7, 9.8657, 15.3413, 31.0516, 14.5479, -42.9021, -10.0092
3.936, 7, 9.79292, 15.3533, 31.1027, 14.403, -43.04, -9.89791
3.94, 7, 9.72008, 15.3655, 31.1534, 14.2589, -43.178, -9.78733
3.944, 7, 9.64718, 15.3781, 31.2039, 14.1154, -43.3162, -9.67746
3.948, 7, 9.57421, 15.3909, 31.2541, 13.9726, -43.4546, -9.5683
3.952, 7, 9.5012, 15.404, 31.3039, 13.8305, -43.5932, -9.45984
3.956, 7, 9.42815, 15.4174, 31.3535, 13.689, -43.7319, -9.35207
3.96, 7, 9.35507, 15.4311, 31.4027, 13.5483, -43.8708, -9.24499
3.964, 7, 9.282, 15.445, 31.4517, 13.4082, -44.0099, -9.1386
3.968, 7, 9.20891, 15.4592, 31.5004, 13.2687, -44.1491, -9.03291
3.972, 7, 9.13581, 15.4737, 31.5487, 13.13, -44.2884, -8.9279
3.976, 7, 9.06266, 15.4885, 31.5967, 12.9919, -44.4279, -8.82359
3.98, 8, 8.98943, 15.5035, 31.6444, 12.8545, -44.5675, -8.71997
3.984, 8, 8.91612, 15.5188, 31.6918, 12.7179, -44.7072, -8.61705
3.988, 8, 8.8427, 15.5344, 31.7389, 12.5819, -44.847, -8.51483
3.992, 8, 8.76917, 15.5503, 31.7856, 12.4465, -44.9869, -8.4133
3.996, 8, 8.69557, 15.5665, 31.8321, 12.3119, -45.1269, -8.31245
3.999, 8, 8.62189, 15.583, 31.8782, 12.1779, -45.267, -8.21228
4.004, 8, 8.54816, 15.5997, 31.924, 12.0446, -45.4072, -8.11277
4.008, 8, 8.47436, 15.6168, 31.9694, 11.9119, -45.5475, -8.01392
4.012, 8, 8.40048, 15.6341, 32.0146, 11.7799, -45.688, -7.9157
4.016, 8, 8.32653, 15.6517, 32.0595, 11.6484, -45.8286, -7.8181
4.02, 8, 8.25252, 15.6695, 32.104, 11.5176, -45.9693, -7.72112
4.024, 8, 8.17848, 15.6877, 32.1483, 11.3873, -46.1103, -7.62473
4.028, 8, 8.10441, 15.7061, 32.1923, 11.2575, -46.2514, -7.52892
4.032, 8, 8.03033, 15.7248, 32.2359, 11.1283, -46.3927, -7.43369
4.036, 8, 7.95626, 15.7438, 32.2793, 10.9997, -46.5341, -7.33901
4.04, 8, 7.88219, 15.763, 32.3224, 10.8715, -46.6758, -7.24489
4.044, 8, 7.8081, 15.7826, 32.3653, 10.7439, -46.8177, -7.15133
4.048, 8, 7.73396, 15.8024, 32.4078, 10.6168, -46.9597, -7.05832
4.052, 8, 7.65976, 15.8224, 32.45, 10.4902, -47.1019, -6.96586
4.056, 8, 7.58548, 15.8428, 32.4919, 10.3641, -47.2442, -6.87396
4.06, 8, 7.51111, 15.8635, 32.5336, 10.2386, -47.3867, -6.78261
4.064, 8, 7.43667, 15.8844, 32.5749, 10.1136, -47.5294, -6.69182
4.068, 8, 7.36214, 15.9056, 32.6159, 9.98915, -47.6722, -6.60159
4.072, 8, 7.28755, 15.9271, 32.6566, 9.86522, -47.8151, -6.51191
4.076, 8, 7.21289, 15.9489, 32.697, 9.74183, -47.9581, -6.42278
4.08, 8, 7.13817, 15.971, 32.7371, 9.61896, -48.1012, -6.3342
4.084, 8, 7.0634, 15.9933, 32.7769, 9.49662, -48.2445, -6.24616
4.088, 8, 6.98858, 16.0159, 32.8164, 9.3748, -48.3879, -6.15867
4.092, 8, 6.91371, 16.0388, 32.8556, 9.2535, -48.5313, -6.07171
4.096, 8, 6.83879, 16.062, 32.8944, 9.13271, -48.6749, -5.98528
4.1, 8, 6.76382, 16.0854, 32.933, 9.01243, -48.8186, -5.89939
4.104, 8, 6.68881, 16.1092, 32.9712, 8.89266, -48.9624, -5.81402
4.108, 8, 6.61376, 16.1332, 33.0091, 8.7734, -49.1063, -5.72917
4.112, 8, 6.53867, 16.1574, 33.0467, 8.65464, -49.2504, -5.64485
4.116, 8, 6.46353, 16.182, 33.084, 8.53637, -49.3945, -5.56103
4.12, 8, 6.38835, 16.2068, 33.121, 8.41859, -49.5387, -5.47773
4.124, 8, 6.31313, 16.2319, 33.1577, 8.30131, -49.683, -5.39494
4.128, 8, 6.23787, 16.2573, 33.1941, 8.18451, -49.8274, -5.31265
4.132, 8, 6.16257, 16.2829, 33.2301, 8.06819, -49.9719, -5.23086
4.136, 8, 6.08724, 16.3088, 33.2659, 7.95235, -50.1165, -5.14958
4.14, 8, 6.0119, 16.335, 33.3013, 7.83699, -50.2612, -5.06878
4.144, 8, 5.93658, 16.3615, 33.3364, 7.72211, -50.4059, -4.98848
4.148, 8, 5.86127, 16.3882, 33.3712, 7.6077, -50.5508, -4.90867
4.152, 8, 5.78597, 16.4151, 33.4057, 7.49377, -50.6957, -4.82936
4.156, 8, 5.71066, 16.4424, 33.4399, 7.38032, -50.8407, -4.75053
4.16, 8, 5.63533, 16.4699, 33.4737, 7.26737, -50.9857, -4.67221
4.164, 9, 5.55994, 16.4976, 33.5072, 7.1549, -51.1307, -4.59439
4.168, 9, 5.48448, 16.5257, 33.5404, 7.04293, -51.2758, -4.51706
4.172, 9, 5.40892, 16.554, 33.5732, 6.93146, -51.4209, -4.44024
4.176, 9, 5.33329, 16.5826, 33.6057, 6.82048, -51.566, -4.36391
4.18, 9, 5.2576, 16.6115, 33.6379, 6.70998, -51.7112, -4.28807
4.184, 9, 5.18187, 16.6407, 33.6698, 6.59997, -51.8563, -4.21271
4.188, 9, 5.1061, 16.6701, 33.7013, 6.49041, -52.0015, -4.13783
4.192, 9, 5.03027, 16.6998, 33.7325, 6.38132, -52.1468, -4.06341
4.196, 9, 4.9544, 16.7298, 33.7633, 6.27266, -52.2921, -3.98945
4.2, 9, 4.87847, 16.76, 33.7939, 6.16443, -52.4375, -3.91593
4.204, 9, 4.80252, 16.7906, 33.8241, 6.05661, -52.5829, -3.84285
4.208, 9, 4.72655, 16.8213, 33.854, 5.9492, -52.7285, -3.77019
4.212, 9, 4.65059, 16.8524, 33.8836, 5.84217, -52.8742, -3.69795
4.216, 9, 4.57464, 16.8837, 33.9129, 5.73551, -53.0199, -3.62611
4.22, 9, 4.49873, 16.9153, 33.9418, 5.62923, -53.1658, -3.55467
4.224, 9, 4.42284, 16.9472, 33.9705, 5.52331, -53.3119, -3.48363
4.228, 9, 4.34695, 16.9793, 33.9989, 5.41776, -53.458, -3.41298
4.232, 9, 4.27103, 17.0117, 34.0269, 5.31258, -53.6042, -3.34273
4.236, 9, 4.19506, 17.0443, 34.0546, 5.20777, -53.7505, -3.27288
4.24, 9, 4.11903, 17.0773, 34.0821, 5.10333, -53.8969, -3.20342
4.244, 9, 4.04294, 17.1105, 34.1092, 4.99928, -54.0434, -3.13437
4.248, 9, 3.96679, 17.144, 34.136, 4.89561, -54.19, -3.06572
4.252, 9, 3.89059, 17.1778, 34.1624, 4.79231, -54.3366, -2.99746
4.256, 9, 3.81433, 17.2118, 34.1886, 4.6894, -54.4832, -2.92961
4.26, 9, 3.73804, 17.2461, 34.2144, 4.58687, -54.6299, -2.86215
4.264, 9, 3.66171, 17.2806, 34.2399, 4.48472, -54.7767, -2.79508
4.268, 9, 3.58535, 17.3155, 34.2651, 4.38295, -54.9235, -2.72841
4.272, 9, 3.50897, 17.3506, 34.29, 4.28155, -55.0703, -2.66212
4.276, 9, 3.43256, 17.3859, 34.3145, 4.18052, -55.2172, -2.59623
4.28, 9, 3.35612, 17.4215, 34.3388, 4.07987, -55.3641, -2.53072
4.284, 9, 3.27966, 17.4574, 34.3627, 3.97958, -55.5111, -2.46559
4.288, 9, 3.20319, 17.4935, 34.3863, 3.87966, -55.6581, -2.40084
4.292, 9, 3.12671, 17.5299, 34.4095, 3.7801, -55.8051, -2.33647
4.296, 9, 3.05028, 17.5665, 34.4325, 3.6809, -55.9521, -2.27247
4.3, 9, 2.97398, 17.6033, 34.4551, 3.58207, -56.0992, -2.20885
4.304, 9, 2.89788, 17.6404, 34.4774, 3.48361, -56.2463, -2.1456
4.308, 9, 2.82207, 17.6776, 34.4994, 3.38553, -56.3934, -2.08275
4.312, 9, 2.7466, 17.7149, 34.5211, 3.28785, -56.5404, -2.02029
4.316, 9, 2.67151, 17.7523, 34.5424, 3.19063, -56.6872, -1.95826
4.32, 9, 2.59693, 17.7897, 34.5635, 3.09391, -56.8339, -1.89669
4.324, 9, 2.52305, 17.827, 34.5842, 2.99777, -56.9801, -1.83563
4.328, 9, 2.45012, 17.8639, 34.6045, 2.90234, -57.1259, -1.77515
4.332, 9, 2.37841, 17.9004, 34.6245, 2.80778, -57.2707, -1.71537
4.336, 9, 2.3081, 17.9364, 34.6441, 2.71433, -57.4144, -1.65642
4.34, 9, 2.23924, 17.972, 34.6631, 2.62231, -57.5563, -1.59851
4.344, 9, 2.17166, 18.0076, 34.6812, 2.53208, -57.6959, -1.54184
4.348, 9, 2.10505, 18.0435, 34.6984, 2.44403, -57.8326, -1.48666
4.352, 9, 2.03903, 18.0801, 34.7142, 2.35854, -57.9658, -1.43319
4.356, 9, 1.9733, 18.1177, 34.7284, 2.27589, -58.095, -1.38161
4.36, 9, 1.90767, 18.1565, 34.7408, 2.19625, -58.2201, -1.33203
4.364, 9, 1.84207, 18.1966, 34.7511, 2.11965, -58.341, -1.28446
4.368, 9, 1.77652, 18.2381, 34.7593, 2.04594, -58.458, -1.23883
4.372, 9, 1.71104, 18.281, 34.7651, 1.97485, -58.5717, -1.19496
4.376, 9, 1.64563, 18.3254, 34.7684, 1.90597, -58.6826, -1.15263
4.38, 9, 1.58027, 18.3714, 34.7692, 1.83883, -58.7915, -1.11154
4.384, 9, 1.51497, 18.4189, 34.7675, 1.77287, -58.8994, -1.07134
4.388, 9, 1.44978, 18.4678, 34.7633, 1.7075, -59.0071, -1.03169
4.392, 9, 1.38486, 18.5179, 34.7568, 1.64212, -59.1157, -0.992204
4.396, 9, 1.32039, 18.5689, 34.7481, 1.57614, -59.2259, -0.952516
4.4, 9, 1.25647, 18.6206, 34.7375, 1.50903, -59.3387, -0.912301
4.404, 9, 1.19311, 18.6731, 34.7252, 1.44039, -59.4546, -0.871291
4.408, 9, 1.13022, 18.7262, 34.7115, 1.36992, -59.5739, -0.829298
4.412, 9, 1.06757, 18.7803, 34.6964, 1.29749, -59.6969, -0.786225
4.416, 9, 1.0048, 18.8357, 34.6803, 1.22312, -59.8233, -0.742063
4.42, 9, 0.94148, 18.8926, 34.6632, 1.14696, -59.9529, -0.69688
4.424, 9, 0.877221, 18.9513, 34.6452, 1.06923, -60.0853, -0.650796
4.428, 9, 0.811734, 19.0119, 34.6266, 0.990205, -60.2199, -0.603957
4.432, 9, 0.744867, 19.0743, 34.6074, 0.910143, -60.3564, -0.556513
4.436, 9, 0.676595, 19.1384, 34.5877, 0.829288, -60.4942, -0.508602
4.44, 9, 0.607014, 19.2039, 34.5676, 0.747835, -60.6331, -0.460336
4.444, 9, 0.536329, 19.2706, 34.5471, 0.665932, -60.7727, -0.411802
4.448, 9, 0.464792, 19.3381, 34.5265, 0.583685, -60.913, -0.363063
4.452, 9, 0.392631, 19.4062, 34.5057, 0.501165, -61.0537, -0.314161
4.456, 9, 0.320015, 19.4747, 34.4847, 0.418424, -61.1948, -0.265127
4.46, 9, 0.247081, 19.5436, 34.4637, 0.335492, -61.3362, -0.21598
4.464, 9, 0.17397, 19.6127, 34.4426, 0.252396, -61.4779, -0.166736
4.468, 9, 0.100848, 19.6819, 34.4215, 0.169154, -61.6199, -0.117406
4.472, 9, 0.0278853, 19.7512, 34.4003, 0.0857901, -61.762, -0.0680046
4.476, 9, -0.0447761, 19.8203, 34.3792, 0.00233305, -61.9043, -0.0185499
4.48, 9, -0.11704, 19.8893, 34.358, -0.0811736, -62.0467, 0.0309321
4.484, 9, -0.188832, 19.9581, 34.337, -0.164671, -62.1891, 0.0804062
4.488, 9, -0.260063, 20.0265, 34.316, -0.24808, -62.3314, 0.129825
4.492, 9, -0.330595, 20.0943, 34.2952, -0.331299, -62.4733, 0.179127
4.496, 9, -0.40024, 20.1613, 34.2745, -0.41419, -62.6146, 0.228229
4.5, 9, -0.468782, 20.2273, 34.2542, -0.496574, -62.7551, 0.277023
4.504, 9, -0.536026, 20.292, 34.2341, -0.578217, -62.8943, 0.325371
4.508, 9, -0.601883, 20.3557, 34.2143, -0.658831, -63.0318, 0.3731
4.512, 9, -0.666431, 20.4184, 34.1947, -0.738074, -63.1669, 0.420008
4.516, 9, -0.729925, 20.4806, 34.175, -0.81558, -63.2991, 0.465878
4.52, 9, -0.792701, 20.5427, 34.1552, -0.890989, -63.4278, 0.510498
4.524, 11, -0.855052, 20.6051, 34.1349, -0.963996, -63.5524, 0.553684
4.528, 11, -0.917163, 20.6681, 34.114, -1.03439, -63.6729, 0.595307
4.532, 11, -0.979109, 20.7318, 34.0921, -1.10209, -63.7889, 0.635307
4.536, 11, -1.0409, 20.7964, 34.069, -1.16714, -63.9008, 0.673699
4.54, 11, -1.10253, 20.8619, 34.0444, -1.22971, -64.0088, 0.710573
4.544, 11, -1.16397, 20.9284, 34.0181, -1.29009, -64.1137, 0.746085
4.548, 11, -1.2252, 20.996, 33.9898, -1.34864, -64.216, 0.780438
4.552, 11, -1.2862, 21.0649, 33.9592, -1.40581, -64.3165, 0.813877
4.556, 11, -1.3469, 21.135, 33.9262, -1.46205, -64.4162, 0.846668
4.56, 11, -1.40715, 21.206, 33.8906, -1.51785, -64.5159, 0.879094
4.564, 11, -1.46673, 21.278, 33.8523, -1.57369, -64.6165, 0.911429
4.568, 11, -1.52543, 21.3508, 33.8115, -1.63001, -64.7186, 0.94393
4.572, 11, -1.5832, 21.4243, 33.7681, -1.68717, -64.8229, 0.976811
4.576, 11, -1.64006, 21.4986, 33.7223, -1.74544, -64.9298, 1.01023
4.58, 11, -1.69618, 21.5736, 33.6743, -1.80496, -65.0395, 1.04428
4.584, 11, -1.75183, 21.6499, 33.6242, -1.86574, -65.152, 1.07898
4.588, 11, -1.8074, 21.7276, 33.5722, -1.9277, -65.267, 1.11429
4.592, 11, -1.86333, 21.8071, 33.5183, -1.99067, -65.3842, 1.15012
4.596, 11, -1.91999, 21.8887, 33.4629, -2.05442, -65.5032, 1.18636
4.6, 11, -1.97761, 21.9724, 33.4062, -2.11874, -65.6236, 1.22288
4.604, 11, -2.03634, 22.0582, 33.3482, -2.18342, -65.7449, 1.25958
4.608, 11, -2.09616, 22.1458, 33.2892, -2.24828, -65.8669, 1.29634
4.612, 11, -2.15695, 22.235, 33.2294, -2.31318, -65.9892, 1.33311
4.616, 11, -2.21847, 22.3253, 33.1688, -2.37804, -66.1118, 1.36981
4.62, 11, -2.2805, 22.4165, 33.1076, -2.44278, -66.2344, 1.40642
4.624, 11, -2.34284, 22.5082, 33.046, -2.50735, -66.357, 1.44292
4.628, 11, -2.40536, 22.6004, 32.9839, -2.57173, -66.4796, 1.47927
4.632, 11, -2.46796, 22.6929, 32.9214, -2.6359, -66.602, 1.51548
4.636, 11, -2.5306, 22.7857, 32.8585, -2.69985, -66.7243, 1.55154
4.64, 11, -2.59322, 22.8786, 32.7953, -2.76356, -66.8464, 1.58744
4.644, 11, -2.65581, 22.9717, 32.7317, -2.82703, -66.9684, 1.62318
4.648, 11, -2.71833, 23.065, 32.6677, -2.89026, -67.0902, 1.65876
4.652, 11, -2.78078, 23.1584, 32.6035, -2.95324, -67.2118, 1.69418
4.656, 11, -2.84316, 23.2519, 32.5389, -3.01597, -67.3332, 1.72943
4.66, 11, -2.90544, 23.3455, 32.474, -3.07846, -67.4544, 1.76454
4.664, 11, -2.96764, 23.4392, 32.4087, -3.14071, -67.5754, 1.79948
4.668, 11, -3.02974, 23.533, 32.3432, -3.20271, -67.6962, 1.83427
4.672, 11, -3.09174, 23.6269, 32.2773, -3.26446, -67.8168, 1.8689
4.676, 11, -3.15364, 23.7209, 32.211, -3.32598, -67.9373, 1.90338
4.68, 11, -3.21544, 23.8149, 32.1445, -3.38724, -68.0575, 1.93771
4.684, 11, -3.27712, 23.9091, 32.0777, -3.44827, -68.1775, 1.97188
4.688, 11, -3.33867, 24.0033, 32.0105, -3.50906, -68.2973, 2.00591
4.692, 11, -3.40007, 24.0975, 31.943, -3.5696, -68.4169, 2.03979
4.696, 11, -3.46132, 24.1919, 31.8752, -3.6299, -68.5362, 2.07353
4.7, 11, -3.52242, 24.2862, 31.8072, -3.68996, -68.6554, 2.10711
4.704, 11, -3.5834, 24.3807, 31.7388, -3.74976, -68.7743, 2.14055
4.708, 11, -3.64427, 24.4752, 31.6701, -3.80931, -68.8929, 2.17383
4.712, 12, -3.70506, 24.5697, 31.6011, -3.86861, -69.0113, 2.20697
4.716, 12, -3.7658, 24.6644, 31.5318, -3.92764, -69.1295, 2.23995
4.72, 12, -3.82648, 24.7591, 31.4622, -3.98642, -69.2473, 2.27278
4.724, 12, -3.8871, 24.8539, 31.3922, -4.04494, -69.3649, 2.30547
4.728, 12, -3.94766, 24.9488, 31.322, -4.10321, -69.4823, 2.33801
4.732, 12, -4.00813, 25.0437, 31.2515, -4.16122, -69.5993, 2.37041
4.736, 12, -4.06853, 25.1388, 31.1807, -4.21899, -69.7161, 2.40266
4.74, 12, -4.12883, 25.2339, 31.1096, -4.27652, -69.8327, 2.43479
4.744, 12, -4.18906, 25.329, 31.0381, -4.33382, -69.949, 2.46678
4.748, 12, -4.24919, 25.4243, 30.9663, -4.39089, -70.0652, 2.49865
4.752, 12, -4.30922, 25.5197, 30.8942, -4.44774, -70.1811, 2.5304
4.756, 12, -4.36912, 25.6151, 30.8217, -4.50439, -70.2968, 2.56204
4.76, 12, -4.42888, 25.7106, 30.7489, -4.56083, -70.4123, 2.59357
4.764, 12, -4.48848, 25.8062, 30.6758, -4.61707, -70.5277, 2.62499
4.768, 12, -4.54792, 25.9018, 30.6023, -4.67311, -70.6429, 2.65631
4.772, 12, -4.60721, 25.9975, 30.5285, -4.72896, -70.7579, 2.68753
4.776, 12, -4.66637, 26.0934, 30.4543, -4.78462, -70.8727, 2.71864
4.78, 12, -4.72542, 26.1893, 30.3798, -4.84007, -70.9873, 2.74965
4.784, 12, -4.78438, 26.2853, 30.305, -4.89533, -71.1018, 2.78057
4.788, 12, -4.84326, 26.3814, 30.2298, -4.95038, -71.216, 2.81138
4.792, 12, -4.90207, 26.4776, 30.1543, -5.00522, -71.3301, 2.84208
4.796, 12, -4.96082, 26.5739, 30.0784, -5.05986, -71.4439, 2.87269
4.8, 12, -5.01949, 26.6703, 30.0022, -5.11429, -71.5575, 2.90319
4.804, 12, -5.07808, 26.7668, 29.9257, -5.16851, -71.6709, 2.93359
4.808, 12, -5.13659, 26.8633, 29.8489, -5.22252, -71.784, 2.96389
4.812, 12, -5.195, 26.96, 29.7717, -5.27631, -71.897, 2.99409
4.816, 12, -5.25332, 27.0567, 29.6942, -5.3299, -72.0097, 3.02419
4.82, 12, -5.31155, 27.1535, 29.6164, -5.38328, -72.1222, 3.05419
4.824, 12, -5.36967, 27.2503, 29.5383, -5.43645, -72.2344, 3.08409
4.828, 12, -5.42769, 27.3473, 29.4598, -5.48941, -72.3464, 3.1139
4.832, 12, -5.48562, 27.4443, 29.381, -5.54217, -72.4582, 3.14362
4.836, 12, -5.54344, 27.5413, 29.3019, -5.59471, -72.5697, 3.17324
4.84, 12, -5.60116, 27.6385, 29.2225, -5.64705, -72.681, 3.20277
4.844, 12, -5.65877, 27.7356, 29.1428, -5.69919, -72.7921, 3.23221
4.848, 12, -5.71629, 27.8329, 29.0627, -5.75112, -72.903, 3.26156
4.852, 12, -5.7737, 27.9302, 28.9824, -5.80284, -73.0136, 3.29082
4.856, 12, -5.83101, 28.0276, 28.9017, -5.85436, -73.1239, 3.32
4.86, 12, -5.88821, 28.1251, 28.8207, -5.90568, -73.2341, 3.34909
4.864, 12, -5.94531, 28.2226, 28.7393, -5.9568, -73.3439, 3.3781
4.868, 12, -6.00229, 28.3202, 28.6577, -6.00771, -73.4536, 3.40702
4.872, 12, -6.05914, 28.4178, 28.5757, -6.05843, -73.563, 3.43586
4.876, 12, -6.11584, 28.5155, 28.4935, -6.10894, -73.6722, 3.46462
4.88, 12, -6.17239, 28.6132, 28.4109, -6.15925, -73.7811, 3.49331
4.884, 12, -6.22879, 28.7109, 28.328, -6.20935, -73.8898, 3.52191
4.888, 12, -6.28505, 28.8086, 28.2448, -6.25925, -73.9982, 3.55042
4.892, 12, -6.34121, 28.9064, 28.1613, -6.30894, -74.1063, 3.57886
4.896, 13, -6.39729, 29.0042, 28.0775, -6.35841, -74.2141, 3.60721
4.9, 13, -6.45332, 29.1021, 27.9935, -6.40767, -74.3217, 3.63548
4.904, 13, -6.5093, 29.2001, 27.9091, -6.45671, -74.429, 3.66367
4.908, 13, -6.56522, 29.2981, 27.8244, -6.50554, -74.536, 3.69178
4.912, 13, -6.62107, 29.3962, 27.7394, -6.55416, -74.6427, 3.7198
4.916, 13, -6.67683, 29.4943, 27.6542, -6.60256, -74.7491, 3.74775
4.92, 13, -6.73249, 29.5925, 27.5686, -6.65076, -74.8552, 3.77563
4.924, 13, -6.78808, 29.6907, 27.4827, -6.69876, -74.9611, 3.80344
4.928, 13, -6.84357, 29.789, 27.3965, -6.74657, -75.0667, 3.83118
4.932, 13, -6.89898, 29.8874, 27.31, -6.79418, -75.1721, 3.85886
4.936, 13, -6.95429, 29.9858, 27.2232, -6.84161, -75.2772, 3.88648
4.94, 13, -7.00947, 30.0843, 27.136, -6.88886, -75.3821, 3.91404
4.944, 13, -7.06451, 30.1828, 27.0485, -6.93593, -75.4868, 3.94156
4.948, 13, -7.1194, 30.2814, 26.9606, -6.98283, -75.5913, 3.96902
4.952, 13, -7.17411, 30.38, 26.8724, -7.02957, -75.6956, 3.99644
4.956, 13, -7.22867, 30.4787, 26.7839, -7.07613, -75.7997, 4.02382
4.96, 13, -7.2831, 30.5774, 26.695, -7.12253, -75.9035, 4.05115
4.964, 13, -7.33742, 30.6763, 26.6058, -7.16875, -76.0072, 4.07844
4.968, 13, -7.39165, 30.7752, 26.5162, -7.21479, -76.1106, 4.10568
4.972, 13, -7.4458, 30.8741, 26.4263, -7.26066, -76.2138, 4.13287
4.976, 13, -7.49989, 30.9732, 26.336, -7.30636, -76.3168, 4.16002
4.98, 13, -7.5539, 31.0724, 26.2454, -7.35186, -76.4195, 4.18712
4.984, 13, -7.60784, 31.1716, 26.1545, -7.39719, -76.522, 4.21418
4.988, 13, -7.66169, 31.2709, 26.0633, -7.44234, -76.6242, 4.24118
4.992, 13, -7.71546, 31.3703, 25.9717, -7.4873, -76.7262, 4.26814
4.996, 13, -7.76913, 31.4697, 25.8798, -7.53208, -76.8279, 4.29506
5, 13, -7.82271, 31.5692, 25.7876, -7.57667, -76.9293, 4.32193
5.004, 13, -7.87618, 31.6687, 25.695, -7.62108, -77.0305, 4.34876
5.008, 13, -7.92956, 31.7683, 25.6021, -7.66531, -77.1315, 4.37554
5.012, 13, -7.98284, 31.868, 25.509, -7.70936, -77.2322, 4.40229
5.016, 13, -8.03601, 31.9677, 25.4154, -7.75322, -77.3326, 4.42899
5.02, 13, -8.08908, 32.0674, 25.3216, -7.7969, -77.4328, 4.45565
5.024, 13, -8.14205, 32.1672, 25.2274, -7.8404, -77.5328, 4.48228
5.028, 13, -8.19492, 32.2671, 25.133, -7.88372, -77.6325, 4.50886
5.032, 13, -8.24769, 32.367, 25.0382, -7.92686, -77.7319, 4.53541
5.036, 13, -8.30035, 32.467, 24.943, -7.96982, -77.831, 4.56193
5.04, 13, -8.35291, 32.567, 24.8476, -8.0126, -77.9299, 4.58841
5.044, 13, -8.40536, 32.6671, 24.7518, -8.0552, -78.0286, 4.61485
5.048, 13, -8.45771, 32.7672, 24.6557, -8.09761, -78.127, 4.64126
5.052, 13, -8.50994, 32.8674, 24.5593, -8.13985, -78.2251, 4.66764
5.056, 13, -8.56203, 32.9676, 24.4626, -8.18191, -78.323, 4.69399
5.06, 13, -8.61397, 33.0678, 24.3656, -8.22379, -78.4206, 4.72031
5.064, 13, -8.66576, 33.168, 24.2682, -8.26549, -78.5179, 4.7466
5.068, 13, -8.7174, 33.2682, 24.1706, -8.30701, -78.615, 4.77285
5.072, 13, -8.76892, 33.3685, 24.0726, -8.34834, -78.7117, 4.79907
5.076, 13, -8.82035, 33.4688, 23.9744, -8.38948, -78.8082, 4.82526
5.08, 14, -8.87171, 33.5691, 23.8759, -8.43043, -78.9044, 4.85142
5.084, 14, -8.92301, 33.6695, 23.777, -8.47119, -79.0003, 4.87754
5.088, 14, -8.97428, 33.77, 23.6779, -8.51176, -79.0959, 4.90362
5.092, 14, -9.02548, 33.8705, 23.5785, -8.55213, -79.1911, 4.92968
5.096, 14, -9.0766, 33.9711, 23.4787, -8.59231, -79.2861, 4.9557
5.1, 14, -9.12764, 34.0717, 23.3787, -8.63231, -79.3808, 4.9817
5.104, 14, -9.17859, 34.1723, 23.2784, -8.67212, -79.4752, 5.00766
5.108, 14, -9.22945, 34.273, 23.1777, -8.71176, -79.5693, 5.03361
5.112, 14, -9.28023, 34.3738, 23.0768, -8.75121, -79.6632, 5.05954
5.116, 14, -9.33092, 34.4746, 22.9755, -8.7905, -79.7568, 5.08545
5.12, 14, -9.3815, 34.5755, 22.8739, -8.82961, -79.8501, 5.11135
5.124, 14, -9.43196, 34.6764, 22.7719, -8.86857, -79.9432, 5.13724
5.128, 14, -9.48227, 34.7773, 22.6696, -8.90736, -80.0361, 5.16313
5.132, 14, -9.53241, 34.8783, 22.5669, -8.946, -80.1287, 5.18901
5.136, 14, -9.58239, 34.9794, 22.4639, -8.98448, -80.2211, 5.21489
5.14, 14, -9.63222, 35.0804, 22.3605, -9.02281, -80.3133, 5.24077
5.144, 14, -9.68193, 35.1816, 22.2568, -9.06097, -80.4053, 5.26665
5.148, 14, -9.73154, 35.2828, 22.1527, -9.09898, -80.497, 5.29253
5.152, 14, -9.78106, 35.384, 22.0483, -9.13683, -80.5884, 5.3184
5.156, 14, -9.83051, 35.4854, 21.9435, -9.17451, -80.6797, 5.34427
5.16, 14, -9.87989, 35.5868, 21.8384, -9.21202, -80.7706, 5.37013
5.164, 14, -9.9292, 35.6883, 21.7329, -9.24937, -80.8613, 5.396
5.168, 14, -9.97843, 35.7899, 21.6271, -9.28655, -80.9518, 5.42185
5.172, 14, -10.0276, 35.8916, 21.5209, -9.32356, -81.0419, 5.4477
5.176, 14, -10.0766, 35.9933, 21.4144, -9.3604, -81.1318, 5.47355
5.18, 14, -10.1256, 36.0951, 21.3076, -9.39707, -81.2215, 5.49939
5.184, 14, -10.1745, 36.1969, 21.2005, -9.43358, -81.3109, 5.52523
5.188, 14, -10.2233, 36.2988, 21.093, -9.46991, -81.4, 5.55107
5.192, 14, -10.272, 36.4008, 20.9852, -9.50607, -81.4888, 5.57691
5.196, 14, -10.3205, 36.5028, 20.8771, -9.54207, -81.5774, 5.60274
5.2, 14, -10.369, 36.6048, 20.7686, -9.57789, -81.6657, 5.62858
5.204, 14, -10.4174, 36.7069, 20.6598, -9.61355, -81.7537, 5.65441
5.208, 14, -10.4657, 36.809, 20.5507, -9.64903, -81.8415, 5.68025
5.212, 14, -10.5139, 36.9112, 20.4412, -9.68435, -81.929, 5.70609
5.216, 14, -10.5619, 37.0135, 20.3314, -9.7195, -82.0162, 5.73193
5.22, 14, -10.6099, 37.1158, 20.2213, -9.75449, -82.1031, 5.75777
5.224, 14, -10.6578, 37.2182, 20.1109, -9.7893, -82.1898, 5.78362
5.228, 14, -10.7056, 37.3206, 20.0001, -9.82394, -82.2762, 5.80948
5.232, 14, -10.7533, 37.423, 19.889, -9.85842, -82.3623, 5.83534
5.236, 14, -10.8008, 37.5255, 19.7775, -9.89273, -82.4482, 5.8612
5.24, 14, -10.8482, 37.628, 19.6658, -9.92687, -82.5337, 5.88708
5.244, 14, -10.8955, 37.7305, 19.5537, -9.96084, -82.619, 5.91296
5.248, 14, -10.9426, 37.833, 19.4413, -9.99465, -82.7041, 5.93884
5.252, 14, -10.9896, 37.9355, 19.3286, -10.0283, -82.7888, 5.96473
5.256, 14, -11.0365, 38.0381, 19.2156, -10.0617, -82.8733, 5.99063
5.26, 15, -11.0833, 38.1407, 19.1023, -10.095, -82.9574, 6.01653
5.264, 15, -11.13, 38.2433, 18.9887, -10.1281, -83.0412, 6.04243
5.268, 15, -11.1767, 38.3461, 18.8747, -10.161, -83.1248, 6.06833
5.272, 15, -11.2233, 38.4489, 18.7605, -10.1938, -83.208, 6.09423
5.276, 15, -11.2699, 38.5518, 18.646, -10.2263, -83.2909, 6.12014
5.28, 15, -11.3164, 38.6547, 18.5312, -10.2587, -83.3735, 6.14605
5.284, 15, -11.3629, 38.7577, 18.4161, -10.2909, -83.4558, 6.17197
5.288, 15, -11.4092, 38.8607, 18.3006, -10.3229, -83.5378, 6.19791
5.292, 15, -11.4555, 38.9638, 18.1848, -10.3548, -83.6195, 6.22385
5.296, 15, -11.5017, 39.067, 18.0687, -10.3865, -83.7009, 6.24981
5.3, 15, -11.5478, 39.1703, 17.9523, -10.418, -83.7821, 6.27579
5.304, 15, -11.5937, 39.2736, 17.8355, -10.4494, -83.863, 6.3018
5.308, 15, -11.6396, 39.377, 17.7183, -10.4806, -83.9437, 6.32783
5.312, 15, -11.6853, 39.4803, 17.6007, -10.5117, -84.0241, 6.35389
5.316, 15, -11.7308, 39.5837, 17.4828, -10.5426, -84.1042, 6.37998
5.32, 15, -11.7762, 39.6871, 17.3646, -10.5734, -84.1841, 6.4061
5.324, 15, -11.8215, 39.7905, 17.2459, -10.604, -84.2638, 6.43226
5.328, 15, -11.8666, 39.894, 17.1269, -10.6345, -84.3433, 6.45845
5.332, 15, -11.9116, 39.9976, 17.0075, -10.6648, -84.4224, 6.48466
5.336, 15, -11.9566, 40.1012, 16.8877, -10.6949, -84.5013, 6.51091
5.34, 15, -12.0015, 40.205, 16.7676, -10.7249, -84.58, 6.53718
5.344, 15, -12.0463, 40.3088, 16.6471, -10.7547, -84.6584, 6.56348
5.348, 15, -12.091, 40.4128, 16.5262, -10.7844, -84.7365, 6.58981
5.352, 15, -12.1357, 40.5168, 16.405, -10.8139, -84.8143, 6.61617
5.356, 15, -12.1803, 40.6209, 16.2834, -10.8432, -84.8919, 6.64256
5.36, 15, -12.2248, 40.7251, 16.1615, -10.8724, -84.9691, 6.66897
5.364, 15, -12.2693, 40.8293, 16.0392, -10.9014, -85.0461, 6.69541
5.368, 15, -12.3136, 40.9337, 15.9166, -10.9302, -85.1229, 6.72188
5.372, 15, -12.3578, 41.038, 15.7936, -10.9589, -85.1993, 6.74838
5.376, 15, -12.402, 41.1424, 15.6703, -10.9875, -85.2755, 6.7749
5.38, 15, -12.446, 41.2469, 15.5467, -11.0158, -85.3513, 6.80146
5.384, 15, -12.4898, 41.3513, 15.4227, -11.044, -85.4269, 6.82805
5.388, 15, -12.5335, 41.4557, 15.2984, -11.072, -85.5022, 6.85466
5.392, 15, -12.5769, 41.56, 15.1737, -11.0999, -85.5772, 6.88131
5.396, 15, -12.6202, 41.6642, 15.0489, -11.1276, -85.6519, 6.90797
5.4, 15, -12.663, 41.7681, 14.9238, -11.1551, -85.7263, 6.93466
5.404, 15, -12.7053, 41.8713, 14.7986, -11.1824, -85.8004, 6.96135
5.408, 15, -12.7469, 41.9736, 14.6736, -11.2095, -85.8741, 6.98803
5.412, 15, -12.7875, 42.0748, 14.5488, -11.2364, -85.9473, 7.01467
5.416, 15, -12.8272, 42.1745, 14.4247, -11.2631, -86.0199, 7.04122
5.42, 15, -12.8657, 42.2725, 14.3015, -11.2894, -86.0918, 7.06762
5.424, 15, -12.9031, 42.3686, 14.1796, -11.3153, -86.1628, 7.09377
5.428, 15, -12.9393, 42.4626, 14.0595, -11.3406, -86.2324, 7.11957
5.432, 15, -12.9745, 42.5544, 13.9416, -11.3654, -86.3006, 7.14491
5.436, 15, -13.0084, 42.6436, 13.8266, -11.3894, -86.3669, 7.16965
5.44, 15, -13.0411, 42.7298, 13.7149, -11.4126, -86.4309, 7.19366
5.444, 15, -13.0725, 42.8128, 13.6073, -11.4348, -86.4924, 7.21679
5.448, 15, -13.1025, 42.8923, 13.5043, -11.456, -86.5509, 7.23891
5.452, 15, -13.1313, 42.9681, 13.4063, -11.4759, -86.6062, 7.25989
5.456, 15, -13.1589, 43.0401, 13.3138, -11.4946, -86.658, 7.27962
5.46, 15, -13.1852, 43.1082, 13.2272, -11.5118, -86.7061, 7.298
5.464, 15, -13.2103, 43.1722, 13.1468, -11.5277, -86.7503, 7.31497
5.468, 15, -13.2342, 43.2319, 13.0728, -11.5421, -86.7906, 7.33048
5.472, 15, -13.2566, 43.2872, 13.0052, -11.5551, -86.8269, 7.34452
5.476, 15, -13.2775, 43.338, 12.9442, -11.5667, -86.8593, 7.35711
5.48, 15, -13.2969, 43.3843, 12.8896, -11.577, -86.8879, 7.36828
5.484, 15, -13.3147, 43.4261, 12.8412, -11.586, -86.913, 7.37809
5.488, 15, -13.331, 43.4636, 12.7987, -11.5937, -86.9347, 7.3866
5.492, 15, -13.3459, 43.4969, 12.7618, -11.6003, -86.9532, 7.39391
5.496, 15, -13.3592, 43.5263, 12.7301, -11.6059, -86.9689, 7.40012
5.5, 15, -13.3712, 43.5519, 12.7031, -11.6106, -86.982, 7.40532
5.504, 15, -13.3817, 43.574, 12.6804, -11.6145, -86.9927, 7.40962
5.508, 15, -13.3908, 43.5927, 12.6617, -11.6176, -87.0015, 7.41313
5.512, 15, -13.3988, 43.6087, 12.6463, -11.6201, -87.0085, 7.41595
5.516, 15, -13.4058, 43.6221, 12.6339, -11.6221, -87.014, 7.41818
5.52, 15, -13.4119, 43.6336, 12.6241, -11.6236, -87.0182, 7.4199
5.524, 15, -13.4174, 43.6433, 12.6163, -11.6248, -87.0214, 7.4212
5.528, 15, -13.4222, 43.6515, 12.6104, -11.6256, -87.0237, 7.42216
5.532, 15, -13.4263, 43.6584, 12.6058, -11.6262, -87.0254, 7.42285
5.536, 15, -13.4297, 43.6639, 12.6025, -11.6266, -87.0265, 7.42334
5.54, 16, -13.4325, 43.6682, 12.6, -11.6269, -87.0273, 7.42369
5.544, 16, -13.4345, 43.6715, 12.5983, -11.6271, -87.0279, 7.42392
5.548, 16, -13.4361, 43.6738, 12.5971, -11.6272, -87.0282, 7.42408
5.552, 16, -13.4371, 43.6753, 12.5963, -11.6273, -87.0285, 7.42418
5.556, 16, -13.4378, 43.6764, 12.5958, -11.6274, -87.0286, 7.42426
5.56, 16, -13.4383, 43.6771, 12.5954, -11.6274, -87.0287, 7.42431
5.564, 16, -13.4386, 43.6776, 12.5951, -11.6274, -87.0288, 7.42434
5.568, 16, -13.4388, 43.678, 12.595, -11.6275, -87.0289, 7.42436
5.572, 16, -13.439, 43.6782, 12.5948, -11.6275, -87.0289, 7.42438
5.576, 16, -13.4391, 43.6783, 12.5948, -11.6275, -87.0289, 7.42439
5.58, 16, -13.4392, 43.6784, 12.5947, -11.6275, -87.0289, 7.4244
5.584, 16, -13.4392, 43.6785, 12.5947, -11.6275, -87.029, 7.4244
5.588, 16, -13.4392, 43.6786, 12.5947, -11.6275, -87.029, 7.4244
5.592, 16, -13.4393, 43.6786, 12.5946, -11.6275, -87.029, 7.42441
5.596, 16, -13.4393, 43.6786, 12.5946, -11.6275, -87.029, 7.42441
5.6, 16, -13.4393, 43.6786, 12.5946, -11.6275, -87.029, 7.42441
5.604, 16, -13.4393, 43.6786, 12.5946, -11.6275, -87.029, 7.42441
5.608, 16, -13.4393, 43.6786, 12.5946, -11.6275, -87.029, 7.42441
5.612, 16, -13.4393, 43.6786, 12.5946, -11.6275, -87.029, 7.42441
5.616, 16, -13.4393, 43.6786, 12.5946, -11.6275, -87.029, 7.42441
5.62, 16, -13.4393, 43.6787, 12.5946, -11.6275, -87.029, 7.42441
5.624, 16, -13.4393, 43.6787, 12.5946, -11.6275, -87.029, 7.42441
5.628, 16, -13.4393, 43.6787, 12.5946, -11.6275, -87.029, 7.42441
5.632, 16, -13.4393, 43.6787, 12.5946, -11.6275, -87.029, 7.42441
5.636, 16, -13.4393, 43.6787, 12.5946, -11.6275, -87.029, 7.42441
5.64, 16, -13.4393, 43.6787, 12.5946, -11.6275, -87.029, 7.42441
5.644, 16, -13.4393, 43.6787, 12.5946, -11.6275, -87.029, 7.42441
5.648, 16, -13.4393, 43.6787, 12.5946, -11.6275, -87.029, 7.42441
5.652, 16, -13.4393, 43.6787, 12.5946, -11.6275, -87.029, 7.42441
5.656, 16, -13.4393, 43.6787, 12.5946, -11.6275, -87.029, 7.42441
