hehonglu123/ABB_Primitive_Study/execution/moveljl_30_car/curve_exe_v1000_fine.csv
timestamp, cmd_num, J1, J2, J3, J4, J5, J6
0, -1, -13.4393, 43.6787, 12.5946, -11.6275, -87.029, 7.42441
0.002, -1, -13.4393, 43.6787, 12.5946, -11.6275, -87.029, 7.42441
0.006, -1, -13.4393, 43.6787, 12.5946, -11.6275, -87.029, 7.42441
0.008, -1, -13.4393, 43.6787, 12.5946, -11.6275, -87.029, 7.42441
0.011, -1, -13.4393, 43.6787, 12.5946, -11.6275, -87.029, 7.42441
0.016, -1, -13.4393, 43.6787, 12.5946, -11.6275, -87.029, 7.42441
0.02, -1, -13.4393, 43.6787, 12.5946, -11.6275, -87.029, 7.42441
0.024, -1, -13.4393, 43.6787, 12.5946, -11.6275, -87.029, 7.42441
0.028, -1, -13.4393, 43.6787, 12.5946, -11.6275, -87.029, 7.42441
0.032, -1, -13.4393, 43.6787, 12.5946, -11.6275, -87.029, 7.42441
0.036, -1, -13.4392, 43.6786, 12.5946, -11.6275, -87.029, 7.42441
0.04, -1, -13.439, 43.6785, 12.5946, -11.6275, -87.029, 7.42441
0.044, -1, -13.4384, 43.678, 12.5947, -11.6275, -87.029, 7.42439
0.048, -1, -13.4372, 43.6772, 12.5949, -11.6274, -87.0289, 7.42434
0.052, -1, -13.4355, 43.6758, 12.5951, -11.6273, -87.0287, 7.42422
0.056, -1, -13.433, 43.6738, 12.5955, -11.627, -87.0284, 7.42397
0.06, -1, -13.4296, 43.671, 12.5961, -11.6264, -87.0277, 7.42349
0.064, -1, -13.4254, 43.6675, 12.5969, -11.6253, -87.0264, 7.42266
0.068, -1, -13.4203, 43.6631, 12.598, -11.6236, -87.0244, 7.42132
0.072, -1, -13.4141, 43.6579, 12.5994, -11.6209, -87.0213, 7.41928
0.076, -1, -13.4066, 43.6516, 12.6011, -11.617, -87.0167, 7.4163
0.08, -1, -13.3977, 43.6442, 12.6034, -11.6115, -87.0103, 7.41213
0.084, -1, -13.3869, 43.6352, 12.6062, -11.604, -87.0016, 7.40644
0.088, -1, -13.3743, 43.6247, 12.6097, -11.5941, -86.9899, 7.39892
0.092, -1, -13.3596, 43.6124, 12.6138, -11.5812, -86.9748, 7.38918
0.096, -1, -13.3427, 43.5982, 12.6186, -11.5648, -86.9557, 7.37685
0.1, -1, -13.3235, 43.582, 12.6243, -11.5444, -86.9319, 7.36155
0.104, -1, -13.3019, 43.5636, 12.6308, -11.5196, -86.9029, 7.3429
0.108, -1, -13.2776, 43.5427, 12.6382, -11.4899, -86.868, 7.32054
0.112, -1, -13.2505, 43.5193, 12.6467, -11.4547, -86.8269, 7.29416
0.116, -1, -13.2206, 43.4932, 12.6562, -11.4137, -86.7789, 7.26346
0.12, -1, -13.1877, 43.4644, 12.6669, -11.3667, -86.7238, 7.22818
0.124, -1, -13.1519, 43.4328, 12.6786, -11.3132, -86.6612, 7.18814
0.128, -1, -13.113, 43.3984, 12.6916, -11.2532, -86.591, 7.14319
0.131, -1, -13.071, 43.3611, 12.7056, -11.1865, -86.5129, 7.09326
0.136, -1, -13.026, 43.321, 12.7209, -11.1131, -86.4269, 7.03835
0.139, -1, -12.9779, 43.2779, 12.7373, -11.0331, -86.3333, 6.9785
0.144, -1, -12.9267, 43.232, 12.7548, -10.9467, -86.2321, 6.91384
0.148, -1, -12.8726, 43.1833, 12.7734, -10.854, -86.1236, 6.84454
0.152, -1, -12.8155, 43.132, 12.7932, -10.7555, -86.0082, 6.77084
0.156, -1, -12.7557, 43.0781, 12.8139, -10.6514, -85.8863, 6.69301
0.16, -1, -12.6932, 43.0219, 12.8355, -10.5422, -85.7585, 6.61137
0.164, -1, -12.6282, 42.9633, 12.8581, -10.4284, -85.6253, 6.52627
0.168, -1, -12.5607, 42.9025, 12.8815, -10.3105, -85.4872, 6.43809
0.172, -1, -12.4909, 42.8396, 12.9056, -10.189, -85.3449, 6.34721
0.176, -1, -12.4189, 42.7749, 12.9305, -10.0644, -85.1989, 6.25399
0.18, -1, -12.345, 42.7085, 12.956, -9.93711, -85.0499, 6.15879
0.184, -1, -12.2694, 42.6406, 12.9821, -9.80765, -84.8983, 6.06194
0.188, -1, -12.1925, 42.5714, 13.0086, -9.6764, -84.7446, 5.96375
0.192, -1, -12.1142, 42.5011, 13.0356, -9.54373, -84.5892, 5.86449
0.196, -1, -12.0348, 42.4297, 13.0629, -9.40995, -84.4326, 5.76439
0.2, -1, -11.9542, 42.3573, 13.0906, -9.27534, -84.2749, 5.66366
0.204, -1, -11.8724, 42.2841, 13.1185, -9.14011, -84.1166, 5.56246
0.208, -1, -11.7897, 42.21, 13.1466, -9.00443, -83.9577, 5.46092
0.212, -1, -11.7061, 42.1354, 13.1749, -8.86843, -83.7985, 5.35913
0.216, -1, -11.6218, 42.0602, 13.2033, -8.7322, -83.6389, 5.25717
0.22, -1, -11.5371, 41.9847, 13.2318, -8.5958, -83.4792, 5.15507
0.224, -1, -11.452, 41.909, 13.2603, -8.45928, -83.3194, 5.05288
0.228, -1, -11.3667, 41.8332, 13.2889, -8.32266, -83.1594, 4.95062
0.232, -1, -11.2813, 41.7572, 13.3176, -8.18597, -82.9993, 4.8483
0.236, -1, -11.1957, 41.6811, 13.3462, -8.04922, -82.8392, 4.74595
0.24, -1, -11.11, 41.605, 13.3749, -7.91243, -82.679, 4.64355
0.244, -1, -11.0243, 41.5288, 13.4035, -7.77561, -82.5188, 4.54114
0.248, -1, -10.9386, 41.4526, 13.4322, -7.63876, -82.3586, 4.4387
0.252, -1, -10.8528, 41.3764, 13.4609, -7.50189, -82.1983, 4.33625
0.256, -1, -10.767, 41.3002, 13.4896, -7.36501, -82.0381, 4.2338
0.26, -1, -10.6811, 41.2239, 13.5183, -7.22813, -81.8778, 4.13133
0.264, -1, -10.5953, 41.1477, 13.547, -7.09125, -81.7175, 4.02887
0.268, -1, -10.5094, 41.0714, 13.5757, -6.95436, -81.5572, 3.92641
0.272, -1, -10.4236, 40.9952, 13.6044, -6.81749, -81.397, 3.82396
0.276, -1, -10.3378, 40.9189, 13.6331, -6.68063, -81.2367, 3.72151
0.28, -1, -10.252, 40.8427, 13.6618, -6.54379, -81.0765, 3.61908
0.284, -1, -10.1661, 40.7665, 13.6904, -6.40697, -80.9163, 3.51666
0.288, -1, -10.0803, 40.6903, 13.7191, -6.27017, -80.7561, 3.41427
0.292, -1, -9.99456, 40.6141, 13.7478, -6.13341, -80.596, 3.31189
0.296, -1, -9.9088, 40.538, 13.7764, -5.99668, -80.4359, 3.20955
0.3, -1, -9.82306, 40.4618, 13.8051, -5.85999, -80.2758, 3.10723
0.304, -1, -9.73734, 40.3857, 13.8337, -5.72334, -80.1158, 3.00494
0.308, -1, -9.65166, 40.3096, 13.8624, -5.58674, -79.9558, 2.90269
0.312, -1, -9.566, 40.2336, 13.891, -5.45019, -79.796, 2.80048
0.316, -1, -9.48038, 40.1575, 13.9196, -5.31369, -79.6361, 2.69831
0.32, -1, -9.3948, 40.0815, 13.9482, -5.17726, -79.4764, 2.59618
0.324, -1, -9.30925, 40.0055, 13.9768, -5.04089, -79.3167, 2.4941
0.328, -1, -9.22375, 39.9296, 14.0054, -4.90458, -79.1571, 2.39207
0.332, -1, -9.13829, 39.8537, 14.0339, -4.76835, -78.9976, 2.2901
0.336, -1, -9.05287, 39.7778, 14.0625, -4.63219, -78.8382, 2.18818
0.34, -1, -8.9675, 39.702, 14.091, -4.49612, -78.6788, 2.08632
0.344, -1, -8.88219, 39.6262, 14.1195, -4.36012, -78.5196, 1.98452
0.348, -1, -8.79692, 39.5505, 14.148, -4.22421, -78.3604, 1.88279
0.352, -1, -8.71172, 39.4748, 14.1765, -4.0884, -78.2014, 1.78113
0.356, -1, -8.62657, 39.3992, 14.2049, -3.95267, -78.0425, 1.67953
0.36, -1, -8.54148, 39.3236, 14.2334, -3.81705, -77.8837, 1.57801
0.364, -1, -8.45646, 39.2481, 14.2618, -3.68152, -77.725, 1.47657
0.368, -1, -8.3715, 39.1727, 14.2902, -3.54611, -77.5664, 1.3752
0.372, -1, -8.28661, 39.0973, 14.3185, -3.4108, -77.408, 1.27392
0.376, -1, -8.20179, 39.0219, 14.3469, -3.2756, -77.2497, 1.17272
0.38, -1, -8.11704, 38.9467, 14.3752, -3.14052, -77.0915, 1.07161
0.384, -1, -8.03237, 38.8715, 14.4035, -3.00557, -76.9335, 0.970588
0.388, -1, -7.94777, 38.7963, 14.4318, -2.87073, -76.7756, 0.869659
0.392, -1, -7.86325, 38.7212, 14.46, -2.73602, -76.6179, 0.768825
0.396, -1, -7.77881, 38.6463, 14.4882, -2.60145, -76.4603, 0.668089
0.4, -1, -7.69446, 38.5713, 14.5164, -2.467, -76.3029, 0.567454
0.404, -1, -7.61019, 38.4965, 14.5446, -2.3327, -76.1456, 0.466921
0.408, -1, -7.526, 38.4217, 14.5727, -2.19854, -75.9885, 0.366494
0.412, -1, -7.44191, 38.347, 14.6008, -2.06452, -75.8316, 0.266176
0.416, -1, -7.35791, 38.2724, 14.6288, -1.93064, -75.6748, 0.165968
0.42, -1, -7.274, 38.1979, 14.6569, -1.79692, -75.5183, 0.0658724
0.424, -1, -7.19019, 38.1235, 14.6849, -1.66336, -75.3619, -0.0341072
0.428, -1, -7.10648, 38.0491, 14.7128, -1.52995, -75.2057, -0.133969
0.432, -1, -7.02287, 37.9748, 14.7408, -1.3967, -75.0496, -0.233711
0.436, -1, -6.93935, 37.9007, 14.7687, -1.26362, -74.8938, -0.33333
0.44, -1, -6.85595, 37.8266, 14.7965, -1.1307, -74.7382, -0.432824
0.444, -1, -6.77264, 37.7526, 14.8244, -0.99795, -74.5827, -0.532191
0.448, -1, -6.68945, 37.6787, 14.8522, -0.865375, -74.4275, -0.631429
0.452, -1, -6.60636, 37.6049, 14.8799, -0.732975, -74.2725, -0.730535
0.456, -1, -6.52339, 37.5312, 14.9077, -0.600755, -74.1176, -0.829507
0.46, -1, -6.44053, 37.4576, 14.9353, -0.468716, -73.963, -0.928344
0.464, -1, -6.35778, 37.3842, 14.963, -0.336861, -73.8086, -1.02704
0.468, -1, -6.27515, 37.3108, 14.9906, -0.205193, -73.6545, -1.1256
0.472, -1, -6.19264, 37.2375, 15.0181, -0.0737153, -73.5005, -1.22402
0.476, -1, -6.11024, 37.1643, 15.0457, 0.0575699, -73.3468, -1.32229
0.48, -1, -6.02797, 37.0912, 15.0732, 0.18866, -73.1933, -1.42042
0.484, -1, -5.94582, 37.0183, 15.1006, 0.319552, -73.04, -1.51839
0.488, -1, -5.8638, 36.9454, 15.128, 0.450244, -72.887, -1.61622
0.492, -1, -5.7819, 36.8727, 15.1554, 0.580734, -72.7342, -1.7139
0.496, -1, -5.70012, 36.8001, 15.1827, 0.711018, -72.5817, -1.81142
0.5, -1, -5.61848, 36.7276, 15.2099, 0.841096, -72.4294, -1.90879
0.504, -1, -5.53697, 36.6552, 15.2372, 0.970964, -72.2773, -2.006
0.508, -1, -5.45558, 36.5829, 15.2644, 1.10062, -72.1255, -2.10306
0.512, -1, -5.37433, 36.5108, 15.2915, 1.23006, -71.9739, -2.19995
0.516, -1, -5.29321, 36.4387, 15.3186, 1.35929, -71.8226, -2.29668
0.52, -1, -5.21223, 36.3668, 15.3456, 1.4883, -71.6715, -2.39325
0.524, -1, -5.13138, 36.295, 15.3726, 1.6171, -71.5207, -2.48966
0.528, -1, -5.05067, 36.2233, 15.3996, 1.74567, -71.3702, -2.5859
0.532, -1, -4.97009, 36.1518, 15.4265, 1.87402, -71.2199, -2.68198
0.536, -1, -4.88966, 36.0803, 15.4534, 2.00215, -71.0698, -2.77789
0.54, -1, -4.80936, 36.009, 15.4802, 2.13005, -70.9201, -2.87363
0.544, -1, -4.7292, 35.9378, 15.507, 2.25773, -70.7706, -2.9692
0.548, -1, -4.64919, 35.8668, 15.5337, 2.38518, -70.6213, -3.0646
0.552, -1, -4.56931, 35.7959, 15.5604, 2.51241, -70.4724, -3.15984
0.556, -1, -4.48958, 35.725, 15.587, 2.6394, -70.3237, -3.2549
0.56, -1, -4.41, 35.6544, 15.6136, 2.76617, -70.1752, -3.34979
0.564, -1, -4.33056, 35.5838, 15.6401, 2.8927, -70.0271, -3.44451
0.568, -1, -4.25126, 35.5134, 15.6666, 3.01901, -69.8792, -3.53905
0.572, -1, -4.17211, 35.4431, 15.693, 3.14508, -69.7316, -3.63342
0.576, -1, -4.0931, 35.373, 15.7194, 3.27092, -69.5842, -3.72761
0.58, -1, -4.01424, 35.3029, 15.7458, 3.39652, -69.4372, -3.82163
0.584, -1, -3.93553, 35.233, 15.772, 3.52189, -69.2904, -3.91547
0.588, -1, -3.85696, 35.1633, 15.7983, 3.64702, -69.1438, -4.00914
0.592, -1, -3.77855, 35.0936, 15.8245, 3.77191, -68.9976, -4.10263
0.596, -1, -3.70028, 35.0241, 15.8506, 3.89657, -68.8516, -4.19594
0.6, -1, -3.62216, 34.9548, 15.8767, 4.02099, -68.7059, -4.28908
0.604, -1, -3.54419, 34.8855, 15.9027, 4.14517, -68.5605, -4.38203
0.608, -1, -3.46637, 34.8164, 15.9287, 4.26911, -68.4154, -4.47481
0.612, -1, -3.3887, 34.7474, 15.9547, 4.39281, -68.2706, -4.5674
0.616, -1, -3.31118, 34.6786, 15.9806, 4.51628, -68.126, -4.65982
0.62, -1, -3.23382, 34.6099, 16.0064, 4.63949, -67.9817, -4.75205
0.624, -1, -3.1566, 34.5413, 16.0322, 4.76247, -67.8377, -4.84411
0.628, -1, -3.07954, 34.4729, 16.0579, 4.88521, -67.694, -4.93598
0.632, -1, -3.00262, 34.4046, 16.0836, 5.0077, -67.5506, -5.02767
0.636, -1, -2.92586, 34.3364, 16.1092, 5.12995, -67.4074, -5.11918
0.64, -1, -2.84926, 34.2684, 16.1348, 5.25195, -67.2646, -5.2105
0.644, -1, -2.7728, 34.2005, 16.1604, 5.37371, -67.122, -5.30165
0.648, -1, -2.6965, 34.1328, 16.1858, 5.49523, -66.9797, -5.39261
0.652, -1, -2.62035, 34.0652, 16.2113, 5.6165, -66.8377, -5.48338
0.656, -1, -2.54436, 33.9977, 16.2366, 5.73753, -66.696, -5.57398
0.66, -1, -2.46852, 33.9303, 16.262, 5.85831, -66.5546, -5.66439
0.664, -1, -2.39283, 33.8631, 16.2872, 5.97884, -66.4135, -5.75461
0.668, -1, -2.3173, 33.7961, 16.3125, 6.09913, -66.2726, -5.84465
0.672, -1, -2.24192, 33.7291, 16.3376, 6.21917, -66.1321, -5.93451
0.676, -1, -2.1667, 33.6623, 16.3628, 6.33897, -65.9918, -6.02418
0.68, -1, -2.09163, 33.5957, 16.3878, 6.45851, -65.8518, -6.11367
0.684, -1, -2.01672, 33.5292, 16.4129, 6.57781, -65.7121, -6.20297
0.688, -1, -1.94196, 33.4628, 16.4378, 6.69687, -65.5727, -6.29208
0.692, -1, -1.86736, 33.3965, 16.4627, 6.81567, -65.4336, -6.38101
0.696, -1, -1.79291, 33.3304, 16.4876, 6.93423, -65.2948, -6.46976
0.7, -1, -1.71862, 33.2645, 16.5124, 7.05254, -65.1562, -6.55832
0.704, -1, -1.64448, 33.1986, 16.5372, 7.1706, -65.018, -6.64669
0.708, -1, -1.5705, 33.1329, 16.5619, 7.28841, -64.8801, -6.73488
0.712, -1, -1.49668, 33.0674, 16.5865, 7.40597, -64.7424, -6.82288
0.716, -1, -1.42301, 33.002, 16.6111, 7.52329, -64.605, -6.9107
0.72, -1, -1.34949, 32.9367, 16.6357, 7.64036, -64.468, -6.99833
0.724, -1, -1.27614, 32.8715, 16.6602, 7.75718, -64.3312, -7.08577
0.728, -1, -1.20293, 32.8065, 16.6846, 7.87375, -64.1947, -7.17303
0.732, -1, -1.12989, 32.7417, 16.709, 7.99007, -64.0585, -7.2601
0.736, -1, -1.057, 32.677, 16.7333, 8.10615, -63.9226, -7.34699
0.74, -1, -0.984259, 32.6124, 16.7576, 8.22197, -63.7869, -7.43369
0.744, -1, -0.911678, 32.5479, 16.7819, 8.33755, -63.6516, -7.52021
0.748, -1, -0.839252, 32.4836, 16.8061, 8.45288, -63.5166, -7.60653
0.752, -1, -0.766981, 32.4194, 16.8302, 8.56796, -63.3818, -7.69268
0.756, -1, -0.694864, 32.3554, 16.8543, 8.6828, -63.2474, -7.77864
0.76, -1, -0.622901, 32.2915, 16.8783, 8.79738, -63.1132, -7.86441
0.764, -1, -0.551092, 32.2277, 16.9023, 8.91172, -62.9793, -7.95
0.768, -1, -0.479437, 32.1641, 16.9262, 9.02582, -62.8457, -8.0354
0.772, -1, -0.407935, 32.1006, 16.9501, 9.13966, -62.7124, -8.12062
0.776, -1, -0.336586, 32.0373, 16.9739, 9.25326, -62.5794, -8.20566
0.78, -1, -0.26539, 31.9741, 16.9977, 9.36662, -62.4467, -8.29051
0.784, -1, -0.194346, 31.911, 17.0214, 9.47973, -62.3142, -8.37518
0.788, -1, -0.123455, 31.848, 17.0451, 9.5926, -62.182, -8.45966
0.792, -1, -0.0527154, 31.7852, 17.0687, 9.70522, -62.0502, -8.54397
0.796, -1, 0.0178725, 31.7226, 17.0923, 9.81761, -61.9186, -8.62809
0.8, -1, 0.0883091, 31.66, 17.1158, 9.92975, -61.7873, -8.71204
0.804, -1, 0.158595, 31.5976, 17.1393, 10.0417, -61.6562, -8.7958
0.808, -1, 0.22873, 31.5353, 17.1627, 10.1533, -61.5255, -8.87938
0.812, -1, 0.298716, 31.4732, 17.186, 10.2647, -61.395, -8.96279
0.816, -1, 0.368552, 31.4112, 17.2094, 10.3759, -61.2648, -9.04602
0.82, -1, 0.438239, 31.3493, 17.2326, 10.4869, -61.1349, -9.12907
0.824, -1, 0.507778, 31.2876, 17.2559, 10.5976, -61.0053, -9.21194
0.828, -1, 0.577169, 31.226, 17.279, 10.7081, -60.8759, -9.29464
0.832, -1, 0.646413, 31.1645, 17.3021, 10.8183, -60.7468, -9.37716
0.836, -1, 0.71551, 31.1031, 17.3252, 10.9283, -60.618, -9.45951
0.84, -1, 0.78446, 31.0419, 17.3482, 11.0381, -60.4895, -9.54168
0.844, -1, 0.853265, 30.9808, 17.3712, 11.1476, -60.3612, -9.62368
0.848, -1, 0.921925, 30.9199, 17.3941, 11.2569, -60.2332, -9.7055
0.852, -1, 0.990441, 30.859, 17.417, 11.366, -60.1055, -9.78716
0.856, -1, 1.05881, 30.7983, 17.4398, 11.4749, -59.9781, -9.86864
0.86, -1, 1.12704, 30.7378, 17.4626, 11.5835, -59.8509, -9.94995
0.864, -1, 1.19512, 30.6773, 17.4854, 11.6919, -59.7239, -10.0311
0.868, -1, 1.26307, 30.617, 17.508, 11.8001, -59.5973, -10.1121
0.872, -1, 1.33087, 30.5568, 17.5307, 11.908, -59.4709, -10.1929
0.876, -1, 1.39853, 30.4967, 17.5533, 12.0157, -59.3448, -10.2735
0.88, -1, 1.46604, 30.4368, 17.5758, 12.1232, -59.2189, -10.354
0.884, -1, 1.53342, 30.377, 17.5983, 12.2305, -59.0933, -10.4343
0.888, -1, 1.60066, 30.3173, 17.6208, 12.3375, -58.9679, -10.5144
0.892, -1, 1.66775, 30.2577, 17.6432, 12.4444, -58.8429, -10.5943
0.896, -1, 1.73471, 30.1982, 17.6655, 12.551, -58.718, -10.6741
0.9, -1, 1.80153, 30.1389, 17.6878, 12.6574, -58.5935, -10.7538
0.904, -1, 1.86821, 30.0797, 17.7101, 12.7635, -58.4692, -10.8332
0.908, -1, 1.93476, 30.0206, 17.7323, 12.8695, -58.3451, -10.9125
0.912, -1, 2.00117, 29.9617, 17.7545, 12.9752, -58.2213, -10.9917
0.916, -1, 2.06744, 29.9028, 17.7766, 13.0807, -58.0978, -11.0707
0.92, -1, 2.13357, 29.8441, 17.7987, 13.186, -57.9745, -11.1495
0.924, -1, 2.19957, 29.7855, 17.8207, 13.2911, -57.8514, -11.2281
0.928, -1, 2.26543, 29.727, 17.8427, 13.3959, -57.7287, -11.3066
0.932, -1, 2.33116, 29.6687, 17.8647, 13.5006, -57.6061, -11.385
0.936, -1, 2.39676, 29.6104, 17.8866, 13.605, -57.4838, -11.4631
0.94, -1, 2.46222, 29.5523, 17.9084, 13.7092, -57.3618, -11.5412
0.944, -1, 2.52755, 29.4943, 17.9303, 13.8133, -57.24, -11.619
0.948, -1, 2.59275, 29.4364, 17.952, 13.9171, -57.1185, -11.6967
0.952, -1, 2.65781, 29.3787, 17.9738, 14.0206, -56.9972, -11.7743
0.956, -1, 2.72274, 29.321, 17.9954, 14.124, -56.8761, -11.8516
0.96, -1, 2.78755, 29.2635, 18.0171, 14.2272, -56.7553, -11.9289
0.964, -1, 2.85222, 29.2061, 18.0387, 14.3302, -56.6348, -12.0059
0.968, -1, 2.91676, 29.1488, 18.0602, 14.4329, -56.5144, -12.0829
0.972, -1, 2.98117, 29.0916, 18.0817, 14.5355, -56.3944, -12.1596
0.976, -1, 3.04545, 29.0345, 18.1032, 14.6378, -56.2745, -12.2362
0.98, -1, 3.10961, 28.9775, 18.1246, 14.7399, -56.1549, -12.3127
0.984, -1, 3.17363, 28.9207, 18.146, 14.8419, -56.0356, -12.389
0.988, -1, 3.23753, 28.864, 18.1673, 14.9436, -55.9165, -12.4651
0.992, -1, 3.3013, 28.8074, 18.1886, 15.0451, -55.7976, -12.5411
0.996, -1, 3.36494, 28.7508, 18.2099, 15.1465, -55.6789, -12.617
1, -1, 3.42846, 28.6945, 18.2311, 15.2476, -55.5605, -12.6927
1.004, -1, 3.49185, 28.6382, 18.2523, 15.3485, -55.4423, -12.7682
1.008, -1, 3.55512, 28.582, 18.2734, 15.4492, -55.3244, -12.8436
1.012, -1, 3.61826, 28.5259, 18.2945, 15.5498, -55.2067, -12.9189
1.016, -1, 3.68127, 28.47, 18.3155, 15.6501, -55.0892, -12.994
1.02, -1, 3.74416, 28.4142, 18.3365, 15.7502, -54.972, -13.0689
1.024, -1, 3.80693, 28.3584, 18.3575, 15.8502, -54.855, -13.1437
1.027, -1, 3.86958, 28.3028, 18.3784, 15.9499, -54.7382, -13.2184
1.032, -1, 3.9321, 28.2473, 18.3993, 16.0494, -54.6216, -13.2929
1.036, -1, 3.9945, 28.1919, 18.4201, 16.1488, -54.5053, -13.3673
1.04, -1, 4.05678, 28.1366, 18.4409, 16.2479, -54.3892, -13.4415
1.044, -1, 4.11893, 28.0814, 18.4616, 16.3469, -54.2733, -13.5156
1.048, -1, 4.18097, 28.0263, 18.4824, 16.4457, -54.1577, -13.5895
1.052, -1, 4.24289, 27.9714, 18.503, 16.5442, -54.0422, -13.6633
1.055, -1, 4.30468, 27.9165, 18.5237, 16.6426, -53.927, -13.7369
1.06, -1, 4.36636, 27.8617, 18.5443, 16.7408, -53.8121, -13.8104
1.064, -1, 4.42792, 27.8071, 18.5648, 16.8388, -53.6973, -13.8838
1.068, -1, 4.48936, 27.7525, 18.5853, 16.9366, -53.5828, -13.957
1.072, -1, 4.55068, 27.6981, 18.6058, 17.0343, -53.4685, -14.0301
1.076, -1, 4.61188, 27.6438, 18.6262, 17.1317, -53.3544, -14.103
1.08, -1, 4.67297, 27.5895, 18.6466, 17.229, -53.2405, -14.1758
1.084, -1, 4.73394, 27.5354, 18.667, 17.326, -53.1268, -14.2485
1.088, -1, 4.7948, 27.4814, 18.6873, 17.4229, -53.0134, -14.321
1.091, -1, 4.85554, 27.4274, 18.7076, 17.5196, -52.9002, -14.3934
1.096, -1, 4.91617, 27.3736, 18.7278, 17.6161, -52.7871, -14.4656
1.1, -1, 4.97668, 27.3199, 18.7481, 17.7125, -52.6743, -14.5378
1.104, -1, 5.03708, 27.2663, 18.7682, 17.8086, -52.5618, -14.6097
1.108, -1, 5.09737, 27.2127, 18.7883, 17.9046, -52.4494, -14.6816
1.112, -1, 5.15754, 27.1593, 18.8084, 18.0004, -52.3372, -14.7533
1.116, -1, 5.2176, 27.106, 18.8285, 18.096, -52.2253, -14.8249
1.119, -1, 5.27755, 27.0528, 18.8485, 18.1915, -52.1135, -14.8963
1.124, -1, 5.33739, 26.9996, 18.8685, 18.2867, -52.0019, -14.9676
1.128, -1, 5.39712, 26.9466, 18.8884, 18.3818, -51.8906, -15.0388
1.132, -1, 5.45673, 26.8937, 18.9083, 18.4767, -51.7795, -15.1098
1.136, -1, 5.51624, 26.8408, 18.9282, 18.5715, -51.6685, -15.1807
1.14, -1, 5.57564, 26.7881, 18.948, 18.666, -51.5578, -15.2515
1.144, -1, 5.63493, 26.7355, 18.9678, 18.7604, -51.4473, -15.3222
1.147, -1, 5.69412, 26.6829, 18.9876, 18.8547, -51.337, -15.3927
1.152, -1, 5.75319, 26.6305, 19.0073, 18.9487, -51.2268, -15.4631
1.156, -1, 5.81216, 26.5781, 19.027, 19.0426, -51.1169, -15.5334
1.16, -1, 5.87103, 26.5259, 19.0467, 19.1363, -51.0072, -15.6035
1.164, -1, 5.92979, 26.4737, 19.0663, 19.2298, -50.8976, -15.6736
1.168, -1, 5.98844, 26.4216, 19.0859, 19.3232, -50.7883, -15.7435
1.172, -1, 6.04699, 26.3696, 19.1054, 19.4164, -50.6792, -15.8132
1.175, -1, 6.10543, 26.3177, 19.1249, 19.5095, -50.5702, -15.8829
1.18, -1, 6.16377, 26.266, 19.1444, 19.6024, -50.4614, -15.9524
1.184, -1, 6.22201, 26.2142, 19.1639, 19.6951, -50.3529, -16.0218
1.188, -1, 6.28015, 26.1626, 19.1833, 19.7876, -50.2445, -16.0911
1.192, -1, 6.33818, 26.1111, 19.2027, 19.88, -50.1363, -16.1603
1.196, -1, 6.39611, 26.0597, 19.222, 19.9723, -50.0283, -16.2293
1.2, -1, 6.45394, 26.0083, 19.2413, 20.0643, -49.9205, -16.2982
1.204, -1, 6.51167, 25.9571, 19.2606, 20.1562, -49.8129, -16.367
1.208, -1, 6.5693, 25.9059, 19.2798, 20.248, -49.7055, -16.4357
1.212, -1, 6.62683, 25.8548, 19.299, 20.3396, -49.5982, -16.5042
1.216, -1, 6.68426, 25.8038, 19.3182, 20.431, -49.4912, -16.5727
1.22, -1, 6.74159, 25.7529, 19.3374, 20.5223, -49.3843, -16.641
1.224, -1, 6.79882, 25.7021, 19.3565, 20.6134, -49.2776, -16.7092
1.228, -1, 6.85596, 25.6514, 19.3756, 20.7044, -49.1711, -16.7773
1.232, -1, 6.91299, 25.6008, 19.3946, 20.7952, -49.0648, -16.8453
1.236, -1, 6.96993, 25.5502, 19.4136, 20.8858, -48.9586, -16.9131
1.24, -1, 7.02678, 25.4997, 19.4326, 20.9763, -48.8526, -16.9809
1.244, -1, 7.08352, 25.4494, 19.4515, 21.0667, -48.7469, -17.0485
1.248, -1, 7.14018, 25.3991, 19.4705, 21.1569, -48.6413, -17.116
1.252, -1, 7.19673, 25.3488, 19.4893, 21.2469, -48.5358, -17.1834
1.256, -1, 7.25319, 25.2987, 19.5082, 21.3368, -48.4306, -17.2507
1.26, -1, 7.30956, 25.2487, 19.527, 21.4266, -48.3255, -17.3179
1.264, -1, 7.36583, 25.1987, 19.5458, 21.5161, -48.2206, -17.385
1.267, -1, 7.42201, 25.1488, 19.5646, 21.6056, -48.1158, -17.4519
1.272, -1, 7.4781, 25.099, 19.5833, 21.6949, -48.0113, -17.5188
1.276, -1, 7.53409, 25.0493, 19.602, 21.784, -47.9069, -17.5855
1.28, -1, 7.58999, 24.9997, 19.6207, 21.873, -47.8027, -17.6521
1.284, -1, 7.6458, 24.9501, 19.6393, 21.9619, -47.6986, -17.7186
1.288, -1, 7.70152, 24.9007, 19.6579, 22.0506, -47.5948, -17.785
1.292, -1, 7.75715, 24.8513, 19.6765, 22.1392, -47.4911, -17.8513
1.295, -1, 7.81268, 24.802, 19.695, 22.2276, -47.3875, -17.9175
1.3, -1, 7.86813, 24.7528, 19.7135, 22.3159, -47.2842, -17.9836
1.304, -1, 7.92348, 24.7036, 19.732, 22.404, -47.181, -18.0496
1.308, -1, 7.97875, 24.6545, 19.7505, 22.492, -47.0779, -18.1154
1.312, -1, 8.03393, 24.6055, 19.7689, 22.5798, -46.9751, -18.1812
1.316, -1, 8.08901, 24.5566, 19.7873, 22.6675, -46.8724, -18.2468
1.32, -1, 8.14401, 24.5078, 19.8057, 22.7551, -46.7699, -18.3124
1.324, -1, 8.19893, 24.4591, 19.824, 22.8425, -46.6675, -18.3778
1.328, -1, 8.25375, 24.4104, 19.8423, 22.9298, -46.5653, -18.4432
1.332, -1, 8.30849, 24.3618, 19.8606, 23.017, -46.4632, -18.5084
1.336, -1, 8.36314, 24.3133, 19.8788, 23.104, -46.3614, -18.5735
1.34, -1, 8.4177, 24.2648, 19.8971, 23.1909, -46.2596, -18.6386
1.344, -1, 8.47218, 24.2165, 19.9153, 23.2776, -46.1581, -18.7035
1.348, -1, 8.52657, 24.1682, 19.9334, 23.3642, -46.0567, -18.7683
1.352, -1, 8.58088, 24.1199, 19.9515, 23.4507, -45.9554, -18.833
1.356, -1, 8.6351, 24.0718, 19.9697, 23.537, -45.8543, -18.8976
1.36, -1, 8.68923, 24.0237, 19.9877, 23.6232, -45.7534, -18.9622
1.364, -1, 8.74328, 23.9757, 20.0058, 23.7092, -45.6526, -19.0266
1.368, -1, 8.79725, 23.9278, 20.0238, 23.7952, -45.552, -19.0909
1.372, -1, 8.85114, 23.88, 20.0418, 23.881, -45.4516, -19.1551
1.376, -1, 8.90494, 23.8322, 20.0598, 23.9666, -45.3513, -19.2192
1.38, -1, 8.95866, 23.7845, 20.0777, 24.0521, -45.2511, -19.2833
1.384, -1, 9.01229, 23.7369, 20.0956, 24.1375, -45.1511, -19.3472
1.388, -1, 9.06584, 23.6894, 20.1135, 24.2228, -45.0513, -19.411
1.392, -1, 9.11932, 23.6419, 20.1314, 24.3079, -44.9516, -19.4747
1.396, -1, 9.1727, 23.5945, 20.1492, 24.393, -44.8521, -19.5384
1.4, -1, 9.22601, 23.5472, 20.167, 24.4778, -44.7527, -19.6019
1.404, -1, 9.27924, 23.4999, 20.1848, 24.5626, -44.6535, -19.6653
1.408, -1, 9.33239, 23.4527, 20.2025, 24.6472, -44.5544, -19.7287
1.412, -1, 9.38546, 23.4056, 20.2202, 24.7317, -44.4554, -19.7919
1.416, -1, 9.43844, 23.3585, 20.2379, 24.8161, -44.3567, -19.8551
1.42, -1, 9.49135, 23.3116, 20.2556, 24.9003, -44.258, -19.9181
1.424, -1, 9.54418, 23.2647, 20.2732, 24.9844, -44.1595, -19.9811
1.428, -1, 9.59693, 23.2178, 20.2908, 25.0684, -44.0612, -20.044
1.432, -1, 9.6496, 23.1711, 20.3084, 25.1523, -43.963, -20.1067
1.436, -1, 9.7022, 23.1244, 20.326, 25.236, -43.865, -20.1694
1.44, -1, 9.75472, 23.0777, 20.3435, 25.3196, -43.767, -20.232
1.444, -1, 9.80716, 23.0312, 20.361, 25.4031, -43.6693, -20.2945
1.448, -1, 9.85952, 22.9847, 20.3785, 25.4865, -43.5717, -20.3569
1.452, -1, 9.91181, 22.9383, 20.396, 25.5697, -43.4742, -20.4192
1.456, -1, 9.96403, 22.8919, 20.4134, 25.6528, -43.3769, -20.4814
1.46, -1, 10.0162, 22.8456, 20.4308, 25.7358, -43.2797, -20.5436
1.464, -1, 10.0682, 22.7994, 20.4482, 25.8187, -43.1826, -20.6056
1.468, -1, 10.1202, 22.7533, 20.4656, 25.9015, -43.0857, -20.6676
1.472, -1, 10.1721, 22.7072, 20.4829, 25.9841, -42.989, -20.7294
1.476, -1, 10.224, 22.6612, 20.5002, 26.0666, -42.8923, -20.7912
1.48, -1, 10.2757, 22.6152, 20.5175, 26.149, -42.7958, -20.8529
1.484, -1, 10.3274, 22.5693, 20.5348, 26.2313, -42.6995, -20.9145
1.488, -1, 10.379, 22.5235, 20.552, 26.3135, -42.6033, -20.976
1.492, -1, 10.4306, 22.4777, 20.5692, 26.3956, -42.5072, -21.0374
1.496, -1, 10.482, 22.432, 20.5864, 26.4775, -42.4113, -21.0987
1.5, -1, 10.5334, 22.3864, 20.6035, 26.5593, -42.3154, -21.16
1.504, -1, 10.5848, 22.3408, 20.6207, 26.641, -42.2198, -21.2212
1.508, -1, 10.636, 22.2953, 20.6378, 26.7226, -42.1242, -21.2822
1.512, -1, 10.6872, 22.2499, 20.6549, 26.8041, -42.0288, -21.3432
1.516, -1, 10.7383, 22.2045, 20.6719, 26.8855, -41.9336, -21.4041
1.52, -1, 10.7893, 22.1592, 20.689, 26.9667, -41.8384, -21.4649
1.524, -1, 10.8403, 22.114, 20.706, 27.0479, -41.7434, -21.5257
1.528, -1, 10.8912, 22.0688, 20.723, 27.1289, -41.6485, -21.5863
1.532, -1, 10.942, 22.0237, 20.74, 27.2098, -41.5538, -21.6469
1.536, -1, 10.9928, 21.9786, 20.7569, 27.2906, -41.4592, -21.7074
1.54, -1, 11.0435, 21.9336, 20.7738, 27.3713, -41.3647, -21.7678
1.544, -1, 11.0941, 21.8887, 20.7908, 27.4519, -41.2703, -21.8281
1.548, -1, 11.1446, 21.8438, 20.8076, 27.5324, -41.1761, -21.8884
1.552, -1, 11.1951, 21.799, 20.8245, 27.6127, -41.082, -21.9485
1.556, -1, 11.2455, 21.7542, 20.8413, 27.693, -40.988, -22.0086
1.56, -1, 11.2959, 21.7095, 20.8581, 27.7732, -40.8941, -22.0686
1.564, -1, 11.3462, 21.6649, 20.8749, 27.8532, -40.8004, -22.1285
1.568, -1, 11.3964, 21.6203, 20.8917, 27.9331, -40.7068, -22.1884
1.572, -1, 11.4465, 21.5758, 20.9084, 28.013, -40.6133, -22.2481
1.576, -1, 11.4966, 21.5313, 20.9251, 28.0927, -40.52, -22.3078
1.58, -1, 11.5466, 21.4869, 20.9418, 28.1723, -40.4268, -22.3674
1.584, -1, 11.5965, 21.4426, 20.9585, 28.2518, -40.3336, -22.4269
1.588, -1, 11.6464, 21.3983, 20.9752, 28.3313, -40.2407, -22.4864
1.592, -1, 11.6962, 21.3541, 20.9918, 28.4106, -40.1478, -22.5457
1.596, -1, 11.746, 21.3099, 21.0084, 28.4898, -40.0551, -22.605
1.6, -1, 11.7957, 21.2658, 21.025, 28.5689, -39.9624, -22.6642
1.604, -1, 11.8453, 21.2217, 21.0416, 28.6479, -39.8699, -22.7234
1.608, -1, 11.8948, 21.1778, 21.0581, 28.7268, -39.7776, -22.7824
1.612, -1, 11.9443, 21.1338, 21.0747, 28.8055, -39.6853, -22.8414
1.616, -1, 11.9938, 21.0899, 21.0912, 28.8842, -39.5932, -22.9003
1.62, -1, 12.0431, 21.0461, 21.1076, 28.9628, -39.5011, -22.9591
1.624, -1, 12.0924, 21.0023, 21.1241, 29.0413, -39.4092, -23.0179
1.628, -1, 12.1417, 20.9586, 21.1405, 29.1197, -39.3174, -23.0765
1.632, -1, 12.1908, 20.915, 21.157, 29.198, -39.2258, -23.1352
1.636, -1, 12.2399, 20.8714, 21.1734, 29.2762, -39.1342, -23.1937
1.64, -1, 12.289, 20.8278, 21.1897, 29.3543, -39.0428, -23.2521
1.644, -1, 12.338, 20.7843, 21.2061, 29.4323, -38.9515, -23.3105
1.648, -1, 12.3869, 20.7409, 21.2224, 29.5102, -38.8603, -23.3688
1.652, -1, 12.4358, 20.6975, 21.2388, 29.588, -38.7692, -23.4271
1.656, -1, 12.4846, 20.6542, 21.2551, 29.6657, -38.6782, -23.4852
1.66, -1, 12.5333, 20.6109, 21.2713, 29.7433, -38.5873, -23.5433
1.664, -1, 12.582, 20.5677, 21.2876, 29.8208, -38.4966, -23.6013
1.668, -1, 12.6306, 20.5245, 21.3038, 29.8982, -38.4059, -23.6593
1.672, -1, 12.6792, 20.4814, 21.32, 29.9755, -38.3154, -23.7171
1.676, -1, 12.7277, 20.4384, 21.3362, 30.0527, -38.225, -23.7749
1.68, -1, 12.7761, 20.3953, 21.3524, 30.1298, -38.1347, -23.8327
1.684, -1, 12.8245, 20.3524, 21.3686, 30.2069, -38.0445, -23.8903
1.688, -1, 12.8728, 20.3095, 21.3847, 30.2838, -37.9544, -23.9479
1.692, -1, 12.9211, 20.2666, 21.4008, 30.3606, -37.8644, -24.0054
1.696, -1, 12.9693, 20.2238, 21.4169, 30.4374, -37.7746, -24.0629
1.7, -1, 13.0174, 20.1811, 21.433, 30.514, -37.6848, -24.1203
1.704, -1, 13.0655, 20.1384, 21.449, 30.5906, -37.5951, -24.1776
1.708, -1, 13.1136, 20.0958, 21.4651, 30.6671, -37.5056, -24.2348
1.712, -1, 13.1615, 20.0532, 21.4811, 30.7435, -37.4162, -24.292
1.716, -1, 13.2094, 20.0106, 21.4971, 30.8197, -37.3269, -24.3491
1.72, -1, 13.2573, 19.9681, 21.5131, 30.8959, -37.2376, -24.4061
1.724, -1, 13.3051, 19.9257, 21.529, 30.972, -37.1485, -24.4631
1.728, -1, 13.3528, 19.8833, 21.545, 31.0481, -37.0595, -24.52
1.732, -1, 13.4005, 19.841, 21.5609, 31.124, -36.9706, -24.5768
1.736, -1, 13.4482, 19.7987, 21.5768, 31.1998, -36.8818, -24.6336
1.74, -1, 13.4957, 19.7565, 21.5927, 31.2756, -36.7931, -24.6903
1.744, -1, 13.5433, 19.7143, 21.6086, 31.3512, -36.7045, -24.7469
1.748, -1, 13.5907, 19.6721, 21.6244, 31.4268, -36.6161, -24.8035
1.752, -1, 13.6381, 19.63, 21.6402, 31.5023, -36.5277, -24.86
1.756, -1, 13.6855, 19.588, 21.6561, 31.5776, -36.4394, -24.9164
1.76, -1, 13.7328, 19.546, 21.6719, 31.6529, -36.3512, -24.9728
1.764, -1, 13.78, 19.5041, 21.6876, 31.7282, -36.2632, -25.0291
1.768, -1, 13.8272, 19.4622, 21.7034, 31.8033, -36.1752, -25.0853
1.772, -1, 13.8743, 19.4203, 21.7191, 31.8783, -36.0873, -25.1415
1.776, -1, 13.9214, 19.3785, 21.7348, 31.9533, -35.9996, -25.1976
1.78, -1, 13.9684, 19.3368, 21.7505, 32.0281, -35.9119, -25.2536
1.784, -1, 14.0154, 19.2951, 21.7662, 32.1029, -35.8243, -25.3096
1.788, -1, 14.0623, 19.2534, 21.7819, 32.1776, -35.7369, -25.3655
1.792, -1, 14.1092, 19.2118, 21.7975, 32.2522, -35.6495, -25.4214
1.796, -1, 14.156, 19.1703, 21.8132, 32.3268, -35.5622, -25.4772
1.8, -1, 14.2027, 19.1288, 21.8288, 32.4012, -35.4751, -25.5329
1.804, -1, 14.2494, 19.0873, 21.8444, 32.4756, -35.388, -25.5886
1.808, -1, 14.2961, 19.0459, 21.86, 32.5498, -35.301, -25.6442
1.812, -1, 14.3427, 19.0045, 21.8755, 32.624, -35.2142, -25.6997
1.816, -1, 14.3892, 18.9632, 21.8911, 32.6981, -35.1274, -25.7552
1.82, -1, 14.4357, 18.9219, 21.9066, 32.7722, -35.0407, -25.8106
1.824, -1, 14.4822, 18.8807, 21.9221, 32.8461, -34.9541, -25.8659
1.828, -1, 14.5286, 18.8395, 21.9376, 32.92, -34.8676, -25.9212
1.832, -1, 14.5749, 18.7983, 21.9531, 32.9938, -34.7813, -25.9764
1.836, -1, 14.6212, 18.7572, 21.9685, 33.0675, -34.695, -26.0316
1.84, -1, 14.6674, 18.7162, 21.984, 33.1411, -34.6088, -26.0867
1.844, -1, 14.7136, 18.6752, 21.9994, 33.2146, -34.5227, -26.1418
1.848, -1, 14.7598, 18.6342, 22.0148, 33.2881, -34.4367, -26.1967
1.852, -1, 14.8058, 18.5933, 22.0302, 33.3614, -34.3507, -26.2517
1.856, -1, 14.8519, 18.5524, 22.0456, 33.4347, -34.2649, -26.3065
1.86, -1, 14.8979, 18.5116, 22.0609, 33.5079, -34.1792, -26.3613
1.864, -1, 14.9438, 18.4708, 22.0762, 33.5811, -34.0936, -26.4161
1.868, -1, 14.9897, 18.4301, 22.0916, 33.6541, -34.008, -26.4708
1.872, -1, 15.0355, 18.3894, 22.1069, 33.7271, -33.9226, -26.5254
1.876, -1, 15.0813, 18.3487, 22.1222, 33.8, -33.8372, -26.58
1.88, -1, 15.127, 18.3081, 22.1374, 33.8728, -33.7519, -26.6345
1.884, -1, 15.1727, 18.2676, 22.1527, 33.9456, -33.6668, -26.6889
1.888, -1, 15.2184, 18.227, 22.1679, 34.0182, -33.5817, -26.7433
1.892, -1, 15.264, 18.1866, 22.1832, 34.0908, -33.4967, -26.7976
1.896, -1, 15.3095, 18.1461, 22.1984, 34.1633, -33.4118, -26.8519
1.9, -1, 15.355, 18.1057, 22.2136, 34.2358, -33.3269, -26.9062
1.904, -1, 15.4004, 18.0654, 22.2287, 34.3081, -33.2422, -26.9603
1.908, -1, 15.4458, 18.0251, 22.2439, 34.3804, -33.1576, -27.0144
1.912, -1, 15.4912, 17.9848, 22.259, 34.4526, -33.073, -27.0685
1.916, -1, 15.5365, 17.9446, 22.2742, 34.5248, -32.9886, -27.1225
1.92, -1, 15.5818, 17.9044, 22.2893, 34.5968, -32.9042, -27.1764
1.924, -1, 15.627, 17.8643, 22.3044, 34.6688, -32.8199, -27.2303
1.928, -1, 15.6721, 17.8242, 22.3195, 34.7407, -32.7357, -27.2841
1.932, -1, 15.7173, 17.7841, 22.3345, 34.8126, -32.6516, -27.3379
1.936, -1, 15.7623, 17.7441, 22.3496, 34.8843, -32.5676, -27.3916
1.94, -1, 15.8073, 17.7041, 22.3646, 34.956, -32.4836, -27.4453
1.944, -1, 15.8523, 17.6642, 22.3796, 35.0276, -32.3997, -27.4989
1.948, -1, 15.8973, 17.6243, 22.3946, 35.0992, -32.316, -27.5524
1.952, -1, 15.9422, 17.5844, 22.4096, 35.1707, -32.2323, -27.6059
1.956, -1, 15.987, 17.5446, 22.4246, 35.2421, -32.1487, -27.6594
1.96, -1, 16.0318, 17.5048, 22.4396, 35.3134, -32.0652, -27.7128
1.964, -1, 16.0765, 17.4651, 22.4545, 35.3846, -31.9817, -27.7661
1.968, -1, 16.1212, 17.4254, 22.4694, 35.4558, -31.8984, -27.8194
1.972, -1, 16.1659, 17.3858, 22.4844, 35.5269, -31.8151, -27.8726
1.976, -1, 16.2105, 17.3461, 22.4993, 35.598, -31.7319, -27.9258
1.98, -1, 16.2551, 17.3066, 22.5141, 35.6689, -31.6488, -27.9789
1.984, -1, 16.2996, 17.267, 22.529, 35.7398, -31.5658, -28.032
1.988, -1, 16.3441, 17.2275, 22.5439, 35.8107, -31.4829, -28.085
1.992, -1, 16.3886, 17.1881, 22.5587, 35.8814, -31.4, -28.138
1.996, -1, 16.433, 17.1487, 22.5735, 35.9521, -31.3173, -28.1909
1.999, -1, 16.4773, 17.1093, 22.5883, 36.0228, -31.2346, -28.2438
2.004, -1, 16.5216, 17.0699, 22.6031, 36.0933, -31.1519, -28.2966
2.008, -1, 16.5659, 17.0306, 22.6179, 36.1638, -31.0694, -28.3493
2.012, -1, 16.6101, 16.9914, 22.6327, 36.2342, -30.987, -28.4021
2.015, -1, 16.6543, 16.9521, 22.6474, 36.3046, -30.9046, -28.4547
2.019, -1, 16.6984, 16.9129, 22.6622, 36.3748, -30.8223, -28.5073
2.024, -1, 16.7425, 16.8738, 22.6769, 36.445, -30.7401, -28.5599
2.028, -1, 16.7866, 16.8347, 22.6916, 36.5152, -30.658, -28.6124
2.031, -1, 16.8306, 16.7956, 22.7063, 36.5853, -30.5759, -28.6648
2.036, -1, 16.8746, 16.7566, 22.721, 36.6553, -30.4939, -28.7172
2.04, -1, 16.9185, 16.7176, 22.7357, 36.7252, -30.412, -28.7696
2.044, -1, 16.9624, 16.6786, 22.7503, 36.7951, -30.3302, -28.8219
2.048, -1, 17.0062, 16.6397, 22.765, 36.8649, -30.2485, -28.8742
2.051, -1, 17.05, 16.6008, 22.7796, 36.9346, -30.1668, -28.9264
2.055, -1, 17.0938, 16.5619, 22.7942, 37.0043, -30.0852, -28.9785
2.06, -1, 17.1375, 16.5231, 22.8088, 37.0739, -30.0037, -29.0306
2.064, -1, 17.1811, 16.4844, 22.8234, 37.1435, -29.9223, -29.0827
2.068, -1, 17.2244, 16.4458, 22.8379, 37.2129, -29.841, -29.1347
2.071, -1, 17.2671, 16.4077, 22.8523, 37.2823, -29.7597, -29.1866
2.076, -1, 17.3088, 16.3701, 22.8666, 37.3515, -29.6787, -29.2384
2.08, -1, 17.3495, 16.3335, 22.8807, 37.4204, -29.5981, -29.29
2.084, -1, 17.3888, 16.2979, 22.8945, 37.4888, -29.518, -29.3412
2.087, -1, 17.4267, 16.2635, 22.9079, 37.5564, -29.4389, -29.3918
2.092, -1, 17.4632, 16.2306, 22.921, 37.6229, -29.3611, -29.4417
2.096, -1, 17.4983, 16.1992, 22.9337, 37.6879, -29.2851, -29.4903
2.1, -1, 17.5321, 16.1694, 22.9459, 37.7508, -29.2115, -29.5374
2.104, -1, 17.5644, 16.1411, 22.9576, 37.8112, -29.1408, -29.5827
2.107, -1, 17.5951, 16.1145, 22.9686, 37.8686, -29.0737, -29.6257
2.111, -1, 17.624, 16.0896, 22.9791, 37.9226, -29.0106, -29.6661
2.116, -1, 17.6513, 16.0662, 22.9888, 37.9726, -28.9521, -29.7035
2.12, -1, 17.6768, 16.044, 22.9978, 38.0183, -28.8986, -29.7378
2.124, -1, 17.7009, 16.023, 23.0061, 38.0595, -28.8504, -29.7686
2.127, -1, 17.7234, 16.0029, 23.0136, 38.0959, -28.8078, -29.7958
2.132, -1, 17.7446, 15.9838, 23.0205, 38.1275, -28.7707, -29.8195
2.136, -1, 17.7642, 15.9657, 23.0267, 38.1546, -28.739, -29.8397
2.14, -1, 17.7823, 15.9489, 23.0321, 38.1772, -28.7125, -29.8566
2.143, -1, 17.7986, 15.9337, 23.0368, 38.1957, -28.6907, -29.8705
2.148, -1, 17.8131, 15.9202, 23.0409, 38.2106, -28.6732, -29.8816
2.152, -1, 17.8259, 15.9085, 23.0443, 38.2223, -28.6594, -29.8904
2.156, -1, 17.8371, 15.8987, 23.0471, 38.2313, -28.6488, -29.8971
2.16, -1, 17.8467, 15.8905, 23.0494, 38.2381, -28.6409, -29.9021
2.163, -1, 17.855, 15.8838, 23.0513, 38.243, -28.635, -29.9058
2.168, -1, 17.8619, 15.8785, 23.0527, 38.2465, -28.6308, -29.9084
2.172, -1, 17.8674, 15.8744, 23.0538, 38.249, -28.6279, -29.9103
2.176, 2, 17.8716, 15.8714, 23.0546, 38.2507, -28.6258, -29.9115
2.179, 2, 17.8747, 15.8692, 23.0552, 38.2519, -28.6245, -29.9124
2.184, 2, 17.8769, 15.8677, 23.0556, 38.2527, -28.6235, -29.913
2.188, 2, 17.8784, 15.8667, 23.0558, 38.2532, -28.6229, -29.9134
2.192, 2, 17.8794, 15.866, 23.056, 38.2536, -28.6224, -29.9137
2.196, 2, 17.8801, 15.8655, 23.0561, 38.2538, -28.6221, -29.9138
2.199, 2, 17.8806, 15.8652, 23.0562, 38.254, -28.6219, -29.914
2.204, 2, 17.8809, 15.865, 23.0563, 38.2541, -28.6218, -29.9141
2.208, 2, 17.8811, 15.8649, 23.0563, 38.2542, -28.6217, -29.9141
2.212, 2, 17.8813, 15.8648, 23.0563, 38.2543, -28.6217, -29.9141
2.216, 2, 17.8814, 15.8647, 23.0564, 38.2543, -28.6216, -29.9142
2.219, 2, 17.8814, 15.8646, 23.0564, 38.2543, -28.6216, -29.9142
2.224, 2, 17.8815, 15.8646, 23.0564, 38.2543, -28.6216, -29.9142
2.228, 2, 17.8815, 15.8646, 23.0564, 38.2543, -28.6215, -29.9142
2.232, 2, 17.8815, 15.8646, 23.0564, 38.2543, -28.6215, -29.9142
2.235, 2, 17.8815, 15.8646, 23.0564, 38.2544, -28.6215, -29.9142
2.24, 2, 17.8815, 15.8646, 23.0564, 38.2544, -28.6215, -29.9142
2.244, 2, 17.8816, 15.8646, 23.0564, 38.2544, -28.6215, -29.9142
2.248, 2, 17.8816, 15.8646, 23.0564, 38.2544, -28.6215, -29.9142
2.252, 2, 17.8816, 15.8646, 23.0564, 38.2544, -28.6215, -29.9142
2.255, 2, 17.8816, 15.8646, 23.0564, 38.2544, -28.6215, -29.9142
2.259, 2, 17.8816, 15.8646, 23.0564, 38.2544, -28.6215, -29.9142
2.264, 2, 17.8816, 15.8645, 23.0564, 38.2544, -28.6215, -29.9142
2.268, 2, 17.8816, 15.8645, 23.0564, 38.2544, -28.6215, -29.9142
2.272, 2, 17.8816, 15.8645, 23.0564, 38.2544, -28.6215, -29.9142
2.275, 2, 17.8816, 15.8645, 23.0564, 38.2544, -28.6215, -29.9142
2.28, 2, 17.8816, 15.8645, 23.0564, 38.2544, -28.6215, -29.9142
2.284, 2, 17.8816, 15.8645, 23.0564, 38.2544, -28.6215, -29.9142
2.288, 2, 17.8816, 15.8645, 23.0564, 38.2544, -28.6215, -29.9142
2.291, 2, 17.8816, 15.8645, 23.0564, 38.2544, -28.6215, -29.9142
2.296, 2, 17.8816, 15.8645, 23.0564, 38.2544, -28.6215, -29.9142
2.3, 2, 17.8816, 15.8645, 23.0564, 38.2544, -28.6215, -29.9142
2.304, 2, 17.8816, 15.8645, 23.0564, 38.2544, -28.6215, -29.9142
2.308, 2, 17.8816, 15.8645, 23.0564, 38.2544, -28.6215, -29.9142
2.311, 2, 17.8816, 15.8645, 23.0564, 38.2544, -28.6215, -29.9142
2.316, 2, 17.8816, 15.8645, 23.0564, 38.2544, -28.6215, -29.9142
2.32, 2, 17.8816, 15.8645, 23.0564, 38.2544, -28.6215, -29.9142
2.324, 2, 17.8816, 15.8645, 23.0564, 38.2544, -28.6215, -29.9142
2.328, 2, 17.8816, 15.8645, 23.0564, 38.2544, -28.6215, -29.9142
2.331, 2, 17.8816, 15.8645, 23.0564, 38.2544, -28.6215, -29.9142
2.336, 2, 17.8816, 15.8645, 23.0564, 38.2544, -28.6215, -29.9142
2.34, 2, 17.8816, 15.8645, 23.0564, 38.2544, -28.6215, -29.9142
2.344, 2, 17.8816, 15.8645, 23.0564, 38.2544, -28.6215, -29.9142
2.347, 2, 17.8816, 15.8645, 23.0564, 38.2544, -28.6215, -29.9142
2.352, 2, 17.8816, 15.8645, 23.0564, 38.2544, -28.6215, -29.9142
2.356, 2, 17.8816, 15.8645, 23.0564, 38.2544, -28.6215, -29.9142
2.36, 2, 17.8816, 15.8645, 23.0564, 38.2544, -28.6215, -29.9142
2.364, 2, 17.8816, 15.8645, 23.0564, 38.2544, -28.6215, -29.9142
2.367, 2, 17.8816, 15.8645, 23.0564, 38.2544, -28.6215, -29.9142
2.372, 2, 17.8816, 15.8645, 23.0564, 38.2544, -28.6215, -29.9142
2.376, 2, 17.8816, 15.8645, 23.0564, 38.2544, -28.6215, -29.9142
2.38, 2, 17.8816, 15.8645, 23.0564, 38.2544, -28.6215, -29.9142
2.383, 2, 17.8816, 15.8645, 23.0564, 38.2544, -28.6215, -29.9142
2.388, 2, 17.8816, 15.8645, 23.0564, 38.2544, -28.6215, -29.9142
2.392, 2, 17.8816, 15.8645, 23.0564, 38.2544, -28.6215, -29.9142
2.396, 2, 17.8816, 15.8645, 23.0564, 38.2544, -28.6215, -29.9142
2.4, 2, 17.8816, 15.8645, 23.0564, 38.2544, -28.6215, -29.9142
2.403, 2, 17.8816, 15.8645, 23.0564, 38.2544, -28.6215, -29.9142
2.408, 2, 17.8816, 15.8645, 23.0564, 38.2544, -28.6215, -29.9142
2.412, 2, 17.8816, 15.8645, 23.0564, 38.2544, -28.6215, -29.9142
2.416, 2, 17.8816, 15.8645, 23.0564, 38.2544, -28.6215, -29.9142
2.42, 2, 17.8816, 15.8645, 23.0564, 38.2544, -28.6215, -29.9142
2.423, 2, 17.8816, 15.8645, 23.0564, 38.2544, -28.6215, -29.9142
2.428, 2, 17.8816, 15.8645, 23.0564, 38.2544, -28.6215, -29.9142
2.432, 2, 17.8816, 15.8645, 23.0564, 38.2544, -28.6215, -29.9142
2.436, 2, 17.8816, 15.8645, 23.0564, 38.2544, -28.6215, -29.9142
2.439, 2, 17.8816, 15.8645, 23.0564, 38.2544, -28.6215, -29.9142
2.444, 2, 17.8816, 15.8645, 23.0564, 38.2544, -28.6215, -29.9142
2.448, 2, 17.8816, 15.8645, 23.0564, 38.2544, -28.6215, -29.9142
2.452, 2, 17.8816, 15.8645, 23.0564, 38.2544, -28.6215, -29.9142
2.456, 2, 17.8816, 15.8645, 23.0564, 38.2544, -28.6215, -29.9142
2.459, 2, 17.8816, 15.8645, 23.0564, 38.2544, -28.6215, -29.9142
2.464, 2, 17.8816, 15.8645, 23.0564, 38.2544, -28.6215, -29.9142
2.468, 2, 17.8816, 15.8645, 23.0564, 38.2544, -28.6215, -29.9142
2.472, 2, 17.8816, 15.8645, 23.0564, 38.2544, -28.6215, -29.9142
2.476, 2, 17.8816, 15.8645, 23.0564, 38.2544, -28.6215, -29.9142
2.479, 2, 17.8816, 15.8645, 23.0564, 38.2544, -28.6215, -29.9142
2.484, 2, 17.8816, 15.8645, 23.0564, 38.2544, -28.6215, -29.9142
2.488, 2, 17.8816, 15.8645, 23.0564, 38.2544, -28.6215, -29.9142
2.492, 2, 17.8816, 15.8645, 23.0564, 38.2544, -28.6215, -29.9142
2.495, 2, 17.8816, 15.8645, 23.0564, 38.2544, -28.6215, -29.9142
2.5, 2, 17.8816, 15.8645, 23.0564, 38.2544, -28.6215, -29.9142
2.504, 2, 17.8816, 15.8645, 23.0564, 38.2544, -28.6215, -29.9142
2.508, 2, 17.8816, 15.8645, 23.0564, 38.2544, -28.6215, -29.9142
2.512, 2, 17.8816, 15.8645, 23.0564, 38.2544, -28.6215, -29.9142
2.515, 2, 17.8816, 15.8645, 23.0564, 38.2544, -28.6215, -29.9142
2.52, 2, 17.8816, 15.8645, 23.0564, 38.2544, -28.6215, -29.9142
2.524, 2, 17.8816, 15.8645, 23.0564, 38.2544, -28.6215, -29.9142
2.528, 2, 17.8816, 15.8645, 23.0564, 38.2544, -28.6215, -29.9142
2.531, 2, 17.8816, 15.8645, 23.0564, 38.2544, -28.6215, -29.9142
2.536, 2, 17.8816, 15.8645, 23.0564, 38.2544, -28.6215, -29.9142
2.54, 2, 17.8816, 15.8645, 23.0564, 38.2544, -28.6215, -29.9142
2.544, 2, 17.8816, 15.8645, 23.0564, 38.2544, -28.6215, -29.9142
2.548, 2, 17.8816, 15.8645, 23.0564, 38.2544, -28.6215, -29.9142
2.551, 2, 17.8816, 15.8645, 23.0564, 38.2544, -28.6215, -29.9142
2.556, 2, 17.8816, 15.8645, 23.0564, 38.2544, -28.6215, -29.9142
2.56, 2, 17.8816, 15.8645, 23.0564, 38.2544, -28.6215, -29.9142
2.564, 2, 17.8816, 15.8645, 23.0564, 38.2544, -28.6215, -29.9142
2.568, 2, 17.8816, 15.8645, 23.0564, 38.2544, -28.6215, -29.9142
2.571, 2, 17.8816, 15.8645, 23.0564, 38.2544, -28.6215, -29.9142
2.576, 2, 17.8816, 15.8645, 23.0564, 38.2544, -28.6215, -29.9142
2.58, 2, 17.8816, 15.8645, 23.0564, 38.2544, -28.6215, -29.9142
2.584, 2, 17.8816, 15.8645, 23.0564, 38.2544, -28.6215, -29.9142
2.587, 2, 17.8816, 15.8645, 23.0564, 38.2544, -28.6215, -29.9142
2.592, 2, 17.8816, 15.8645, 23.0564, 38.2544, -28.6215, -29.9142
2.596, 2, 17.8816, 15.8645, 23.0564, 38.2544, -28.6215, -29.9142
2.6, 2, 17.8816, 15.8645, 23.0564, 38.2544, -28.6215, -29.9142
2.604, 2, 17.8816, 15.8645, 23.0564, 38.2544, -28.6215, -29.9142
2.607, 2, 17.8816, 15.8645, 23.0564, 38.2544, -28.6215, -29.9142
2.612, 2, 17.8816, 15.8645, 23.0564, 38.2544, -28.6215, -29.9142
2.616, 2, 17.8816, 15.8645, 23.0564, 38.2544, -28.6215, -29.9142
2.62, 2, 17.8816, 15.8645, 23.0564, 38.2544, -28.6215, -29.9142
2.624, 2, 17.8816, 15.8645, 23.0564, 38.2544, -28.6215, -29.9142
2.627, 2, 17.8816, 15.8645, 23.0564, 38.2544, -28.6215, -29.9142
2.632, 2, 17.8816, 15.8645, 23.0564, 38.2544, -28.6215, -29.9142
2.636, 2, 17.8816, 15.8645, 23.0564, 38.2544, -28.6215, -29.9142
2.64, 2, 17.8816, 15.8645, 23.0564, 38.2544, -28.6215, -29.9142
2.643, 2, 17.8816, 15.8645, 23.0564, 38.2544, -28.6215, -29.9142
2.648, 2, 17.8816, 15.8645, 23.0564, 38.2544, -28.6215, -29.9142
2.652, 2, 17.8816, 15.8645, 23.0564, 38.2544, -28.6215, -29.9142
2.656, 2, 17.8816, 15.8645, 23.0564, 38.2544, -28.6215, -29.9142
2.66, 2, 17.8816, 15.8645, 23.0564, 38.2544, -28.6215, -29.9142
2.663, 2, 17.8816, 15.8645, 23.0564, 38.2544, -28.6215, -29.9142
2.668, 2, 17.8816, 15.8645, 23.0564, 38.2544, -28.6215, -29.9142
2.672, 2, 17.8816, 15.8645, 23.0564, 38.2544, -28.6215, -29.9142
2.676, 2, 17.8816, 15.8645, 23.0564, 38.2544, -28.6215, -29.9142
2.679, 2, 17.8816, 15.8645, 23.0564, 38.2544, -28.6215, -29.9142
2.684, 2, 17.8816, 15.8645, 23.0564, 38.2544, -28.6215, -29.9142
2.688, 2, 17.8816, 15.8645, 23.0564, 38.2544, -28.6215, -29.9142
2.692, 2, 17.8816, 15.8645, 23.0564, 38.2544, -28.6215, -29.9142
2.696, 2, 17.8816, 15.8645, 23.0564, 38.2544, -28.6215, -29.9142
2.699, 2, 17.8816, 15.8645, 23.0564, 38.2544, -28.6215, -29.9142
2.704, 2, 17.8816, 15.8645, 23.0564, 38.2544, -28.6215, -29.9142
2.708, 2, 17.8816, 15.8645, 23.0564, 38.2544, -28.6215, -29.9142
2.712, 2, 17.8816, 15.8645, 23.0564, 38.2544, -28.6215, -29.9142
2.716, 2, 17.8816, 15.8645, 23.0564, 38.2544, -28.6215, -29.9142
2.719, 2, 17.8816, 15.8645, 23.0564, 38.2544, -28.6215, -29.9142
2.724, 2, 17.8816, 15.8645, 23.0564, 38.2544, -28.6215, -29.9142
2.728, 2, 17.8816, 15.8645, 23.0564, 38.2544, -28.6215, -29.9142
2.732, 2, 17.8816, 15.8645, 23.0564, 38.2544, -28.6215, -29.9142
2.735, 2, 17.8816, 15.8645, 23.0564, 38.2544, -28.6215, -29.9142
2.74, 2, 17.8816, 15.8645, 23.0564, 38.2544, -28.6215, -29.9142
2.744, 2, 17.8816, 15.8645, 23.0564, 38.2544, -28.6215, -29.9142
2.748, 2, 17.8816, 15.8645, 23.0564, 38.2544, -28.6215, -29.9142
2.752, 2, 17.8816, 15.8645, 23.0564, 38.2544, -28.6215, -29.9142
2.755, 2, 17.8816, 15.8645, 23.0564, 38.2544, -28.6215, -29.9142
2.76, 2, 17.8816, 15.8645, 23.0564, 38.2544, -28.6215, -29.9142
2.764, 2, 17.8816, 15.8645, 23.0564, 38.2544, -28.6215, -29.9142
2.768, 2, 17.8816, 15.8645, 23.0564, 38.2544, -28.6215, -29.9142
2.772, 2, 17.8816, 15.8645, 23.0564, 38.2544, -28.6215, -29.9142
2.775, 2, 17.8816, 15.8645, 23.0564, 38.2544, -28.6215, -29.9142
2.78, 2, 17.8816, 15.8645, 23.0564, 38.2544, -28.6215, -29.9142
2.784, 2, 17.8816, 15.8645, 23.0564, 38.2544, -28.6215, -29.9142
2.788, 2, 17.8816, 15.8645, 23.0564, 38.2544, -28.6215, -29.9142
2.791, 2, 17.8816, 15.8645, 23.0564, 38.2544, -28.6215, -29.9142
2.796, 2, 17.8816, 15.8645, 23.0564, 38.2544, -28.6215, -29.9142
2.8, 2, 17.8816, 15.8645, 23.0564, 38.2544, -28.6215, -29.9142
2.804, 2, 17.8816, 15.8645, 23.0564, 38.2544, -28.6215, -29.9142
2.808, 2, 17.8816, 15.8645, 23.0564, 38.2544, -28.6215, -29.9142
2.811, 2, 17.8816, 15.8645, 23.0564, 38.2544, -28.6215, -29.9142
2.816, 2, 17.8816, 15.8645, 23.0564, 38.2544, -28.6215, -29.9142
2.82, 2, 17.8816, 15.8645, 23.0564, 38.2544, -28.6215, -29.9142
2.824, 2, 17.8816, 15.8645, 23.0564, 38.2544, -28.6215, -29.9142
2.828, 2, 17.8816, 15.8645, 23.0564, 38.2544, -28.6215, -29.9142
2.831, 2, 17.8816, 15.8645, 23.0564, 38.2544, -28.6215, -29.9142
2.836, 2, 17.8816, 15.8645, 23.0564, 38.2544, -28.6215, -29.9142
2.84, 2, 17.8816, 15.8645, 23.0564, 38.2544, -28.6215, -29.9142
2.844, 2, 17.8816, 15.8645, 23.0564, 38.2544, -28.6215, -29.9142
2.847, 2, 17.8816, 15.8645, 23.0564, 38.2544, -28.6215, -29.9142
2.852, 2, 17.8816, 15.8645, 23.0564, 38.2544, -28.6215, -29.9142
2.856, 2, 17.8816, 15.8645, 23.0564, 38.2544, -28.6215, -29.9142
2.86, 2, 17.8816, 15.8645, 23.0564, 38.2544, -28.6215, -29.9142
2.864, 2, 17.8816, 15.8645, 23.0564, 38.2544, -28.6215, -29.9142
2.867, 2, 17.8816, 15.8645, 23.0564, 38.2544, -28.6215, -29.9142
2.872, 2, 17.8816, 15.8645, 23.0564, 38.2544, -28.6215, -29.9142
2.876, 2, 17.8816, 15.8645, 23.0564, 38.2544, -28.6215, -29.9142
2.88, 2, 17.8816, 15.8645, 23.0564, 38.2544, -28.6215, -29.9142
2.883, 2, 17.8816, 15.8645, 23.0564, 38.2544, -28.6215, -29.9142
2.888, 2, 17.8816, 15.8645, 23.0564, 38.2544, -28.6215, -29.9142
2.892, 2, 17.8816, 15.8645, 23.0564, 38.2544, -28.6215, -29.9142
2.896, 2, 17.8816, 15.8645, 23.0564, 38.2544, -28.6215, -29.9142
2.9, 2, 17.8816, 15.8645, 23.0564, 38.2544, -28.6215, -29.9142
2.903, 2, 17.8816, 15.8645, 23.0564, 38.2544, -28.6215, -29.9142
2.908, 2, 17.8816, 15.8645, 23.0564, 38.2544, -28.6215, -29.9142
2.912, 2, 17.8816, 15.8645, 23.0564, 38.2544, -28.6215, -29.9142
2.916, 2, 17.8816, 15.8645, 23.0564, 38.2544, -28.6215, -29.9142
2.92, 2, 17.8816, 15.8645, 23.0564, 38.2544, -28.6215, -29.9142
2.923, 2, 17.8816, 15.8645, 23.0564, 38.2544, -28.6215, -29.9142
2.928, 2, 17.8816, 15.8645, 23.0564, 38.2544, -28.6215, -29.9142
2.932, 2, 17.8816, 15.8645, 23.0564, 38.2544, -28.6215, -29.9142
2.936, 2, 17.8816, 15.8645, 23.0564, 38.2544, -28.6215, -29.9142
2.939, 2, 17.8816, 15.8645, 23.0564, 38.2544, -28.6215, -29.9142
2.944, 2, 17.8816, 15.8645, 23.0564, 38.2544, -28.6215, -29.9142
2.948, 2, 17.8816, 15.8645, 23.0564, 38.2544, -28.6215, -29.9142
2.952, 2, 17.8816, 15.8645, 23.0564, 38.2544, -28.6215, -29.9142
2.956, 2, 17.8816, 15.8645, 23.0564, 38.2544, -28.6215, -29.9142
2.959, 2, 17.8816, 15.8645, 23.0564, 38.2544, -28.6215, -29.9142
2.964, 2, 17.8816, 15.8645, 23.0564, 38.2544, -28.6215, -29.9142
2.968, 2, 17.8816, 15.8645, 23.0564, 38.2544, -28.6215, -29.9142
2.972, 2, 17.8816, 15.8645, 23.0564, 38.2544, -28.6215, -29.9142
2.976, 2, 17.8816, 15.8645, 23.0564, 38.2544, -28.6215, -29.9142
2.98, 2, 17.8816, 15.8645, 23.0564, 38.2544, -28.6215, -29.9142
2.984, 2, 17.8816, 15.8645, 23.0564, 38.2544, -28.6215, -29.9142
2.988, 2, 17.8816, 15.8645, 23.0564, 38.2544, -28.6215, -29.9142
2.992, 2, 17.8816, 15.8645, 23.0564, 38.2544, -28.6215, -29.9142
2.995, 2, 17.8816, 15.8645, 23.0564, 38.2544, -28.6215, -29.9142
3, 2, 17.8816, 15.8645, 23.0564, 38.2544, -28.6215, -29.9142
3.004, 2, 17.8816, 15.8645, 23.0564, 38.2544, -28.6215, -29.9142
3.008, 2, 17.8816, 15.8645, 23.0564, 38.2544, -28.6215, -29.9142
3.012, 2, 17.8816, 15.8645, 23.0564, 38.2544, -28.6215, -29.9142
3.015, 2, 17.8816, 15.8645, 23.0564, 38.2544, -28.6215, -29.9142
3.02, 2, 17.8816, 15.8645, 23.0564, 38.2544, -28.6215, -29.9142
3.024, 2, 17.8816, 15.8645, 23.0564, 38.2544, -28.6215, -29.9142
3.028, 2, 17.8816, 15.8645, 23.0564, 38.2544, -28.6215, -29.9142
3.031, 2, 17.8816, 15.8645, 23.0564, 38.2544, -28.6215, -29.9142
3.036, 2, 17.8816, 15.8645, 23.0564, 38.2544, -28.6215, -29.9142
3.04, 2, 17.8816, 15.8645, 23.0564, 38.2544, -28.6215, -29.9142
3.044, 2, 17.8816, 15.8645, 23.0564, 38.2544, -28.6215, -29.9142
3.048, 2, 17.8816, 15.8645, 23.0564, 38.2544, -28.6215, -29.9142
3.051, 2, 17.8816, 15.8645, 23.0564, 38.2544, -28.6215, -29.9142
3.056, 2, 17.8816, 15.8645, 23.0564, 38.2544, -28.6215, -29.9142
3.06, 2, 17.8816, 15.8645, 23.0564, 38.2544, -28.6215, -29.9142
3.064, 2, 17.8816, 15.8645, 23.0564, 38.2544, -28.6215, -29.9142
3.068, 2, 17.8816, 15.8645, 23.0564, 38.2544, -28.6215, -29.9142
3.071, 2, 17.8816, 15.8645, 23.0564, 38.2544, -28.6215, -29.9142
3.076, 2, 17.8816, 15.8645, 23.0564, 38.2544, -28.6215, -29.9142
3.08, 2, 17.8816, 15.8645, 23.0564, 38.2544, -28.6215, -29.9142
3.084, 2, 17.8816, 15.8645, 23.0564, 38.2544, -28.6215, -29.9142
3.087, 2, 17.8816, 15.8645, 23.0564, 38.2544, -28.6215, -29.9142
3.092, 2, 17.8816, 15.8645, 23.0564, 38.2544, -28.6215, -29.9142
3.096, 2, 17.8816, 15.8645, 23.0564, 38.2544, -28.6215, -29.9142
3.1, 2, 17.8816, 15.8645, 23.0564, 38.2544, -28.6215, -29.9142
3.104, 2, 17.8816, 15.8645, 23.0564, 38.2544, -28.6215, -29.9142
3.107, 2, 17.8816, 15.8645, 23.0564, 38.2544, -28.6215, -29.9142
3.112, 2, 17.8816, 15.8645, 23.0564, 38.2544, -28.6215, -29.9142
3.116, 2, 17.8816, 15.8645, 23.0564, 38.2544, -28.6215, -29.9142
3.12, 2, 17.8816, 15.8645, 23.0564, 38.2544, -28.6215, -29.9142
3.124, 2, 17.8816, 15.8645, 23.0564, 38.2544, -28.6215, -29.9142
3.128, 2, 17.8816, 15.8645, 23.0564, 38.2544, -28.6215, -29.9142
3.132, 2, 17.8816, 15.8645, 23.0564, 38.2544, -28.6215, -29.9142
3.136, 2, 17.8816, 15.8645, 23.0564, 38.2544, -28.6215, -29.9142
3.14, 2, 17.8816, 15.8645, 23.0564, 38.2544, -28.6215, -29.9142
3.143, 2, 17.8816, 15.8645, 23.0564, 38.2544, -28.6215, -29.9142
3.148, 2, 17.8816, 15.8645, 23.0564, 38.2544, -28.6215, -29.9142
3.152, 2, 17.8816, 15.8645, 23.0564, 38.2544, -28.6215, -29.9142
3.156, 2, 17.8816, 15.8645, 23.0564, 38.2544, -28.6215, -29.9142
3.16, 2, 17.8816, 15.8645, 23.0564, 38.2544, -28.6215, -29.9142
3.163, 2, 17.8816, 15.8645, 23.0564, 38.2544, -28.6215, -29.9142
3.168, 2, 17.8816, 15.8645, 23.0564, 38.2544, -28.6215, -29.9142
3.172, 2, 17.8816, 15.8645, 23.0564, 38.2544, -28.6215, -29.9142
3.176, 2, 17.8816, 15.8645, 23.0564, 38.2544, -28.6215, -29.9142
3.179, 2, 17.8816, 15.8645, 23.0564, 38.2544, -28.6215, -29.9142
3.184, 2, 17.8816, 15.8645, 23.0564, 38.2544, -28.6215, -29.9142
3.188, 2, 17.8816, 15.8645, 23.0564, 38.2544, -28.6215, -29.9142
3.192, 2, 17.8816, 15.8645, 23.0564, 38.2544, -28.6215, -29.9142
3.196, 2, 17.8816, 15.8645, 23.0564, 38.2544, -28.6215, -29.9142
3.199, 2, 17.8816, 15.8645, 23.0564, 38.2544, -28.6215, -29.9142
3.204, 2, 17.8816, 15.8645, 23.0564, 38.2544, -28.6215, -29.9142
3.208, 2, 17.8816, 15.8645, 23.0564, 38.2544, -28.6215, -29.9142
3.212, 2, 17.8816, 15.8645, 23.0564, 38.2544, -28.6215, -29.9142
3.216, 2, 17.8816, 15.8645, 23.0564, 38.2544, -28.6215, -29.9142
3.22, 2, 17.8816, 15.8645, 23.0564, 38.2544, -28.6215, -29.9142
3.224, 2, 17.8816, 15.8645, 23.0564, 38.2544, -28.6215, -29.9142
3.228, 2, 17.8816, 15.8645, 23.0564, 38.2544, -28.6215, -29.9142
3.232, 2, 17.8816, 15.8645, 23.0564, 38.2544, -28.6215, -29.9142
3.235, 2, 17.8816, 15.8645, 23.0564, 38.2544, -28.6215, -29.9142
3.24, 2, 17.8816, 15.8645, 23.0564, 38.2544, -28.6215, -29.9142
3.244, 2, 17.8816, 15.8645, 23.0564, 38.2544, -28.6215, -29.9142
3.248, 4, 17.8816, 15.8645, 23.0564, 38.2544, -28.6215, -29.9142
3.252, 4, 17.8816, 15.8645, 23.0564, 38.2544, -28.6215, -29.9142
3.255, 4, 17.8816, 15.8645, 23.0564, 38.2544, -28.6215, -29.9142
3.26, 4, 17.8816, 15.8645, 23.0564, 38.2544, -28.6215, -29.9142
3.264, 4, 17.8816, 15.8645, 23.0564, 38.2544, -28.6215, -29.9142
3.268, 4, 17.8816, 15.8645, 23.0564, 38.2544, -28.6215, -29.9142
3.272, 4, 17.8816, 15.8645, 23.0564, 38.2544, -28.6215, -29.9142
3.276, 4, 17.8816, 15.8645, 23.0564, 38.2544, -28.6215, -29.9142
3.28, 4, 17.8816, 15.8645, 23.0564, 38.2544, -28.6215, -29.9142
3.284, 4, 17.8816, 15.8645, 23.0564, 38.2544, -28.6215, -29.9142
3.288, 4, 17.8816, 15.8645, 23.0564, 38.2544, -28.6215, -29.9142
3.291, 4, 17.8816, 15.8645, 23.0564, 38.2544, -28.6215, -29.9142
3.296, 4, 17.8816, 15.8645, 23.0564, 38.2544, -28.6215, -29.9142
3.3, 4, 17.8816, 15.8645, 23.0564, 38.2544, -28.6215, -29.9142
3.304, 4, 17.8816, 15.8645, 23.0564, 38.2544, -28.6215, -29.9142
3.308, 4, 17.8816, 15.8645, 23.0564, 38.2544, -28.6215, -29.9142
3.312, 4, 17.8816, 15.8645, 23.0564, 38.2544, -28.6215, -29.9142
3.316, 4, 17.8816, 15.8645, 23.0564, 38.2544, -28.6215, -29.9142
3.32, 4, 17.8816, 15.8645, 23.0564, 38.2544, -28.6215, -29.9142
3.324, 4, 17.8816, 15.8645, 23.0564, 38.2544, -28.6215, -29.9142
3.328, 4, 17.8816, 15.8645, 23.0564, 38.2544, -28.6215, -29.9142
3.332, 4, 17.8816, 15.8645, 23.0564, 38.2544, -28.6215, -29.9142
3.336, 4, 17.8816, 15.8645, 23.0564, 38.2544, -28.6215, -29.9142
3.34, 4, 17.8816, 15.8645, 23.0564, 38.2544, -28.6215, -29.9142
3.344, 4, 17.8816, 15.8645, 23.0564, 38.2544, -28.6215, -29.9142
3.347, 4, 17.8816, 15.8645, 23.0564, 38.2544, -28.6215, -29.9142
3.352, 4, 17.8816, 15.8645, 23.0564, 38.2544, -28.6215, -29.9142
3.356, 4, 17.8816, 15.8645, 23.0564, 38.2544, -28.6215, -29.9142
3.36, 4, 17.8816, 15.8645, 23.0564, 38.2544, -28.6215, -29.9142
3.364, 4, 17.8816, 15.8645, 23.0564, 38.2544, -28.6215, -29.9142
3.368, 4, 17.8816, 15.8645, 23.0564, 38.2544, -28.6215, -29.9142
3.372, 4, 17.8816, 15.8645, 23.0564, 38.2544, -28.6215, -29.9142
3.376, 4, 17.8816, 15.8645, 23.0564, 38.2544, -28.6215, -29.9142
3.38, 4, 17.8815, 15.8645, 23.0564, 38.2544, -28.6215, -29.9142
3.383, 4, 17.8812, 15.8645, 23.0564, 38.2543, -28.6215, -29.9142
3.388, 4, 17.8806, 15.8645, 23.0565, 38.2542, -28.6216, -29.9141
3.392, 4, 17.8793, 15.8645, 23.0566, 38.2539, -28.6217, -29.9139
3.396, 4, 17.8773, 15.8644, 23.0569, 38.2532, -28.6219, -29.9133
3.4, 4, 17.8745, 15.8643, 23.0576, 38.2517, -28.6225, -29.912
3.403, 4, 17.8706, 15.864, 23.0586, 38.2489, -28.6235, -29.9095
3.408, 4, 17.8657, 15.8636, 23.0603, 38.2441, -28.6252, -29.9053
3.412, 4, 17.8595, 15.863, 23.063, 38.2364, -28.628, -29.8984
3.416, 4, 17.8518, 15.862, 23.067, 38.2246, -28.6323, -29.8881
3.42, 5, 17.8424, 15.8607, 23.0727, 38.2075, -28.6384, -29.873
3.424, 5, 17.831, 15.8589, 23.0804, 38.1836, -28.647, -29.8519
3.428, 5, 17.817, 15.8565, 23.0909, 38.1512, -28.6587, -29.8232
3.432, 5, 17.8002, 15.8533, 23.1045, 38.1085, -28.6742, -29.7854
3.436, 5, 17.7803, 15.8493, 23.122, 38.0534, -28.6942, -29.7368
3.439, 5, 17.7571, 15.8443, 23.1439, 37.984, -28.7195, -29.6754
3.444, 5, 17.7302, 15.8382, 23.1708, 37.8982, -28.7509, -29.5995
3.448, 5, 17.6995, 15.8309, 23.2033, 37.7942, -28.7892, -29.5075
3.452, 5, 17.6645, 15.8222, 23.242, 37.6701, -28.8351, -29.3978
3.456, 5, 17.6249, 15.8121, 23.2873, 37.5243, -28.8894, -29.2689
3.46, 5, 17.5804, 15.8005, 23.3398, 37.3556, -28.9527, -29.1198
3.464, 5, 17.5307, 15.7874, 23.3998, 37.1628, -29.0257, -28.9496
3.468, 5, 17.4758, 15.7727, 23.4674, 36.9453, -29.1087, -28.7576
3.472, 5, 17.4158, 15.7565, 23.5429, 36.7024, -29.2024, -28.5435
3.476, 5, 17.3508, 15.7387, 23.6263, 36.4343, -29.3068, -28.3072
3.48, 5, 17.2812, 15.7193, 23.7175, 36.1414, -29.4222, -28.0493
3.484, 5, 17.2071, 15.6986, 23.8162, 35.8247, -29.5484, -27.7707
3.488, 5, 17.1287, 15.6765, 23.922, 35.4857, -29.6852, -27.4727
3.492, 5, 17.0464, 15.6532, 24.0343, 35.1265, -29.832, -27.1574
3.495, 5, 16.9604, 15.629, 24.1524, 34.7496, -29.988, -26.8269
3.5, 5, 16.8711, 15.6041, 24.2756, 34.3579, -30.1523, -26.4838
3.504, 5, 16.779, 15.5786, 24.4028, 33.9545, -30.3238, -26.1309
3.508, 5, 16.6849, 15.5527, 24.533, 33.5427, -30.5014, -25.7711
3.512, 5, 16.5894, 15.5268, 24.6653, 33.1258, -30.6836, -25.4074
3.516, 5, 16.4929, 15.5011, 24.7985, 32.7074, -30.8691, -25.0428
3.52, 5, 16.396, 15.4757, 24.9316, 32.2908, -31.0564, -24.6803
3.524, 5, 16.2989, 15.4508, 25.0635, 31.8793, -31.244, -24.3228
3.528, 5, 16.202, 15.4268, 25.1932, 31.4763, -31.4304, -23.9731
3.531, 5, 16.1058, 15.4037, 25.3198, 31.0846, -31.6139, -23.6337
3.536, 5, 16.011, 15.3817, 25.4423, 30.7068, -31.7934, -23.3068
3.54, 5, 15.9182, 15.3609, 25.56, 30.3451, -31.9674, -22.9944
3.544, 5, 15.8282, 15.3415, 25.6723, 30.0014, -32.1349, -22.6978
3.548, 5, 15.7417, 15.3235, 25.7787, 29.6771, -32.2948, -22.4184
3.552, 5, 15.6592, 15.3069, 25.8786, 29.3734, -32.4463, -22.157
3.556, 5, 15.581, 15.2917, 25.9717, 29.0912, -32.5886, -21.9144
3.56, 5, 15.5075, 15.2781, 26.0579, 28.831, -32.7211, -21.691
3.564, 5, 15.4387, 15.2659, 26.1369, 28.5931, -32.8433, -21.487
3.568, 5, 15.3747, 15.2551, 26.2088, 28.3775, -32.9551, -21.3023
3.572, 5, 15.3157, 15.2456, 26.2735, 28.1839, -33.0562, -21.1366
3.576, 5, 15.2617, 15.2375, 26.3312, 28.0118, -33.1468, -20.9895
3.58, 5, 15.2125, 15.2306, 26.3822, 27.8605, -33.227, -20.8602
3.584, 5, 15.168, 15.2249, 26.4267, 27.7288, -33.2973, -20.7477
3.587, 5, 15.1281, 15.2202, 26.4651, 27.6155, -33.358, -20.6511
3.592, 5, 15.0925, 15.2165, 26.4979, 27.5193, -33.4098, -20.5691
3.596, 5, 15.0611, 15.2136, 26.5254, 27.4386, -33.4534, -20.5004
3.6, 5, 15.0337, 15.2114, 26.5484, 27.3719, -33.4897, -20.4435
3.604, 5, 15.0101, 15.2098, 26.5672, 27.3174, -33.5194, -20.3972
3.608, 5, 14.9899, 15.2087, 26.5824, 27.2736, -33.5433, -20.3599
3.612, 5, 14.9729, 15.2079, 26.5945, 27.239, -33.5622, -20.3305
3.616, 5, 14.9585, 15.2075, 26.6039, 27.2121, -33.577, -20.3076
3.62, 5, 14.9464, 15.2072, 26.6112, 27.1916, -33.5883, -20.2902
3.624, 5, 14.9363, 15.2072, 26.6166, 27.1763, -33.5967, -20.2772
3.628, 5, 14.9278, 15.2072, 26.6206, 27.1652, -33.6028, -20.2677
3.632, 5, 14.9209, 15.2073, 26.6236, 27.1572, -33.6072, -20.261
3.636, 5, 14.9154, 15.2075, 26.6256, 27.1517, -33.6103, -20.2563
3.64, 5, 14.9112, 15.2076, 26.6271, 27.1478, -33.6124, -20.253
3.644, 5, 14.908, 15.2077, 26.628, 27.1452, -33.6138, -20.2508
3.648, 5, 14.9058, 15.2078, 26.6287, 27.1434, -33.6148, -20.2493
3.652, 5, 14.904, 15.2078, 26.6292, 27.1422, -33.6155, -20.2482
3.656, 5, 14.9023, 15.2079, 26.6296, 27.1413, -33.616, -20.2475
3.66, 5, 14.9004, 15.208, 26.6299, 27.1405, -33.6164, -20.2468
3.664, 5, 14.8979, 15.2082, 26.6303, 27.1396, -33.6169, -20.2461
3.668, 5, 14.8947, 15.2084, 26.6309, 27.1383, -33.6177, -20.2449
3.672, 5, 14.8905, 15.2086, 26.6318, 27.136, -33.6189, -20.243
3.676, 5, 14.8853, 15.2089, 26.6332, 27.1323, -33.621, -20.2399
3.679, 5, 14.8788, 15.2092, 26.6355, 27.1264, -33.6243, -20.2349
3.684, 6, 14.8709, 15.2094, 26.6387, 27.1176, -33.6293, -20.2274
3.688, 6, 14.8611, 15.2096, 26.6434, 27.1047, -33.6365, -20.2165
3.692, 6, 14.8491, 15.2098, 26.6499, 27.0867, -33.6467, -20.2012
3.696, 6, 14.8346, 15.2098, 26.6585, 27.0623, -33.6605, -20.1806
3.7, 6, 14.8171, 15.2096, 26.6699, 27.0302, -33.6787, -20.1533
3.704, 6, 14.7964, 15.2092, 26.6844, 26.9887, -33.7023, -20.1182
3.708, 6, 14.7722, 15.2085, 26.7026, 26.9364, -33.7321, -20.0739
3.712, 6, 14.7441, 15.2073, 26.725, 26.8717, -33.7691, -20.0192
3.716, 6, 14.712, 15.2057, 26.7521, 26.7932, -33.8143, -19.9528
3.72, 6, 14.6755, 15.2036, 26.7844, 26.6996, -33.8683, -19.8737
3.724, 6, 14.6343, 15.201, 26.8222, 26.5897, -33.9322, -19.7808
3.728, 6, 14.5881, 15.1978, 26.8659, 26.4625, -34.0064, -19.6734
3.732, 6, 14.5366, 15.1941, 26.9157, 26.3173, -34.0918, -19.5509
3.735, 6, 14.4796, 15.1899, 26.9719, 26.1535, -34.1887, -19.4129
3.74, 6, 14.4171, 15.1853, 27.0346, 25.9708, -34.2975, -19.2591
3.744, 6, 14.3492, 15.1801, 27.1037, 25.7693, -34.4186, -19.0897
3.748, 6, 14.2761, 15.1745, 27.1791, 25.5492, -34.552, -18.9048
3.752, 6, 14.198, 15.1684, 27.2608, 25.3112, -34.6975, -18.7051
3.756, 6, 14.1153, 15.1619, 27.3484, 25.0561, -34.8549, -18.4915
3.76, 6, 14.0284, 15.155, 27.4415, 24.7855, -35.0237, -18.2651
3.764, 6, 13.9377, 15.1479, 27.5394, 24.5009, -35.2029, -18.0274
3.768, 6, 13.8437, 15.1407, 27.6417, 24.2043, -35.3917, -17.7802
3.772, 6, 13.7468, 15.1335, 27.7474, 23.8981, -35.5887, -17.5253
3.776, 6, 13.6476, 15.1265, 27.8558, 23.5846, -35.7925, -17.2648
3.78, 6, 13.5466, 15.1197, 27.9661, 23.2663, -36.0017, -17.0008
3.784, 6, 13.4445, 15.1132, 28.0773, 22.9459, -36.2147, -16.7355
3.788, 6, 13.3418, 15.1071, 28.1886, 22.6259, -36.4296, -16.471
3.792, 6, 13.239, 15.1015, 28.299, 22.3089, -36.645, -16.2095
3.796, 6, 13.1365, 15.0965, 28.4077, 21.9974, -36.8588, -15.953
3.8, 6, 13.0349, 15.0921, 28.5138, 21.6938, -37.0696, -15.7034
3.804, 6, 12.9346, 15.0885, 28.6167, 21.4002, -37.2755, -15.4625
3.808, 6, 12.8364, 15.0856, 28.7156, 21.1184, -37.4751, -15.2317
3.812, 6, 12.7409, 15.0834, 28.81, 20.8502, -37.667, -15.0124
3.816, 6, 12.6488, 15.082, 28.8994, 20.5967, -37.8501, -14.8055
3.82, 6, 12.5606, 15.0812, 28.9833, 20.3589, -38.0234, -14.6117
3.824, 6, 12.4769, 15.0811, 29.0616, 20.1376, -38.1861, -14.4317
3.828, 6, 12.398, 15.0815, 29.134, 19.9332, -38.3376, -14.2656
3.832, 6, 12.3241, 15.0824, 29.2005, 19.7459, -38.4774, -14.1137
3.836, 6, 12.2555, 15.0837, 29.2609, 19.5757, -38.6054, -13.9759
3.84, 6, 12.1921, 15.0854, 29.3155, 19.4225, -38.7213, -13.8519
3.844, 6, 12.134, 15.0875, 29.3642, 19.2859, -38.8253, -13.7414
3.848, 6, 12.0811, 15.0897, 29.4072, 19.1652, -38.9177, -13.644
3.852, 6, 12.0333, 15.0922, 29.4449, 19.0598, -38.9988, -13.559
3.856, 6, 11.9903, 15.0949, 29.4775, 18.9688, -39.0691, -13.4856
3.86, 6, 11.952, 15.0977, 29.5054, 18.8911, -39.1293, -13.423
3.864, 6, 11.918, 15.1005, 29.529, 18.8257, -39.1802, -13.3704
3.868, 6, 11.8883, 15.1032, 29.5486, 18.7713, -39.2227, -13.3266
3.872, 6, 11.8625, 15.1059, 29.5647, 18.7268, -39.2576, -13.2907
3.876, 6, 11.8405, 15.1084, 29.5778, 18.6907, -39.2858, -13.2618
3.88, 6, 11.8218, 15.1107, 29.5882, 18.6621, -39.3083, -13.2387
3.884, 6, 11.8061, 15.1127, 29.5964, 18.6397, -39.326, -13.2207
3.888, 6, 11.7928, 15.1146, 29.6027, 18.6225, -39.3395, -13.2069
3.892, 6, 11.7817, 15.1162, 29.6075, 18.6096, -39.3497, -13.1965
3.896, 6, 11.7725, 15.1176, 29.611, 18.6001, -39.3572, -13.1889
3.9, 6, 11.7649, 15.1188, 29.6135, 18.5933, -39.3625, -13.1834
3.904, 6, 11.7587, 15.1198, 29.6153, 18.5885, -39.3663, -13.1796
3.908, 6, 11.7539, 15.1205, 29.6166, 18.5852, -39.369, -13.1769
3.912, 6, 11.7504, 15.1211, 29.6175, 18.5829, -39.3708, -13.1751
3.916, 6, 11.7478, 15.1215, 29.6181, 18.5814, -39.372, -13.1738
3.92, 6, 11.746, 15.1218, 29.6185, 18.5803, -39.3728, -13.173
3.924, 6, 11.7445, 15.122, 29.6188, 18.5796, -39.3734, -13.1724
3.928, 6, 11.7431, 15.1222, 29.619, 18.5791, -39.3738, -13.1719
3.932, 6, 11.7413, 15.1225, 29.6192, 18.5786, -39.3742, -13.1716
3.936, 6, 11.7389, 15.1229, 29.6194, 18.578, -39.3746, -13.1711
3.94, 6, 11.7357, 15.1235, 29.6198, 18.577, -39.3754, -13.1703
3.944, 6, 11.7315, 15.1242, 29.6205, 18.5753, -39.3767, -13.1689
3.948, 6, 11.7263, 15.1251, 29.6216, 18.5726, -39.3789, -13.1667
3.952, 6, 11.7197, 15.1263, 29.6233, 18.5682, -39.3825, -13.1632
3.956, 7, 11.7116, 15.1278, 29.6258, 18.5615, -39.3878, -13.1578
3.96, 7, 11.7017, 15.1295, 29.6294, 18.5519, -39.3955, -13.1501
3.964, 7, 11.6895, 15.1316, 29.6344, 18.5383, -39.4064, -13.1392
3.968, 7, 11.6746, 15.134, 29.6411, 18.52, -39.4212, -13.1245
3.972, 7, 11.6568, 15.1368, 29.6499, 18.4957, -39.4409, -13.1051
3.976, 7, 11.6356, 15.1399, 29.6613, 18.4643, -39.4663, -13.08
3.98, 7, 11.6108, 15.1434, 29.6756, 18.4247, -39.4984, -13.0484
3.984, 7, 11.5821, 15.1472, 29.6932, 18.3757, -39.5383, -13.0093
3.988, 7, 11.5493, 15.1513, 29.7146, 18.3162, -39.5869, -12.9618
3.992, 7, 11.5118, 15.1558, 29.7401, 18.2452, -39.6452, -12.9052
3.996, 7, 11.4695, 15.1608, 29.7699, 18.1617, -39.7139, -12.8388
3.999, 7, 11.422, 15.1662, 29.8045, 18.065, -39.7939, -12.7619
4.004, 7, 11.3692, 15.1721, 29.8439, 17.9545, -39.8857, -12.6741
4.008, 7, 11.3108, 15.1784, 29.8884, 17.8297, -39.99, -12.5752
4.012, 7, 11.2467, 15.1853, 29.938, 17.6905, -40.107, -12.4648
4.016, 7, 11.1769, 15.1928, 29.9926, 17.5367, -40.2371, -12.3432
4.02, 7, 11.1015, 15.2009, 30.0523, 17.3685, -40.3802, -12.2104
4.024, 7, 11.0207, 15.2094, 30.117, 17.1863, -40.5364, -12.0667
4.028, 7, 10.9348, 15.2185, 30.1863, 16.9908, -40.7053, -11.9128
4.032, 7, 10.8443, 15.228, 30.26, 16.7828, -40.8864, -11.7494
4.036, 7, 10.7497, 15.238, 30.3377, 16.5634, -41.0789, -11.5775
4.04, 7, 10.6517, 15.2484, 30.4189, 16.3341, -41.2819, -11.398
4.044, 7, 10.5508, 15.2594, 30.503, 16.0963, -41.4941, -11.2125
4.048, 7, 10.4475, 15.271, 30.5894, 15.8521, -41.714, -11.0222
4.052, 7, 10.3424, 15.2832, 30.6774, 15.6032, -41.94, -10.8287
4.056, 7, 10.2358, 15.2961, 30.7662, 15.3517, -42.1704, -10.6337
4.06, 7, 10.1285, 15.3096, 30.8552, 15.0996, -42.4033, -10.4386
4.064, 7, 10.0209, 15.3235, 30.9435, 14.849, -42.6369, -10.2452
4.068, 7, 9.91366, 15.338, 31.0306, 14.602, -42.8692, -10.0549
4.072, 7, 9.80726, 15.3527, 31.1157, 14.3603, -43.0983, -9.86912
4.076, 7, 9.70233, 15.3679, 31.1981, 14.1259, -43.3224, -9.68934
4.08, 7, 9.59949, 15.3832, 31.2774, 13.9002, -43.5399, -9.51671
4.084, 7, 9.49936, 15.3988, 31.353, 13.6849, -43.7491, -9.35226
4.088, 7, 9.4025, 15.4145, 31.4246, 13.4809, -43.9488, -9.19685
4.092, 7, 9.30947, 15.4302, 31.4918, 13.2892, -44.1378, -9.0511
4.096, 7, 9.22083, 15.4457, 31.5543, 13.1105, -44.3153, -8.91545
4.1, 7, 9.13705, 15.4609, 31.6121, 12.9452, -44.4806, -8.79018
4.104, 7, 9.05849, 15.4756, 31.6651, 12.7934, -44.6332, -8.67538
4.108, 7, 8.98539, 15.4898, 31.7133, 12.6552, -44.773, -8.57102
4.112, 7, 8.91787, 15.5033, 31.7568, 12.5304, -44.8999, -8.47694
4.116, 7, 8.85595, 15.5161, 31.7956, 12.4188, -45.0139, -8.39288
4.12, 7, 8.79957, 15.5282, 31.83, 12.3199, -45.1155, -8.31849
4.124, 7, 8.74856, 15.5394, 31.8601, 12.2331, -45.2048, -8.25332
4.128, 7, 8.70269, 15.5499, 31.8862, 12.1579, -45.2826, -8.19686
4.132, 7, 8.66169, 15.5596, 31.9085, 12.0935, -45.3495, -8.1485
4.136, 7, 8.62531, 15.5686, 31.9273, 12.0389, -45.4063, -8.1076
4.14, 7, 8.59331, 15.5767, 31.9431, 11.9933, -45.4539, -8.07345
4.144, 7, 8.56548, 15.584, 31.956, 11.9558, -45.4931, -8.04532
4.148, 7, 8.54157, 15.5905, 31.9665, 11.9253, -45.5251, -8.02248
4.152, 7, 8.52125, 15.5961, 31.9749, 11.9009, -45.5507, -8.00421
4.156, 7, 8.50412, 15.601, 31.9814, 11.8817, -45.5708, -7.98984
4.16, 7, 8.48972, 15.6052, 31.9865, 11.8669, -45.5864, -7.97874
4.164, 7, 8.47763, 15.6087, 31.9904, 11.8557, -45.5982, -7.97034
4.168, 7, 8.46753, 15.6116, 31.9932, 11.8474, -45.6069, -7.96411
4.172, 7, 8.45918, 15.614, 31.9952, 11.8414, -45.6133, -7.95959
4.176, 7, 8.45241, 15.616, 31.9967, 11.8372, -45.6178, -7.95639
4.18, 7, 8.44706, 15.6175, 31.9977, 11.8342, -45.6209, -7.95415
4.184, 7, 8.443, 15.6186, 31.9984, 11.8322, -45.623, -7.95262
4.188, 7, 8.44005, 15.6194, 31.9988, 11.8308, -45.6245, -7.95158
4.192, 7, 8.43793, 15.62, 31.9991, 11.8298, -45.6255, -7.95086
4.196, 7, 8.43625, 15.6204, 31.9994, 11.8292, -45.6262, -7.95038
4.2, 7, 8.43463, 15.6209, 31.9995, 11.8287, -45.6267, -7.95002
4.204, 7, 8.43272, 15.6213, 31.9996, 11.8283, -45.6271, -7.94971
4.208, 7, 8.43024, 15.622, 31.9998, 11.8278, -45.6276, -7.94933
4.212, 7, 8.42698, 15.6229, 32, 11.8271, -45.6284, -7.94875
4.216, 7, 8.42277, 15.6241, 32.0005, 11.8258, -45.6298, -7.94777
4.22, 7, 8.41744, 15.6257, 32.0012, 11.8237, -45.632, -7.94616
4.224, 7, 8.4108, 15.6277, 32.0023, 11.8203, -45.6357, -7.94361
4.228, 8, 8.40262, 15.6303, 32.004, 11.8151, -45.6411, -7.93975
4.232, 8, 8.39254, 15.6335, 32.0065, 11.8077, -45.6491, -7.93414
4.236, 8, 8.38016, 15.6375, 32.0101, 11.7972, -45.6604, -7.9263
4.24, 8, 8.36508, 15.6424, 32.0149, 11.7829, -45.6757, -7.91565
4.244, 8, 8.34692, 15.6484, 32.0212, 11.764, -45.6959, -7.90158
4.248, 8, 8.3254, 15.6554, 32.0295, 11.7396, -45.7222, -7.88343
4.252, 8, 8.30024, 15.6636, 32.0399, 11.7088, -45.7554, -7.86051
4.256, 8, 8.27116, 15.6729, 32.0528, 11.6705, -45.7967, -7.83214
4.26, 8, 8.23779, 15.6834, 32.0684, 11.6241, -45.847, -7.79771
4.264, 8, 8.19978, 15.6951, 32.0872, 11.5685, -45.9072, -7.75661
4.268, 8, 8.15676, 15.7081, 32.1092, 11.5032, -45.9783, -7.70834
4.272, 8, 8.10845, 15.7223, 32.1347, 11.4275, -46.0611, -7.65244
4.276, 8, 8.05461, 15.7378, 32.1639, 11.3408, -46.1561, -7.58858
4.28, 8, 7.99511, 15.7547, 32.1968, 11.2429, -46.264, -7.51651
4.284, 8, 7.92984, 15.7729, 32.2334, 11.1334, -46.3851, -7.43607
4.288, 8, 7.85874, 15.7925, 32.2739, 11.0122, -46.5197, -7.34726
4.292, 8, 7.78182, 15.8137, 32.3181, 10.8796, -46.668, -7.25017
4.296, 8, 7.6992, 15.8364, 32.366, 10.7356, -46.8297, -7.14505
4.3, 8, 7.61118, 15.8604, 32.4173, 10.5808, -47.0047, -7.03223
4.304, 8, 7.51817, 15.8856, 32.4719, 10.4158, -47.1924, -6.91222
4.308, 8, 7.42075, 15.9119, 32.5294, 10.2412, -47.3922, -6.78562
4.312, 8, 7.31965, 15.9392, 32.5895, 10.0582, -47.6032, -6.6532
4.316, 8, 7.21564, 15.9674, 32.6519, 9.86779, -47.824, -6.51584
4.32, 8, 7.10936, 15.9966, 32.7159, 9.6715, -48.0533, -6.37458
4.324, 8, 7.00129, 16.0268, 32.7812, 9.4708, -48.2894, -6.23054
4.328, 8, 6.89183, 16.058, 32.847, 9.26734, -48.5303, -6.0849
4.332, 8, 6.78146, 16.0902, 32.913, 9.06281, -48.7743, -5.9389
4.336, 8, 6.67075, 16.1232, 32.9784, 8.85891, -49.0191, -5.79374
4.34, 8, 6.56028, 16.1567, 33.0427, 8.65734, -49.2628, -5.65061
4.344, 8, 6.45064, 16.1904, 33.1055, 8.45969, -49.5034, -5.51064
4.348, 8, 6.34249, 16.2242, 33.1663, 8.26751, -49.7388, -5.3749
4.352, 8, 6.23647, 16.2578, 33.2245, 8.0822, -49.9673, -5.24434
4.356, 8, 6.13321, 16.291, 33.2799, 7.90499, -50.1872, -5.11981
4.36, 8, 6.03322, 16.3238, 33.3322, 7.73693, -50.3969, -5.00198
4.364, 8, 5.93697, 16.3559, 33.381, 7.57884, -50.5954, -4.89141
4.368, 8, 5.84494, 16.3872, 33.4263, 7.43132, -50.7817, -4.78844
4.372, 8, 5.75765, 16.4174, 33.468, 7.29472, -50.955, -4.6933
4.376, 8, 5.67554, 16.4463, 33.5061, 7.16921, -51.1151, -4.60604
4.38, 8, 5.59899, 16.4736, 33.5406, 7.05475, -51.2618, -4.52662
4.384, 8, 5.5282, 16.4993, 33.5716, 6.95119, -51.3951, -4.45488
4.388, 8, 5.46327, 16.5232, 33.5992, 6.85826, -51.5152, -4.3906
4.392, 8, 5.40416, 16.5452, 33.6237, 6.77558, -51.6224, -4.3335
4.396, 8, 5.35068, 16.5655, 33.6451, 6.70272, -51.7172, -4.28323
4.4, 8, 5.30254, 16.5839, 33.6637, 6.63915, -51.8002, -4.23942
4.404, 8, 5.25945, 16.6008, 33.6796, 6.58429, -51.8719, -4.20165
4.408, 8, 5.22112, 16.616, 33.693, 6.5375, -51.9333, -4.16944
4.412, 8, 5.18729, 16.6296, 33.7043, 6.49806, -51.9852, -4.14231
4.416, 8, 5.15773, 16.6418, 33.7135, 6.46523, -52.0284, -4.11973
4.42, 8, 5.1322, 16.6524, 33.7211, 6.43828, -52.064, -4.1012
4.424, 8, 5.1104, 16.6616, 33.7271, 6.41645, -52.0929, -4.08618
4.428, 8, 5.09195, 16.6694, 33.7318, 6.39906, -52.1159, -4.07421
4.432, 8, 5.07641, 16.6761, 33.7355, 6.38543, -52.134, -4.06483
4.436, 8, 5.0633, 16.6817, 33.7383, 6.37496, -52.1478, -4.05762
4.44, 8, 5.05225, 16.6863, 33.7403, 6.36709, -52.1583, -4.05219
4.444, 8, 5.04299, 16.6902, 33.7418, 6.36131, -52.166, -4.04819
4.448, 8, 5.03535, 16.6933, 33.7428, 6.35715, -52.1715, -4.04531
4.452, 8, 5.02918, 16.6958, 33.7435, 6.35423, -52.1754, -4.04328
4.456, 8, 5.02437, 16.6977, 33.744, 6.35221, -52.1781, -4.04187
4.46, 8, 5.02078, 16.6991, 33.7443, 6.35083, -52.1799, -4.04091
4.464, 8, 5.0182, 16.7, 33.7445, 6.34989, -52.1812, -4.04026
4.468, 8, 5.01636, 16.7007, 33.7446, 6.34926, -52.182, -4.03981
4.472, 8, 5.01488, 16.7012, 33.7447, 6.34882, -52.1826, -4.0395
4.476, 8, 5.01339, 16.7018, 33.7448, 6.3485, -52.183, -4.03928
4.48, 8, 5.01156, 16.7024, 33.7448, 6.34821, -52.1834, -4.03907
4.484, 8, 5.00914, 16.7032, 33.7448, 6.34786, -52.1839, -4.03881
4.488, 8, 5.0059, 16.7044, 33.7449, 6.34728, -52.1847, -4.0384
4.492, 8, 5.00169, 16.7061, 33.745, 6.34627, -52.186, -4.03769
4.496, 8, 4.99635, 16.7082, 33.7454, 6.34459, -52.1883, -4.03651
4.5, 8, 4.98968, 16.7111, 33.7459, 6.3419, -52.1919, -4.03464
4.504, 9, 4.98144, 16.7148, 33.7469, 6.3378, -52.1974, -4.0318
4.508, 9, 4.9713, 16.7197, 33.7483, 6.33183, -52.2054, -4.02769
4.512, 9, 4.95883, 16.7258, 33.7503, 6.32344, -52.2167, -4.02192
4.516, 9, 4.94364, 16.7334, 33.7532, 6.31202, -52.2321, -4.01409
4.52, 9, 4.92535, 16.7427, 33.7571, 6.29688, -52.2525, -4.00373
4.524, 9, 4.90369, 16.7535, 33.7622, 6.27729, -52.2789, -3.99036
4.528, 9, 4.87837, 16.766, 33.7687, 6.2525, -52.3124, -3.97347
4.532, 9, 4.84912, 16.78, 33.7769, 6.22175, -52.3539, -3.95256
4.536, 9, 4.81558, 16.7956, 33.7869, 6.18432, -52.4046, -3.92715
4.54, 9, 4.77738, 16.813, 33.799, 6.13956, -52.4654, -3.89682
4.544, 9, 4.73414, 16.8322, 33.8132, 6.08686, -52.5371, -3.86117
4.548, 9, 4.68555, 16.8534, 33.8297, 6.0257, -52.6205, -3.81986
4.552, 9, 4.63136, 16.8769, 33.8486, 5.95565, -52.7163, -3.77264
4.556, 9, 4.57144, 16.9028, 33.8699, 5.87636, -52.8251, -3.71929
4.56, 9, 4.50574, 16.931, 33.8938, 5.78762, -52.9473, -3.65969
4.564, 9, 4.43421, 16.9617, 33.9201, 5.68932, -53.0831, -3.59382
4.568, 9, 4.35684, 16.9951, 33.9488, 5.5815, -53.2327, -3.52173
4.572, 9, 4.27368, 17.031, 33.9798, 5.46433, -53.396, -3.44357
4.576, 9, 4.18493, 17.0694, 34.0131, 5.33811, -53.5726, -3.35959
4.58, 9, 4.09096, 17.1101, 34.0483, 5.20329, -53.7623, -3.27012
4.584, 9, 3.99233, 17.1528, 34.0854, 5.06043, -53.9642, -3.17559
4.588, 9, 3.88977, 17.1972, 34.1241, 4.91028, -54.1775, -3.07652
4.592, 9, 3.78412, 17.243, 34.1642, 4.75372, -54.4012, -2.97353
4.596, 9, 3.67618, 17.29, 34.2053, 4.59179, -54.6337, -2.86735
4.6, 9, 3.56651, 17.3383, 34.247, 4.42571, -54.8735, -2.75877
4.604, 9, 3.45551, 17.3876, 34.289, 4.2568, -55.1187, -2.64868
4.608, 9, 3.34355, 17.4381, 34.331, 4.08645, -55.3673, -2.538
4.612, 9, 3.23111, 17.4896, 34.3724, 3.91608, -55.6173, -2.42765
4.616, 9, 3.11871, 17.5416, 34.413, 3.74712, -55.8665, -2.31854
4.62, 9, 3.00699, 17.5939, 34.4524, 3.58093, -56.113, -2.21154
4.624, 9, 2.89662, 17.646, 34.4903, 3.41881, -56.3547, -2.10747
4.628, 9, 2.78832, 17.6975, 34.5265, 3.26197, -56.5897, -2.00709
4.632, 9, 2.68274, 17.7482, 34.5607, 3.11152, -56.8162, -1.91105
4.636, 9, 2.58042, 17.7979, 34.5927, 2.96837, -57.0327, -1.81993
4.64, 9, 2.48183, 17.8461, 34.6224, 2.83332, -57.238, -1.73418
4.644, 9, 2.38738, 17.8929, 34.6497, 2.70693, -57.431, -1.65413
4.648, 9, 2.29752, 17.9378, 34.6746, 2.58961, -57.6108, -1.57999
4.652, 9, 2.21273, 17.9806, 34.6971, 2.48155, -57.7771, -1.51185
4.656, 9, 2.13343, 18.021, 34.7173, 2.38279, -57.9297, -1.4497
4.66, 9, 2.0599, 18.0588, 34.7353, 2.29324, -58.0686, -1.39345
4.664, 9, 1.99232, 18.0938, 34.7512, 2.21268, -58.1939, -1.34293
4.668, 9, 1.93068, 18.126, 34.7651, 2.14084, -58.3059, -1.29796
4.672, 9, 1.87485, 18.1554, 34.7771, 2.07736, -58.4052, -1.25826
4.676, 9, 1.82457, 18.1821, 34.7874, 2.02183, -58.4923, -1.22358
4.68, 9, 1.77952, 18.2062, 34.7961, 1.97377, -58.5679, -1.19359
4.684, 9, 1.73937, 18.2279, 34.8034, 1.93266, -58.6326, -1.16795
4.688, 9, 1.70384, 18.2473, 34.8093, 1.89793, -58.6874, -1.1463
4.692, 9, 1.67267, 18.2644, 34.8141, 1.86895, -58.7332, -1.12824
4.696, 9, 1.64563, 18.2794, 34.8179, 1.8451, -58.771, -1.11337
4.7, 9, 1.62245, 18.2923, 34.8209, 1.82575, -58.8017, -1.1013
4.704, 9, 1.60277, 18.3034, 34.8231, 1.81029, -58.8262, -1.09165
4.708, 9, 1.58619, 18.3127, 34.8248, 1.79814, -58.8455, -1.08406
4.712, 9, 1.57222, 18.3204, 34.8259, 1.78878, -58.8604, -1.07821
4.716, 9, 1.56047, 18.3269, 34.8267, 1.78171, -58.8717, -1.07378
4.72, 9, 1.55062, 18.3322, 34.8273, 1.77649, -58.88, -1.0705
4.724, 9, 1.54247, 18.3365, 34.8276, 1.77272, -58.886, -1.06813
4.728, 9, 1.53585, 18.3398, 34.8277, 1.77007, -58.8903, -1.06645
4.732, 9, 1.53064, 18.3424, 34.8278, 1.76822, -58.8933, -1.06528
4.736, 9, 1.52671, 18.3443, 34.8278, 1.76696, -58.8953, -1.06447
4.74, 9, 1.52386, 18.3457, 34.8278, 1.7661, -58.8967, -1.06393
4.744, 9, 1.52181, 18.3466, 34.8278, 1.76552, -58.8976, -1.06356
4.748, 9, 1.52019, 18.3474, 34.8278, 1.76512, -58.8982, -1.0633
4.752, 9, 1.51862, 18.3482, 34.8277, 1.76484, -58.8987, -1.06312
4.756, 9, 1.51674, 18.3492, 34.8276, 1.76459, -58.8991, -1.06296
4.76, 9, 1.51429, 18.3507, 34.8273, 1.76431, -58.8996, -1.06277
4.764, 9, 1.51106, 18.3528, 34.8268, 1.76387, -58.9003, -1.0625
4.768, 9, 1.50688, 18.3559, 34.8261, 1.76313, -58.9016, -1.06204
4.772, 9, 1.5016, 18.3602, 34.8252, 1.7619, -58.9037, -1.06128
4.776, 9, 1.49504, 18.366, 34.8239, 1.75993, -58.907, -1.06008
4.78, 9, 1.48698, 18.3736, 34.8222, 1.75694, -58.9121, -1.05827
4.784, 9, 1.47709, 18.3833, 34.82, 1.75257, -58.9196, -1.05564
4.788, 9, 1.46501, 18.3952, 34.8172, 1.74643, -58.9301, -1.05195
4.792, 9, 1.45036, 18.4097, 34.8136, 1.73806, -58.9443, -1.04694
4.796, 9, 1.4328, 18.427, 34.8093, 1.72695, -58.9633, -1.04029
4.8, 9, 1.41207, 18.447, 34.8041, 1.71257, -58.9878, -1.03171
4.804, 9, 1.38793, 18.47, 34.7979, 1.69433, -59.019, -1.02084
4.808, 9, 1.36011, 18.4963, 34.7906, 1.67166, -59.0576, -1.00734
4.812, 9, 1.32829, 18.5262, 34.7821, 1.64402, -59.1048, -0.990901
4.816, 9, 1.29212, 18.5601, 34.7723, 1.61086, -59.1613, -0.971198
4.82, 9, 1.25125, 18.5984, 34.7612, 1.57171, -59.2281, -0.947946
4.824, 9, 1.20538, 18.6414, 34.7485, 1.52612, -59.3059, -0.920882
4.828, 9, 1.15439, 18.6891, 34.7343, 1.47371, -59.3953, -0.889777
4.832, 9, 1.09833, 18.7417, 34.7186, 1.41414, -59.4968, -0.854445
4.836, 9, 1.03745, 18.7988, 34.7013, 1.3472, -59.611, -0.814755
4.84, 9, 0.972061, 18.8602, 34.6826, 1.27279, -59.7379, -0.770652
4.844, 9, 0.902445, 18.9258, 34.6624, 1.19095, -59.8775, -0.722167
4.848, 9, 0.828855, 18.9951, 34.6409, 1.1019, -60.0293, -0.669432
4.852, 9, 0.751503, 19.068, 34.6181, 1.00604, -60.1928, -0.612679
4.856, 9, 0.67064, 19.144, 34.5941, 0.903926, -60.3669, -0.55223
4.86, 9, 0.586659, 19.2231, 34.5689, 0.796235, -60.5506, -0.488493
4.864, 9, 0.500127, 19.3048, 34.5428, 0.683773, -60.7424, -0.421941
4.868, 9, 0.411704, 19.3886, 34.5159, 0.567434, -60.9408, -0.353102
4.872, 9, 0.322033, 19.4741, 34.4884, 0.448188, -61.1441, -0.282548
4.876, 9, 0.231659, 19.5607, 34.4605, 0.32707, -61.3506, -0.210892
4.88, 9, 0.140957, 19.648, 34.4325, 0.205155, -61.5585, -0.138767
4.884, 9, 0.0501436, 19.7357, 34.4045, 0.0835362, -61.7659, -0.0668164
4.888, 9, -0.0405827, 19.8233, 34.3766, -0.0367207, -61.9709, 0.00433288
4.892, 9, -0.13088, 19.9103, 34.349, -0.154614, -62.172, 0.0740913
4.896, 9, -0.220206, 19.9961, 34.322, -0.269238, -62.3674, 0.141924
4.9, 9, -0.307869, 20.08, 34.2956, -0.379801, -62.5559, 0.207364
4.904, 9, -0.393133, 20.1616, 34.2701, -0.485633, -62.7364, 0.270014
4.908, 9, -0.475339, 20.24, 34.2456, -0.586181, -62.9079, 0.329544
4.912, 9, -0.553983, 20.315, 34.2223, -0.680999, -63.0695, 0.385689
4.916, 9, -0.628723, 20.3862, 34.2003, -0.769741, -63.2209, 0.438247
4.92, 9, -0.699331, 20.4533, 34.1797, -0.852165, -63.3614, 0.487072
4.924, 9, -0.765643, 20.5162, 34.1604, -0.928128, -63.4909, 0.53208
4.928, 9, -0.827513, 20.5749, 34.1425, -0.997583, -63.6094, 0.573243
4.932, 9, -0.884797, 20.6291, 34.126, -1.06058, -63.7168, 0.610587
4.936, 9, -0.9374, 20.6788, 34.111, -1.11723, -63.8134, 0.644183
4.94, 9, -0.985345, 20.724, 34.0974, -1.16774, -63.8996, 0.674142
4.944, 9, -1.02878, 20.7649, 34.0852, -1.21234, -63.9756, 0.700606
4.948, 9, -1.06794, 20.8018, 34.0742, -1.25133, -64.0421, 0.723749
4.952, 9, -1.10307, 20.8347, 34.0645, -1.28504, -64.0996, 0.743771
4.956, 9, -1.13437, 20.864, 34.056, -1.31386, -64.1488, 0.7609
4.96, 9, -1.16203, 20.8898, 34.0485, -1.33821, -64.1903, 0.77538
4.964, 9, -1.18624, 20.9124, 34.0421, -1.35852, -64.2249, 0.787473
4.968, 9, -1.20719, 20.9318, 34.0365, -1.37525, -64.2535, 0.797439
4.972, 9, -1.22512, 20.9483, 34.0319, -1.38883, -64.2766, 0.805538
4.976, 9, -1.24036, 20.9623, 34.028, -1.39968, -64.2951, 0.812017
4.98, 9, -1.25331, 20.974, 34.0248, -1.4082, -64.3097, 0.817109
4.984, 9, -1.26436, 20.9837, 34.0221, -1.41475, -64.3208, 0.821031
4.988, 9, -1.27377, 20.9918, 34.02, -1.41967, -64.3292, 0.823987
4.992, 9, -1.28175, 20.9983, 34.0182, -1.42329, -64.3354, 0.826165
4.996, 9, -1.28838, 21.0036, 34.0169, -1.42588, -64.3399, 0.827733
5, 9, -1.29377, 21.0077, 34.0158, -1.4277, -64.343, 0.828838
5.004, 9, -1.29798, 21.0108, 34.015, -1.42896, -64.3451, 0.829603
5.008, 9, -1.30114, 21.0131, 34.0145, -1.42982, -64.3466, 0.830127
5.012, 9, -1.30344, 21.0147, 34.0141, -1.4304, -64.3476, 0.830484
5.016, 9, -1.3052, 21.0159, 34.0137, -1.4308, -64.3483, 0.830728
5.02, 9, -1.30677, 21.017, 34.0135, -1.43108, -64.3487, 0.8309
5.024, 9, -1.30847, 21.0182, 34.0131, -1.43131, -64.3491, 0.831038
5.028, 9, -1.31055, 21.0198, 34.0126, -1.43154, -64.3495, 0.831181
5.032, 9, -1.31319, 21.0221, 34.012, -1.43185, -64.3501, 0.831374
5.036, 9, -1.31653, 21.0252, 34.0109, -1.43236, -64.351, 0.831677
5.04, 9, -1.32066, 21.0297, 34.0095, -1.43318, -64.3525, 0.832165
5.044, 9, -1.32572, 21.0356, 34.0075, -1.43448, -64.3548, 0.83293
5.048, 9, -1.33185, 21.0434, 34.0048, -1.43645, -64.3584, 0.834081
5.052, 11, -1.33925, 21.0531, 34.0011, -1.43932, -64.3636, 0.835749
5.056, 11, -1.34818, 21.0652, 33.9963, -1.44334, -64.3709, 0.838081
5.06, 11, -1.35889, 21.0798, 33.9901, -1.44881, -64.3809, 0.841248
5.064, 11, -1.3716, 21.0971, 33.9822, -1.45606, -64.3941, 0.845434
5.068, 11, -1.38649, 21.1173, 33.9725, -1.46544, -64.4112, 0.850838
5.072, 11, -1.40368, 21.1406, 33.9607, -1.4773, -64.4329, 0.857666
5.076, 11, -1.42337, 21.1673, 33.9465, -1.49202, -64.4598, 0.866124
5.08, 11, -1.44574, 21.1979, 33.9297, -1.50994, -64.4927, 0.876407
5.084, 11, -1.47103, 21.2327, 33.9099, -1.53138, -64.532, 0.888699
5.088, 11, -1.49948, 21.272, 33.887, -1.55664, -64.5785, 0.903167
5.092, 11, -1.53132, 21.3164, 33.8606, -1.58598, -64.6325, 0.919957
5.096, 11, -1.56673, 21.3659, 33.8306, -1.61962, -64.6945, 0.939195
5.1, 11, -1.6059, 21.4211, 33.7967, -1.65776, -64.7649, 0.960983
5.104, 11, -1.64893, 21.4819, 33.7587, -1.70054, -64.844, 0.985399
5.108, 11, -1.69586, 21.5487, 33.7166, -1.74806, -64.932, 1.0125
5.112, 11, -1.74664, 21.6213, 33.6702, -1.80038, -65.0292, 1.04231
5.116, 11, -1.80119, 21.6997, 33.6195, -1.85749, -65.1354, 1.07482
5.12, 11, -1.85941, 21.7839, 33.5644, -1.91934, -65.2508, 1.10999
5.124, 11, -1.92118, 21.8737, 33.505, -1.98581, -65.375, 1.14775
5.128, 11, -1.98636, 21.9689, 33.4413, -2.05671, -65.5079, 1.18799
5.132, 11, -2.05479, 22.0694, 33.3734, -2.13181, -65.649, 1.23056
5.136, 11, -2.12622, 22.1748, 33.3016, -2.21079, -65.7978, 1.27529
5.14, 11, -2.20031, 22.2845, 33.2259, -2.2933, -65.9537, 1.32198
5.144, 11, -2.27654, 22.398, 33.1468, -2.37894, -66.1159, 1.37038
5.148, 11, -2.35431, 22.5145, 33.0646, -2.46725, -66.2837, 1.42024
5.152, 11, -2.43303, 22.6335, 32.9796, -2.55772, -66.4562, 1.47127
5.156, 11, -2.51231, 22.7544, 32.8924, -2.6498, -66.6322, 1.52316
5.16, 11, -2.59194, 22.8769, 32.8033, -2.74289, -66.8107, 1.57557
5.164, 11, -2.67182, 23.0006, 32.7129, -2.83637, -66.9905, 1.62815
5.168, 11, -2.7519, 23.1251, 32.6216, -2.92963, -67.1704, 1.68056
5.172, 11, -2.83208, 23.2501, 32.5299, -3.02205, -67.3492, 1.73247
5.176, 11, -2.91211, 23.3748, 32.4385, -3.11309, -67.5258, 1.78356
5.18, 11, -2.99159, 23.4985, 32.3477, -3.20222, -67.6993, 1.83355
5.184, 11, -3.07, 23.6204, 32.2582, -3.28897, -67.8685, 1.88218
5.188, 11, -3.14688, 23.7399, 32.1705, -3.37293, -68.0328, 1.92921
5.192, 11, -3.22185, 23.8564, 32.0849, -3.45373, -68.1914, 1.97446
5.196, 11, -3.2946, 23.9694, 32.0019, -3.53108, -68.3435, 2.01775
5.2, 11, -3.36487, 24.0785, 31.9219, -3.60471, -68.4887, 2.05895
5.204, 11, -3.43241, 24.1833, 31.8451, -3.67445, -68.6265, 2.09796
5.208, 11, -3.49696, 24.2835, 31.7719, -3.74015, -68.7567, 2.1347
5.212, 11, -3.55826, 24.3786, 31.7024, -3.80175, -68.879, 2.16914
5.216, 11, -3.61611, 24.4684, 31.6369, -3.85918, -68.9932, 2.20125
5.22, 11, -3.67041, 24.5526, 31.5756, -3.91246, -69.0994, 2.23102
5.224, 11, -3.72112, 24.6313, 31.5184, -3.9616, -69.1976, 2.25848
5.228, 11, -3.76825, 24.7043, 31.4654, -4.00666, -69.2877, 2.28366
5.232, 11, -3.81183, 24.7717, 31.4166, -4.04769, -69.3699, 2.30659
5.236, 11, -3.85193, 24.8337, 31.372, -4.08482, -69.4443, 2.32734
5.24, 11, -3.8886, 24.8902, 31.3316, -4.11815, -69.5112, 2.34596
5.244, 11, -3.92196, 24.9414, 31.2952, -4.14784, -69.5709, 2.36255
5.248, 11, -3.95216, 24.9876, 31.2627, -4.17403, -69.6236, 2.3772
5.252, 11, -3.97938, 25.0291, 31.2338, -4.19692, -69.6697, 2.39
5.256, 11, -4.00385, 25.0661, 31.2085, -4.2167, -69.7096, 2.40107
5.26, 11, -4.02576, 25.099, 31.1865, -4.23361, -69.7437, 2.41053
5.264, 11, -4.04528, 25.1279, 31.1674, -4.24787, -69.7724, 2.41852
5.268, 11, -4.06254, 25.1532, 31.1512, -4.25974, -69.7964, 2.42518
5.272, 11, -4.07763, 25.1751, 31.1376, -4.2695, -69.8161, 2.43066
5.276, 11, -4.0907, 25.1938, 31.1262, -4.2774, -69.832, 2.4351
5.28, 11, -4.10192, 25.2095, 31.1169, -4.2837, -69.8448, 2.43864
5.284, 11, -4.11152, 25.2226, 31.1094, -4.28864, -69.8547, 2.44142
5.288, 11, -4.11973, 25.2334, 31.1033, -4.29244, -69.8624, 2.44357
5.292, 11, -4.12676, 25.2423, 31.0986, -4.2953, -69.8681, 2.44518
5.296, 11, -4.13276, 25.2495, 31.0949, -4.2974, -69.8724, 2.44638
5.3, 11, -4.13779, 25.2552, 31.0921, -4.29891, -69.8754, 2.44724
5.304, 11, -4.14192, 25.2597, 31.09, -4.29998, -69.8776, 2.44785
5.308, 11, -4.14519, 25.2631, 31.0884, -4.30072, -69.879, 2.44827
5.312, 11, -4.14767, 25.2655, 31.0873, -4.30122, -69.8801, 2.44856
5.316, 11, -4.14951, 25.2673, 31.0865, -4.30157, -69.8807, 2.44876
5.32, 11, -4.15095, 25.2686, 31.086, -4.3018, -69.8812, 2.44889
5.324, 11, -4.1523, 25.2698, 31.0855, -4.30197, -69.8815, 2.44899
5.328, 11, -4.15382, 25.2711, 31.085, -4.30211, -69.8818, 2.44907
5.332, 11, -4.15575, 25.2728, 31.0844, -4.30226, -69.8821, 2.44917
5.336, 11, -4.15823, 25.2752, 31.0836, -4.3025, -69.8826, 2.44931
5.34, 11, -4.16137, 25.2787, 31.0824, -4.30289, -69.8834, 2.44954
5.344, 11, -4.16528, 25.2834, 31.0807, -4.30353, -69.8847, 2.44991
5.348, 11, -4.17005, 25.2896, 31.0784, -4.30457, -69.8867, 2.45051
5.352, 11, -4.1758, 25.2975, 31.0752, -4.30613, -69.8899, 2.4514
5.356, 12, -4.18272, 25.3073, 31.0709, -4.30842, -69.8945, 2.4527
5.36, 12, -4.19104, 25.3194, 31.0652, -4.31164, -69.901, 2.45453
5.364, 12, -4.20097, 25.3338, 31.0579, -4.31602, -69.9099, 2.457
5.368, 12, -4.21272, 25.351, 31.0486, -4.32183, -69.9217, 2.46028
5.372, 12, -4.22642, 25.371, 31.0371, -4.32934, -69.9369, 2.46451
5.376, 12, -4.24219, 25.3943, 31.0231, -4.33886, -69.9563, 2.46986
5.38, 12, -4.26017, 25.421, 31.0061, -4.35068, -69.9803, 2.47648
5.384, 12, -4.28055, 25.4517, 30.9859, -4.36507, -70.0096, 2.48455
5.388, 12, -4.30353, 25.4866, 30.9622, -4.38231, -70.0448, 2.4942
5.392, 12, -4.32933, 25.5262, 30.9347, -4.40263, -70.0863, 2.50557
5.396, 12, -4.35813, 25.5709, 30.903, -4.42624, -70.1345, 2.51878
5.4, 12, -4.39011, 25.6208, 30.8668, -4.45333, -70.1899, 2.53393
5.404, 12, -4.42545, 25.6764, 30.826, -4.48406, -70.2529, 2.55111
5.408, 12, -4.46425, 25.7378, 30.7803, -4.51855, -70.3236, 2.57038
5.412, 12, -4.50658, 25.8052, 30.7295, -4.55688, -70.4023, 2.59181
5.416, 12, -4.55245, 25.8787, 30.6735, -4.59912, -70.4892, 2.61542
5.42, 12, -4.60177, 25.9582, 30.6123, -4.64527, -70.5843, 2.64122
5.424, 12, -4.65444, 26.0437, 30.5458, -4.69531, -70.6876, 2.66919
5.428, 12, -4.71033, 26.1349, 30.4739, -4.74917, -70.7989, 2.6993
5.432, 12, -4.7693, 26.2318, 30.3969, -4.80671, -70.9181, 2.73148
5.436, 12, -4.83119, 26.3341, 30.3148, -4.86777, -71.0449, 2.76563
5.44, 12, -4.89582, 26.4415, 30.2278, -4.93211, -71.1787, 2.80163
5.444, 12, -4.96294, 26.5536, 30.1361, -4.99948, -71.3191, 2.83934
5.448, 12, -5.03215, 26.6699, 30.0401, -5.06954, -71.4655, 2.87858
5.452, 12, -5.10294, 26.7895, 29.9401, -5.14195, -71.6171, 2.91915
5.456, 12, -5.17474, 26.912, 29.8368, -5.21632, -71.7732, 2.96085
5.46, 12, -5.2471, 27.0366, 29.7305, -5.29221, -71.9328, 3.00343
5.464, 12, -5.31976, 27.1628, 29.6219, -5.36915, -72.095, 3.04663
5.468, 12, -5.3926, 27.2904, 29.5115, -5.44664, -72.2588, 3.09018
5.472, 12, -5.46563, 27.4189, 29.3999, -5.52418, -72.423, 3.13379
5.476, 12, -5.53881, 27.5479, 29.2877, -5.60127, -72.5867, 3.1772
5.48, 12, -5.61204, 27.6771, 29.1756, -5.67742, -72.7488, 3.22013
5.484, 12, -5.68501, 27.8055, 29.0641, -5.7522, -72.9083, 3.26233
5.488, 12, -5.75728, 27.9324, 28.9541, -5.82521, -73.0643, 3.30358
5.492, 12, -5.82839, 28.0571, 28.846, -5.89608, -73.2161, 3.34368
5.496, 12, -5.89794, 28.179, 28.7404, -5.9645, -73.363, 3.38244
5.5, 12, -5.96561, 28.2975, 28.6378, -6.0302, -73.5043, 3.41971
5.504, 12, -6.03115, 28.4121, 28.5387, -6.09295, -73.6396, 3.45535
5.508, 12, -6.09432, 28.5225, 28.4435, -6.15257, -73.7683, 3.48926
5.512, 12, -6.15491, 28.6283, 28.3524, -6.20891, -73.8902, 3.52136
5.516, 12, -6.21268, 28.729, 28.2659, -6.2619, -74.0051, 3.55158
5.52, 12, -6.26742, 28.8243, 28.1841, -6.31146, -74.1127, 3.57988
5.524, 12, -6.31897, 28.9141, 28.1072, -6.35759, -74.213, 3.60626
5.528, 12, -6.36728, 28.9981, 28.0354, -6.40028, -74.3059, 3.6307
5.532, 12, -6.41233, 29.0763, 27.9687, -6.43956, -74.3915, 3.65322
5.536, 12, -6.45414, 29.1488, 27.9072, -6.47548, -74.4699, 3.67383
5.54, 12, -6.49276, 29.2156, 27.8508, -6.5081, -74.5412, 3.69257
5.544, 12, -6.52823, 29.2767, 27.7994, -6.53751, -74.6056, 3.70949
5.548, 12, -6.56063, 29.3323, 27.753, -6.56382, -74.6632, 3.72464
5.552, 12, -6.59007, 29.3826, 27.7114, -6.58716, -74.7143, 3.7381
5.556, 12, -6.61671, 29.4279, 27.6744, -6.60767, -74.7593, 3.74993
5.56, 12, -6.64074, 29.4684, 27.6418, -6.62549, -74.7984, 3.76023
5.564, 12, -6.66235, 29.5044, 27.6133, -6.64082, -74.832, 3.7691
5.568, 12, -6.68171, 29.5363, 27.5886, -6.65383, -74.8606, 3.77664
5.572, 12, -6.69894, 29.5643, 27.5675, -6.66474, -74.8845, 3.78297
5.576, 12, -6.71415, 29.5886, 27.5496, -6.67377, -74.9044, 3.78821
5.58, 12, -6.72743, 29.6095, 27.5347, -6.68114, -74.9205, 3.7925
5.584, 12, -6.73891, 29.6272, 27.5224, -6.68705, -74.9335, 3.79595
5.588, 12, -6.74878, 29.6421, 27.5124, -6.69173, -74.9438, 3.79868
5.592, 12, -6.75724, 29.6544, 27.5043, -6.69536, -74.9518, 3.80081
5.596, 12, -6.76451, 29.6646, 27.498, -6.69813, -74.9578, 3.80243
5.6, 12, -6.77075, 29.6728, 27.493, -6.70019, -74.9623, 3.80364
5.604, 12, -6.77605, 29.6794, 27.4892, -6.70168, -74.9656, 3.80453
5.608, 12, -6.78048, 29.6847, 27.4863, -6.70275, -74.9679, 3.80516
5.612, 12, -6.78407, 29.6887, 27.4842, -6.70349, -74.9695, 3.8056
5.616, 12, -6.78686, 29.6917, 27.4826, -6.704, -74.9707, 3.80591
5.62, 12, -6.78893, 29.6938, 27.4815, -6.70435, -74.9714, 3.80612
5.624, 12, -6.79044, 29.6953, 27.4808, -6.70459, -74.9719, 3.80626
5.628, 12, -6.79164, 29.6965, 27.4802, -6.70475, -74.9723, 3.80635
5.632, 12, -6.7928, 29.6976, 27.4798, -6.70486, -74.9725, 3.80643
5.636, 12, -6.79418, 29.6989, 27.4793, -6.70496, -74.9727, 3.80649
5.64, 12, -6.79598, 29.7008, 27.4786, -6.70508, -74.973, 3.80656
5.644, 12, -6.79832, 29.7034, 27.4777, -6.70526, -74.9734, 3.80668
5.648, 12, -6.8013, 29.7071, 27.4764, -6.70557, -74.974, 3.80687
5.652, 12, -6.80501, 29.7121, 27.4746, -6.70609, -74.9752, 3.80718
5.656, 12, -6.80951, 29.7185, 27.4719, -6.70692, -74.977, 3.80769
5.66, 12, -6.81493, 29.7265, 27.4683, -6.70819, -74.9798, 3.80844
5.664, 13, -6.82142, 29.7363, 27.4634, -6.71005, -74.9838, 3.80955
5.668, 13, -6.82919, 29.7481, 27.4569, -6.71266, -74.9896, 3.81109
5.672, 13, -6.83844, 29.7624, 27.4485, -6.71622, -74.9974, 3.81319
5.676, 13, -6.84934, 29.7793, 27.4378, -6.72094, -75.0078, 3.81596
5.68, 13, -6.862, 29.7992, 27.4244, -6.72706, -75.0213, 3.81955
5.684, 13, -6.87652, 29.8224, 27.4081, -6.73481, -75.0384, 3.82409
5.688, 13, -6.89303, 29.8492, 27.3884, -6.74444, -75.0597, 3.82972
5.692, 13, -6.91168, 29.8799, 27.3649, -6.75617, -75.0856, 3.83658
5.696, 13, -6.93265, 29.9151, 27.3372, -6.77022, -75.1167, 3.84479
5.7, 13, -6.95612, 29.9549, 27.305, -6.7868, -75.1535, 3.85447
5.704, 13, -6.98228, 29.9998, 27.268, -6.80606, -75.1962, 3.86573
5.708, 13, -7.01127, 30.05, 27.2257, -6.82817, -75.2453, 3.87866
5.712, 13, -7.04324, 30.106, 27.178, -6.85326, -75.3011, 3.89333
5.716, 13, -7.07829, 30.1678, 27.1245, -6.88141, -75.3637, 3.90982
5.72, 13, -7.1165, 30.2357, 27.0651, -6.91272, -75.4335, 3.92816
5.724, 13, -7.15789, 30.3098, 26.9995, -6.94722, -75.5105, 3.94841
5.728, 13, -7.20242, 30.3901, 26.9278, -6.98493, -75.5947, 3.97056
5.732, 13, -7.25, 30.4764, 26.8499, -7.02583, -75.6862, 3.99463
5.736, 13, -7.30049, 30.5687, 26.7657, -7.06986, -75.7849, 4.02058
5.74, 13, -7.35375, 30.6667, 26.6754, -7.11693, -75.8905, 4.04838
5.744, 13, -7.40965, 30.7703, 26.5792, -7.16691, -76.0029, 4.07795
5.748, 13, -7.468, 30.8791, 26.4771, -7.21963, -76.1216, 4.10921
5.752, 13, -7.52863, 30.9928, 26.3696, -7.27486, -76.2463, 4.14204
5.756, 13, -7.59121, 31.111, 26.2569, -7.33237, -76.3763, 4.17631
5.76, 13, -7.65531, 31.2328, 26.1395, -7.39187, -76.511, 4.21186
5.764, 13, -7.72041, 31.3577, 26.018, -7.45305, -76.6498, 4.24851
5.768, 13, -7.78603, 31.4849, 25.893, -7.51557, -76.792, 4.28607
5.772, 13, -7.85188, 31.6139, 25.7651, -7.57905, -76.9366, 4.32431
5.776, 13, -7.91783, 31.7441, 25.6349, -7.64308, -77.0828, 4.36302
5.78, 13, -7.98388, 31.8754, 25.5033, -7.70727, -77.2297, 4.40194
5.784, 13, -8.05007, 32.0073, 25.3708, -7.77119, -77.3762, 4.44083
5.788, 13, -8.11635, 32.1394, 25.2383, -7.83445, -77.5215, 4.47945
5.792, 13, -8.18256, 32.271, 25.1065, -7.89668, -77.6647, 4.51758
5.796, 13, -8.24833, 32.4013, 24.9761, -7.95754, -77.805, 4.555
5.8, 13, -8.31324, 32.5296, 24.8479, -8.01673, -77.9418, 4.59152
5.804, 13, -8.37688, 32.6552, 24.7226, -8.07398, -78.0743, 4.62697
5.808, 13, -8.43895, 32.7775, 24.6007, -8.12906, -78.202, 4.6612
5.812, 13, -8.49918, 32.896, 24.4827, -8.18176, -78.3244, 4.69406
5.816, 13, -8.55736, 33.0103, 24.3692, -8.23193, -78.4411, 4.72546
5.82, 13, -8.61331, 33.12, 24.2606, -8.27943, -78.5518, 4.75529
5.824, 13, -8.6668, 33.2247, 24.1571, -8.32419, -78.6563, 4.78349
5.828, 13, -8.71762, 33.324, 24.0592, -8.36613, -78.7544, 4.81001
5.832, 13, -8.76562, 33.4177, 23.9671, -8.40525, -78.846, 4.83481
5.836, 13, -8.81069, 33.5055, 23.8808, -8.44152, -78.931, 4.85788
5.84, 13, -8.85283, 33.5875, 23.8006, -8.47496, -79.0095, 4.87921
5.844, 13, -8.89203, 33.6635, 23.7265, -8.5056, -79.0815, 4.8988
5.848, 13, -8.92833, 33.7337, 23.6584, -8.53349, -79.1471, 4.91668
5.852, 13, -8.96178, 33.7981, 23.5963, -8.55869, -79.2064, 4.93288
5.856, 13, -8.99243, 33.8568, 23.5401, -8.58129, -79.2597, 4.94744
5.86, 13, -9.02037, 33.9101, 23.4896, -8.60139, -79.3071, 4.96042
5.864, 13, -9.04573, 33.958, 23.4446, -8.6191, -79.3489, 4.97187
5.868, 13, -9.06866, 34.001, 23.4049, -8.63454, -79.3853, 4.98188
5.872, 13, -9.08936, 34.0393, 23.3701, -8.64785, -79.4167, 4.99053
5.876, 13, -9.10798, 34.0732, 23.34, -8.65919, -79.4435, 4.99792
5.88, 13, -9.12463, 34.1031, 23.3141, -8.66873, -79.4661, 5.00415
5.884, 13, -9.13941, 34.1292, 23.2922, -8.67665, -79.4848, 5.00933
5.888, 13, -9.15239, 34.1516, 23.2738, -8.68314, -79.5001, 5.01358
5.892, 13, -9.16367, 34.1707, 23.2587, -8.68837, -79.5124, 5.01702
5.896, 13, -9.1734, 34.1868, 23.2463, -8.69252, -79.5222, 5.01975
5.9, 13, -9.18177, 34.2001, 23.2364, -8.69576, -79.5299, 5.02189
5.904, 13, -9.18898, 34.2112, 23.2285, -8.69824, -79.5357, 5.02353
5.908, 13, -9.1952, 34.2202, 23.2223, -8.70009, -79.5401, 5.02477
5.912, 13, -9.20053, 34.2275, 23.2176, -8.70145, -79.5432, 5.02567
5.916, 13, -9.20501, 34.2333, 23.214, -8.70242, -79.5455, 5.02633
5.92, 13, -9.2087, 34.2378, 23.2113, -8.7031, -79.5471, 5.02678
5.924, 13, -9.21161, 34.2412, 23.2094, -8.70357, -79.5482, 5.0271
5.928, 13, -9.2138, 34.2437, 23.208, -8.70389, -79.549, 5.02732
5.932, 13, -9.21542, 34.2455, 23.2071, -8.7041, -79.5495, 5.02747
5.936, 13, -9.21669, 34.2468, 23.2064, -8.70425, -79.5498, 5.02757
5.94, 13, -9.21789, 34.2481, 23.2058, -8.70436, -79.55, 5.02764
