hehonglu123/ABB_Primitive_Study/execution/movel_30_ori/curve_exe_v500_z1.csv
timestamp, cmd_num, J1, J2, J3, J4, J5, J6
0, -1, -18.7697, 34.1307, 27.9437, -19.9675, -90.5849, -2.05479
0.002, -1, -18.7697, 34.1307, 27.9437, -19.9675, -90.5849, -2.05479
0.006, -1, -18.7697, 34.1307, 27.9437, -19.9675, -90.5849, -2.05479
0.008, -1, -18.7697, 34.1307, 27.9437, -19.9675, -90.5849, -2.05479
0.011, -1, -18.7697, 34.1307, 27.9437, -19.9675, -90.5849, -2.05479
0.016, -1, -18.7697, 34.1307, 27.9437, -19.9675, -90.5849, -2.05479
0.02, -1, -18.7697, 34.1307, 27.9437, -19.9675, -90.5849, -2.05479
0.024, -1, -18.7697, 34.1307, 27.9437, -19.9675, -90.5849, -2.05479
0.028, -1, -18.7697, 34.1307, 27.9437, -19.9675, -90.5849, -2.05479
0.032, -1, -18.7697, 34.1307, 27.9437, -19.9675, -90.5849, -2.05479
0.036, -1, -18.7697, 34.1306, 27.9437, -19.9675, -90.5849, -2.05479
0.04, -1, -18.7694, 34.1306, 27.9437, -19.9675, -90.5849, -2.05479
0.044, -1, -18.7688, 34.1304, 27.9437, -19.9675, -90.5848, -2.05481
0.048, -1, -18.7677, 34.13, 27.9438, -19.9674, -90.5848, -2.05485
0.052, -1, -18.7659, 34.1293, 27.9439, -19.9672, -90.5846, -2.05494
0.056, -1, -18.7633, 34.1282, 27.9441, -19.9669, -90.5841, -2.05514
0.06, -1, -18.7599, 34.1267, 27.9443, -19.9661, -90.5833, -2.05552
0.064, -1, -18.7555, 34.1248, 27.9446, -19.9648, -90.5819, -2.05618
0.068, -1, -18.7501, 34.1222, 27.9448, -19.9626, -90.5796, -2.05723
0.072, -1, -18.7435, 34.119, 27.945, -19.9593, -90.576, -2.05884
0.076, -1, -18.7354, 34.115, 27.9452, -19.9545, -90.5709, -2.06119
0.08, -1, -18.7256, 34.11, 27.9454, -19.9477, -90.5636, -2.06449
0.084, -1, -18.7137, 34.104, 27.9453, -19.9384, -90.5537, -2.06898
0.088, -1, -18.6996, 34.0968, 27.9451, -19.9261, -90.5406, -2.07492
0.092, -1, -18.6829, 34.0883, 27.9446, -19.9102, -90.5236, -2.08261
0.096, -1, -18.6635, 34.0784, 27.9438, -19.89, -90.502, -2.09234
0.1, -1, -18.6412, 34.0671, 27.9426, -19.8649, -90.4752, -2.10442
0.104, -1, -18.6159, 34.0542, 27.9408, -19.8342, -90.4426, -2.11914
0.108, -1, -18.5871, 34.0396, 27.9385, -19.7974, -90.4034, -2.13679
0.112, -1, -18.5548, 34.0233, 27.9355, -19.754, -90.3571, -2.15761
0.116, -1, -18.519, 34.0053, 27.9318, -19.7034, -90.3033, -2.18184
0.12, -1, -18.4795, 33.9854, 27.9274, -19.6454, -90.2415, -2.20966
0.124, -1, -18.4364, 33.9638, 27.9221, -19.5795, -90.1714, -2.24119
0.128, -1, -18.3897, 33.9405, 27.916, -19.5056, -90.0928, -2.27653
0.131, -1, -18.3395, 33.9154, 27.909, -19.4238, -90.0058, -2.31566
0.136, -1, -18.2858, 33.8886, 27.9012, -19.3341, -89.9103, -2.35855
0.139, -1, -18.2285, 33.8601, 27.8926, -19.2369, -89.8069, -2.40506
0.144, -1, -18.1677, 33.8299, 27.8833, -19.1324, -89.6957, -2.45501
0.148, -1, -18.1034, 33.798, 27.8733, -19.0212, -89.5774, -2.50817
0.152, -1, -18.0358, 33.7644, 27.8627, -18.9038, -89.4525, -2.56429
0.156, -1, -17.9651, 33.7293, 27.8515, -18.7808, -89.3217, -2.62308
0.16, -1, -17.8915, 33.6928, 27.8399, -18.6529, -89.1856, -2.68422
0.164, -1, -17.8153, 33.6549, 27.828, -18.5207, -89.045, -2.74741
0.168, -1, -17.7365, 33.6157, 27.8158, -18.3849, -88.9005, -2.81233
0.172, -1, -17.6553, 33.5753, 27.8034, -18.2462, -88.7528, -2.87868
0.176, -1, -17.572, 33.5337, 27.7909, -18.105, -88.6026, -2.94619
0.18, -1, -17.4867, 33.4912, 27.7784, -17.9619, -88.4503, -3.01463
0.184, -1, -17.3998, 33.4477, 27.7658, -17.8172, -88.2964, -3.0838
0.188, -1, -17.3114, 33.4034, 27.7532, -17.6715, -88.1413, -3.15353
0.192, -1, -17.2218, 33.3586, 27.7406, -17.5248, -87.9852, -3.2237
0.196, -1, -17.1312, 33.3132, 27.728, -17.3774, -87.8284, -3.2942
0.2, -1, -17.0399, 33.2675, 27.7155, -17.2295, -87.671, -3.36496
0.204, -1, -16.9478, 33.2215, 27.7029, -17.0812, -87.5132, -3.43592
0.208, -1, -16.8552, 33.1752, 27.6903, -16.9326, -87.355, -3.50704
0.212, -1, -16.7621, 33.1287, 27.6778, -16.7836, -87.1965, -3.5783
0.216, -1, -16.6687, 33.0821, 27.6652, -16.6345, -87.0378, -3.64966
0.22, -1, -16.5751, 33.0353, 27.6527, -16.4851, -86.8788, -3.72113
0.224, -1, -16.4812, 32.9885, 27.6401, -16.3356, -86.7197, -3.79268
0.228, -1, -16.3872, 32.9416, 27.6275, -16.1859, -86.5604, -3.8643
0.232, -1, -16.2931, 32.8947, 27.6149, -16.0361, -86.4009, -3.936
0.236, -1, -16.1988, 32.8477, 27.6023, -15.8861, -86.2413, -4.00777
0.24, -1, -16.1045, 32.8006, 27.5897, -15.736, -86.0815, -4.0796
0.244, -1, -16.01, 32.7535, 27.5771, -15.5857, -85.9216, -4.15149
0.248, -1, -15.9155, 32.7064, 27.5645, -15.4354, -85.7616, -4.22345
0.252, -1, -15.8209, 32.6592, 27.5518, -15.2849, -85.6014, -4.29546
0.256, -1, -15.7262, 32.6119, 27.5392, -15.1343, -85.4411, -4.36752
0.26, -1, -15.6314, 32.5647, 27.5265, -14.9836, -85.2807, -4.43964
0.264, -1, -15.5366, 32.5174, 27.5139, -14.8327, -85.1202, -4.5118
0.268, -1, -15.4417, 32.4701, 27.5012, -14.6818, -84.9596, -4.58402
0.272, -1, -15.3467, 32.4227, 27.4885, -14.5308, -84.7989, -4.65628
0.276, -1, -15.2517, 32.3753, 27.4758, -14.3797, -84.638, -4.72859
0.28, -1, -15.1566, 32.3279, 27.4631, -14.2285, -84.4771, -4.80094
0.284, -1, -15.0615, 32.2805, 27.4504, -14.0772, -84.3161, -4.87333
0.288, -1, -14.9663, 32.233, 27.4377, -13.9258, -84.155, -4.94576
0.292, -1, -14.8711, 32.1855, 27.425, -13.7744, -83.9938, -5.01823
0.296, -1, -14.7758, 32.138, 27.4123, -13.6229, -83.8326, -5.09074
0.3, -1, -14.6805, 32.0905, 27.3995, -13.4713, -83.6712, -5.16327
0.304, -1, -14.5851, 32.0429, 27.3868, -13.3196, -83.5098, -5.23584
0.308, -1, -14.4897, 31.9953, 27.3741, -13.1679, -83.3484, -5.30844
0.312, -1, -14.3943, 31.9478, 27.3613, -13.0161, -83.1868, -5.38107
0.316, -1, -14.2988, 31.9001, 27.3486, -12.8643, -83.0252, -5.45372
0.32, -1, -14.2033, 31.8525, 27.3358, -12.7124, -82.8636, -5.5264
0.324, -1, -14.1078, 31.8049, 27.3231, -12.5604, -82.7019, -5.5991
0.328, -1, -14.0122, 31.7572, 27.3103, -12.4085, -82.5401, -5.67183
0.332, -1, -13.9167, 31.7096, 27.2975, -12.2564, -82.3784, -5.74457
0.336, -1, -13.8211, 31.6619, 27.2848, -12.1044, -82.2165, -5.81732
0.34, -1, -13.7255, 31.6142, 27.272, -11.9523, -82.0547, -5.89009
0.344, -1, -13.6298, 31.5665, 27.2592, -11.8002, -81.8928, -5.96287
0.348, -1, -13.5342, 31.5188, 27.2464, -11.6481, -81.7309, -6.03567
0.352, -1, -13.4385, 31.4711, 27.2337, -11.4959, -81.569, -6.10847
0.356, -1, -13.3429, 31.4234, 27.2209, -11.3438, -81.4071, -6.18127
0.36, -1, -13.2472, 31.3757, 27.2081, -11.1916, -81.2451, -6.25408
0.364, -1, -13.1516, 31.328, 27.1953, -11.0395, -81.0832, -6.32689
0.368, -1, -13.0559, 31.2803, 27.1825, -10.8873, -80.9212, -6.3997
0.372, -1, -12.9603, 31.2326, 27.1697, -10.7352, -80.7593, -6.47251
0.376, -1, -12.8646, 31.1849, 27.157, -10.583, -80.5974, -6.54531
0.38, -1, -12.769, 31.1372, 27.1442, -10.4309, -80.4355, -6.6181
0.384, -1, -12.6734, 31.0895, 27.1314, -10.2788, -80.2736, -6.69088
0.388, -1, -12.5777, 31.0418, 27.1186, -10.1267, -80.1118, -6.76365
0.392, -1, -12.4822, 30.9941, 27.1059, -9.97466, -79.9499, -6.8364
0.396, -1, -12.3866, 30.9465, 27.0931, -9.82266, -79.7882, -6.90914
0.4, -1, -12.291, 30.8988, 27.0803, -9.67069, -79.6264, -6.98185
0.404, -1, -12.1955, 30.8512, 27.0676, -9.51877, -79.4647, -7.05455
0.408, -1, -12.1, 30.8036, 27.0548, -9.36689, -79.3031, -7.12722
0.412, -1, -12.0046, 30.756, 27.0421, -9.21508, -79.1415, -7.19987
0.416, -1, -11.9092, 30.7084, 27.0293, -9.06332, -78.98, -7.27248
0.42, -1, -11.8138, 30.6608, 27.0166, -8.91163, -78.8186, -7.34507
0.424, -1, -11.7184, 30.6133, 27.0038, -8.76, -78.6572, -7.41762
0.428, -1, -11.6231, 30.5658, 26.9911, -8.60845, -78.4959, -7.49014
0.432, -1, -11.5279, 30.5183, 26.9784, -8.45698, -78.3347, -7.56262
0.436, -1, -11.4326, 30.4708, 26.9657, -8.30559, -78.1736, -7.63506
0.44, -1, -11.3375, 30.4234, 26.953, -8.15429, -78.0126, -7.70745
0.444, -1, -11.2424, 30.376, 26.9403, -8.00308, -77.8517, -7.77981
0.448, -1, -11.1473, 30.3286, 26.9276, -7.85197, -77.6908, -7.85211
0.452, -1, -11.0524, 30.2813, 26.9149, -7.70096, -77.5301, -7.92437
0.456, -1, -10.9574, 30.2339, 26.9022, -7.55005, -77.3695, -7.99658
0.46, -1, -10.8626, 30.1867, 26.8895, -7.39926, -77.209, -8.06874
0.464, -1, -10.7678, 30.1394, 26.8769, -7.24857, -77.0487, -8.14084
0.468, -1, -10.6731, 30.0922, 26.8642, -7.09801, -76.8884, -8.21289
0.472, -1, -10.5785, 30.045, 26.8516, -6.94757, -76.7283, -8.28487
0.476, -1, -10.4839, 29.9979, 26.839, -6.79726, -76.5683, -8.3568
0.48, -1, -10.3895, 29.9508, 26.8264, -6.64708, -76.4085, -8.42866
0.484, -1, -10.2951, 29.9038, 26.8138, -6.49703, -76.2488, -8.50046
0.488, -1, -10.2008, 29.8568, 26.8012, -6.34712, -76.0893, -8.57219
0.492, -1, -10.1066, 29.8098, 26.7886, -6.19736, -75.9299, -8.64385
0.496, -1, -10.0125, 29.7629, 26.776, -6.04775, -75.7707, -8.71544
0.5, -1, -9.91844, 29.716, 26.7635, -5.89829, -75.6116, -8.78695
0.504, -1, -9.82452, 29.6692, 26.7509, -5.74898, -75.4527, -8.8584
0.508, -1, -9.73069, 29.6225, 26.7384, -5.59984, -75.294, -8.92976
0.512, -1, -9.63697, 29.5757, 26.7259, -5.45086, -75.1354, -9.00105
0.516, -1, -9.54335, 29.5291, 26.7134, -5.30204, -74.977, -9.07226
0.52, -1, -9.44984, 29.4825, 26.7009, -5.1534, -74.8188, -9.14339
0.524, -1, -9.35644, 29.4359, 26.6884, -5.00493, -74.6608, -9.21443
0.528, -1, -9.26314, 29.3894, 26.676, -4.85664, -74.503, -9.28539
0.532, -1, -9.16997, 29.343, 26.6635, -4.70853, -74.3454, -9.35626
0.536, -1, -9.0769, 29.2966, 26.6511, -4.56061, -74.188, -9.42704
0.54, -1, -8.98396, 29.2503, 26.6387, -4.41288, -74.0307, -9.49773
0.544, -1, -8.89113, 29.204, 26.6263, -4.26534, -73.8737, -9.56833
0.548, -1, -8.79843, 29.1578, 26.6139, -4.11799, -73.7169, -9.63883
0.552, -1, -8.70584, 29.1116, 26.6016, -3.97084, -73.5603, -9.70924
0.556, -1, -8.61339, 29.0656, 26.5892, -3.82389, -73.4039, -9.77956
0.56, -1, -8.52106, 29.0196, 26.5769, -3.67715, -73.2477, -9.84978
0.564, -1, -8.42886, 28.9736, 26.5646, -3.53062, -73.0918, -9.91989
0.568, -1, -8.3368, 28.9277, 26.5523, -3.38429, -72.936, -9.98991
0.572, -1, -8.24486, 28.8819, 26.54, -3.23818, -72.7805, -10.0598
0.576, -1, -8.15307, 28.8361, 26.5278, -3.09229, -72.6253, -10.1296
0.58, -1, -8.06141, 28.7905, 26.5155, -2.94661, -72.4702, -10.1993
0.584, -1, -7.96988, 28.7448, 26.5033, -2.80116, -72.3154, -10.2689
0.588, -1, -7.8785, 28.6993, 26.4911, -2.65593, -72.1609, -10.3384
0.592, -1, -7.78726, 28.6538, 26.4789, -2.51093, -72.0065, -10.4078
0.596, -1, -7.69617, 28.6084, 26.4668, -2.36616, -71.8525, -10.4771
0.6, -1, -7.60522, 28.5631, 26.4546, -2.22162, -71.6986, -10.5463
0.604, -1, -7.51441, 28.5178, 26.4425, -2.07732, -71.5451, -10.6153
0.608, -1, -7.42376, 28.4727, 26.4304, -1.93325, -71.3917, -10.6842
0.612, -1, -7.33326, 28.4276, 26.4183, -1.78942, -71.2387, -10.7531
0.616, -1, -7.2429, 28.3825, 26.4063, -1.64584, -71.0859, -10.8218
0.62, -1, -7.1527, 28.3376, 26.3942, -1.5025, -70.9333, -10.8904
0.624, -1, -7.06265, 28.2927, 26.3822, -1.3594, -70.781, -10.9588
0.628, -1, -6.97276, 28.2479, 26.3702, -1.21656, -70.629, -11.0272
0.632, -1, -6.88303, 28.2032, 26.3582, -1.07396, -70.4772, -11.0954
0.636, -1, -6.79346, 28.1585, 26.3463, -0.931622, -70.3257, -11.1635
0.64, -1, -6.70404, 28.114, 26.3344, -0.789537, -70.1745, -11.2315
0.644, -1, -6.61479, 28.0695, 26.3224, -0.647708, -70.0236, -11.2994
0.648, -1, -6.5257, 28.0251, 26.3106, -0.506139, -69.8729, -11.3671
0.652, -1, -6.43677, 27.9808, 26.2987, -0.364831, -69.7225, -11.4347
0.656, -1, -6.34801, 27.9366, 26.2868, -0.223785, -69.5724, -11.5022
0.66, -1, -6.25941, 27.8924, 26.275, -0.0830049, -69.4226, -11.5696
0.664, -1, -6.17098, 27.8483, 26.2632, 0.057509, -69.273, -11.6368
0.668, -1, -6.08272, 27.8044, 26.2514, 0.197755, -69.1238, -11.7039
0.672, -1, -5.99463, 27.7605, 26.2397, 0.33773, -68.9748, -11.7709
0.676, -1, -5.9067, 27.7166, 26.2279, 0.477435, -68.8261, -11.8378
0.68, -1, -5.81895, 27.6729, 26.2162, 0.616866, -68.6777, -11.9045
0.684, -1, -5.73137, 27.6293, 26.2045, 0.756022, -68.5296, -11.9711
0.688, -1, -5.64396, 27.5857, 26.1929, 0.894902, -68.3818, -12.0375
0.692, -1, -5.55673, 27.5422, 26.1812, 1.0335, -68.2343, -12.1038
0.696, -1, -5.46968, 27.4988, 26.1696, 1.17183, -68.0871, -12.17
0.7, -1, -5.38279, 27.4556, 26.158, 1.30987, -67.9402, -12.2361
0.704, -1, -5.29609, 27.4123, 26.1465, 1.44763, -67.7936, -12.302
0.708, -1, -5.20956, 27.3692, 26.1349, 1.58511, -67.6473, -12.3678
0.712, -1, -5.12321, 27.3262, 26.1234, 1.72231, -67.5013, -12.4334
0.716, -1, -5.03704, 27.2833, 26.1119, 1.85921, -67.3555, -12.4989
0.72, -1, -4.95105, 27.2404, 26.1004, 1.99584, -67.2101, -12.5643
0.724, -1, -4.86524, 27.1976, 26.089, 2.13217, -67.065, -12.6296
0.728, -1, -4.77961, 27.155, 26.0775, 2.26822, -66.9203, -12.6947
0.732, -1, -4.69416, 27.1124, 26.0661, 2.40397, -66.7758, -12.7596
0.736, -1, -4.6089, 27.0699, 26.0548, 2.53944, -66.6316, -12.8244
0.74, -1, -4.52381, 27.0275, 26.0434, 2.67461, -66.4877, -12.8891
0.744, -1, -4.43891, 26.9852, 26.0321, 2.8095, -66.3442, -12.9537
0.748, -1, -4.3542, 26.943, 26.0208, 2.94408, -66.201, -13.0181
0.752, -1, -4.26966, 26.9009, 26.0095, 3.07838, -66.058, -13.0823
0.756, -1, -4.18531, 26.8588, 25.9983, 3.21238, -65.9154, -13.1464
0.76, -1, -4.10115, 26.8169, 25.987, 3.34609, -65.7731, -13.2104
0.764, -1, -4.01717, 26.775, 25.9758, 3.4795, -65.6311, -13.2743
0.768, -1, -3.93337, 26.7333, 25.9646, 3.61261, -65.4895, -13.338
0.772, -1, -3.84976, 26.6916, 25.9535, 3.74543, -65.3481, -13.4015
0.776, -1, -3.76633, 26.65, 25.9424, 3.87795, -65.2071, -13.4649
0.78, -1, -3.68309, 26.6086, 25.9313, 4.01018, -65.0664, -13.5282
0.784, -1, -3.60003, 26.5672, 25.9202, 4.14211, -64.9259, -13.5913
0.788, -1, -3.51716, 26.5259, 25.9091, 4.27375, -64.7858, -13.6543
0.792, -1, -3.43447, 26.4847, 25.8981, 4.40509, -64.6461, -13.7172
0.796, -1, -3.35197, 26.4436, 25.8871, 4.53613, -64.5066, -13.7799
0.8, -1, -3.26966, 26.4026, 25.8761, 4.66688, -64.3674, -13.8424
0.804, -1, -3.18753, 26.3616, 25.8652, 4.79734, -64.2286, -13.9049
0.808, -1, -3.10558, 26.3208, 25.8542, 4.9275, -64.0901, -13.9671
0.812, -1, -3.02382, 26.2801, 25.8433, 5.05736, -63.9519, -14.0293
0.816, -1, -2.94225, 26.2394, 25.8324, 5.18693, -63.814, -14.0913
0.82, -1, -2.86085, 26.1989, 25.8216, 5.31621, -63.6764, -14.1531
0.824, -1, -2.77965, 26.1584, 25.8108, 5.4452, -63.5391, -14.2149
0.828, -1, -2.69862, 26.118, 25.8, 5.57389, -63.4021, -14.2764
0.832, -1, -2.61778, 26.0777, 25.7892, 5.70229, -63.2655, -14.3379
0.836, -1, -2.53713, 26.0375, 25.7784, 5.8304, -63.1292, -14.3992
0.84, -1, -2.45665, 25.9974, 25.7677, 5.95822, -62.9931, -14.4603
0.844, -1, -2.37636, 25.9574, 25.757, 6.08575, -62.8574, -14.5214
0.848, -1, -2.29625, 25.9175, 25.7463, 6.21298, -62.722, -14.5823
0.852, -1, -2.21633, 25.8777, 25.7356, 6.33993, -62.5869, -14.643
0.856, -1, -2.13658, 25.838, 25.725, 6.46659, -62.4521, -14.7036
0.86, -1, -2.05702, 25.7983, 25.7144, 6.59296, -62.3176, -14.7641
0.864, -1, -1.97764, 25.7588, 25.7038, 6.71904, -62.1834, -14.8244
0.868, -1, -1.89844, 25.7193, 25.6932, 6.84484, -62.0495, -14.8846
0.872, -1, -1.81942, 25.6799, 25.6827, 6.97035, -61.916, -14.9447
0.876, -1, -1.74058, 25.6406, 25.6722, 7.09557, -61.7827, -15.0046
0.88, -1, -1.66192, 25.6014, 25.6617, 7.2205, -61.6497, -15.0644
0.884, -1, -1.58344, 25.5623, 25.6512, 7.34516, -61.5171, -15.124
0.888, -1, -1.50513, 25.5233, 25.6408, 7.46952, -61.3847, -15.1835
0.892, -1, -1.42701, 25.4844, 25.6304, 7.5936, -61.2526, -15.2429
0.896, -1, -1.34906, 25.4456, 25.62, 7.7174, -61.1209, -15.3021
0.9, -1, -1.2713, 25.4068, 25.6096, 7.84092, -60.9894, -15.3612
0.904, -1, -1.19371, 25.3681, 25.5993, 7.96415, -60.8583, -15.4202
0.908, -1, -1.11629, 25.3296, 25.5889, 8.08711, -60.7274, -15.479
0.912, -1, -1.03905, 25.2911, 25.5786, 8.20978, -60.5969, -15.5377
0.916, -1, -0.961994, 25.2527, 25.5684, 8.33217, -60.4666, -15.5963
0.92, -1, -0.885109, 25.2144, 25.5581, 8.45428, -60.3366, -15.6547
0.924, -1, -0.808399, 25.1762, 25.5479, 8.57612, -60.207, -15.713
0.928, -1, -0.731865, 25.138, 25.5377, 8.69767, -60.0776, -15.7712
0.932, -1, -0.655505, 25.1, 25.5275, 8.81895, -59.9485, -15.8292
0.936, -1, -0.579319, 25.062, 25.5173, 8.93995, -59.8198, -15.8871
0.94, -1, -0.503307, 25.0241, 25.5072, 9.06068, -59.6913, -15.9449
0.944, -1, -0.427468, 24.9863, 25.4971, 9.18113, -59.5631, -16.0025
0.948, -1, -0.351802, 24.9486, 25.487, 9.30131, -59.4352, -16.06
0.952, -1, -0.276308, 24.911, 25.4769, 9.42121, -59.3076, -16.1174
0.956, -1, -0.200986, 24.8735, 25.4669, 9.54084, -59.1803, -16.1746
0.96, -1, -0.125835, 24.8361, 25.4569, 9.66019, -59.0532, -16.2318
0.964, -1, -0.0508559, 24.7987, 25.4469, 9.77928, -58.9265, -16.2887
0.968, -1, 0.023953, 24.7614, 25.4369, 9.89809, -58.8001, -16.3456
0.972, -1, 0.0985918, 24.7242, 25.4269, 10.0166, -58.6739, -16.4023
0.976, -1, 0.173061, 24.6871, 25.417, 10.1349, -58.548, -16.4589
0.98, -1, 0.247361, 24.6501, 25.4071, 10.2529, -58.4224, -16.5154
0.984, -1, 0.321492, 24.6132, 25.3972, 10.3706, -58.2971, -16.5717
0.988, -1, 0.395455, 24.5763, 25.3873, 10.4881, -58.1721, -16.6279
0.992, -1, 0.469251, 24.5395, 25.3775, 10.6053, -58.0474, -16.684
0.996, -1, 0.542879, 24.5028, 25.3677, 10.7223, -57.9229, -16.74
1, -1, 0.61634, 24.4662, 25.3579, 10.8389, -57.7988, -16.7958
1.004, -1, 0.689635, 24.4297, 25.3481, 10.9553, -57.6749, -16.8515
1.008, -1, 0.762764, 24.3933, 25.3384, 11.0715, -57.5513, -16.9071
1.012, -1, 0.835728, 24.3569, 25.3286, 11.1874, -57.4279, -16.9625
1.016, -1, 0.908526, 24.3207, 25.3189, 11.303, -57.3049, -17.0178
1.02, -1, 0.981161, 24.2845, 25.3092, 11.4183, -57.1821, -17.073
1.024, -1, 1.05363, 24.2484, 25.2996, 11.5334, -57.0596, -17.1281
1.027, -1, 1.12594, 24.2123, 25.2899, 11.6483, -56.9374, -17.1831
1.032, -1, 1.19808, 24.1764, 25.2803, 11.7629, -56.8155, -17.2379
1.036, -1, 1.27007, 24.1405, 25.2707, 11.8772, -56.6938, -17.2926
1.04, -1, 1.34189, 24.1047, 25.2611, 11.9912, -56.5724, -17.3472
1.044, -1, 1.41355, 24.069, 25.2516, 12.105, -56.4513, -17.4016
1.048, -1, 1.48505, 24.0334, 25.2421, 12.2186, -56.3304, -17.456
1.052, -1, 1.55639, 23.9978, 25.2325, 12.3319, -56.2098, -17.5102
1.055, -1, 1.62757, 23.9624, 25.2231, 12.4449, -56.0895, -17.5643
1.06, -1, 1.69859, 23.927, 25.2136, 12.5577, -55.9695, -17.6182
1.064, -1, 1.76945, 23.8917, 25.2041, 12.6703, -55.8497, -17.6721
1.068, -1, 1.84016, 23.8565, 25.1947, 12.7826, -55.7302, -17.7258
1.072, -1, 1.91071, 23.8213, 25.1853, 12.8946, -55.611, -17.7794
1.076, -1, 1.9811, 23.7862, 25.1759, 13.0064, -55.492, -17.8329
1.08, -1, 2.05134, 23.7512, 25.1666, 13.1179, -55.3733, -17.8863
1.084, -1, 2.12143, 23.7163, 25.1572, 13.2292, -55.2549, -17.9396
1.088, -1, 2.19136, 23.6815, 25.1479, 13.3403, -55.1367, -17.9927
1.091, -1, 2.26113, 23.6467, 25.1386, 13.4511, -55.0187, -18.0457
1.096, -1, 2.33076, 23.612, 25.1293, 13.5616, -54.9011, -18.0986
1.1, -1, 2.40023, 23.5774, 25.12, 13.672, -54.7837, -18.1514
1.104, -1, 2.46955, 23.5429, 25.1108, 13.7821, -54.6665, -18.2041
1.108, -1, 2.53871, 23.5084, 25.1016, 13.8919, -54.5496, -18.2567
1.112, -1, 2.60773, 23.474, 25.0924, 14.0015, -54.4329, -18.3091
1.116, -1, 2.6766, 23.4397, 25.0832, 14.1109, -54.3166, -18.3614
1.119, -1, 2.74532, 23.4055, 25.074, 14.22, -54.2004, -18.4137
1.124, -1, 2.8139, 23.3713, 25.0649, 14.3289, -54.0845, -18.4658
1.128, -1, 2.88232, 23.3372, 25.0558, 14.4376, -53.9689, -18.5178
1.132, -1, 2.9506, 23.3032, 25.0467, 14.546, -53.8535, -18.5696
1.136, -1, 3.01874, 23.2692, 25.0376, 14.6542, -53.7383, -18.6214
1.14, -1, 3.08673, 23.2353, 25.0285, 14.7622, -53.6234, -18.6731
1.144, -1, 3.15457, 23.2015, 25.0195, 14.8699, -53.5087, -18.7246
1.147, -1, 3.22227, 23.1678, 25.0104, 14.9774, -53.3943, -18.7761
1.152, -1, 3.28983, 23.1341, 25.0014, 15.0847, -53.2801, -18.8274
1.156, -1, 3.35725, 23.1006, 24.9925, 15.1918, -53.1662, -18.8786
1.16, -1, 3.42452, 23.067, 24.9835, 15.2986, -53.0525, -18.9298
1.164, -1, 3.49165, 23.0336, 24.9745, 15.4052, -52.939, -18.9808
1.168, -1, 3.55865, 23.0002, 24.9656, 15.5116, -52.8258, -19.0317
1.172, -1, 3.6255, 22.9669, 24.9567, 15.6178, -52.7128, -19.0825
1.175, -1, 3.69221, 22.9337, 24.9478, 15.7237, -52.6001, -19.1332
1.18, -1, 3.75879, 22.9005, 24.9389, 15.8294, -52.4876, -19.1838
1.184, -1, 3.82523, 22.8674, 24.9301, 15.9349, -52.3753, -19.2343
1.188, -1, 3.89153, 22.8343, 24.9212, 16.0402, -52.2632, -19.2846
1.192, -1, 3.95769, 22.8014, 24.9124, 16.1453, -52.1514, -19.3349
1.196, -1, 4.02372, 22.7685, 24.9036, 16.2501, -52.0398, -19.3851
1.2, -1, 4.08961, 22.7356, 24.8948, 16.3548, -51.9284, -19.4352
1.204, -1, 4.15537, 22.7029, 24.886, 16.4592, -51.8173, -19.4851
1.208, -1, 4.221, 22.6702, 24.8773, 16.5634, -51.7064, -19.535
1.212, -1, 4.28649, 22.6376, 24.8686, 16.6674, -51.5957, -19.5848
1.216, -1, 4.35185, 22.605, 24.8599, 16.7712, -51.4852, -19.6344
1.22, -1, 4.41707, 22.5725, 24.8512, 16.8748, -51.375, -19.684
1.224, -1, 4.48217, 22.54, 24.8425, 16.9782, -51.265, -19.7335
1.228, -1, 4.54713, 22.5077, 24.8338, 17.0814, -51.1552, -19.7828
1.232, -1, 4.61196, 22.4754, 24.8252, 17.1843, -51.0456, -19.8321
1.236, -1, 4.67667, 22.4431, 24.8166, 17.2871, -50.9362, -19.8813
1.24, -1, 4.74124, 22.411, 24.8079, 17.3896, -50.8271, -19.9303
1.244, -1, 4.80569, 22.3788, 24.7994, 17.492, -50.7182, -19.9793
1.248, -1, 4.87, 22.3468, 24.7908, 17.5941, -50.6095, -20.0282
1.252, -1, 4.93419, 22.3148, 24.7822, 17.696, -50.501, -20.077
1.256, -1, 4.99826, 22.2829, 24.7737, 17.7978, -50.3927, -20.1256
1.26, -1, 5.06219, 22.251, 24.7652, 17.8993, -50.2846, -20.1742
1.264, -1, 5.126, 22.2192, 24.7566, 18.0007, -50.1768, -20.2227
1.267, -1, 5.18969, 22.1875, 24.7482, 18.1018, -50.0692, -20.2711
1.272, -1, 5.25325, 22.1558, 24.7397, 18.2027, -49.9617, -20.3194
1.276, -1, 5.31669, 22.1242, 24.7312, 18.3035, -49.8545, -20.3676
1.28, -1, 5.38, 22.0927, 24.7228, 18.404, -49.7475, -20.4157
1.284, -1, 5.44319, 22.0612, 24.7144, 18.5044, -49.6407, -20.4638
1.288, -1, 5.50626, 22.0298, 24.706, 18.6045, -49.5341, -20.5117
1.292, -1, 5.56921, 21.9984, 24.6976, 18.7045, -49.4277, -20.5595
1.295, -1, 5.63203, 21.9671, 24.6892, 18.8043, -49.3215, -20.6073
1.3, -1, 5.69473, 21.9359, 24.6808, 18.9038, -49.2156, -20.6549
1.304, -1, 5.75732, 21.9047, 24.6725, 19.0032, -49.1098, -20.7025
1.308, -1, 5.81978, 21.8736, 24.6642, 19.1024, -49.0042, -20.7499
1.312, -1, 5.88212, 21.8425, 24.6558, 19.2014, -48.8988, -20.7973
1.316, -1, 5.94435, 21.8115, 24.6475, 19.3003, -48.7937, -20.8446
1.32, -1, 6.00646, 21.7805, 24.6393, 19.3989, -48.6887, -20.8918
1.324, -1, 6.06845, 21.7497, 24.631, 19.4973, -48.5839, -20.9389
1.328, -1, 6.13032, 21.7188, 24.6228, 19.5956, -48.4794, -20.9859
1.332, -1, 6.19207, 21.6881, 24.6145, 19.6937, -48.375, -21.0328
1.336, -1, 6.25371, 21.6573, 24.6063, 19.7916, -48.2708, -21.0797
1.34, -1, 6.31523, 21.6267, 24.5981, 19.8893, -48.1668, -21.1264
1.344, -1, 6.37664, 21.5961, 24.5899, 19.9868, -48.063, -21.1731
1.348, -1, 6.43793, 21.5655, 24.5817, 20.0841, -47.9594, -21.2197
1.352, -1, 6.49911, 21.5351, 24.5736, 20.1813, -47.856, -21.2662
1.356, -1, 6.56018, 21.5046, 24.5654, 20.2783, -47.7528, -21.3126
1.36, -1, 6.62113, 21.4743, 24.5573, 20.3751, -47.6498, -21.3589
1.364, -1, 6.68197, 21.4439, 24.5492, 20.4717, -47.547, -21.4051
1.368, -1, 6.74269, 21.4137, 24.5411, 20.5681, -47.4443, -21.4513
1.372, -1, 6.80331, 21.3835, 24.533, 20.6644, -47.3419, -21.4973
1.376, -1, 6.86381, 21.3533, 24.525, 20.7605, -47.2396, -21.5433
1.38, -1, 6.9242, 21.3232, 24.5169, 20.8564, -47.1375, -21.5892
1.384, -1, 6.98448, 21.2932, 24.5089, 20.9521, -47.0357, -21.635
1.388, -1, 7.04465, 21.2632, 24.5009, 21.0477, -46.934, -21.6807
1.392, -1, 7.10471, 21.2333, 24.4928, 21.1431, -46.8324, -21.7264
1.396, -1, 7.16467, 21.2034, 24.4849, 21.2383, -46.7311, -21.7719
1.4, -1, 7.22451, 21.1736, 24.4769, 21.3333, -46.63, -21.8174
1.404, -1, 7.28425, 21.1438, 24.4689, 21.4282, -46.529, -21.8628
1.408, -1, 7.34387, 21.1141, 24.461, 21.5229, -46.4282, -21.9081
1.412, -1, 7.4034, 21.0845, 24.453, 21.6174, -46.3276, -21.9534
1.416, -1, 7.46281, 21.0549, 24.4451, 21.7118, -46.2272, -21.9985
1.42, -1, 7.52212, 21.0253, 24.4372, 21.806, -46.1269, -22.0436
1.424, -1, 7.58133, 20.9958, 24.4293, 21.9, -46.0269, -22.0886
1.428, -1, 7.64043, 20.9664, 24.4214, 21.9938, -45.927, -22.1335
1.432, -1, 7.69943, 20.937, 24.4136, 22.0875, -45.8273, -22.1783
1.436, -1, 7.75832, 20.9076, 24.4057, 22.181, -45.7278, -22.2231
1.44, -1, 7.81711, 20.8783, 24.3979, 22.2744, -45.6284, -22.2677
1.444, -1, 7.8758, 20.8491, 24.3901, 22.3676, -45.5292, -22.3123
1.448, -1, 7.93438, 20.8199, 24.3822, 22.4606, -45.4302, -22.3568
1.452, -1, 7.99287, 20.7908, 24.3744, 22.5535, -45.3314, -22.4013
1.456, -1, 8.05125, 20.7617, 24.3667, 22.6462, -45.2327, -22.4456
1.46, -1, 8.10953, 20.7326, 24.3589, 22.7387, -45.1342, -22.4899
1.464, -1, 8.16771, 20.7037, 24.3511, 22.8311, -45.0359, -22.5341
1.468, -1, 8.22578, 20.6747, 24.3434, 22.9234, -44.9378, -22.5783
1.472, -1, 8.28376, 20.6458, 24.3357, 23.0154, -44.8398, -22.6223
1.476, -1, 8.34164, 20.617, 24.328, 23.1073, -44.742, -22.6663
1.48, -1, 8.39942, 20.5882, 24.3203, 23.1991, -44.6443, -22.7102
1.484, -1, 8.4571, 20.5595, 24.3126, 23.2907, -44.5468, -22.754
1.488, -1, 8.51469, 20.5308, 24.3049, 23.3821, -44.4495, -22.7978
1.492, -1, 8.57218, 20.5021, 24.2972, 23.4734, -44.3523, -22.8415
1.496, -1, 8.62957, 20.4735, 24.2896, 23.5645, -44.2554, -22.8851
1.5, -1, 8.68686, 20.445, 24.2819, 23.6555, -44.1585, -22.9286
1.504, -1, 8.74406, 20.4165, 24.2743, 23.7464, -44.0619, -22.9721
1.508, -1, 8.80116, 20.388, 24.2667, 23.837, -43.9654, -23.0155
1.512, -1, 8.85816, 20.3596, 24.2591, 23.9276, -43.869, -23.0588
1.516, -1, 8.91508, 20.3313, 24.2515, 24.0179, -43.7728, -23.102
1.52, -1, 8.97189, 20.303, 24.2439, 24.1082, -43.6768, -23.1452
1.524, -1, 9.02862, 20.2747, 24.2364, 24.1982, -43.5809, -23.1883
1.528, -1, 9.08525, 20.2465, 24.2288, 24.2882, -43.4852, -23.2313
1.532, -1, 9.14179, 20.2183, 24.2213, 24.378, -43.3897, -23.2743
1.536, -1, 9.19823, 20.1902, 24.2138, 24.4676, -43.2943, -23.3172
1.54, -1, 9.25459, 20.1621, 24.2063, 24.5571, -43.199, -23.36
1.544, -1, 9.31085, 20.1341, 24.1988, 24.6464, -43.1039, -23.4028
1.548, -1, 9.36702, 20.1061, 24.1913, 24.7356, -43.009, -23.4454
1.552, -1, 9.4231, 20.0782, 24.1838, 24.8247, -42.9142, -23.4881
1.556, -1, 9.47909, 20.0503, 24.1763, 24.9136, -42.8196, -23.5306
1.56, -1, 9.53499, 20.0224, 24.1689, 25.0024, -42.7251, -23.5731
1.564, -1, 9.5908, 19.9946, 24.1614, 25.091, -42.6308, -23.6155
1.568, -1, 9.64652, 19.9668, 24.154, 25.1795, -42.5366, -23.6578
1.572, -1, 9.70215, 19.9391, 24.1466, 25.2678, -42.4426, -23.7001
1.576, -1, 9.7577, 19.9114, 24.1392, 25.3561, -42.3487, -23.7423
1.58, -1, 9.81316, 19.8838, 24.1318, 25.4441, -42.255, -23.7845
1.584, -1, 9.86852, 19.8562, 24.1244, 25.5321, -42.1614, -23.8265
1.588, -1, 9.92381, 19.8287, 24.117, 25.6198, -42.068, -23.8685
1.592, -1, 9.979, 19.8012, 24.1097, 25.7075, -41.9747, -23.9105
1.596, -1, 10.0341, 19.7737, 24.1023, 25.795, -41.8816, -23.9524
1.6, -1, 10.0891, 19.7463, 24.095, 25.8824, -41.7886, -23.9942
1.604, -1, 10.1441, 19.7189, 24.0877, 25.9696, -41.6957, -24.0359
1.608, -1, 10.1989, 19.6916, 24.0804, 26.0567, -41.603, -24.0776
1.612, -1, 10.2537, 19.6643, 24.0731, 26.1437, -41.5104, -24.1192
1.616, -1, 10.3084, 19.6371, 24.0658, 26.2306, -41.418, -24.1608
1.62, -1, 10.363, 19.6099, 24.0585, 26.3173, -41.3257, -24.2023
1.624, -1, 10.4175, 19.5827, 24.0512, 26.4038, -41.2336, -24.2437
1.628, -1, 10.4719, 19.5556, 24.044, 26.4903, -41.1416, -24.2851
1.632, -1, 10.5263, 19.5285, 24.0367, 26.5766, -41.0497, -24.3264
1.636, -1, 10.5806, 19.5015, 24.0295, 26.6628, -40.958, -24.3676
1.64, -1, 10.6347, 19.4745, 24.0223, 26.7488, -40.8664, -24.4088
1.644, -1, 10.6888, 19.4475, 24.0151, 26.8348, -40.775, -24.4499
1.648, -1, 10.7429, 19.4206, 24.0079, 26.9205, -40.6837, -24.4909
1.652, -1, 10.7968, 19.3937, 24.0007, 27.0062, -40.5925, -24.5319
1.656, -1, 10.8507, 19.3669, 23.9935, 27.0917, -40.5015, -24.5729
1.66, -1, 10.9044, 19.3401, 23.9863, 27.1771, -40.4106, -24.6137
1.664, -1, 10.9581, 19.3133, 23.9792, 27.2624, -40.3198, -24.6545
1.668, -1, 11.0118, 19.2866, 23.972, 27.3476, -40.2292, -24.6953
1.672, -1, 11.0653, 19.2599, 23.9649, 27.4326, -40.1387, -24.736
1.676, -1, 11.1188, 19.2333, 23.9577, 27.5175, -40.0484, -24.7766
1.68, -1, 11.1722, 19.2067, 23.9506, 27.6023, -39.9581, -24.8172
1.684, -1, 11.2255, 19.1801, 23.9435, 27.6869, -39.868, -24.8577
1.688, -1, 11.2787, 19.1536, 23.9364, 27.7715, -39.7781, -24.8981
1.692, -1, 11.3318, 19.1271, 23.9293, 27.8559, -39.6883, -24.9385
1.696, -1, 11.3849, 19.1007, 23.9223, 27.9401, -39.5986, -24.9788
1.7, -1, 11.4379, 19.0743, 23.9152, 28.0243, -39.509, -25.0191
1.704, -1, 11.4908, 19.0479, 23.9081, 28.1083, -39.4196, -25.0593
1.708, -1, 11.5437, 19.0216, 23.9011, 28.1923, -39.3303, -25.0995
1.712, -1, 11.5964, 18.9953, 23.8941, 28.2761, -39.2411, -25.1396
1.716, -1, 11.6491, 18.969, 23.887, 28.3597, -39.152, -25.1796
1.72, -1, 11.7017, 18.9428, 23.88, 28.4433, -39.0631, -25.2196
1.724, -1, 11.7543, 18.9166, 23.873, 28.5267, -38.9743, -25.2595
1.728, -1, 11.8067, 18.8905, 23.866, 28.61, -38.8856, -25.2994
1.732, -1, 11.8591, 18.8644, 23.859, 28.6932, -38.7971, -25.3392
1.736, -1, 11.9114, 18.8383, 23.8521, 28.7763, -38.7087, -25.3789
1.74, -1, 11.9637, 18.8123, 23.8451, 28.8593, -38.6204, -25.4186
1.744, -1, 12.0158, 18.7863, 23.8381, 28.9421, -38.5322, -25.4583
1.748, -1, 12.0679, 18.7604, 23.8312, 29.0248, -38.4442, -25.4979
1.752, -1, 12.1199, 18.7344, 23.8243, 29.1075, -38.3562, -25.5374
1.756, -1, 12.1719, 18.7086, 23.8173, 29.19, -38.2684, -25.5769
1.76, -1, 12.2238, 18.6827, 23.8104, 29.2723, -38.1808, -25.6163
1.764, -1, 12.2756, 18.6569, 23.8035, 29.3546, -38.0932, -25.6556
1.768, -1, 12.3273, 18.6311, 23.7966, 29.4368, -38.0058, -25.695
1.772, -1, 12.379, 18.6054, 23.7897, 29.5188, -37.9185, -25.7342
1.776, -1, 12.4305, 18.5797, 23.7829, 29.6007, -37.8313, -25.7734
1.78, -1, 12.4821, 18.554, 23.776, 29.6825, -37.7442, -25.8126
1.784, -1, 12.5335, 18.5284, 23.7691, 29.7642, -37.6573, -25.8517
1.788, -1, 12.5849, 18.5028, 23.7623, 29.8458, -37.5704, -25.8907
1.792, -1, 12.6362, 18.4772, 23.7554, 29.9273, -37.4837, -25.9297
1.796, -1, 12.6874, 18.4517, 23.7486, 30.0087, -37.3971, -25.9686
1.8, -1, 12.7386, 18.4262, 23.7418, 30.0899, -37.3106, -26.0075
1.804, -1, 12.7897, 18.4007, 23.735, 30.1711, -37.2243, -26.0463
1.808, -1, 12.8407, 18.3753, 23.7282, 30.2521, -37.1381, -26.0851
1.812, -1, 12.8916, 18.3499, 23.7214, 30.333, -37.0519, -26.1238
1.816, -1, 12.9425, 18.3246, 23.7146, 30.4138, -36.9659, -26.1625
1.82, -1, 12.9933, 18.2992, 23.7078, 30.4945, -36.88, -26.2011
1.824, -1, 13.0441, 18.274, 23.7011, 30.5751, -36.7942, -26.2397
1.828, -1, 13.0948, 18.2487, 23.6943, 30.6556, -36.7086, -26.2782
1.832, -1, 13.1454, 18.2235, 23.6876, 30.736, -36.623, -26.3167
1.836, -1, 13.1959, 18.1983, 23.6808, 30.8163, -36.5376, -26.3551
1.84, -1, 13.2464, 18.1731, 23.6741, 30.8965, -36.4523, -26.3934
1.844, -1, 13.2968, 18.148, 23.6674, 30.9765, -36.3671, -26.4317
1.848, -1, 13.3472, 18.1229, 23.6607, 31.0565, -36.282, -26.47
1.852, -1, 13.3975, 18.0979, 23.654, 31.1363, -36.197, -26.5082
1.856, -1, 13.4477, 18.0729, 23.6473, 31.2161, -36.1121, -26.5464
1.86, -1, 13.4978, 18.0479, 23.6406, 31.2957, -36.0273, -26.5845
1.864, -1, 13.5479, 18.0229, 23.6339, 31.3753, -35.9427, -26.6225
1.868, -1, 13.5979, 17.998, 23.6272, 31.4547, -35.8582, -26.6606
1.872, -1, 13.6479, 17.9731, 23.6206, 31.534, -35.7737, -26.6985
1.876, -1, 13.6978, 17.9482, 23.6139, 31.6133, -35.6894, -26.7364
1.88, -1, 13.7476, 17.9234, 23.6073, 31.6924, -35.6052, -26.7743
1.884, -1, 13.7974, 17.8986, 23.6006, 31.7714, -35.5211, -26.8121
1.888, -1, 13.8471, 17.8739, 23.594, 31.8504, -35.4371, -26.8499
1.892, -1, 13.8967, 17.8491, 23.5874, 31.9292, -35.3532, -26.8876
1.896, -1, 13.9463, 17.8244, 23.5808, 32.0079, -35.2694, -26.9253
1.9, -1, 13.9958, 17.7998, 23.5742, 32.0865, -35.1857, -26.9629
1.904, -1, 14.0452, 17.7751, 23.5676, 32.1651, -35.1021, -27.0005
1.908, -1, 14.0946, 17.7505, 23.561, 32.2435, -35.0187, -27.038
1.912, -1, 14.144, 17.7259, 23.5544, 32.3218, -34.9353, -27.0755
1.916, -1, 14.1932, 17.7014, 23.5479, 32.4001, -34.852, -27.1129
1.92, -1, 14.2424, 17.6769, 23.5413, 32.4782, -34.7689, -27.1503
1.924, -1, 14.2916, 17.6524, 23.5348, 32.5563, -34.6858, -27.1877
1.928, -1, 14.3406, 17.6279, 23.5282, 32.6342, -34.6029, -27.2249
1.932, -1, 14.3896, 17.6035, 23.5217, 32.712, -34.52, -27.2622
1.936, -1, 14.4386, 17.5791, 23.5152, 32.7898, -34.4373, -27.2994
1.94, -1, 14.4875, 17.5547, 23.5086, 32.8674, -34.3546, -27.3366
1.944, -1, 14.5363, 17.5304, 23.5021, 32.945, -34.2721, -27.3737
1.948, -1, 14.5851, 17.5061, 23.4956, 33.0225, -34.1896, -27.4107
1.952, -1, 14.6338, 17.4818, 23.4891, 33.0998, -34.1073, -27.4478
1.956, -1, 14.6825, 17.4576, 23.4826, 33.1771, -34.0251, -27.4847
1.96, -1, 14.7311, 17.4334, 23.4762, 33.2543, -33.9429, -27.5217
1.964, -1, 14.7796, 17.4092, 23.4697, 33.3314, -33.8609, -27.5586
1.968, -1, 14.8281, 17.385, 23.4632, 33.4084, -33.7789, -27.5954
1.972, -1, 14.8765, 17.3609, 23.4568, 33.4853, -33.6971, -27.6322
1.976, -1, 14.9249, 17.3368, 23.4503, 33.5621, -33.6153, -27.6689
1.98, -1, 14.9732, 17.3127, 23.4439, 33.6388, -33.5337, -27.7057
1.984, -1, 15.0214, 17.2887, 23.4375, 33.7154, -33.4521, -27.7423
1.988, -1, 15.0696, 17.2647, 23.431, 33.792, -33.3707, -27.7789
1.992, -1, 15.1178, 17.2407, 23.4246, 33.8684, -33.2893, -27.8155
1.996, -1, 15.1658, 17.2167, 23.4182, 33.9448, -33.2081, -27.8521
1.999, -1, 15.2139, 17.1928, 23.4118, 34.021, -33.1269, -27.8886
2.004, -1, 15.2618, 17.1689, 23.4054, 34.0972, -33.0458, -27.925
2.008, -1, 15.3097, 17.145, 23.399, 34.1733, -32.9649, -27.9614
2.012, -1, 15.3576, 17.1212, 23.3926, 34.2493, -32.884, -27.9978
2.015, -1, 15.4054, 17.0974, 23.3863, 34.3252, -32.8032, -28.0341
2.019, -1, 15.4531, 17.0736, 23.3799, 34.401, -32.7225, -28.0704
2.024, -1, 15.5008, 17.0498, 23.3735, 34.4767, -32.6419, -28.1066
2.028, -1, 15.5484, 17.0261, 23.3672, 34.5524, -32.5614, -28.1428
2.031, -1, 15.596, 17.0024, 23.3609, 34.6279, -32.481, -28.179
2.036, -1, 15.6435, 16.9787, 23.3545, 34.7034, -32.4007, -28.2151
2.04, -1, 15.691, 16.9551, 23.3482, 34.7788, -32.3205, -28.2511
2.044, -1, 15.7384, 16.9314, 23.3419, 34.8541, -32.2403, -28.2872
2.048, -1, 15.7857, 16.9079, 23.3356, 34.9293, -32.1603, -28.3232
2.051, -1, 15.833, 16.8843, 23.3293, 35.0044, -32.0803, -28.3591
2.055, -1, 15.8803, 16.8607, 23.323, 35.0794, -32.0005, -28.395
2.06, -1, 15.9275, 16.8372, 23.3167, 35.1544, -31.9207, -28.4309
2.064, -1, 15.9746, 16.8137, 23.3104, 35.2293, -31.841, -28.4667
2.068, -1, 16.0217, 16.7903, 23.3041, 35.304, -31.7615, -28.5025
2.071, -1, 16.0687, 16.7668, 23.2978, 35.3787, -31.682, -28.5382
2.076, -1, 16.1157, 16.7434, 23.2916, 35.4533, -31.6026, -28.5739
2.08, -1, 16.1626, 16.72, 23.2853, 35.5279, -31.5232, -28.6096
2.084, -1, 16.2095, 16.6967, 23.2791, 35.6023, -31.444, -28.6452
2.087, -1, 16.2563, 16.6734, 23.2728, 35.6767, -31.3649, -28.6808
2.092, -1, 16.3031, 16.6501, 23.2666, 35.751, -31.2858, -28.7163
2.096, -1, 16.3498, 16.6268, 23.2604, 35.8252, -31.2068, -28.7518
2.1, -1, 16.3965, 16.6035, 23.2541, 35.8993, -31.128, -28.7873
2.104, -1, 16.4431, 16.5803, 23.2479, 35.9733, -31.0492, -28.8227
2.107, -1, 16.4896, 16.5571, 23.2417, 36.0473, -30.9705, -28.8581
2.111, -1, 16.5361, 16.5339, 23.2355, 36.1211, -30.8919, -28.8935
2.116, -1, 16.5826, 16.5108, 23.2293, 36.1949, -30.8133, -28.9288
2.12, -1, 16.629, 16.4876, 23.2231, 36.2686, -30.7349, -28.964
2.124, -1, 16.6754, 16.4645, 23.2169, 36.3422, -30.6565, -28.9993
2.127, -1, 16.7217, 16.4415, 23.2108, 36.4158, -30.5783, -29.0345
2.132, -1, 16.7679, 16.4184, 23.2046, 36.4893, -30.5001, -29.0696
2.136, -1, 16.8141, 16.3954, 23.1984, 36.5626, -30.422, -29.1047
2.14, -1, 16.8603, 16.3724, 23.1923, 36.636, -30.3439, -29.1398
2.143, -1, 16.9064, 16.3494, 23.1861, 36.7092, -30.266, -29.1749
2.148, -1, 16.9525, 16.3265, 23.18, 36.7823, -30.1882, -29.2099
2.152, -1, 16.9985, 16.3035, 23.1739, 36.8554, -30.1104, -29.2448
2.156, -1, 17.0444, 16.2806, 23.1677, 36.9284, -30.0327, -29.2798
2.16, -1, 17.0903, 16.2578, 23.1616, 37.0013, -29.9551, -29.3146
2.163, -1, 17.136, 16.235, 23.1555, 37.0742, -29.8776, -29.3495
2.168, -1, 17.1814, 16.2123, 23.1494, 37.1469, -29.8002, -29.3843
2.172, -1, 17.2261, 16.1899, 23.1432, 37.2195, -29.7229, -29.4191
2.176, -1, 17.2699, 16.168, 23.1369, 37.2919, -29.6459, -29.4537
2.179, -1, 17.3126, 16.1465, 23.1306, 37.364, -29.5692, -29.4882
2.184, -1, 17.3541, 16.1257, 23.1243, 37.4355, -29.4931, -29.5224
2.188, -1, 17.3942, 16.1056, 23.1179, 37.5062, -29.4179, -29.5563
2.192, -1, 17.4331, 16.0862, 23.1116, 37.5758, -29.344, -29.5895
2.196, -1, 17.4706, 16.0676, 23.1053, 37.6437, -29.2717, -29.6221
2.199, -1, 17.5068, 16.0498, 23.0992, 37.7096, -29.2017, -29.6536
2.204, -1, 17.5414, 16.0329, 23.0933, 37.7731, -29.1342, -29.684
2.208, -1, 17.5743, 16.017, 23.0876, 37.8335, -29.07, -29.7129
2.212, -1, 17.6054, 16.0022, 23.0823, 37.8904, -29.0095, -29.7402
2.216, -1, 17.6346, 15.9882, 23.0774, 37.9435, -28.9531, -29.7656
2.219, -1, 17.662, 15.9751, 23.0729, 37.9922, -28.9013, -29.7889
2.224, -1, 17.6877, 15.9626, 23.0689, 38.0363, -28.8544, -29.81
2.228, -1, 17.7118, 15.9507, 23.0656, 38.0756, -28.8126, -29.8288
2.232, -1, 17.7344, 15.9393, 23.0628, 38.11, -28.7759, -29.8453
2.235, -1, 17.7552, 15.9285, 23.0605, 38.1397, -28.7443, -29.8594
2.24, -1, 17.7743, 15.9185, 23.0588, 38.1648, -28.7176, -29.8714
2.244, -1, 17.7915, 15.9094, 23.0575, 38.1856, -28.6954, -29.8814
2.248, -1, 17.8067, 15.9013, 23.0566, 38.2025, -28.6773, -29.8895
2.252, -1, 17.8202, 15.8942, 23.056, 38.216, -28.6629, -29.8959
2.255, -1, 17.832, 15.8881, 23.0557, 38.2265, -28.6516, -29.9009
2.259, -1, 17.8423, 15.8828, 23.0556, 38.2345, -28.643, -29.9048
2.264, -1, 17.8512, 15.8784, 23.0556, 38.2404, -28.6366, -29.9076
2.268, -1, 17.8587, 15.8748, 23.0557, 38.2447, -28.632, -29.9096
2.272, -1, 17.8648, 15.8719, 23.0559, 38.2477, -28.6287, -29.9111
2.275, 2, 17.8697, 15.8697, 23.056, 38.2499, -28.6264, -29.9121
2.28, 2, 17.8733, 15.8681, 23.0561, 38.2513, -28.6248, -29.9128
2.284, 2, 17.876, 15.867, 23.0562, 38.2523, -28.6238, -29.9132
2.288, 2, 17.8778, 15.8662, 23.0563, 38.253, -28.623, -29.9136
2.291, 2, 17.879, 15.8657, 23.0563, 38.2534, -28.6226, -29.9138
2.296, 2, 17.8798, 15.8653, 23.0563, 38.2537, -28.6222, -29.9139
2.3, 2, 17.8804, 15.8651, 23.0563, 38.2539, -28.622, -29.914
2.304, 2, 17.8808, 15.8649, 23.0564, 38.2541, -28.6218, -29.9141
2.308, 2, 17.881, 15.8648, 23.0564, 38.2542, -28.6217, -29.9141
2.311, 2, 17.8812, 15.8647, 23.0564, 38.2542, -28.6217, -29.9142
2.316, 2, 17.8813, 15.8647, 23.0564, 38.2543, -28.6216, -29.9142
2.32, 2, 17.8814, 15.8646, 23.0564, 38.2543, -28.6216, -29.9142
2.324, 2, 17.8815, 15.8646, 23.0564, 38.2543, -28.6216, -29.9142
2.328, 2, 17.8815, 15.8646, 23.0564, 38.2543, -28.6215, -29.9142
2.331, 2, 17.8815, 15.8646, 23.0564, 38.2543, -28.6215, -29.9142
2.336, 2, 17.8815, 15.8646, 23.0564, 38.2544, -28.6215, -29.9142
2.34, 2, 17.8815, 15.8646, 23.0564, 38.2544, -28.6215, -29.9142
2.344, 2, 17.8816, 15.8646, 23.0564, 38.2544, -28.6215, -29.9142
2.347, 2, 17.8816, 15.8646, 23.0564, 38.2544, -28.6215, -29.9142
2.352, 2, 17.8816, 15.8646, 23.0564, 38.2544, -28.6215, -29.9142
2.356, 2, 17.8816, 15.8646, 23.0564, 38.2544, -28.6215, -29.9142
2.36, 2, 17.8816, 15.8645, 23.0564, 38.2544, -28.6215, -29.9142
2.364, 2, 17.8816, 15.8645, 23.0564, 38.2544, -28.6215, -29.9142
2.367, 2, 17.8816, 15.8645, 23.0564, 38.2544, -28.6215, -29.9142
2.372, 2, 17.8816, 15.8645, 23.0564, 38.2544, -28.6215, -29.9142
2.376, 2, 17.8816, 15.8645, 23.0564, 38.2544, -28.6215, -29.9142
2.38, 2, 17.8816, 15.8645, 23.0564, 38.2544, -28.6215, -29.9142
2.383, 2, 17.8816, 15.8645, 23.0564, 38.2544, -28.6215, -29.9142
2.388, 2, 17.8816, 15.8645, 23.0564, 38.2544, -28.6215, -29.9142
2.392, 2, 17.8816, 15.8645, 23.0564, 38.2544, -28.6215, -29.9142
2.396, 2, 17.8816, 15.8645, 23.0564, 38.2544, -28.6215, -29.9142
2.4, 2, 17.8816, 15.8645, 23.0564, 38.2544, -28.6215, -29.9142
2.403, 2, 17.8816, 15.8645, 23.0564, 38.2544, -28.6215, -29.9142
2.408, 2, 17.8816, 15.8645, 23.0564, 38.2544, -28.6215, -29.9142
2.412, 2, 17.8816, 15.8645, 23.0564, 38.2544, -28.6215, -29.9142
2.416, 2, 17.8816, 15.8645, 23.0564, 38.2544, -28.6215, -29.9142
2.42, 2, 17.8816, 15.8645, 23.0564, 38.2544, -28.6215, -29.9142
2.423, 2, 17.8816, 15.8645, 23.0564, 38.2544, -28.6215, -29.9142
2.428, 2, 17.8816, 15.8645, 23.0564, 38.2544, -28.6215, -29.9142
2.432, 2, 17.8816, 15.8645, 23.0564, 38.2544, -28.6215, -29.9142
2.436, 2, 17.8816, 15.8645, 23.0564, 38.2544, -28.6215, -29.9142
2.439, 2, 17.8816, 15.8645, 23.0564, 38.2544, -28.6215, -29.9142
2.444, 2, 17.8816, 15.8645, 23.0564, 38.2544, -28.6215, -29.9142
2.448, 2, 17.8816, 15.8645, 23.0564, 38.2544, -28.6215, -29.9142
2.452, 2, 17.8816, 15.8645, 23.0564, 38.2544, -28.6215, -29.9142
2.456, 2, 17.8816, 15.8645, 23.0564, 38.2544, -28.6215, -29.9142
2.459, 2, 17.8816, 15.8645, 23.0564, 38.2544, -28.6215, -29.9142
2.464, 2, 17.8816, 15.8645, 23.0564, 38.2544, -28.6215, -29.9142
2.468, 2, 17.8816, 15.8645, 23.0564, 38.2544, -28.6215, -29.9142
2.472, 2, 17.8816, 15.8645, 23.0564, 38.2544, -28.6215, -29.9142
2.476, 2, 17.8816, 15.8645, 23.0564, 38.2544, -28.6215, -29.9142
2.479, 2, 17.8816, 15.8645, 23.0564, 38.2544, -28.6215, -29.9142
2.484, 2, 17.8816, 15.8645, 23.0564, 38.2544, -28.6215, -29.9142
2.488, 2, 17.8816, 15.8645, 23.0564, 38.2544, -28.6215, -29.9142
2.492, 2, 17.8816, 15.8645, 23.0564, 38.2544, -28.6215, -29.9142
2.495, 2, 17.8816, 15.8645, 23.0564, 38.2544, -28.6215, -29.9142
2.5, 2, 17.8816, 15.8645, 23.0564, 38.2544, -28.6215, -29.9142
2.504, 2, 17.8816, 15.8645, 23.0564, 38.2544, -28.6215, -29.9142
2.508, 2, 17.8816, 15.8645, 23.0564, 38.2544, -28.6215, -29.9142
2.512, 2, 17.8816, 15.8645, 23.0564, 38.2544, -28.6215, -29.9142
2.515, 2, 17.8816, 15.8645, 23.0564, 38.2544, -28.6215, -29.9142
2.52, 2, 17.8816, 15.8645, 23.0564, 38.2544, -28.6215, -29.9142
2.524, 2, 17.8816, 15.8645, 23.0564, 38.2544, -28.6215, -29.9142
2.528, 2, 17.8816, 15.8645, 23.0564, 38.2544, -28.6215, -29.9142
2.531, 2, 17.8816, 15.8645, 23.0564, 38.2544, -28.6215, -29.9142
2.536, 2, 17.8816, 15.8645, 23.0564, 38.2544, -28.6215, -29.9142
2.54, 2, 17.8816, 15.8645, 23.0564, 38.2544, -28.6215, -29.9142
2.544, 2, 17.8816, 15.8645, 23.0564, 38.2544, -28.6215, -29.9142
2.548, 2, 17.8816, 15.8645, 23.0564, 38.2544, -28.6215, -29.9142
2.551, 2, 17.8816, 15.8645, 23.0564, 38.2544, -28.6215, -29.9142
2.556, 2, 17.8816, 15.8645, 23.0564, 38.2544, -28.6215, -29.9142
2.56, 2, 17.8816, 15.8645, 23.0564, 38.2544, -28.6215, -29.9142
2.564, 2, 17.8816, 15.8645, 23.0564, 38.2544, -28.6215, -29.9142
2.568, 2, 17.8816, 15.8645, 23.0564, 38.2544, -28.6215, -29.9142
2.571, 2, 17.8816, 15.8645, 23.0564, 38.2544, -28.6215, -29.9142
2.576, 2, 17.8816, 15.8645, 23.0564, 38.2544, -28.6215, -29.9142
2.58, 2, 17.8816, 15.8645, 23.0564, 38.2544, -28.6215, -29.9142
2.584, 2, 17.8816, 15.8645, 23.0564, 38.2544, -28.6215, -29.9142
2.587, 2, 17.8816, 15.8645, 23.0564, 38.2544, -28.6215, -29.9142
2.592, 2, 17.8816, 15.8645, 23.0564, 38.2544, -28.6215, -29.9142
2.596, 2, 17.8816, 15.8645, 23.0564, 38.2544, -28.6215, -29.9142
2.6, 2, 17.8816, 15.8645, 23.0564, 38.2544, -28.6215, -29.9142
2.604, 2, 17.8816, 15.8645, 23.0564, 38.2544, -28.6215, -29.9142
2.607, 2, 17.8816, 15.8645, 23.0564, 38.2544, -28.6215, -29.9142
2.612, 2, 17.8816, 15.8645, 23.0564, 38.2544, -28.6215, -29.9142
2.616, 2, 17.8816, 15.8645, 23.0564, 38.2544, -28.6215, -29.9142
2.62, 2, 17.8816, 15.8645, 23.0564, 38.2544, -28.6215, -29.9142
2.624, 2, 17.8816, 15.8645, 23.0564, 38.2544, -28.6215, -29.9142
2.627, 2, 17.8816, 15.8645, 23.0564, 38.2544, -28.6215, -29.9142
2.632, 2, 17.8816, 15.8645, 23.0564, 38.2544, -28.6215, -29.9142
2.636, 2, 17.8816, 15.8645, 23.0564, 38.2544, -28.6215, -29.9142
2.64, 2, 17.8816, 15.8645, 23.0564, 38.2544, -28.6215, -29.9142
2.643, 2, 17.8816, 15.8645, 23.0564, 38.2544, -28.6215, -29.9142
2.648, 2, 17.8816, 15.8645, 23.0564, 38.2544, -28.6215, -29.9142
2.652, 2, 17.8816, 15.8645, 23.0564, 38.2544, -28.6215, -29.9142
2.656, 2, 17.8816, 15.8645, 23.0564, 38.2544, -28.6215, -29.9142
2.66, 2, 17.8816, 15.8645, 23.0564, 38.2544, -28.6215, -29.9142
2.663, 2, 17.8816, 15.8645, 23.0564, 38.2544, -28.6215, -29.9142
2.668, 2, 17.8816, 15.8645, 23.0564, 38.2544, -28.6215, -29.9142
2.672, 2, 17.8816, 15.8645, 23.0564, 38.2544, -28.6215, -29.9142
2.676, 2, 17.8816, 15.8645, 23.0564, 38.2544, -28.6215, -29.9142
2.679, 2, 17.8816, 15.8645, 23.0564, 38.2544, -28.6215, -29.9142
2.684, 2, 17.8816, 15.8645, 23.0564, 38.2544, -28.6215, -29.9142
2.688, 2, 17.8816, 15.8645, 23.0564, 38.2544, -28.6215, -29.9142
2.692, 2, 17.8816, 15.8645, 23.0564, 38.2544, -28.6215, -29.9142
2.696, 2, 17.8816, 15.8645, 23.0564, 38.2544, -28.6215, -29.9142
2.699, 2, 17.8816, 15.8645, 23.0564, 38.2544, -28.6215, -29.9142
2.704, 2, 17.8816, 15.8645, 23.0564, 38.2544, -28.6215, -29.9142
2.708, 2, 17.8816, 15.8645, 23.0564, 38.2544, -28.6215, -29.9142
2.712, 2, 17.8816, 15.8645, 23.0564, 38.2544, -28.6215, -29.9142
2.716, 2, 17.8816, 15.8645, 23.0564, 38.2544, -28.6215, -29.9142
2.719, 2, 17.8816, 15.8645, 23.0564, 38.2544, -28.6215, -29.9142
2.724, 2, 17.8816, 15.8645, 23.0564, 38.2544, -28.6215, -29.9142
2.728, 2, 17.8816, 15.8645, 23.0564, 38.2544, -28.6215, -29.9142
2.732, 2, 17.8816, 15.8645, 23.0564, 38.2544, -28.6215, -29.9142
2.735, 2, 17.8816, 15.8645, 23.0564, 38.2544, -28.6215, -29.9142
2.74, 2, 17.8816, 15.8645, 23.0564, 38.2544, -28.6215, -29.9142
2.744, 2, 17.8816, 15.8645, 23.0564, 38.2544, -28.6215, -29.9142
2.748, 2, 17.8816, 15.8645, 23.0564, 38.2544, -28.6215, -29.9142
2.752, 2, 17.8816, 15.8645, 23.0564, 38.2544, -28.6215, -29.9142
2.755, 2, 17.8816, 15.8645, 23.0564, 38.2544, -28.6215, -29.9142
2.76, 2, 17.8816, 15.8645, 23.0564, 38.2544, -28.6215, -29.9142
2.764, 2, 17.8816, 15.8645, 23.0564, 38.2544, -28.6215, -29.9142
2.768, 2, 17.8816, 15.8645, 23.0564, 38.2544, -28.6215, -29.9142
2.772, 2, 17.8816, 15.8645, 23.0564, 38.2544, -28.6215, -29.9142
2.775, 2, 17.8816, 15.8645, 23.0564, 38.2544, -28.6215, -29.9142
2.78, 2, 17.8816, 15.8645, 23.0564, 38.2544, -28.6215, -29.9142
2.784, 2, 17.8816, 15.8645, 23.0564, 38.2544, -28.6215, -29.9142
2.788, 2, 17.8816, 15.8645, 23.0564, 38.2544, -28.6215, -29.9142
2.791, 2, 17.8816, 15.8645, 23.0564, 38.2544, -28.6215, -29.9142
2.796, 2, 17.8816, 15.8645, 23.0564, 38.2544, -28.6215, -29.9142
2.8, 2, 17.8816, 15.8645, 23.0564, 38.2544, -28.6215, -29.9142
2.804, 2, 17.8816, 15.8645, 23.0564, 38.2544, -28.6215, -29.9142
2.808, 2, 17.8816, 15.8645, 23.0564, 38.2544, -28.6215, -29.9142
2.811, 2, 17.8816, 15.8645, 23.0564, 38.2544, -28.6215, -29.9142
2.816, 2, 17.8816, 15.8645, 23.0564, 38.2544, -28.6215, -29.9142
2.82, 2, 17.8816, 15.8645, 23.0564, 38.2544, -28.6215, -29.9142
2.824, 2, 17.8816, 15.8645, 23.0564, 38.2544, -28.6215, -29.9142
2.828, 2, 17.8816, 15.8645, 23.0564, 38.2544, -28.6215, -29.9142
2.831, 2, 17.8816, 15.8645, 23.0564, 38.2544, -28.6215, -29.9142
2.836, 2, 17.8816, 15.8645, 23.0564, 38.2544, -28.6215, -29.9142
2.84, 2, 17.8816, 15.8645, 23.0564, 38.2544, -28.6215, -29.9142
2.844, 2, 17.8816, 15.8645, 23.0564, 38.2544, -28.6215, -29.9142
2.847, 2, 17.8816, 15.8645, 23.0564, 38.2544, -28.6215, -29.9142
2.852, 2, 17.8816, 15.8645, 23.0564, 38.2544, -28.6215, -29.9142
2.856, 2, 17.8816, 15.8645, 23.0564, 38.2544, -28.6215, -29.9142
2.86, 2, 17.8816, 15.8645, 23.0564, 38.2544, -28.6215, -29.9142
2.864, 2, 17.8816, 15.8645, 23.0564, 38.2544, -28.6215, -29.9142
2.867, 2, 17.8816, 15.8645, 23.0564, 38.2544, -28.6215, -29.9142
2.872, 2, 17.8816, 15.8645, 23.0564, 38.2544, -28.6215, -29.9142
2.876, 2, 17.8816, 15.8645, 23.0564, 38.2544, -28.6215, -29.9142
2.88, 2, 17.8816, 15.8645, 23.0564, 38.2544, -28.6215, -29.9142
2.883, 2, 17.8816, 15.8645, 23.0564, 38.2544, -28.6215, -29.9142
2.888, 2, 17.8816, 15.8645, 23.0564, 38.2544, -28.6215, -29.9142
2.892, 2, 17.8816, 15.8645, 23.0564, 38.2544, -28.6215, -29.9142
2.896, 2, 17.8816, 15.8645, 23.0564, 38.2544, -28.6215, -29.9142
2.9, 2, 17.8816, 15.8645, 23.0564, 38.2544, -28.6215, -29.9142
2.903, 2, 17.8816, 15.8645, 23.0564, 38.2544, -28.6215, -29.9142
2.908, 2, 17.8816, 15.8645, 23.0564, 38.2544, -28.6215, -29.9142
2.912, 2, 17.8816, 15.8645, 23.0564, 38.2544, -28.6215, -29.9142
2.916, 2, 17.8816, 15.8645, 23.0564, 38.2544, -28.6215, -29.9142
2.92, 2, 17.8816, 15.8645, 23.0564, 38.2544, -28.6215, -29.9142
2.923, 2, 17.8816, 15.8645, 23.0564, 38.2544, -28.6215, -29.9142
2.928, 2, 17.8816, 15.8645, 23.0564, 38.2544, -28.6215, -29.9142
2.932, 2, 17.8816, 15.8645, 23.0564, 38.2544, -28.6215, -29.9142
2.936, 2, 17.8816, 15.8645, 23.0564, 38.2544, -28.6215, -29.9142
2.939, 2, 17.8816, 15.8645, 23.0564, 38.2544, -28.6215, -29.9142
2.944, 2, 17.8816, 15.8645, 23.0564, 38.2544, -28.6215, -29.9142
2.948, 2, 17.8816, 15.8645, 23.0564, 38.2544, -28.6215, -29.9142
2.952, 2, 17.8816, 15.8645, 23.0564, 38.2544, -28.6215, -29.9142
2.956, 2, 17.8816, 15.8645, 23.0564, 38.2544, -28.6215, -29.9142
2.959, 2, 17.8816, 15.8645, 23.0564, 38.2544, -28.6215, -29.9142
2.964, 2, 17.8816, 15.8645, 23.0564, 38.2544, -28.6215, -29.9142
2.968, 2, 17.8816, 15.8645, 23.0564, 38.2544, -28.6215, -29.9142
2.972, 2, 17.8816, 15.8645, 23.0564, 38.2544, -28.6215, -29.9142
2.976, 2, 17.8816, 15.8645, 23.0564, 38.2544, -28.6215, -29.9142
2.98, 2, 17.8816, 15.8645, 23.0564, 38.2544, -28.6215, -29.9142
2.984, 2, 17.8816, 15.8645, 23.0564, 38.2544, -28.6215, -29.9142
2.988, 2, 17.8816, 15.8645, 23.0564, 38.2544, -28.6215, -29.9142
2.992, 2, 17.8816, 15.8645, 23.0564, 38.2544, -28.6215, -29.9142
2.995, 2, 17.8816, 15.8645, 23.0564, 38.2544, -28.6215, -29.9142
3, 2, 17.8816, 15.8645, 23.0564, 38.2544, -28.6215, -29.9142
3.004, 2, 17.8816, 15.8645, 23.0564, 38.2544, -28.6215, -29.9142
3.008, 2, 17.8816, 15.8645, 23.0564, 38.2544, -28.6215, -29.9142
3.012, 2, 17.8816, 15.8645, 23.0564, 38.2544, -28.6215, -29.9142
3.015, 2, 17.8816, 15.8645, 23.0564, 38.2544, -28.6215, -29.9142
3.02, 2, 17.8816, 15.8645, 23.0564, 38.2544, -28.6215, -29.9142
3.024, 2, 17.8816, 15.8645, 23.0564, 38.2544, -28.6215, -29.9142
3.028, 2, 17.8816, 15.8645, 23.0564, 38.2544, -28.6215, -29.9142
3.031, 2, 17.8816, 15.8645, 23.0564, 38.2544, -28.6215, -29.9142
3.036, 2, 17.8816, 15.8645, 23.0564, 38.2544, -28.6215, -29.9142
3.04, 2, 17.8816, 15.8645, 23.0564, 38.2544, -28.6215, -29.9142
3.044, 2, 17.8816, 15.8645, 23.0564, 38.2544, -28.6215, -29.9142
3.048, 2, 17.8816, 15.8645, 23.0564, 38.2544, -28.6215, -29.9142
3.051, 2, 17.8816, 15.8645, 23.0564, 38.2544, -28.6215, -29.9142
3.056, 2, 17.8816, 15.8645, 23.0564, 38.2544, -28.6215, -29.9142
3.06, 2, 17.8816, 15.8645, 23.0564, 38.2544, -28.6215, -29.9142
3.064, 2, 17.8816, 15.8645, 23.0564, 38.2544, -28.6215, -29.9142
3.068, 2, 17.8816, 15.8645, 23.0564, 38.2544, -28.6215, -29.9142
3.071, 2, 17.8816, 15.8645, 23.0564, 38.2544, -28.6215, -29.9142
3.076, 2, 17.8816, 15.8645, 23.0564, 38.2544, -28.6215, -29.9142
3.08, 2, 17.8816, 15.8645, 23.0564, 38.2544, -28.6215, -29.9142
3.084, 2, 17.8816, 15.8645, 23.0564, 38.2544, -28.6215, -29.9142
3.087, 2, 17.8816, 15.8645, 23.0564, 38.2544, -28.6215, -29.9142
3.092, 2, 17.8816, 15.8645, 23.0564, 38.2544, -28.6215, -29.9142
3.096, 2, 17.8816, 15.8645, 23.0564, 38.2544, -28.6215, -29.9142
3.1, 2, 17.8816, 15.8645, 23.0564, 38.2544, -28.6215, -29.9142
3.104, 2, 17.8816, 15.8645, 23.0564, 38.2544, -28.6215, -29.9142
3.107, 2, 17.8816, 15.8645, 23.0564, 38.2544, -28.6215, -29.9142
3.112, 2, 17.8816, 15.8645, 23.0564, 38.2544, -28.6215, -29.9142
3.116, 2, 17.8816, 15.8645, 23.0564, 38.2544, -28.6215, -29.9142
3.12, 2, 17.8816, 15.8645, 23.0564, 38.2544, -28.6215, -29.9142
3.124, 2, 17.8816, 15.8645, 23.0564, 38.2544, -28.6215, -29.9142
3.128, 2, 17.8816, 15.8645, 23.0564, 38.2544, -28.6215, -29.9142
3.132, 2, 17.8816, 15.8645, 23.0564, 38.2544, -28.6215, -29.9142
3.136, 2, 17.8816, 15.8645, 23.0564, 38.2544, -28.6215, -29.9142
3.14, 2, 17.8816, 15.8645, 23.0564, 38.2544, -28.6215, -29.9142
3.143, 2, 17.8816, 15.8645, 23.0564, 38.2544, -28.6215, -29.9142
3.148, 2, 17.8816, 15.8645, 23.0564, 38.2544, -28.6215, -29.9142
3.152, 2, 17.8816, 15.8645, 23.0564, 38.2544, -28.6215, -29.9142
3.156, 2, 17.8816, 15.8645, 23.0564, 38.2544, -28.6215, -29.9142
3.16, 2, 17.8816, 15.8645, 23.0564, 38.2544, -28.6215, -29.9142
3.163, 2, 17.8816, 15.8645, 23.0564, 38.2544, -28.6215, -29.9142
3.168, 2, 17.8816, 15.8645, 23.0564, 38.2544, -28.6215, -29.9142
3.172, 2, 17.8816, 15.8645, 23.0564, 38.2544, -28.6215, -29.9142
3.176, 2, 17.8816, 15.8645, 23.0564, 38.2544, -28.6215, -29.9142
3.179, 2, 17.8816, 15.8645, 23.0564, 38.2544, -28.6215, -29.9142
3.184, 2, 17.8816, 15.8645, 23.0564, 38.2544, -28.6215, -29.9142
3.188, 2, 17.8816, 15.8645, 23.0564, 38.2544, -28.6215, -29.9142
3.192, 2, 17.8816, 15.8645, 23.0564, 38.2544, -28.6215, -29.9142
3.196, 2, 17.8816, 15.8645, 23.0564, 38.2544, -28.6215, -29.9142
3.199, 2, 17.8816, 15.8645, 23.0564, 38.2544, -28.6215, -29.9142
3.204, 2, 17.8816, 15.8645, 23.0564, 38.2544, -28.6215, -29.9142
3.208, 2, 17.8816, 15.8645, 23.0564, 38.2544, -28.6215, -29.9142
3.212, 2, 17.8816, 15.8645, 23.0564, 38.2544, -28.6215, -29.9142
3.216, 2, 17.8816, 15.8645, 23.0564, 38.2544, -28.6215, -29.9142
3.22, 2, 17.8816, 15.8645, 23.0564, 38.2544, -28.6215, -29.9142
3.224, 2, 17.8816, 15.8645, 23.0564, 38.2544, -28.6215, -29.9142
3.228, 2, 17.8816, 15.8645, 23.0564, 38.2544, -28.6215, -29.9142
3.232, 2, 17.8816, 15.8645, 23.0564, 38.2544, -28.6215, -29.9142
3.235, 2, 17.8816, 15.8645, 23.0564, 38.2544, -28.6215, -29.9142
3.24, 2, 17.8816, 15.8645, 23.0564, 38.2544, -28.6215, -29.9142
3.244, 2, 17.8816, 15.8645, 23.0564, 38.2544, -28.6215, -29.9142
3.248, 2, 17.8816, 15.8645, 23.0564, 38.2544, -28.6215, -29.9142
3.252, 2, 17.8816, 15.8645, 23.0564, 38.2544, -28.6215, -29.9142
3.255, 2, 17.8816, 15.8645, 23.0564, 38.2544, -28.6215, -29.9142
3.26, 2, 17.8816, 15.8645, 23.0564, 38.2544, -28.6215, -29.9142
3.264, 2, 17.8816, 15.8645, 23.0564, 38.2544, -28.6215, -29.9142
3.268, 2, 17.8816, 15.8645, 23.0564, 38.2544, -28.6215, -29.9142
3.272, 2, 17.8816, 15.8645, 23.0564, 38.2544, -28.6215, -29.9142
3.276, 2, 17.8816, 15.8645, 23.0564, 38.2544, -28.6215, -29.9142
3.28, 2, 17.8816, 15.8645, 23.0564, 38.2544, -28.6215, -29.9142
3.284, 2, 17.8816, 15.8645, 23.0564, 38.2544, -28.6215, -29.9142
3.288, 2, 17.8816, 15.8645, 23.0564, 38.2544, -28.6215, -29.9142
3.291, 2, 17.8816, 15.8645, 23.0564, 38.2544, -28.6215, -29.9142
3.296, 2, 17.8816, 15.8645, 23.0564, 38.2544, -28.6215, -29.9142
3.3, 2, 17.8816, 15.8645, 23.0564, 38.2544, -28.6215, -29.9142
3.304, 2, 17.8816, 15.8645, 23.0564, 38.2544, -28.6215, -29.9142
3.308, 2, 17.8816, 15.8645, 23.0564, 38.2544, -28.6215, -29.9142
3.312, 2, 17.8816, 15.8645, 23.0564, 38.2544, -28.6215, -29.9142
3.316, 2, 17.8816, 15.8645, 23.0564, 38.2544, -28.6215, -29.9142
3.32, 2, 17.8816, 15.8645, 23.0564, 38.2544, -28.6215, -29.9142
3.324, 2, 17.8816, 15.8645, 23.0564, 38.2544, -28.6215, -29.9142
3.328, 2, 17.8816, 15.8645, 23.0564, 38.2544, -28.6215, -29.9142
3.332, 2, 17.8816, 15.8645, 23.0564, 38.2544, -28.6215, -29.9142
3.336, 2, 17.8816, 15.8645, 23.0564, 38.2544, -28.6215, -29.9142
3.34, 2, 17.8816, 15.8645, 23.0564, 38.2544, -28.6215, -29.9142
3.344, 2, 17.8816, 15.8645, 23.0564, 38.2544, -28.6215, -29.9142
3.347, 2, 17.8816, 15.8645, 23.0564, 38.2544, -28.6215, -29.9142
3.352, 4, 17.8816, 15.8645, 23.0564, 38.2544, -28.6215, -29.9142
3.356, 4, 17.8816, 15.8645, 23.0564, 38.2544, -28.6215, -29.9142
3.36, 4, 17.8816, 15.8645, 23.0564, 38.2544, -28.6215, -29.9142
3.364, 4, 17.8816, 15.8645, 23.0564, 38.2544, -28.6215, -29.9142
3.368, 4, 17.8816, 15.8645, 23.0564, 38.2544, -28.6215, -29.9142
3.372, 4, 17.8816, 15.8645, 23.0564, 38.2544, -28.6215, -29.9142
3.376, 4, 17.8816, 15.8645, 23.0564, 38.2544, -28.6215, -29.9142
3.38, 4, 17.8816, 15.8645, 23.0564, 38.2544, -28.6215, -29.9142
3.383, 4, 17.8816, 15.8645, 23.0564, 38.2544, -28.6215, -29.9142
3.388, 4, 17.8816, 15.8645, 23.0564, 38.2544, -28.6215, -29.9142
3.392, 4, 17.8816, 15.8645, 23.0564, 38.2544, -28.6215, -29.9142
3.396, 4, 17.8816, 15.8645, 23.0564, 38.2544, -28.6215, -29.9142
3.4, 4, 17.8816, 15.8645, 23.0564, 38.2544, -28.6215, -29.9142
3.403, 4, 17.8816, 15.8645, 23.0564, 38.2544, -28.6215, -29.9142
3.408, 4, 17.8816, 15.8645, 23.0564, 38.2544, -28.6215, -29.9142
3.412, 4, 17.8816, 15.8645, 23.0564, 38.2544, -28.6215, -29.9142
3.416, 4, 17.8816, 15.8645, 23.0564, 38.2544, -28.6215, -29.9142
3.42, 4, 17.8816, 15.8645, 23.0564, 38.2544, -28.6215, -29.9142
3.424, 4, 17.8816, 15.8645, 23.0564, 38.2544, -28.6215, -29.9142
3.428, 4, 17.8816, 15.8645, 23.0564, 38.2544, -28.6215, -29.9142
3.432, 4, 17.8816, 15.8645, 23.0564, 38.2544, -28.6215, -29.9142
3.436, 4, 17.8816, 15.8645, 23.0564, 38.2544, -28.6215, -29.9142
3.439, 4, 17.8816, 15.8645, 23.0564, 38.2544, -28.6215, -29.9142
3.444, 4, 17.8816, 15.8645, 23.0564, 38.2544, -28.6215, -29.9142
3.448, 4, 17.8816, 15.8645, 23.0564, 38.2544, -28.6215, -29.9142
3.452, 4, 17.8816, 15.8645, 23.0564, 38.2544, -28.6215, -29.9142
3.456, 4, 17.8816, 15.8645, 23.0564, 38.2544, -28.6215, -29.9142
3.46, 4, 17.8816, 15.8645, 23.0564, 38.2544, -28.6215, -29.9142
3.464, 4, 17.8816, 15.8645, 23.0564, 38.2544, -28.6215, -29.9142
3.468, 4, 17.8816, 15.8645, 23.0564, 38.2544, -28.6215, -29.9142
3.472, 4, 17.8816, 15.8645, 23.0564, 38.2544, -28.6215, -29.9142
3.476, 4, 17.8816, 15.8645, 23.0564, 38.2544, -28.6215, -29.9142
3.48, 4, 17.8816, 15.8645, 23.0564, 38.2544, -28.6215, -29.9142
3.484, 4, 17.8815, 15.8645, 23.0564, 38.2544, -28.6215, -29.9142
3.488, 4, 17.8812, 15.8645, 23.0564, 38.2543, -28.6215, -29.9142
3.492, 4, 17.8806, 15.8645, 23.0565, 38.2542, -28.6216, -29.9141
3.495, 4, 17.8793, 15.8645, 23.0566, 38.2539, -28.6217, -29.9139
3.5, 4, 17.8773, 15.8644, 23.0569, 38.2532, -28.6219, -29.9133
3.504, 4, 17.8745, 15.8643, 23.0576, 38.2517, -28.6225, -29.912
3.508, 4, 17.8706, 15.864, 23.0586, 38.2489, -28.6235, -29.9095
3.512, 4, 17.8657, 15.8636, 23.0603, 38.2441, -28.6252, -29.9053
3.516, 4, 17.8595, 15.863, 23.063, 38.2364, -28.628, -29.8984
3.52, 4, 17.8519, 15.862, 23.067, 38.2246, -28.6323, -29.8881
3.524, 5, 17.8425, 15.8607, 23.0726, 38.2075, -28.6384, -29.873
3.528, 5, 17.8311, 15.8589, 23.0804, 38.1837, -28.647, -29.852
3.531, 5, 17.8174, 15.8565, 23.0908, 38.1514, -28.6586, -29.8234
3.536, 5, 17.801, 15.8533, 23.1043, 38.1089, -28.674, -29.7858
3.54, 5, 17.7821, 15.8494, 23.1216, 38.0544, -28.6938, -29.7376
3.544, 5, 17.7607, 15.8444, 23.143, 37.986, -28.7187, -29.6771
3.548, 5, 17.7368, 15.8384, 23.1691, 37.9022, -28.7493, -29.603
3.552, 5, 17.7105, 15.8313, 23.2001, 37.8019, -28.7861, -29.5142
3.556, 5, 17.6816, 15.823, 23.2364, 37.6842, -28.8295, -29.4101
3.56, 5, 17.6501, 15.8135, 23.278, 37.5489, -28.8796, -29.2903
3.564, 5, 17.6158, 15.8028, 23.3249, 37.3961, -28.9365, -29.1552
3.568, 5, 17.5787, 15.7909, 23.3769, 37.2264, -29.0001, -29.0052
3.572, 5, 17.5388, 15.778, 23.4339, 37.041, -29.07, -28.8413
3.576, 5, 17.4962, 15.7642, 23.4953, 36.841, -29.1458, -28.6647
3.58, 5, 17.4511, 15.7495, 23.5608, 36.6281, -29.2271, -28.4767
3.584, 5, 17.4038, 15.7341, 23.6298, 36.404, -29.3133, -28.279
3.587, 5, 17.3544, 15.7181, 23.7017, 36.1708, -29.4036, -28.0734
3.592, 5, 17.3028, 15.7017, 23.7761, 35.9303, -29.4976, -27.8615
3.596, 5, 17.249, 15.6851, 23.8524, 35.6845, -29.5945, -27.645
3.6, 5, 17.1932, 15.6683, 23.93, 35.4349, -29.6937, -27.4255
3.604, 5, 17.1353, 15.6514, 24.0087, 35.183, -29.7948, -27.2041
3.608, 5, 17.0757, 15.6345, 24.088, 34.93, -29.8974, -26.9818
3.612, 5, 17.0146, 15.6178, 24.1676, 34.6765, -30.0011, -26.7594
3.616, 5, 16.9523, 15.6012, 24.2475, 34.4233, -30.1058, -26.5374
3.62, 5, 16.8892, 15.5849, 24.3273, 34.1708, -30.2112, -26.3162
3.624, 5, 16.8256, 15.5687, 24.4071, 33.9191, -30.3173, -26.0959
3.628, 5, 16.7615, 15.5527, 24.4868, 33.6685, -30.4241, -25.8769
3.632, 5, 16.697, 15.5371, 24.5663, 33.4191, -30.5314, -25.659
3.636, 5, 16.6324, 15.5216, 24.6455, 33.171, -30.6392, -25.4425
3.64, 5, 16.5675, 15.5064, 24.7246, 32.9243, -30.7476, -25.2274
3.644, 5, 16.5025, 15.4915, 24.8034, 32.6789, -30.8564, -25.0136
3.648, 5, 16.4373, 15.4769, 24.8819, 32.4349, -30.9657, -24.8013
3.652, 5, 16.3721, 15.4625, 24.9602, 32.1923, -31.0754, -24.5904
3.656, 5, 16.3067, 15.4483, 25.0382, 31.951, -31.1856, -24.3808
3.66, 5, 16.2412, 15.4345, 25.1159, 31.7112, -31.2963, -24.1728
3.664, 5, 16.1756, 15.4209, 25.1934, 31.4728, -31.4074, -23.9661
3.668, 5, 16.1098, 15.4076, 25.2706, 31.2357, -31.5189, -23.7608
3.672, 5, 16.0441, 15.3946, 25.3475, 31.0001, -31.6309, -23.5569
3.676, 5, 15.9782, 15.3818, 25.4241, 30.7658, -31.7433, -23.3544
3.679, 5, 15.9122, 15.3693, 25.5005, 30.5328, -31.8561, -23.1533
3.684, 5, 15.8461, 15.3571, 25.5766, 30.3012, -31.9693, -22.9536
3.688, 5, 15.7799, 15.3451, 25.6524, 30.071, -32.0829, -22.7552
3.692, 5, 15.7137, 15.3334, 25.7279, 29.8421, -32.197, -22.5582
3.696, 5, 15.6474, 15.322, 25.8031, 29.6145, -32.3114, -22.3626
3.7, 5, 15.5809, 15.3109, 25.8781, 29.3883, -32.4263, -22.1683
3.704, 5, 15.5144, 15.3001, 25.9527, 29.1634, -32.5415, -21.9753
3.708, 5, 15.4478, 15.2895, 26.0271, 28.9397, -32.6571, -21.7836
3.712, 5, 15.3811, 15.2792, 26.1012, 28.7174, -32.7732, -21.5933
3.716, 5, 15.3143, 15.2692, 26.1751, 28.4963, -32.8896, -21.4042
3.72, 5, 15.2474, 15.2594, 26.2486, 28.2765, -33.0064, -21.2165
3.724, 5, 15.1805, 15.2499, 26.3219, 28.058, -33.1235, -21.03
3.728, 5, 15.1134, 15.2407, 26.3949, 27.8408, -33.2411, -20.8448
3.732, 5, 15.0463, 15.2318, 26.4676, 27.6248, -33.359, -20.6609
3.735, 5, 14.9791, 15.2231, 26.54, 27.41, -33.4773, -20.4782
3.74, 5, 14.9118, 15.2147, 26.6122, 27.1965, -33.5959, -20.2968
3.744, 5, 14.8444, 15.2066, 26.684, 26.9842, -33.7149, -20.1167
3.748, 5, 14.7769, 15.1988, 26.7556, 26.7731, -33.8343, -19.9377
3.752, 5, 14.7093, 15.1912, 26.8269, 26.5632, -33.954, -19.76
3.756, 5, 14.6417, 15.184, 26.898, 26.3545, -34.0741, -19.5836
3.76, 5, 14.574, 15.1769, 26.9687, 26.1471, -34.1945, -19.4083
3.764, 5, 14.5061, 15.1702, 27.0392, 25.9407, -34.3153, -19.2342
3.768, 5, 14.4382, 15.1637, 27.1094, 25.7356, -34.4364, -19.0614
3.772, 5, 14.3702, 15.1575, 27.1793, 25.5317, -34.5579, -18.8897
3.776, 5, 14.3022, 15.1516, 27.2489, 25.3288, -34.6797, -18.7192
3.78, 5, 14.234, 15.146, 27.3183, 25.1272, -34.8018, -18.5498
3.784, 5, 14.1658, 15.1406, 27.3874, 24.9267, -34.9243, -18.3817
3.788, 5, 14.0974, 15.1355, 27.4562, 24.7273, -35.0471, -18.2146
3.792, 5, 14.029, 15.1307, 27.5247, 24.529, -35.1702, -18.0487
3.796, 5, 13.9605, 15.1261, 27.5929, 24.3319, -35.2937, -17.884
3.8, 5, 13.892, 15.1219, 27.6609, 24.1359, -35.4174, -17.7204
3.804, 5, 13.8233, 15.1179, 27.7286, 23.9409, -35.5415, -17.5579
3.808, 5, 13.7546, 15.1142, 27.7959, 23.7471, -35.6659, -17.3965
3.812, 5, 13.6858, 15.1107, 27.863, 23.5543, -35.7906, -17.2362
3.816, 5, 13.6169, 15.1076, 27.9299, 23.3626, -35.9156, -17.077
3.82, 5, 13.5479, 15.1047, 27.9964, 23.172, -36.0409, -16.9189
3.824, 5, 13.4788, 15.1021, 28.0627, 22.9824, -36.1665, -16.7618
3.828, 5, 13.4097, 15.0998, 28.1286, 22.7939, -36.2924, -16.6058
3.832, 5, 13.3405, 15.0977, 28.1943, 22.6064, -36.4186, -16.4509
3.836, 5, 13.2712, 15.0959, 28.2597, 22.4199, -36.5451, -16.297
3.84, 5, 13.2018, 15.0944, 28.3248, 22.2344, -36.6719, -16.1442
3.844, 5, 13.1323, 15.0932, 28.3896, 22.05, -36.799, -15.9923
3.848, 5, 13.0628, 15.0923, 28.4541, 21.8665, -36.9263, -15.8415
3.852, 5, 12.9932, 15.0917, 28.5184, 21.6841, -37.0539, -15.6917
3.856, 5, 12.9235, 15.0913, 28.5823, 21.5026, -37.1818, -15.543
3.86, 5, 12.8537, 15.0912, 28.646, 21.3221, -37.31, -15.3952
3.864, 5, 12.7839, 15.0914, 28.7093, 21.1426, -37.4384, -15.2484
3.868, 5, 12.7139, 15.0919, 28.7724, 20.964, -37.5672, -15.1026
3.872, 5, 12.6439, 15.0926, 28.8352, 20.7864, -37.6961, -14.9577
3.876, 5, 12.5739, 15.0936, 28.8977, 20.6097, -37.8254, -14.8138
3.88, 5, 12.5037, 15.0949, 28.9599, 20.434, -37.9549, -14.6709
3.884, 5, 12.4335, 15.0965, 29.0218, 20.2592, -38.0847, -14.529
3.888, 5, 12.3632, 15.0984, 29.0835, 20.0853, -38.2147, -14.3879
3.892, 5, 12.2928, 15.1006, 29.1448, 19.9124, -38.345, -14.2478
3.896, 5, 12.2223, 15.103, 29.2058, 19.7403, -38.4755, -14.1087
3.9, 5, 12.1518, 15.1057, 29.2666, 19.5692, -38.6063, -13.9705
3.904, 5, 12.0812, 15.1087, 29.327, 19.399, -38.7373, -13.8332
3.908, 5, 12.0105, 15.112, 29.3872, 19.2296, -38.8685, -13.6968
3.912, 5, 11.9398, 15.1156, 29.4471, 19.0612, -39.0001, -13.5613
3.916, 5, 11.869, 15.1194, 29.5067, 18.8936, -39.1318, -13.4267
3.92, 5, 11.7981, 15.1236, 29.566, 18.7269, -39.2638, -13.293
3.924, 5, 11.7271, 15.128, 29.625, 18.561, -39.396, -13.1602
3.928, 5, 11.656, 15.1326, 29.6837, 18.396, -39.5285, -13.0282
3.932, 5, 11.5849, 15.1376, 29.7421, 18.2319, -39.6612, -12.8972
3.936, 5, 11.5138, 15.1429, 29.8002, 18.0686, -39.7941, -12.767
3.94, 5, 11.4425, 15.1484, 29.858, 17.9062, -39.9273, -12.6376
3.944, 5, 11.3712, 15.1542, 29.9156, 17.7446, -40.0607, -12.5092
3.948, 5, 11.2998, 15.1603, 29.9728, 17.5838, -40.1943, -12.3815
3.952, 5, 11.2283, 15.1667, 30.0298, 17.4238, -40.3281, -12.2548
3.956, 5, 11.1568, 15.1733, 30.0864, 17.2647, -40.4622, -12.1288
3.96, 5, 11.0851, 15.1803, 30.1428, 17.1064, -40.5964, -12.0037
3.964, 5, 11.0135, 15.1875, 30.1989, 16.9489, -40.7309, -11.8794
3.968, 5, 10.9417, 15.195, 30.2547, 16.7922, -40.8657, -11.756
3.972, 5, 10.8699, 15.2028, 30.3101, 16.6363, -41.0006, -11.6334
3.976, 5, 10.798, 15.2109, 30.3653, 16.4811, -41.1357, -11.5115
3.98, 5, 10.7261, 15.2192, 30.4202, 16.3268, -41.2711, -11.3905
3.984, 5, 10.654, 15.2278, 30.4748, 16.1733, -41.4066, -11.2703
3.988, 5, 10.5819, 15.2368, 30.5291, 16.0205, -41.5424, -11.1509
3.992, 5, 10.5098, 15.246, 30.5831, 15.8685, -41.6783, -11.0323
3.996, 5, 10.4376, 15.2554, 30.6368, 15.7172, -41.8145, -10.9144
3.999, 5, 10.3653, 15.2652, 30.6903, 15.5667, -41.9509, -10.7973
4.004, 5, 10.2929, 15.2752, 30.7434, 15.417, -42.0874, -10.681
4.008, 5, 10.2205, 15.2856, 30.7962, 15.268, -42.2242, -10.5655
4.012, 5, 10.148, 15.2962, 30.8487, 15.1197, -42.3611, -10.4507
4.016, 5, 10.0755, 15.3071, 30.9009, 14.9721, -42.4982, -10.3366
4.02, 5, 10.0029, 15.3183, 30.9528, 14.8253, -42.6356, -10.2233
4.024, 5, 9.93019, 15.3297, 31.0045, 14.6792, -42.7731, -10.1107
4.028, 5, 9.85746, 15.3414, 31.0558, 14.5338, -42.9107, -9.99886
4.032, 5, 9.78466, 15.3535, 31.1068, 14.3891, -43.0486, -9.88772
4.036, 5, 9.7118, 15.3658, 31.1575, 14.2451, -43.1867, -9.77731
4.04, 5, 9.63887, 15.3784, 31.208, 14.1017, -43.3249, -9.6676
4.044, 5, 9.56589, 15.3912, 31.2581, 13.9591, -43.4633, -9.55859
4.048, 5, 9.49285, 15.4044, 31.3079, 13.8171, -43.6018, -9.45028
4.052, 5, 9.41974, 15.4178, 31.3574, 13.6758, -43.7406, -9.34266
4.056, 5, 9.34658, 15.4315, 31.4066, 13.5352, -43.8794, -9.23572
4.06, 5, 9.27336, 15.4455, 31.4556, 13.3952, -44.0185, -9.12947
4.064, 5, 9.20008, 15.4597, 31.5042, 13.2559, -44.1577, -9.02388
4.068, 5, 9.12674, 15.4743, 31.5525, 13.1172, -44.2971, -8.91897
4.072, 5, 9.05335, 15.4891, 31.6005, 12.9792, -44.4367, -8.81472
4.076, 5, 8.97989, 15.5042, 31.6482, 12.8418, -44.5764, -8.71113
4.08, 5, 8.90639, 15.5196, 31.6956, 12.705, -44.7162, -8.60819
4.084, 5, 8.83282, 15.5353, 31.7427, 12.5689, -44.8562, -8.5059
4.088, 5, 8.7592, 15.5512, 31.7895, 12.4334, -44.9964, -8.40425
4.092, 5, 8.68553, 15.5674, 31.836, 12.2985, -45.1367, -8.30324
4.096, 5, 8.6118, 15.5839, 31.8822, 12.1643, -45.2771, -8.20287
4.1, 5, 8.53801, 15.6007, 31.9281, 12.0306, -45.4177, -8.10312
4.104, 5, 8.46418, 15.6178, 31.9737, 11.8975, -45.5585, -8.004
4.108, 5, 8.39029, 15.6351, 32.019, 11.7651, -45.6994, -7.9055
4.112, 5, 8.31634, 15.6527, 32.0639, 11.6332, -45.8404, -7.80761
4.116, 5, 8.24235, 15.6706, 32.1086, 11.5019, -45.9816, -7.71034
4.12, 5, 8.1683, 15.6888, 32.153, 11.3713, -46.1229, -7.61367
4.124, 5, 8.0942, 15.7072, 32.197, 11.2412, -46.2643, -7.5176
4.128, 5, 8.02005, 15.726, 32.2408, 11.1116, -46.4059, -7.42214
4.132, 5, 7.94585, 15.745, 32.2842, 10.9827, -46.5476, -7.32727
4.136, 5, 7.87159, 15.7643, 32.3274, 10.8543, -46.6894, -7.23298
4.14, 5, 7.79729, 15.7838, 32.3702, 10.7265, -46.8314, -7.13929
4.144, 5, 7.72294, 15.8037, 32.4128, 10.5993, -46.9735, -7.04618
4.148, 5, 7.64853, 15.8238, 32.455, 10.4726, -47.1157, -6.95364
4.152, 5, 7.57408, 15.8442, 32.4969, 10.3465, -47.258, -6.86169
4.156, 5, 7.49958, 15.8649, 32.5385, 10.2209, -47.4005, -6.7703
4.16, 5, 7.42503, 15.8858, 32.5798, 10.0959, -47.5431, -6.67948
4.164, 5, 7.35043, 15.907, 32.6208, 9.97139, -47.6858, -6.58923
4.168, 5, 7.27579, 15.9286, 32.6614, 9.84745, -47.8286, -6.49953
4.172, 5, 7.2011, 15.9503, 32.7018, 9.72404, -47.9716, -6.4104
4.176, 5, 7.12636, 15.9724, 32.7419, 9.60118, -48.1147, -6.32181
4.18, 5, 7.05157, 15.9948, 32.7816, 9.47884, -48.2579, -6.23378
4.184, 5, 6.97674, 16.0174, 32.8211, 9.35703, -48.4012, -6.1463
4.188, 5, 6.90186, 16.0403, 32.8602, 9.23575, -48.5446, -6.05936
4.192, 5, 6.82694, 16.0635, 32.899, 9.11498, -48.6881, -5.97296
4.196, 5, 6.75197, 16.0869, 32.9375, 8.99474, -48.8317, -5.88709
4.2, 5, 6.67696, 16.1107, 32.9757, 8.875, -48.9755, -5.80176
4.204, 5, 6.6019, 16.1347, 33.0136, 8.75578, -49.1193, -5.71696
4.208, 5, 6.52681, 16.159, 33.0512, 8.63706, -49.2633, -5.63268
4.212, 5, 6.45167, 16.1835, 33.0884, 8.51885, -49.4073, -5.54892
4.216, 5, 6.37649, 16.2084, 33.1253, 8.40113, -49.5515, -5.46569
4.22, 5, 6.30126, 16.2335, 33.162, 8.28391, -49.6958, -5.38296
4.224, 5, 6.226, 16.2589, 33.1983, 8.16718, -49.8401, -5.30074
4.228, 5, 6.15069, 16.2845, 33.2343, 8.05093, -49.9846, -5.21903
4.232, 5, 6.07535, 16.3105, 33.27, 7.93517, -50.1292, -5.13782
4.236, 5, 5.99996, 16.3367, 33.3054, 7.81988, -50.2738, -5.05711
4.24, 5, 5.92454, 16.3632, 33.3404, 7.70507, -50.4185, -4.97689
4.244, 5, 5.84907, 16.3899, 33.3752, 7.59073, -50.5634, -4.89715
4.248, 5, 5.77357, 16.417, 33.4096, 7.47685, -50.7083, -4.81791
4.252, 5, 5.69803, 16.4443, 33.4437, 7.36344, -50.8533, -4.73914
4.256, 5, 5.62245, 16.4719, 33.4775, 7.25049, -50.9984, -4.66085
4.26, 5, 5.54683, 16.4997, 33.511, 7.13799, -51.1435, -4.58303
4.264, 5, 5.47118, 16.5279, 33.5442, 7.02595, -51.2888, -4.50569
4.268, 5, 5.3955, 16.5563, 33.577, 6.91435, -51.4341, -4.42881
4.272, 5, 5.31978, 16.5849, 33.6096, 6.8032, -51.5795, -4.35239
4.276, 5, 5.24402, 16.6139, 33.6418, 6.69249, -51.725, -4.27643
4.28, 5, 5.16823, 16.6431, 33.6737, 6.58222, -51.8706, -4.20093
4.284, 5, 5.09241, 16.6726, 33.7053, 6.47239, -52.0162, -4.12588
4.288, 5, 5.01656, 16.7023, 33.7366, 6.36299, -52.1619, -4.05128
4.292, 5, 4.94067, 16.7323, 33.7675, 6.25402, -52.3076, -3.97713
4.296, 5, 4.86475, 16.7626, 33.7982, 6.14547, -52.4535, -3.90342
4.3, 5, 4.7888, 16.7932, 33.8285, 6.03735, -52.5994, -3.83015
4.304, 5, 4.71282, 16.824, 33.8585, 5.92965, -52.7453, -3.75731
4.308, 5, 4.63681, 16.8551, 33.8882, 5.82236, -52.8914, -3.68491
4.312, 5, 4.56077, 16.8864, 33.9175, 5.71549, -53.0374, -3.61294
4.316, 5, 4.4847, 16.918, 33.9466, 5.60903, -53.1836, -3.5414
4.32, 5, 4.4086, 16.9499, 33.9753, 5.50298, -53.3298, -3.47028
4.324, 5, 4.33248, 16.9821, 34.0038, 5.39733, -53.4761, -3.39959
4.328, 5, 4.25632, 17.0145, 34.0319, 5.29209, -53.6224, -3.32931
4.332, 5, 4.18014, 17.0472, 34.0596, 5.18725, -53.7687, -3.25945
4.336, 5, 4.10393, 17.0801, 34.0871, 5.08281, -53.9152, -3.19
4.34, 5, 4.0277, 17.1133, 34.1142, 4.97875, -54.0616, -3.12096
4.344, 5, 3.95144, 17.1468, 34.1411, 4.8751, -54.2082, -3.05233
4.348, 5, 3.87516, 17.1805, 34.1676, 4.77183, -54.3547, -2.98411
4.352, 5, 3.79885, 17.2145, 34.1937, 4.66895, -54.5013, -2.91629
4.356, 5, 3.72251, 17.2488, 34.2196, 4.56645, -54.648, -2.84886
4.36, 5, 3.64616, 17.2833, 34.2451, 4.46434, -54.7947, -2.78184
4.364, 5, 3.56978, 17.3181, 34.2703, 4.3626, -54.9415, -2.7152
4.368, 5, 3.49338, 17.3532, 34.2952, 4.26124, -55.0883, -2.64896
4.372, 5, 3.41695, 17.3885, 34.3198, 4.16026, -55.2351, -2.58311
4.376, 5, 3.34051, 17.424, 34.3441, 4.05965, -55.382, -2.51765
4.38, 5, 3.26404, 17.4599, 34.368, 3.9594, -55.5289, -2.45257
4.384, 5, 3.18755, 17.496, 34.3916, 3.85953, -55.6758, -2.38787
4.388, 5, 3.11105, 17.5323, 34.4149, 3.76001, -55.8228, -2.32354
4.392, 5, 3.03452, 17.5689, 34.4378, 3.66086, -55.9698, -2.2596
4.396, 5, 2.95798, 17.6058, 34.4605, 3.56207, -56.1168, -2.19602
4.4, 5, 2.88141, 17.6429, 34.4828, 3.46363, -56.2639, -2.13282
4.404, 5, 2.80483, 17.6803, 34.5048, 3.36555, -56.411, -2.06998
4.408, 5, 2.72824, 17.7179, 34.5264, 3.26781, -56.5581, -2.00751
4.412, 5, 2.65162, 17.7558, 34.5478, 3.17043, -56.7053, -1.94539
4.416, 5, 2.57499, 17.794, 34.5688, 3.0734, -56.8524, -1.88364
4.42, 5, 2.49835, 17.8324, 34.5895, 2.9767, -56.9996, -1.82225
4.424, 5, 2.42168, 17.8711, 34.6099, 2.88035, -57.1469, -1.76121
4.428, 5, 2.34501, 17.91, 34.6299, 2.78434, -57.2941, -1.70052
4.432, 5, 2.26832, 17.9491, 34.6496, 2.68867, -57.4413, -1.64018
4.436, 5, 2.19162, 17.9886, 34.669, 2.59333, -57.5886, -1.58019
4.44, 5, 2.1149, 18.0282, 34.6881, 2.49833, -57.7359, -1.52054
4.444, 5, 2.03817, 18.0682, 34.7068, 2.40365, -57.8832, -1.46123
4.448, 5, 1.96143, 18.1083, 34.7253, 2.30931, -58.0305, -1.40226
4.452, 5, 1.88468, 18.1488, 34.7434, 2.21529, -58.1778, -1.34363
4.456, 5, 1.80792, 18.1894, 34.7611, 2.12159, -58.3251, -1.28533
4.46, 5, 1.73115, 18.2303, 34.7786, 2.02822, -58.4724, -1.22737
4.464, 5, 1.65437, 18.2715, 34.7957, 1.93517, -58.6197, -1.16973
4.468, 5, 1.57758, 18.3129, 34.8125, 1.84243, -58.7671, -1.11243
4.472, 5, 1.50078, 18.3546, 34.829, 1.75001, -58.9144, -1.05544
4.476, 5, 1.42398, 18.3965, 34.8451, 1.6579, -59.0617, -0.998785
4.48, 5, 1.34721, 18.4386, 34.8609, 1.56611, -59.2091, -0.942446
4.484, 5, 1.27056, 18.481, 34.8764, 1.47463, -59.3564, -0.886428
4.488, 5, 1.19412, 18.5235, 34.8916, 1.38346, -59.5037, -0.830732
4.492, 5, 1.11801, 18.5662, 34.9065, 1.29262, -59.651, -0.775364
4.496, 5, 1.04231, 18.6089, 34.9211, 1.20213, -59.7982, -0.720337
4.5, 5, 0.967057, 18.6517, 34.9353, 1.11203, -59.9452, -0.665675
4.504, 5, 0.89218, 18.6945, 34.9492, 1.02237, -60.092, -0.611418
4.508, 5, 0.817496, 18.7372, 34.9628, 0.93321, -60.2383, -0.557641
4.512, 5, 0.742753, 18.7799, 34.976, 0.844609, -60.3841, -0.504473
4.516, 5, 0.667757, 18.8226, 34.9887, 0.75659, -60.5292, -0.452124
4.52, 5, 0.592436, 18.8652, 35.001, 0.669137, -60.6733, -0.400884
4.524, 6, 0.516801, 18.9079, 35.0129, 0.582194, -60.8163, -0.351115
4.528, 6, 0.44091, 18.9505, 35.0243, 0.495662, -60.958, -0.303216
4.532, 6, 0.364865, 18.9931, 35.0353, 0.409417, -61.0983, -0.257594
4.536, 6, 0.288773, 19.0357, 35.0458, 0.323318, -61.237, -0.21462
4.54, 6, 0.21268, 19.0783, 35.056, 0.237224, -61.3742, -0.174597
4.544, 6, 0.136546, 19.1208, 35.0657, 0.151, -61.5098, -0.13774
4.548, 6, 0.0602977, 19.1633, 35.0751, 0.0645185, -61.6438, -0.104187
4.552, 6, -0.0160708, 19.2058, 35.084, -0.0223478, -61.7765, -0.0740018
4.556, 6, -0.0924616, 19.2482, 35.0926, -0.109716, -61.9078, -0.0471803
4.56, 6, -0.168732, 19.2906, 35.1008, -0.197685, -62.038, -0.023635
4.564, 6, -0.244789, 19.333, 35.1088, -0.286314, -62.1673, -0.0031836
4.568, 6, -0.320623, 19.3753, 35.1165, -0.375619, -62.2959, 0.0144498
4.572, 6, -0.396272, 19.4175, 35.1239, -0.465565, -62.4239, 0.0296174
4.576, 6, -0.471815, 19.4597, 35.131, -0.556077, -62.5515, 0.0427178
4.58, 6, -0.547381, 19.5018, 35.1379, -0.647047, -62.6789, 0.0541596
4.584, 6, -0.623118, 19.5439, 35.1444, -0.738358, -62.8062, 0.0643209
4.588, 6, -0.699125, 19.5861, 35.1506, -0.829896, -62.9335, 0.0735166
4.592, 6, -0.77542, 19.6283, 35.1565, -0.921566, -63.0607, 0.0819849
4.596, 6, -0.851981, 19.6707, 35.1621, -1.01329, -63.1879, 0.0898939
4.6, 6, -0.928782, 19.7133, 35.1674, -1.10502, -63.3151, 0.0973584
4.604, 6, -1.0058, 19.7561, 35.1724, -1.19671, -63.4423, 0.104456
4.608, 6, -1.08301, 19.7991, 35.1771, -1.28832, -63.5695, 0.111239
4.612, 6, -1.16037, 19.8423, 35.1815, -1.37985, -63.6968, 0.117745
4.616, 6, -1.23785, 19.8857, 35.1856, -1.47126, -63.8239, 0.123996
4.62, 6, -1.31542, 19.9293, 35.1894, -1.56255, -63.9511, 0.130011
4.624, 6, -1.39306, 19.9731, 35.1928, -1.65372, -64.0782, 0.135801
4.628, 6, -1.47074, 20.0171, 35.196, -1.74476, -64.2054, 0.141375
4.632, 6, -1.54846, 20.0613, 35.1989, -1.83567, -64.3324, 0.146738
4.636, 6, -1.62621, 20.1058, 35.2015, -1.92645, -64.4595, 0.151895
4.64, 6, -1.70399, 20.1504, 35.2038, -2.01709, -64.5865, 0.156849
4.644, 6, -1.78179, 20.1952, 35.2058, -2.1076, -64.7135, 0.161602
4.648, 6, -1.85961, 20.2402, 35.2076, -2.19798, -64.8405, 0.166157
4.652, 6, -1.93745, 20.2854, 35.209, -2.28822, -64.9674, 0.170516
4.656, 6, -2.0153, 20.3308, 35.2101, -2.37833, -65.0943, 0.174679
4.66, 6, -2.09317, 20.3763, 35.2109, -2.4683, -65.2211, 0.178648
4.664, 6, -2.17106, 20.4221, 35.2115, -2.55815, -65.3479, 0.182425
4.668, 6, -2.24895, 20.4681, 35.2117, -2.64786, -65.4747, 0.186009
4.672, 6, -2.32686, 20.5142, 35.2116, -2.73744, -65.6014, 0.189403
4.676, 6, -2.40478, 20.5606, 35.2113, -2.82689, -65.7281, 0.192608
4.68, 6, -2.48271, 20.6071, 35.2106, -2.91621, -65.8547, 0.195624
4.684, 6, -2.56066, 20.6538, 35.2097, -3.0054, -65.9813, 0.198452
4.688, 6, -2.63861, 20.7007, 35.2084, -3.09447, -66.1079, 0.201094
4.692, 6, -2.71657, 20.7478, 35.2069, -3.1834, -66.2344, 0.20355
4.696, 6, -2.79454, 20.7951, 35.2051, -3.27221, -66.3608, 0.205821
4.7, 6, -2.87252, 20.8426, 35.2029, -3.36089, -66.4872, 0.207908
4.704, 6, -2.95051, 20.8903, 35.2005, -3.44945, -66.6136, 0.209813
4.708, 6, -3.0285, 20.9381, 35.1978, -3.53788, -66.7399, 0.211536
4.712, 6, -3.10651, 20.9862, 35.1948, -3.62619, -66.8662, 0.213077
4.716, 6, -3.18451, 21.0344, 35.1914, -3.71437, -66.9924, 0.214439
4.72, 6, -3.26253, 21.0828, 35.1878, -3.80243, -67.1185, 0.215622
4.724, 6, -3.34055, 21.1314, 35.1839, -3.89037, -67.2446, 0.216626
4.728, 6, -3.41857, 21.1801, 35.1797, -3.97819, -67.3706, 0.217454
4.732, 6, -3.4966, 21.2291, 35.1752, -4.06589, -67.4966, 0.218105
4.736, 6, -3.57464, 21.2782, 35.1703, -4.15346, -67.6225, 0.218581
4.74, 6, -3.65267, 21.3275, 35.1652, -4.24092, -67.7484, 0.218882
4.744, 6, -3.73071, 21.377, 35.1598, -4.32826, -67.8742, 0.21901
4.748, 6, -3.80876, 21.4267, 35.1541, -4.41548, -67.9999, 0.218965
4.752, 6, -3.8868, 21.4766, 35.1481, -4.50258, -68.1256, 0.218748
4.756, 6, -3.96485, 21.5266, 35.1418, -4.58957, -68.2512, 0.218361
4.76, 6, -4.04289, 21.5768, 35.1352, -4.67644, -68.3768, 0.217804
4.764, 6, -4.12094, 21.6272, 35.1283, -4.76319, -68.5023, 0.217078
4.768, 6, -4.19899, 21.6778, 35.121, -4.84983, -68.6277, 0.216184
4.772, 6, -4.27703, 21.7285, 35.1135, -4.93636, -68.753, 0.215123
4.776, 6, -4.35508, 21.7795, 35.1057, -5.02277, -68.8783, 0.213895
4.78, 6, -4.43312, 21.8306, 35.0976, -5.10907, -69.0035, 0.212503
4.784, 6, -4.51116, 21.8818, 35.0892, -5.19525, -69.1286, 0.210946
4.788, 6, -4.5892, 21.9333, 35.0805, -5.28133, -69.2537, 0.209225
4.792, 6, -4.66724, 21.9849, 35.0715, -5.36729, -69.3787, 0.207342
4.796, 6, -4.74527, 22.0367, 35.0622, -5.45315, -69.5036, 0.205297
4.8, 6, -4.8233, 22.0887, 35.0525, -5.53889, -69.6285, 0.203091
4.804, 6, -4.90133, 22.1408, 35.0426, -5.62453, -69.7532, 0.200726
4.808, 6, -4.97935, 22.1931, 35.0324, -5.71006, -69.8779, 0.198201
4.812, 6, -5.05736, 22.2456, 35.0219, -5.79548, -70.0025, 0.195518
4.816, 6, -5.13537, 22.2983, 35.0111, -5.88079, -70.1271, 0.192678
4.82, 6, -5.21337, 22.3511, 34.9999, -5.966, -70.2515, 0.189682
4.824, 6, -5.29136, 22.4041, 34.9885, -6.0511, -70.3759, 0.18653
4.828, 6, -5.36935, 22.4573, 34.9768, -6.13609, -70.5002, 0.183224
4.832, 6, -5.44733, 22.5107, 34.9647, -6.22098, -70.6244, 0.179764
4.836, 6, -5.5253, 22.5642, 34.9524, -6.30577, -70.7485, 0.176151
4.84, 6, -5.60326, 22.6178, 34.9397, -6.39046, -70.8725, 0.172386
4.844, 6, -5.68122, 22.6717, 34.9268, -6.47504, -70.9965, 0.16847
4.848, 6, -5.75916, 22.7257, 34.9135, -6.55952, -71.1203, 0.164404
4.852, 6, -5.83709, 22.7799, 34.9, -6.6439, -71.2441, 0.160188
4.856, 6, -5.91501, 22.8342, 34.8861, -6.72818, -71.3678, 0.155825
4.86, 6, -5.99293, 22.8887, 34.872, -6.81236, -71.4914, 0.151313
4.864, 6, -6.07082, 22.9434, 34.8575, -6.89644, -71.6149, 0.146655
4.868, 6, -6.14871, 22.9983, 34.8427, -6.98042, -71.7383, 0.141851
4.872, 6, -6.22658, 23.0533, 34.8276, -7.0643, -71.8616, 0.136902
4.876, 6, -6.30444, 23.1084, 34.8123, -7.14808, -71.9848, 0.131809
4.88, 6, -6.38229, 23.1638, 34.7966, -7.23177, -72.1079, 0.126572
4.884, 6, -6.46012, 23.2193, 34.7806, -7.31537, -72.2309, 0.121194
4.888, 6, -6.53794, 23.2749, 34.7643, -7.39886, -72.3539, 0.115673
4.892, 6, -6.61574, 23.3307, 34.7477, -7.48226, -72.4767, 0.110012
4.896, 6, -6.69353, 23.3867, 34.7307, -7.56557, -72.5994, 0.104212
4.9, 6, -6.7713, 23.4429, 34.7135, -7.64879, -72.7221, 0.0982719
4.904, 6, -6.84905, 23.4992, 34.696, -7.73191, -72.8446, 0.0921941
4.908, 6, -6.92678, 23.5556, 34.6782, -7.81494, -72.967, 0.085979
4.912, 6, -7.0045, 23.6122, 34.66, -7.89787, -73.0893, 0.0796276
4.916, 6, -7.0822, 23.669, 34.6416, -7.98072, -73.2115, 0.0731406
4.92, 6, -7.15988, 23.7259, 34.6228, -8.06347, -73.3336, 0.066519
4.924, 6, -7.23754, 23.783, 34.6038, -8.14613, -73.4556, 0.0597636
4.928, 6, -7.31518, 23.8402, 34.5844, -8.2287, -73.5775, 0.0528753
4.932, 6, -7.3928, 23.8976, 34.5648, -8.31118, -73.6993, 0.0458551
4.936, 6, -7.4704, 23.9552, 34.5448, -8.39357, -73.8209, 0.0387037
4.94, 6, -7.54798, 24.0129, 34.5245, -8.47587, -73.9425, 0.031422
4.944, 6, -7.62553, 24.0707, 34.5039, -8.55808, -74.0639, 0.0240111
4.948, 6, -7.70307, 24.1287, 34.483, -8.6402, -74.1853, 0.0164717
4.952, 6, -7.78058, 24.1869, 34.4618, -8.72223, -74.3065, 0.00880468
4.956, 6, -7.85807, 24.2452, 34.4403, -8.80417, -74.4276, 0.00101106
4.96, 6, -7.93553, 24.3036, 34.4185, -8.88602, -74.5486, -0.00690832
4.964, 6, -8.01297, 24.3622, 34.3964, -8.96779, -74.6694, -0.0149526
4.968, 6, -8.09039, 24.421, 34.3739, -9.04946, -74.7902, -0.0231208
4.972, 6, -8.16778, 24.4799, 34.3512, -9.13105, -74.9108, -0.0314121
4.976, 6, -8.24515, 24.5389, 34.3282, -9.21255, -75.0313, -0.0398255
4.98, 6, -8.32249, 24.5981, 34.3048, -9.29396, -75.1517, -0.0483603
4.984, 6, -8.3998, 24.6575, 34.2812, -9.37529, -75.272, -0.0570154
4.988, 6, -8.47709, 24.7169, 34.2572, -9.45652, -75.3921, -0.06579
4.992, 6, -8.55435, 24.7766, 34.2329, -9.53767, -75.5121, -0.0746833
4.996, 6, -8.63158, 24.8363, 34.2084, -9.61873, -75.632, -0.0836943
5, 6, -8.70878, 24.8962, 34.1835, -9.69971, -75.7518, -0.0928221
5.004, 6, -8.78595, 24.9563, 34.1583, -9.7806, -75.8715, -0.102066
5.008, 6, -8.8631, 25.0165, 34.1328, -9.8614, -75.991, -0.111425
5.012, 6, -8.94021, 25.0768, 34.107, -9.94211, -76.1104, -0.120898
5.016, 6, -9.01729, 25.1373, 34.0809, -10.0227, -76.2297, -0.130484
5.02, 6, -9.09435, 25.1979, 34.0545, -10.1033, -76.3488, -0.140183
5.024, 6, -9.17137, 25.2587, 34.0278, -10.1837, -76.4678, -0.149993
5.028, 6, -9.24836, 25.3196, 34.0007, -10.2641, -76.5867, -0.159914
5.032, 6, -9.32532, 25.3806, 33.9734, -10.3444, -76.7055, -0.169944
5.036, 6, -9.40225, 25.4418, 33.9458, -10.4246, -76.8241, -0.180084
5.04, 6, -9.47914, 25.5031, 33.9178, -10.5047, -76.9426, -0.190331
5.044, 6, -9.556, 25.5646, 33.8896, -10.5848, -77.0609, -0.200686
5.048, 6, -9.63283, 25.6261, 33.861, -10.6647, -77.1792, -0.211147
5.052, 6, -9.70962, 25.6879, 33.8321, -10.7446, -77.2972, -0.221713
5.056, 6, -9.78638, 25.7497, 33.803, -10.8243, -77.4152, -0.232384
5.06, 6, -9.8631, 25.8117, 33.7735, -10.904, -77.533, -0.243158
5.064, 6, -9.93979, 25.8738, 33.7437, -10.9836, -77.6507, -0.254035
5.068, 6, -10.0164, 25.9361, 33.7136, -11.0632, -77.7682, -0.265015
5.072, 6, -10.0931, 25.9984, 33.6832, -11.1426, -77.8856, -0.276095
5.076, 6, -10.1696, 26.061, 33.6525, -11.222, -78.0029, -0.287275
5.08, 6, -10.2462, 26.1236, 33.6215, -11.3013, -78.12, -0.298554
5.084, 6, -10.3227, 26.1864, 33.5901, -11.3805, -78.237, -0.309932
5.088, 6, -10.3991, 26.2493, 33.5585, -11.4596, -78.3538, -0.321408
5.092, 6, -10.4756, 26.3123, 33.5266, -11.5386, -78.4705, -0.33298
5.096, 6, -10.5519, 26.3755, 33.4943, -11.6175, -78.5871, -0.344648
5.1, 6, -10.6283, 26.4388, 33.4618, -11.6964, -78.7035, -0.356411
5.104, 6, -10.7046, 26.5022, 33.4289, -11.7752, -78.8198, -0.368268
5.108, 6, -10.7809, 26.5657, 33.3957, -11.8539, -78.9359, -0.380218
5.112, 6, -10.8571, 26.6294, 33.3623, -11.9325, -79.0518, -0.392261
5.116, 6, -10.9333, 26.6932, 33.3285, -12.0111, -79.1677, -0.404395
5.12, 6, -11.0094, 26.7571, 33.2944, -12.0895, -79.2833, -0.41662
5.124, 6, -11.0855, 26.8211, 33.26, -12.1679, -79.3989, -0.428934
5.128, 6, -11.1616, 26.8853, 33.2253, -12.2462, -79.5143, -0.441338
5.132, 6, -11.2376, 26.9496, 33.1903, -12.3244, -79.6295, -0.45383
5.136, 6, -11.3136, 27.014, 33.155, -12.4025, -79.7446, -0.466408
5.14, 6, -11.3895, 27.0785, 33.1194, -12.4806, -79.8595, -0.479074
5.144, 6, -11.4654, 27.1432, 33.0834, -12.5586, -79.9742, -0.491825
5.148, 6, -11.5412, 27.208, 33.0472, -12.6365, -80.0889, -0.50466
5.152, 6, -11.617, 27.2729, 33.0107, -12.7143, -80.2033, -0.517579
5.156, 6, -11.6927, 27.3379, 32.9738, -12.792, -80.3176, -0.530582
5.16, 6, -11.7684, 27.403, 32.9367, -12.8697, -80.4318, -0.543666
5.164, 6, -11.8441, 27.4682, 32.8992, -12.9473, -80.5458, -0.556832
5.168, 6, -11.9197, 27.5336, 32.8614, -13.0248, -80.6596, -0.570078
5.172, 6, -11.9953, 27.5991, 32.8233, -13.1022, -80.7733, -0.583404
5.176, 6, -12.0708, 27.6647, 32.785, -13.1795, -80.8868, -0.596809
5.18, 6, -12.1462, 27.7304, 32.7463, -13.2568, -81.0002, -0.610291
5.184, 6, -12.2217, 27.7962, 32.7073, -13.334, -81.1134, -0.623851
5.188, 6, -12.297, 27.8622, 32.668, -13.4111, -81.2264, -0.637487
5.192, 6, -12.3723, 27.9282, 32.6284, -13.4881, -81.3393, -0.651198
5.196, 6, -12.4476, 27.9944, 32.5884, -13.5651, -81.452, -0.664984
5.2, 6, -12.5228, 28.0607, 32.5482, -13.6419, -81.5645, -0.678844
5.204, 6, -12.598, 28.1271, 32.5077, -13.7187, -81.6769, -0.692776
5.208, 6, -12.6731, 28.1936, 32.4668, -13.7955, -81.7892, -0.706781
5.212, 6, -12.7482, 28.2602, 32.4257, -13.8721, -81.9012, -0.720857
5.216, 6, -12.8232, 28.3269, 32.3842, -13.9487, -82.0131, -0.735003
5.22, 6, -12.8981, 28.3938, 32.3425, -14.0252, -82.1248, -0.749219
5.224, 6, -12.973, 28.4607, 32.3004, -14.1016, -82.2364, -0.763503
5.228, 6, -13.0479, 28.5278, 32.258, -14.1779, -82.3478, -0.777856
5.232, 6, -13.1227, 28.5949, 32.2154, -14.2542, -82.459, -0.792275
5.236, 6, -13.1974, 28.6622, 32.1724, -14.3304, -82.57, -0.806761
5.24, 6, -13.2721, 28.7296, 32.1291, -14.4065, -82.6809, -0.821312
5.244, 6, -13.3468, 28.7971, 32.0855, -14.4825, -82.7916, -0.835928
5.248, 6, -13.4214, 28.8647, 32.0416, -14.5585, -82.9021, -0.850607
5.252, 6, -13.4959, 28.9324, 31.9974, -14.6344, -83.0125, -0.865349
5.256, 6, -13.5703, 29.0002, 31.9528, -14.7102, -83.1227, -0.880153
5.26, 6, -13.6448, 29.0681, 31.908, -14.7859, -83.2327, -0.895019
5.264, 6, -13.7191, 29.1361, 31.8629, -14.8616, -83.3425, -0.909944
5.268, 6, -13.7934, 29.2042, 31.8174, -14.9372, -83.4522, -0.924929
5.272, 6, -13.8677, 29.2724, 31.7717, -15.0127, -83.5617, -0.939972
5.276, 6, -13.9418, 29.3407, 31.7256, -15.0881, -83.671, -0.955073
5.28, 6, -14.016, 29.4091, 31.6793, -15.1634, -83.7801, -0.97023
5.284, 6, -14.09, 29.4776, 31.6326, -15.2387, -83.8891, -0.985443
5.288, 6, -14.1641, 29.5463, 31.5856, -15.3139, -83.9979, -1.00071
5.292, 6, -14.238, 29.615, 31.5384, -15.389, -84.1065, -1.01603
5.296, 6, -14.3119, 29.6838, 31.4908, -15.4641, -84.2149, -1.03141
5.3, 6, -14.3857, 29.7527, 31.4429, -15.5391, -84.3232, -1.04684
5.304, 6, -14.4595, 29.8217, 31.3947, -15.6139, -84.4312, -1.06232
5.308, 6, -14.5332, 29.8908, 31.3462, -15.6887, -84.5391, -1.07785
5.312, 6, -14.6069, 29.96, 31.2974, -15.7635, -84.6468, -1.09343
5.316, 6, -14.6804, 30.0293, 31.2483, -15.8381, -84.7544, -1.10905
5.32, 6, -14.754, 30.0987, 31.1989, -15.9127, -84.8617, -1.12473
5.324, 6, -14.8274, 30.1682, 31.1491, -15.9872, -84.9689, -1.14045
5.328, 6, -14.9008, 30.2378, 31.0991, -16.0616, -85.0759, -1.15622
5.332, 6, -14.9742, 30.3075, 31.0488, -16.136, -85.1827, -1.17204
5.336, 6, -15.0475, 30.3773, 30.9981, -16.2102, -85.2893, -1.1879
5.34, 6, -15.1207, 30.4471, 30.9472, -16.2844, -85.3958, -1.2038
5.344, 6, -15.1938, 30.5171, 30.896, -16.3585, -85.502, -1.21975
5.348, 6, -15.2669, 30.5872, 30.8444, -16.4325, -85.6081, -1.23574
5.352, 6, -15.3399, 30.6573, 30.7926, -16.5065, -85.714, -1.25177
5.356, 6, -15.4129, 30.7276, 30.7404, -16.5804, -85.8197, -1.26784
5.36, 6, -15.4858, 30.7979, 30.6879, -16.6541, -85.9252, -1.28395
5.364, 6, -15.5586, 30.8683, 30.6352, -16.7278, -86.0306, -1.30009
5.368, 6, -15.6314, 30.9389, 30.5821, -16.8015, -86.1357, -1.31628
5.372, 6, -15.7041, 31.0095, 30.5287, -16.875, -86.2407, -1.3325
5.376, 6, -15.7767, 31.0802, 30.475, -16.9485, -86.3455, -1.34876
5.38, 6, -15.8493, 31.1509, 30.421, -17.0219, -86.4501, -1.36506
5.384, 6, -15.9218, 31.2218, 30.3667, -17.0952, -86.5545, -1.38138
5.388, 6, -15.9942, 31.2928, 30.3121, -17.1684, -86.6587, -1.39775
5.392, 6, -16.0666, 31.3638, 30.2572, -17.2416, -86.7628, -1.41414
5.396, 6, -16.1389, 31.435, 30.202, -17.3146, -86.8666, -1.43057
5.4, 6, -16.2111, 31.5062, 30.1465, -17.3876, -86.9703, -1.44703
5.404, 6, -16.2832, 31.5775, 30.0907, -17.4605, -87.0738, -1.46351
5.408, 6, -16.3553, 31.6489, 30.0346, -17.5333, -87.1771, -1.48003
5.412, 6, -16.4274, 31.7204, 29.9782, -17.6061, -87.2801, -1.49658
5.416, 6, -16.4993, 31.7919, 29.9215, -17.6787, -87.383, -1.51315
5.42, 6, -16.5712, 31.8636, 29.8644, -17.7513, -87.4858, -1.52975
5.424, 6, -16.643, 31.9353, 29.8071, -17.8238, -87.5883, -1.54638
5.428, 6, -16.7148, 32.0071, 29.7495, -17.8962, -87.6906, -1.56303
5.432, 6, -16.7864, 32.079, 29.6915, -17.9686, -87.7927, -1.57971
5.436, 6, -16.858, 32.151, 29.6333, -18.0408, -87.8947, -1.59641
5.44, 6, -16.9296, 32.2231, 29.5747, -18.113, -87.9964, -1.61313
5.444, 6, -17.001, 32.2952, 29.5159, -18.1851, -88.098, -1.62987
5.448, 6, -17.0724, 32.3675, 29.4567, -18.2571, -88.1994, -1.64664
5.452, 6, -17.1437, 32.4398, 29.3973, -18.329, -88.3005, -1.66343
5.456, 6, -17.2149, 32.5122, 29.3375, -18.4009, -88.4015, -1.68023
5.46, 6, -17.286, 32.5846, 29.2775, -18.4726, -88.5023, -1.69706
5.464, 6, -17.3568, 32.657, 29.2171, -18.5443, -88.6029, -1.7139
5.468, 6, -17.4272, 32.7293, 29.1566, -18.6159, -88.7032, -1.73075
5.472, 6, -17.4968, 32.8013, 29.0959, -18.6873, -88.8034, -1.74761
5.476, 6, -17.5656, 32.8728, 29.0351, -18.7586, -88.9032, -1.76447
5.48, 6, -17.6334, 32.9438, 28.9744, -18.8297, -89.0027, -1.78131
5.484, 6, -17.7001, 33.0141, 28.9138, -18.9004, -89.1016, -1.79809
5.488, 6, -17.7657, 33.0834, 28.8535, -18.9707, -89.1997, -1.81479
5.492, 6, -17.8302, 33.1518, 28.7937, -19.0403, -89.2969, -1.83136
5.496, 6, -17.8935, 33.219, 28.7344, -19.1091, -89.3928, -1.84774
5.5, 6, -17.9553, 33.2848, 28.676, -19.1767, -89.487, -1.86389
5.504, 6, -18.0153, 33.3488, 28.6187, -19.2429, -89.5793, -1.87973
5.508, 6, -18.0734, 33.4109, 28.5628, -19.3075, -89.6692, -1.89518
5.512, 6, -18.1293, 33.4709, 28.5084, -19.37, -89.7562, -1.91017
5.516, 6, -18.1831, 33.5286, 28.4559, -19.4302, -89.8399, -1.92462
5.52, 6, -18.2346, 33.5839, 28.4055, -19.4877, -89.9199, -1.93844
5.524, 6, -18.284, 33.6369, 28.3574, -19.5423, -89.9956, -1.95157
5.528, 6, -18.3311, 33.6873, 28.3117, -19.5936, -90.0669, -1.96392
5.532, 6, -18.3758, 33.735, 28.2687, -19.6414, -90.1333, -1.97547
5.536, 6, -18.4179, 33.7797, 28.2286, -19.6857, -90.1946, -1.98615
5.54, 6, -18.4571, 33.8213, 28.1915, -19.7262, -90.2508, -1.99595
5.544, 6, -18.4935, 33.8598, 28.1574, -19.763, -90.3018, -2.00485
5.548, 6, -18.5271, 33.8951, 28.1265, -19.796, -90.3475, -2.01285
5.552, 6, -18.5579, 33.9273, 28.0986, -19.8253, -90.3881, -2.01996
5.556, 6, -18.5862, 33.9566, 28.0737, -19.851, -90.4236, -2.0262
5.56, 6, -18.612, 33.9831, 28.0517, -19.8732, -90.4544, -2.03162
5.564, 6, -18.6353, 34.0068, 28.0324, -19.8922, -90.4807, -2.03625
5.568, 6, -18.6562, 34.0277, 28.0157, -19.9082, -90.5029, -2.04016
5.572, 6, -18.6745, 34.046, 28.0015, -19.9215, -90.5213, -2.04342
5.576, 6, -18.6905, 34.0617, 27.9895, -19.9324, -90.5363, -2.04609
5.58, 6, -18.7043, 34.075, 27.9795, -19.9412, -90.5485, -2.04824
5.584, 6, -18.7162, 34.0863, 27.9714, -19.9481, -90.5581, -2.04995
5.588, 6, -18.7265, 34.0958, 27.9648, -19.9535, -90.5655, -2.05128
5.592, 6, -18.7354, 34.1038, 27.9595, -19.9576, -90.5711, -2.05229
5.596, 6, -18.7431, 34.1103, 27.9553, -19.9606, -90.5752, -2.05303
5.6, 6, -18.7496, 34.1156, 27.9521, -19.9627, -90.5782, -2.05357
5.604, 7, -18.7549, 34.1198, 27.9496, -19.9642, -90.5803, -2.05396
5.608, 7, -18.7592, 34.1231, 27.9478, -19.9653, -90.5818, -2.05422
5.612, 7, -18.7624, 34.1254, 27.9465, -19.966, -90.5828, -2.0544
5.616, 7, -18.7647, 34.1271, 27.9456, -19.9665, -90.5835, -2.05453
5.62, 7, -18.7663, 34.1282, 27.945, -19.9668, -90.5839, -2.05461
5.624, 7, -18.7674, 34.129, 27.9446, -19.9671, -90.5842, -2.05467
5.628, 7, -18.7682, 34.1296, 27.9443, -19.9672, -90.5844, -2.05471
5.632, 7, -18.7687, 34.1299, 27.9441, -19.9673, -90.5846, -2.05473
5.636, 7, -18.769, 34.1302, 27.944, -19.9674, -90.5847, -2.05475
5.64, 7, -18.7693, 34.1303, 27.9439, -19.9674, -90.5847, -2.05476
5.644, 7, -18.7694, 34.1304, 27.9438, -19.9675, -90.5848, -2.05477
5.648, 7, -18.7695, 34.1305, 27.9438, -19.9675, -90.5848, -2.05478
5.652, 7, -18.7696, 34.1306, 27.9437, -19.9675, -90.5848, -2.05478
5.656, 7, -18.7696, 34.1306, 27.9437, -19.9675, -90.5848, -2.05478
5.66, 7, -18.7697, 34.1306, 27.9437, -19.9675, -90.5848, -2.05479
5.664, 7, -18.7697, 34.1306, 27.9437, -19.9675, -90.5849, -2.05479
5.668, 7, -18.7697, 34.1306, 27.9437, -19.9675, -90.5849, -2.05479
5.672, 7, -18.7697, 34.1306, 27.9437, -19.9675, -90.5849, -2.05479
5.676, 7, -18.7697, 34.1307, 27.9437, -19.9675, -90.5849, -2.05479
5.68, 7, -18.7697, 34.1307, 27.9437, -19.9675, -90.5849, -2.05479
5.684, 7, -18.7697, 34.1307, 27.9437, -19.9675, -90.5849, -2.05479
5.688, 7, -18.7697, 34.1307, 27.9437, -19.9675, -90.5849, -2.05479
5.692, 7, -18.7697, 34.1307, 27.9437, -19.9675, -90.5849, -2.05479
5.696, 7, -18.7697, 34.1307, 27.9437, -19.9675, -90.5849, -2.05479
5.7, 7, -18.7697, 34.1307, 27.9437, -19.9675, -90.5849, -2.05479
5.704, 7, -18.7697, 34.1307, 27.9437, -19.9675, -90.5849, -2.05479
5.708, 7, -18.7697, 34.1307, 27.9437, -19.9675, -90.5849, -2.05479
5.712, 7, -18.7697, 34.1307, 27.9437, -19.9675, -90.5849, -2.05479
5.716, 7, -18.7697, 34.1307, 27.9437, -19.9675, -90.5849, -2.05479
5.72, 7, -18.7697, 34.1307, 27.9437, -19.9675, -90.5849, -2.05479
