hehonglu123/ABB_Primitive_Study/execution/movel_30_ori/curve_exe_v300_z10.csv
timestamp, cmd_num, J1, J2, J3, J4, J5, J6
0, -1, -18.7697, 34.1307, 27.9437, -19.9675, -90.5849, -2.05479
0.003, -1, -18.7697, 34.1307, 27.9437, -19.9675, -90.5849, -2.05479
0.006, -1, -18.7697, 34.1307, 27.9437, -19.9675, -90.5849, -2.05479
0.008, -1, -18.7697, 34.1307, 27.9437, -19.9675, -90.5849, -2.05479
0.011, -1, -18.7697, 34.1307, 27.9437, -19.9675, -90.5849, -2.05479
0.016, -1, -18.7697, 34.1307, 27.9437, -19.9675, -90.5849, -2.05479
0.02, -1, -18.7697, 34.1307, 27.9437, -19.9675, -90.5849, -2.05479
0.024, -1, -18.7697, 34.1307, 27.9437, -19.9675, -90.5849, -2.05479
0.028, -1, -18.7697, 34.1307, 27.9437, -19.9675, -90.5849, -2.05479
0.032, -1, -18.7697, 34.1307, 27.9437, -19.9675, -90.5849, -2.05479
0.036, -1, -18.7697, 34.1306, 27.9437, -19.9675, -90.5849, -2.05479
0.04, -1, -18.7694, 34.1306, 27.9437, -19.9675, -90.5849, -2.05479
0.044, -1, -18.7688, 34.1304, 27.9437, -19.9675, -90.5848, -2.05481
0.048, -1, -18.7677, 34.13, 27.9438, -19.9674, -90.5848, -2.05485
0.052, -1, -18.7659, 34.1293, 27.9439, -19.9672, -90.5846, -2.05494
0.056, -1, -18.7633, 34.1282, 27.9441, -19.9669, -90.5841, -2.05514
0.06, -1, -18.7599, 34.1267, 27.9443, -19.9661, -90.5833, -2.05552
0.064, -1, -18.7555, 34.1248, 27.9446, -19.9648, -90.5819, -2.05618
0.068, -1, -18.7501, 34.1222, 27.9448, -19.9626, -90.5796, -2.05723
0.072, -1, -18.7435, 34.119, 27.945, -19.9593, -90.576, -2.05884
0.076, -1, -18.7354, 34.115, 27.9452, -19.9545, -90.5709, -2.06119
0.08, -1, -18.7256, 34.11, 27.9454, -19.9477, -90.5636, -2.06449
0.084, -1, -18.7137, 34.104, 27.9453, -19.9384, -90.5537, -2.06898
0.088, -1, -18.6996, 34.0968, 27.9451, -19.9261, -90.5406, -2.07492
0.092, -1, -18.6829, 34.0883, 27.9446, -19.9102, -90.5236, -2.08261
0.096, -1, -18.6635, 34.0784, 27.9438, -19.89, -90.502, -2.09234
0.1, -1, -18.6412, 34.0671, 27.9426, -19.8649, -90.4752, -2.10442
0.104, -1, -18.6159, 34.0542, 27.9408, -19.8342, -90.4426, -2.11914
0.108, -1, -18.5871, 34.0396, 27.9385, -19.7974, -90.4034, -2.13679
0.112, -1, -18.5548, 34.0233, 27.9355, -19.754, -90.3571, -2.15761
0.116, -1, -18.519, 34.0053, 27.9318, -19.7034, -90.3033, -2.18184
0.12, -1, -18.4795, 33.9854, 27.9274, -19.6454, -90.2415, -2.20966
0.124, -1, -18.4364, 33.9638, 27.9221, -19.5795, -90.1714, -2.24119
0.128, -1, -18.3897, 33.9405, 27.916, -19.5056, -90.0928, -2.27653
0.131, -1, -18.3395, 33.9154, 27.909, -19.4238, -90.0058, -2.31566
0.136, -1, -18.2858, 33.8886, 27.9012, -19.3341, -89.9103, -2.35855
0.139, -1, -18.2285, 33.8601, 27.8926, -19.2369, -89.8069, -2.40506
0.144, -1, -18.1677, 33.8299, 27.8833, -19.1324, -89.6957, -2.45501
0.148, -1, -18.1034, 33.798, 27.8733, -19.0212, -89.5774, -2.50817
0.152, -1, -18.0358, 33.7644, 27.8627, -18.9038, -89.4525, -2.56429
0.156, -1, -17.9651, 33.7293, 27.8515, -18.7808, -89.3217, -2.62308
0.16, -1, -17.8915, 33.6928, 27.8399, -18.6529, -89.1856, -2.68422
0.164, -1, -17.8153, 33.6549, 27.828, -18.5207, -89.045, -2.74741
0.168, -1, -17.7365, 33.6157, 27.8158, -18.3849, -88.9005, -2.81233
0.172, -1, -17.6553, 33.5753, 27.8034, -18.2462, -88.7528, -2.87868
0.176, -1, -17.572, 33.5337, 27.7909, -18.105, -88.6026, -2.94619
0.18, -1, -17.4867, 33.4912, 27.7784, -17.9619, -88.4503, -3.01463
0.184, -1, -17.3998, 33.4477, 27.7658, -17.8172, -88.2964, -3.0838
0.188, -1, -17.3114, 33.4034, 27.7532, -17.6715, -88.1413, -3.15353
0.192, -1, -17.2218, 33.3586, 27.7406, -17.5248, -87.9852, -3.2237
0.196, -1, -17.1312, 33.3132, 27.728, -17.3774, -87.8284, -3.2942
0.2, -1, -17.0399, 33.2675, 27.7155, -17.2295, -87.671, -3.36496
0.204, -1, -16.9478, 33.2215, 27.7029, -17.0812, -87.5132, -3.43592
0.208, -1, -16.8552, 33.1752, 27.6903, -16.9326, -87.355, -3.50704
0.212, -1, -16.7621, 33.1287, 27.6778, -16.7836, -87.1965, -3.5783
0.216, -1, -16.6687, 33.0821, 27.6652, -16.6345, -87.0378, -3.64966
0.22, -1, -16.5751, 33.0353, 27.6527, -16.4851, -86.8788, -3.72113
0.224, -1, -16.4812, 32.9885, 27.6401, -16.3356, -86.7197, -3.79268
0.228, -1, -16.3872, 32.9416, 27.6275, -16.1859, -86.5604, -3.8643
0.232, -1, -16.2931, 32.8947, 27.6149, -16.0361, -86.4009, -3.936
0.236, -1, -16.1988, 32.8477, 27.6023, -15.8861, -86.2413, -4.00777
0.24, -1, -16.1045, 32.8006, 27.5897, -15.736, -86.0815, -4.0796
0.244, -1, -16.01, 32.7535, 27.5771, -15.5857, -85.9216, -4.15149
0.248, -1, -15.9155, 32.7064, 27.5645, -15.4354, -85.7616, -4.22345
0.252, -1, -15.8209, 32.6592, 27.5518, -15.2849, -85.6014, -4.29546
0.256, -1, -15.7262, 32.6119, 27.5392, -15.1343, -85.4411, -4.36752
0.26, -1, -15.6314, 32.5647, 27.5265, -14.9836, -85.2807, -4.43964
0.264, -1, -15.5366, 32.5174, 27.5139, -14.8327, -85.1202, -4.5118
0.268, -1, -15.4417, 32.4701, 27.5012, -14.6818, -84.9596, -4.58402
0.272, -1, -15.3467, 32.4227, 27.4885, -14.5308, -84.7989, -4.65628
0.276, -1, -15.2517, 32.3753, 27.4758, -14.3797, -84.638, -4.72859
0.28, -1, -15.1566, 32.3279, 27.4631, -14.2285, -84.4771, -4.80094
0.284, -1, -15.0615, 32.2805, 27.4504, -14.0772, -84.3161, -4.87333
0.288, -1, -14.9663, 32.233, 27.4377, -13.9258, -84.155, -4.94576
0.292, -1, -14.8711, 32.1855, 27.425, -13.7744, -83.9938, -5.01823
0.296, -1, -14.7758, 32.138, 27.4123, -13.6229, -83.8326, -5.09074
0.3, -1, -14.6805, 32.0905, 27.3995, -13.4713, -83.6712, -5.16327
0.304, -1, -14.5851, 32.0429, 27.3868, -13.3196, -83.5098, -5.23584
0.308, -1, -14.4897, 31.9953, 27.3741, -13.1679, -83.3484, -5.30844
0.312, -1, -14.3943, 31.9478, 27.3613, -13.0161, -83.1868, -5.38107
0.316, -1, -14.2988, 31.9001, 27.3486, -12.8643, -83.0252, -5.45372
0.32, -1, -14.2033, 31.8525, 27.3358, -12.7124, -82.8636, -5.5264
0.324, -1, -14.1078, 31.8049, 27.3231, -12.5604, -82.7019, -5.5991
0.328, -1, -14.0122, 31.7572, 27.3103, -12.4085, -82.5401, -5.67183
0.332, -1, -13.9167, 31.7096, 27.2975, -12.2564, -82.3784, -5.74457
0.336, -1, -13.8211, 31.6619, 27.2848, -12.1044, -82.2165, -5.81732
0.34, -1, -13.7255, 31.6142, 27.272, -11.9523, -82.0547, -5.89009
0.344, -1, -13.6298, 31.5665, 27.2592, -11.8002, -81.8928, -5.96287
0.348, -1, -13.5342, 31.5188, 27.2464, -11.6481, -81.7309, -6.03567
0.352, -1, -13.4385, 31.4711, 27.2337, -11.4959, -81.569, -6.10847
0.356, -1, -13.3429, 31.4234, 27.2209, -11.3438, -81.4071, -6.18127
0.36, -1, -13.2472, 31.3757, 27.2081, -11.1916, -81.2451, -6.25408
0.364, -1, -13.1516, 31.328, 27.1953, -11.0395, -81.0832, -6.32689
0.368, -1, -13.0559, 31.2803, 27.1825, -10.8873, -80.9212, -6.3997
0.372, -1, -12.9603, 31.2326, 27.1697, -10.7352, -80.7593, -6.47251
0.376, -1, -12.8646, 31.1849, 27.157, -10.583, -80.5974, -6.54531
0.38, -1, -12.769, 31.1372, 27.1442, -10.4309, -80.4355, -6.6181
0.384, -1, -12.6734, 31.0895, 27.1314, -10.2788, -80.2736, -6.69088
0.388, -1, -12.5777, 31.0418, 27.1186, -10.1267, -80.1118, -6.76365
0.392, -1, -12.4822, 30.9941, 27.1059, -9.97466, -79.9499, -6.8364
0.396, -1, -12.3866, 30.9465, 27.0931, -9.82266, -79.7882, -6.90914
0.4, -1, -12.291, 30.8988, 27.0803, -9.67069, -79.6264, -6.98185
0.404, -1, -12.1955, 30.8512, 27.0676, -9.51877, -79.4647, -7.05455
0.408, -1, -12.1, 30.8036, 27.0548, -9.36689, -79.3031, -7.12722
0.412, -1, -12.0046, 30.756, 27.0421, -9.21508, -79.1415, -7.19987
0.416, -1, -11.9092, 30.7084, 27.0293, -9.06332, -78.98, -7.27248
0.42, -1, -11.8138, 30.6608, 27.0166, -8.91163, -78.8186, -7.34507
0.424, -1, -11.7184, 30.6133, 27.0038, -8.76, -78.6572, -7.41762
0.428, -1, -11.6231, 30.5658, 26.9911, -8.60845, -78.4959, -7.49014
0.432, -1, -11.5279, 30.5183, 26.9784, -8.45698, -78.3347, -7.56262
0.436, -1, -11.4326, 30.4708, 26.9657, -8.30559, -78.1736, -7.63506
0.44, -1, -11.3375, 30.4234, 26.953, -8.15429, -78.0126, -7.70745
0.444, -1, -11.2424, 30.376, 26.9403, -8.00308, -77.8517, -7.77981
0.448, -1, -11.1473, 30.3286, 26.9276, -7.85197, -77.6908, -7.85211
0.452, -1, -11.0524, 30.2813, 26.9149, -7.70096, -77.5301, -7.92437
0.456, -1, -10.9574, 30.2339, 26.9022, -7.55005, -77.3695, -7.99658
0.46, -1, -10.8626, 30.1867, 26.8895, -7.39926, -77.209, -8.06874
0.464, -1, -10.7678, 30.1394, 26.8769, -7.24857, -77.0487, -8.14084
0.468, -1, -10.6731, 30.0922, 26.8642, -7.09801, -76.8884, -8.21289
0.472, -1, -10.5785, 30.045, 26.8516, -6.94757, -76.7283, -8.28487
0.476, -1, -10.4839, 29.9979, 26.839, -6.79726, -76.5683, -8.3568
0.48, -1, -10.3895, 29.9508, 26.8264, -6.64708, -76.4085, -8.42866
0.484, -1, -10.2951, 29.9038, 26.8138, -6.49703, -76.2488, -8.50046
0.488, -1, -10.2008, 29.8568, 26.8012, -6.34712, -76.0893, -8.57219
0.492, -1, -10.1066, 29.8098, 26.7886, -6.19736, -75.9299, -8.64385
0.496, -1, -10.0125, 29.7629, 26.776, -6.04775, -75.7707, -8.71544
0.5, -1, -9.91844, 29.716, 26.7635, -5.89829, -75.6116, -8.78695
0.504, -1, -9.82452, 29.6692, 26.7509, -5.74898, -75.4527, -8.8584
0.508, -1, -9.73069, 29.6225, 26.7384, -5.59984, -75.294, -8.92976
0.512, -1, -9.63697, 29.5757, 26.7259, -5.45086, -75.1354, -9.00105
0.516, -1, -9.54335, 29.5291, 26.7134, -5.30204, -74.977, -9.07226
0.52, -1, -9.44984, 29.4825, 26.7009, -5.1534, -74.8188, -9.14339
0.524, -1, -9.35644, 29.4359, 26.6884, -5.00493, -74.6608, -9.21443
0.528, -1, -9.26314, 29.3894, 26.676, -4.85664, -74.503, -9.28539
0.532, -1, -9.16997, 29.343, 26.6635, -4.70853, -74.3454, -9.35626
0.536, -1, -9.0769, 29.2966, 26.6511, -4.56061, -74.188, -9.42704
0.54, -1, -8.98396, 29.2503, 26.6387, -4.41288, -74.0307, -9.49773
0.544, -1, -8.89113, 29.204, 26.6263, -4.26534, -73.8737, -9.56833
0.548, -1, -8.79843, 29.1578, 26.6139, -4.11799, -73.7169, -9.63883
0.552, -1, -8.70584, 29.1116, 26.6016, -3.97084, -73.5603, -9.70924
0.556, -1, -8.61339, 29.0656, 26.5892, -3.82389, -73.4039, -9.77956
0.56, -1, -8.52106, 29.0196, 26.5769, -3.67715, -73.2477, -9.84978
0.564, -1, -8.42886, 28.9736, 26.5646, -3.53062, -73.0918, -9.91989
0.568, -1, -8.3368, 28.9277, 26.5523, -3.38429, -72.936, -9.98991
0.572, -1, -8.24486, 28.8819, 26.54, -3.23818, -72.7805, -10.0598
0.576, -1, -8.15307, 28.8361, 26.5278, -3.09229, -72.6253, -10.1296
0.58, -1, -8.06141, 28.7905, 26.5155, -2.94661, -72.4702, -10.1993
0.584, -1, -7.96988, 28.7448, 26.5033, -2.80116, -72.3154, -10.2689
0.588, -1, -7.8785, 28.6993, 26.4911, -2.65593, -72.1609, -10.3384
0.592, -1, -7.78726, 28.6538, 26.4789, -2.51093, -72.0065, -10.4078
0.596, -1, -7.69617, 28.6084, 26.4668, -2.36616, -71.8525, -10.4771
0.6, -1, -7.60522, 28.5631, 26.4546, -2.22162, -71.6986, -10.5463
0.604, -1, -7.51441, 28.5178, 26.4425, -2.07732, -71.5451, -10.6153
0.608, -1, -7.42376, 28.4727, 26.4304, -1.93325, -71.3917, -10.6842
0.612, -1, -7.33326, 28.4276, 26.4183, -1.78942, -71.2387, -10.7531
0.616, -1, -7.2429, 28.3825, 26.4063, -1.64584, -71.0859, -10.8218
0.62, -1, -7.1527, 28.3376, 26.3942, -1.5025, -70.9333, -10.8904
0.624, -1, -7.06265, 28.2927, 26.3822, -1.3594, -70.781, -10.9588
0.628, -1, -6.97276, 28.2479, 26.3702, -1.21656, -70.629, -11.0272
0.632, -1, -6.88303, 28.2032, 26.3582, -1.07396, -70.4772, -11.0954
0.636, -1, -6.79346, 28.1585, 26.3463, -0.931622, -70.3257, -11.1635
0.64, -1, -6.70404, 28.114, 26.3344, -0.789537, -70.1745, -11.2315
0.644, -1, -6.61479, 28.0695, 26.3224, -0.647708, -70.0236, -11.2994
0.648, -1, -6.5257, 28.0251, 26.3106, -0.506139, -69.8729, -11.3671
0.652, -1, -6.43677, 27.9808, 26.2987, -0.364831, -69.7225, -11.4347
0.656, -1, -6.34801, 27.9366, 26.2868, -0.223785, -69.5724, -11.5022
0.66, -1, -6.25941, 27.8924, 26.275, -0.0830049, -69.4226, -11.5696
0.664, -1, -6.17098, 27.8483, 26.2632, 0.057509, -69.273, -11.6368
0.668, -1, -6.08272, 27.8044, 26.2514, 0.197755, -69.1238, -11.7039
0.672, -1, -5.99463, 27.7605, 26.2397, 0.33773, -68.9748, -11.7709
0.676, -1, -5.9067, 27.7166, 26.2279, 0.477435, -68.8261, -11.8378
0.68, -1, -5.81895, 27.6729, 26.2162, 0.616866, -68.6777, -11.9045
0.684, -1, -5.73137, 27.6293, 26.2045, 0.756022, -68.5296, -11.9711
0.688, -1, -5.64396, 27.5857, 26.1929, 0.894902, -68.3818, -12.0375
0.692, -1, -5.55673, 27.5422, 26.1812, 1.0335, -68.2343, -12.1038
0.696, -1, -5.46968, 27.4988, 26.1696, 1.17183, -68.0871, -12.17
0.7, -1, -5.38279, 27.4556, 26.158, 1.30987, -67.9402, -12.2361
0.704, -1, -5.29609, 27.4123, 26.1465, 1.44763, -67.7936, -12.302
0.708, -1, -5.20956, 27.3692, 26.1349, 1.58511, -67.6473, -12.3678
0.712, -1, -5.12321, 27.3262, 26.1234, 1.72231, -67.5013, -12.4334
0.716, -1, -5.03704, 27.2833, 26.1119, 1.85921, -67.3555, -12.4989
0.72, -1, -4.95105, 27.2404, 26.1004, 1.99584, -67.2101, -12.5643
0.724, -1, -4.86524, 27.1976, 26.089, 2.13217, -67.065, -12.6296
0.728, -1, -4.77961, 27.155, 26.0775, 2.26822, -66.9203, -12.6947
0.732, -1, -4.69416, 27.1124, 26.0661, 2.40397, -66.7758, -12.7596
0.736, -1, -4.6089, 27.0699, 26.0548, 2.53944, -66.6316, -12.8244
0.74, -1, -4.52381, 27.0275, 26.0434, 2.67461, -66.4877, -12.8891
0.744, -1, -4.43891, 26.9852, 26.0321, 2.8095, -66.3442, -12.9537
0.748, -1, -4.3542, 26.943, 26.0208, 2.94408, -66.201, -13.0181
0.752, -1, -4.26966, 26.9009, 26.0095, 3.07838, -66.058, -13.0823
0.756, -1, -4.18531, 26.8588, 25.9983, 3.21238, -65.9154, -13.1464
0.76, -1, -4.10115, 26.8169, 25.987, 3.34609, -65.7731, -13.2104
0.764, -1, -4.01717, 26.775, 25.9758, 3.4795, -65.6311, -13.2743
0.768, -1, -3.93337, 26.7333, 25.9646, 3.61261, -65.4895, -13.338
0.772, -1, -3.84976, 26.6916, 25.9535, 3.74543, -65.3481, -13.4015
0.776, -1, -3.76633, 26.65, 25.9424, 3.87795, -65.2071, -13.4649
0.78, -1, -3.68309, 26.6086, 25.9313, 4.01018, -65.0664, -13.5282
0.784, -1, -3.60003, 26.5672, 25.9202, 4.14211, -64.9259, -13.5913
0.788, -1, -3.51716, 26.5259, 25.9091, 4.27375, -64.7858, -13.6543
0.792, -1, -3.43447, 26.4847, 25.8981, 4.40509, -64.6461, -13.7172
0.796, -1, -3.35197, 26.4436, 25.8871, 4.53613, -64.5066, -13.7799
0.8, -1, -3.26966, 26.4026, 25.8761, 4.66688, -64.3674, -13.8424
0.804, -1, -3.18753, 26.3616, 25.8652, 4.79734, -64.2286, -13.9049
0.808, -1, -3.10558, 26.3208, 25.8542, 4.9275, -64.0901, -13.9671
0.812, -1, -3.02382, 26.2801, 25.8433, 5.05736, -63.9519, -14.0293
0.816, -1, -2.94225, 26.2394, 25.8324, 5.18693, -63.814, -14.0913
0.82, -1, -2.86085, 26.1989, 25.8216, 5.31621, -63.6764, -14.1531
0.824, -1, -2.77965, 26.1584, 25.8108, 5.4452, -63.5391, -14.2149
0.828, -1, -2.69862, 26.118, 25.8, 5.57389, -63.4021, -14.2764
0.832, -1, -2.61778, 26.0777, 25.7892, 5.70229, -63.2655, -14.3379
0.836, -1, -2.53713, 26.0375, 25.7784, 5.8304, -63.1292, -14.3992
0.84, -1, -2.45665, 25.9974, 25.7677, 5.95822, -62.9931, -14.4603
0.844, -1, -2.37636, 25.9574, 25.757, 6.08575, -62.8574, -14.5214
0.848, -1, -2.29625, 25.9175, 25.7463, 6.21298, -62.722, -14.5823
0.852, -1, -2.21633, 25.8777, 25.7356, 6.33993, -62.5869, -14.643
0.856, -1, -2.13658, 25.838, 25.725, 6.46659, -62.4521, -14.7036
0.86, -1, -2.05702, 25.7983, 25.7144, 6.59296, -62.3176, -14.7641
0.864, -1, -1.97764, 25.7588, 25.7038, 6.71904, -62.1834, -14.8244
0.868, -1, -1.89844, 25.7193, 25.6932, 6.84484, -62.0495, -14.8846
0.872, -1, -1.81942, 25.6799, 25.6827, 6.97035, -61.916, -14.9447
0.876, -1, -1.74058, 25.6406, 25.6722, 7.09557, -61.7827, -15.0046
0.88, -1, -1.66192, 25.6014, 25.6617, 7.2205, -61.6497, -15.0644
0.884, -1, -1.58344, 25.5623, 25.6512, 7.34516, -61.5171, -15.124
0.888, -1, -1.50513, 25.5233, 25.6408, 7.46952, -61.3847, -15.1835
0.892, -1, -1.42701, 25.4844, 25.6304, 7.5936, -61.2526, -15.2429
0.896, -1, -1.34906, 25.4456, 25.62, 7.7174, -61.1209, -15.3021
0.9, -1, -1.2713, 25.4068, 25.6096, 7.84092, -60.9894, -15.3612
0.904, -1, -1.19371, 25.3681, 25.5993, 7.96415, -60.8583, -15.4202
0.908, -1, -1.11629, 25.3296, 25.5889, 8.08711, -60.7274, -15.479
0.912, -1, -1.03905, 25.2911, 25.5786, 8.20978, -60.5969, -15.5377
0.916, -1, -0.961994, 25.2527, 25.5684, 8.33217, -60.4666, -15.5963
0.92, -1, -0.885109, 25.2144, 25.5581, 8.45428, -60.3366, -15.6547
0.924, -1, -0.808399, 25.1762, 25.5479, 8.57612, -60.207, -15.713
0.928, -1, -0.731865, 25.138, 25.5377, 8.69767, -60.0776, -15.7712
0.932, -1, -0.655505, 25.1, 25.5275, 8.81895, -59.9485, -15.8292
0.936, -1, -0.579319, 25.062, 25.5173, 8.93995, -59.8198, -15.8871
0.94, -1, -0.503307, 25.0241, 25.5072, 9.06068, -59.6913, -15.9449
0.944, -1, -0.427468, 24.9863, 25.4971, 9.18113, -59.5631, -16.0025
0.948, -1, -0.351802, 24.9486, 25.487, 9.30131, -59.4352, -16.06
0.952, -1, -0.276308, 24.911, 25.4769, 9.42121, -59.3076, -16.1174
0.956, -1, -0.200986, 24.8735, 25.4669, 9.54084, -59.1803, -16.1746
0.96, -1, -0.125835, 24.8361, 25.4569, 9.66019, -59.0532, -16.2318
0.964, -1, -0.0508559, 24.7987, 25.4469, 9.77928, -58.9265, -16.2887
0.968, -1, 0.023953, 24.7614, 25.4369, 9.89809, -58.8001, -16.3456
0.972, -1, 0.0985918, 24.7242, 25.4269, 10.0166, -58.6739, -16.4023
0.976, -1, 0.173061, 24.6871, 25.417, 10.1349, -58.548, -16.4589
0.98, -1, 0.247361, 24.6501, 25.4071, 10.2529, -58.4224, -16.5154
0.984, -1, 0.321492, 24.6132, 25.3972, 10.3706, -58.2971, -16.5717
0.988, -1, 0.395455, 24.5763, 25.3873, 10.4881, -58.1721, -16.6279
0.992, -1, 0.469251, 24.5395, 25.3775, 10.6053, -58.0474, -16.684
0.996, -1, 0.542879, 24.5028, 25.3677, 10.7223, -57.9229, -16.74
1, -1, 0.61634, 24.4662, 25.3579, 10.8389, -57.7988, -16.7958
1.004, -1, 0.689635, 24.4297, 25.3481, 10.9553, -57.6749, -16.8515
1.008, -1, 0.762764, 24.3933, 25.3384, 11.0715, -57.5513, -16.9071
1.012, -1, 0.835728, 24.3569, 25.3286, 11.1874, -57.4279, -16.9625
1.016, -1, 0.908526, 24.3207, 25.3189, 11.303, -57.3049, -17.0178
1.02, -1, 0.981161, 24.2845, 25.3092, 11.4183, -57.1821, -17.073
1.024, -1, 1.05363, 24.2484, 25.2996, 11.5334, -57.0596, -17.1281
1.027, -1, 1.12594, 24.2123, 25.2899, 11.6483, -56.9374, -17.1831
1.032, -1, 1.19808, 24.1764, 25.2803, 11.7629, -56.8155, -17.2379
1.036, -1, 1.27007, 24.1405, 25.2707, 11.8772, -56.6938, -17.2926
1.04, -1, 1.34189, 24.1047, 25.2611, 11.9912, -56.5724, -17.3472
1.044, -1, 1.41355, 24.069, 25.2516, 12.105, -56.4513, -17.4016
1.048, -1, 1.48505, 24.0334, 25.2421, 12.2186, -56.3304, -17.456
1.052, -1, 1.55639, 23.9978, 25.2325, 12.3319, -56.2098, -17.5102
1.055, -1, 1.62757, 23.9624, 25.2231, 12.4449, -56.0895, -17.5643
1.06, -1, 1.69859, 23.927, 25.2136, 12.5577, -55.9695, -17.6182
1.064, -1, 1.76945, 23.8917, 25.2041, 12.6703, -55.8497, -17.6721
1.068, -1, 1.84016, 23.8565, 25.1947, 12.7826, -55.7302, -17.7258
1.072, -1, 1.91071, 23.8213, 25.1853, 12.8946, -55.611, -17.7794
1.076, -1, 1.9811, 23.7862, 25.1759, 13.0064, -55.492, -17.8329
1.08, -1, 2.05134, 23.7512, 25.1666, 13.1179, -55.3733, -17.8863
1.084, -1, 2.12143, 23.7163, 25.1572, 13.2292, -55.2549, -17.9396
1.088, -1, 2.19136, 23.6815, 25.1479, 13.3403, -55.1367, -17.9927
1.091, -1, 2.26113, 23.6467, 25.1386, 13.4511, -55.0187, -18.0457
1.096, -1, 2.33076, 23.612, 25.1293, 13.5616, -54.9011, -18.0986
1.1, -1, 2.40023, 23.5774, 25.12, 13.672, -54.7837, -18.1514
1.104, -1, 2.46955, 23.5429, 25.1108, 13.7821, -54.6665, -18.2041
1.108, -1, 2.53871, 23.5084, 25.1016, 13.8919, -54.5496, -18.2567
1.112, -1, 2.60773, 23.474, 25.0924, 14.0015, -54.4329, -18.3091
1.116, -1, 2.6766, 23.4397, 25.0832, 14.1109, -54.3166, -18.3614
1.119, -1, 2.74532, 23.4055, 25.074, 14.22, -54.2004, -18.4137
1.124, -1, 2.8139, 23.3713, 25.0649, 14.3289, -54.0845, -18.4658
1.128, -1, 2.88232, 23.3372, 25.0558, 14.4376, -53.9689, -18.5178
1.132, -1, 2.9506, 23.3032, 25.0467, 14.546, -53.8535, -18.5696
1.136, -1, 3.01874, 23.2692, 25.0376, 14.6542, -53.7383, -18.6214
1.14, -1, 3.08673, 23.2353, 25.0285, 14.7622, -53.6234, -18.6731
1.144, -1, 3.15457, 23.2015, 25.0195, 14.8699, -53.5087, -18.7246
1.147, -1, 3.22227, 23.1678, 25.0104, 14.9774, -53.3943, -18.7761
1.152, -1, 3.28983, 23.1341, 25.0014, 15.0847, -53.2801, -18.8274
1.156, -1, 3.35725, 23.1006, 24.9925, 15.1918, -53.1662, -18.8786
1.16, -1, 3.42452, 23.067, 24.9835, 15.2986, -53.0525, -18.9298
1.164, -1, 3.49165, 23.0336, 24.9745, 15.4052, -52.939, -18.9808
1.168, -1, 3.55865, 23.0002, 24.9656, 15.5116, -52.8258, -19.0317
1.172, -1, 3.6255, 22.9669, 24.9567, 15.6178, -52.7128, -19.0825
1.175, -1, 3.69221, 22.9337, 24.9478, 15.7237, -52.6001, -19.1332
1.18, -1, 3.75879, 22.9005, 24.9389, 15.8294, -52.4876, -19.1838
1.184, -1, 3.82523, 22.8674, 24.9301, 15.9349, -52.3753, -19.2343
1.188, -1, 3.89153, 22.8343, 24.9212, 16.0402, -52.2632, -19.2846
1.192, -1, 3.95769, 22.8014, 24.9124, 16.1453, -52.1514, -19.3349
1.196, -1, 4.02372, 22.7685, 24.9036, 16.2501, -52.0398, -19.3851
1.2, -1, 4.08961, 22.7356, 24.8948, 16.3548, -51.9284, -19.4352
1.204, -1, 4.15537, 22.7029, 24.886, 16.4592, -51.8173, -19.4851
1.208, -1, 4.221, 22.6702, 24.8773, 16.5634, -51.7064, -19.535
1.212, -1, 4.28649, 22.6376, 24.8686, 16.6674, -51.5957, -19.5848
1.216, -1, 4.35185, 22.605, 24.8599, 16.7712, -51.4852, -19.6344
1.22, -1, 4.41707, 22.5725, 24.8512, 16.8748, -51.375, -19.684
1.224, -1, 4.48217, 22.54, 24.8425, 16.9782, -51.265, -19.7335
1.228, -1, 4.54713, 22.5077, 24.8338, 17.0814, -51.1552, -19.7828
1.232, -1, 4.61196, 22.4754, 24.8252, 17.1843, -51.0456, -19.8321
1.236, -1, 4.67667, 22.4431, 24.8166, 17.2871, -50.9362, -19.8813
1.24, -1, 4.74124, 22.411, 24.8079, 17.3896, -50.8271, -19.9303
1.244, -1, 4.80569, 22.3788, 24.7994, 17.492, -50.7182, -19.9793
1.248, -1, 4.87, 22.3468, 24.7908, 17.5941, -50.6095, -20.0282
1.252, -1, 4.93419, 22.3148, 24.7822, 17.696, -50.501, -20.077
1.256, -1, 4.99826, 22.2829, 24.7737, 17.7978, -50.3927, -20.1256
1.26, -1, 5.06219, 22.251, 24.7652, 17.8993, -50.2846, -20.1742
1.264, -1, 5.126, 22.2192, 24.7566, 18.0007, -50.1768, -20.2227
1.267, -1, 5.18969, 22.1875, 24.7482, 18.1018, -50.0692, -20.2711
1.272, -1, 5.25325, 22.1558, 24.7397, 18.2027, -49.9617, -20.3194
1.276, -1, 5.31669, 22.1242, 24.7312, 18.3035, -49.8545, -20.3676
1.28, -1, 5.38, 22.0927, 24.7228, 18.404, -49.7475, -20.4157
1.284, -1, 5.44319, 22.0612, 24.7144, 18.5044, -49.6407, -20.4638
1.288, -1, 5.50626, 22.0298, 24.706, 18.6045, -49.5341, -20.5117
1.292, -1, 5.56921, 21.9984, 24.6976, 18.7045, -49.4277, -20.5595
1.295, -1, 5.63203, 21.9671, 24.6892, 18.8043, -49.3215, -20.6073
1.3, -1, 5.69473, 21.9359, 24.6808, 18.9038, -49.2156, -20.6549
1.304, -1, 5.75732, 21.9047, 24.6725, 19.0032, -49.1098, -20.7025
1.308, -1, 5.81978, 21.8736, 24.6642, 19.1024, -49.0042, -20.7499
1.312, -1, 5.88212, 21.8425, 24.6558, 19.2014, -48.8988, -20.7973
1.316, -1, 5.94435, 21.8115, 24.6475, 19.3003, -48.7937, -20.8446
1.32, -1, 6.00646, 21.7805, 24.6393, 19.3989, -48.6887, -20.8918
1.324, -1, 6.06845, 21.7497, 24.631, 19.4973, -48.5839, -20.9389
1.328, -1, 6.13032, 21.7188, 24.6228, 19.5956, -48.4794, -20.9859
1.332, -1, 6.19207, 21.6881, 24.6145, 19.6937, -48.375, -21.0328
1.336, -1, 6.25371, 21.6573, 24.6063, 19.7916, -48.2708, -21.0797
1.34, -1, 6.31523, 21.6267, 24.5981, 19.8893, -48.1668, -21.1264
1.344, -1, 6.37664, 21.5961, 24.5899, 19.9868, -48.063, -21.1731
1.348, -1, 6.43793, 21.5655, 24.5817, 20.0841, -47.9594, -21.2197
1.352, -1, 6.49911, 21.5351, 24.5736, 20.1813, -47.856, -21.2662
1.356, -1, 6.56018, 21.5046, 24.5654, 20.2783, -47.7528, -21.3126
1.36, -1, 6.62113, 21.4743, 24.5573, 20.3751, -47.6498, -21.3589
1.364, -1, 6.68197, 21.4439, 24.5492, 20.4717, -47.547, -21.4051
1.368, -1, 6.74269, 21.4137, 24.5411, 20.5681, -47.4443, -21.4513
1.372, -1, 6.80331, 21.3835, 24.533, 20.6644, -47.3419, -21.4973
1.376, -1, 6.86381, 21.3533, 24.525, 20.7605, -47.2396, -21.5433
1.38, -1, 6.9242, 21.3232, 24.5169, 20.8564, -47.1375, -21.5892
1.384, -1, 6.98448, 21.2932, 24.5089, 20.9521, -47.0357, -21.635
1.388, -1, 7.04465, 21.2632, 24.5009, 21.0477, -46.934, -21.6807
1.392, -1, 7.10471, 21.2333, 24.4928, 21.1431, -46.8324, -21.7264
1.396, -1, 7.16467, 21.2034, 24.4849, 21.2383, -46.7311, -21.7719
1.4, -1, 7.22451, 21.1736, 24.4769, 21.3333, -46.63, -21.8174
1.404, -1, 7.28425, 21.1438, 24.4689, 21.4282, -46.529, -21.8628
1.408, -1, 7.34387, 21.1141, 24.461, 21.5229, -46.4282, -21.9081
1.412, -1, 7.4034, 21.0845, 24.453, 21.6174, -46.3276, -21.9534
1.416, -1, 7.46281, 21.0549, 24.4451, 21.7118, -46.2272, -21.9985
1.42, -1, 7.52212, 21.0253, 24.4372, 21.806, -46.1269, -22.0436
1.424, -1, 7.58133, 20.9958, 24.4293, 21.9, -46.0269, -22.0886
1.428, -1, 7.64043, 20.9664, 24.4214, 21.9938, -45.927, -22.1335
1.432, -1, 7.69943, 20.937, 24.4136, 22.0875, -45.8273, -22.1783
1.436, -1, 7.75832, 20.9076, 24.4057, 22.181, -45.7278, -22.2231
1.44, -1, 7.81711, 20.8783, 24.3979, 22.2744, -45.6284, -22.2677
1.444, -1, 7.8758, 20.8491, 24.3901, 22.3676, -45.5292, -22.3123
1.448, -1, 7.93438, 20.8199, 24.3822, 22.4606, -45.4302, -22.3568
1.452, -1, 7.99287, 20.7908, 24.3744, 22.5535, -45.3314, -22.4013
1.456, -1, 8.05125, 20.7617, 24.3667, 22.6462, -45.2327, -22.4456
1.46, -1, 8.10953, 20.7326, 24.3589, 22.7387, -45.1342, -22.4899
1.464, -1, 8.16771, 20.7037, 24.3511, 22.8311, -45.0359, -22.5341
1.468, -1, 8.22578, 20.6747, 24.3434, 22.9234, -44.9378, -22.5783
1.472, -1, 8.28376, 20.6458, 24.3357, 23.0154, -44.8398, -22.6223
1.476, -1, 8.34164, 20.617, 24.328, 23.1073, -44.742, -22.6663
1.48, -1, 8.39942, 20.5882, 24.3203, 23.1991, -44.6443, -22.7102
1.484, -1, 8.4571, 20.5595, 24.3126, 23.2907, -44.5468, -22.754
1.488, -1, 8.51469, 20.5308, 24.3049, 23.3821, -44.4495, -22.7978
1.492, -1, 8.57218, 20.5021, 24.2972, 23.4734, -44.3523, -22.8415
1.496, -1, 8.62957, 20.4735, 24.2896, 23.5645, -44.2554, -22.8851
1.5, -1, 8.68686, 20.445, 24.2819, 23.6555, -44.1585, -22.9286
1.504, -1, 8.74406, 20.4165, 24.2743, 23.7464, -44.0619, -22.9721
1.508, -1, 8.80116, 20.388, 24.2667, 23.837, -43.9654, -23.0155
1.512, -1, 8.85816, 20.3596, 24.2591, 23.9276, -43.869, -23.0588
1.516, -1, 8.91508, 20.3313, 24.2515, 24.0179, -43.7728, -23.102
1.52, -1, 8.97189, 20.303, 24.2439, 24.1082, -43.6768, -23.1452
1.524, -1, 9.02862, 20.2747, 24.2364, 24.1982, -43.5809, -23.1883
1.528, -1, 9.08525, 20.2465, 24.2288, 24.2882, -43.4852, -23.2313
1.532, -1, 9.14179, 20.2183, 24.2213, 24.378, -43.3897, -23.2743
1.536, -1, 9.19823, 20.1902, 24.2138, 24.4676, -43.2943, -23.3172
1.54, -1, 9.25459, 20.1621, 24.2063, 24.5571, -43.199, -23.36
1.544, -1, 9.31085, 20.1341, 24.1988, 24.6464, -43.1039, -23.4028
1.548, -1, 9.36702, 20.1061, 24.1913, 24.7356, -43.009, -23.4454
1.552, -1, 9.4231, 20.0782, 24.1838, 24.8247, -42.9142, -23.4881
1.556, -1, 9.47909, 20.0503, 24.1763, 24.9136, -42.8196, -23.5306
1.56, -1, 9.53499, 20.0224, 24.1689, 25.0024, -42.7251, -23.5731
1.564, -1, 9.5908, 19.9946, 24.1614, 25.091, -42.6308, -23.6155
1.568, -1, 9.64652, 19.9668, 24.154, 25.1795, -42.5366, -23.6578
1.572, -1, 9.70215, 19.9391, 24.1466, 25.2678, -42.4426, -23.7001
1.576, -1, 9.7577, 19.9114, 24.1392, 25.3561, -42.3487, -23.7423
1.58, -1, 9.81316, 19.8838, 24.1318, 25.4441, -42.255, -23.7845
1.584, -1, 9.86852, 19.8562, 24.1244, 25.5321, -42.1614, -23.8265
1.588, -1, 9.92381, 19.8287, 24.117, 25.6198, -42.068, -23.8685
1.592, -1, 9.979, 19.8012, 24.1097, 25.7075, -41.9747, -23.9105
1.596, -1, 10.0341, 19.7737, 24.1023, 25.795, -41.8816, -23.9524
1.6, -1, 10.0891, 19.7463, 24.095, 25.8824, -41.7886, -23.9942
1.604, -1, 10.1441, 19.7189, 24.0877, 25.9696, -41.6957, -24.0359
1.608, -1, 10.1989, 19.6916, 24.0804, 26.0567, -41.603, -24.0776
1.612, -1, 10.2537, 19.6643, 24.0731, 26.1437, -41.5104, -24.1192
1.616, -1, 10.3084, 19.6371, 24.0658, 26.2306, -41.418, -24.1608
1.62, -1, 10.363, 19.6099, 24.0585, 26.3173, -41.3257, -24.2023
1.624, -1, 10.4175, 19.5827, 24.0512, 26.4038, -41.2336, -24.2437
1.628, -1, 10.4719, 19.5556, 24.044, 26.4903, -41.1416, -24.2851
1.632, -1, 10.5263, 19.5285, 24.0367, 26.5766, -41.0497, -24.3264
1.636, -1, 10.5806, 19.5015, 24.0295, 26.6628, -40.958, -24.3676
1.64, -1, 10.6347, 19.4745, 24.0223, 26.7488, -40.8664, -24.4088
1.644, -1, 10.6888, 19.4475, 24.0151, 26.8348, -40.775, -24.4499
1.648, -1, 10.7429, 19.4206, 24.0079, 26.9205, -40.6837, -24.4909
1.652, -1, 10.7968, 19.3937, 24.0007, 27.0062, -40.5925, -24.5319
1.656, -1, 10.8507, 19.3669, 23.9935, 27.0917, -40.5015, -24.5729
1.66, -1, 10.9044, 19.3401, 23.9863, 27.1771, -40.4106, -24.6137
1.664, -1, 10.9581, 19.3133, 23.9792, 27.2624, -40.3198, -24.6545
1.668, -1, 11.0118, 19.2866, 23.972, 27.3476, -40.2292, -24.6953
1.672, -1, 11.0653, 19.2599, 23.9649, 27.4326, -40.1387, -24.736
1.676, -1, 11.1188, 19.2333, 23.9577, 27.5175, -40.0484, -24.7766
1.68, -1, 11.1722, 19.2067, 23.9506, 27.6023, -39.9581, -24.8172
1.684, -1, 11.2255, 19.1801, 23.9435, 27.6869, -39.868, -24.8577
1.688, -1, 11.2787, 19.1536, 23.9364, 27.7715, -39.7781, -24.8981
1.692, -1, 11.3318, 19.1271, 23.9293, 27.8559, -39.6883, -24.9385
1.696, -1, 11.3849, 19.1007, 23.9223, 27.9401, -39.5986, -24.9788
1.7, -1, 11.4379, 19.0743, 23.9152, 28.0243, -39.509, -25.0191
1.704, -1, 11.4908, 19.0479, 23.9081, 28.1083, -39.4196, -25.0593
1.708, -1, 11.5437, 19.0216, 23.9011, 28.1923, -39.3303, -25.0995
1.712, -1, 11.5964, 18.9953, 23.8941, 28.2761, -39.2411, -25.1396
1.716, -1, 11.6491, 18.969, 23.887, 28.3597, -39.152, -25.1796
1.72, -1, 11.7017, 18.9428, 23.88, 28.4433, -39.0631, -25.2196
1.724, -1, 11.7543, 18.9166, 23.873, 28.5267, -38.9743, -25.2595
1.728, -1, 11.8067, 18.8905, 23.866, 28.61, -38.8856, -25.2994
1.732, -1, 11.8591, 18.8644, 23.859, 28.6932, -38.7971, -25.3392
1.736, -1, 11.9114, 18.8383, 23.8521, 28.7763, -38.7087, -25.3789
1.74, -1, 11.9637, 18.8123, 23.8451, 28.8593, -38.6204, -25.4186
1.744, -1, 12.0158, 18.7863, 23.8381, 28.9421, -38.5322, -25.4583
1.748, -1, 12.0679, 18.7604, 23.8312, 29.0248, -38.4442, -25.4979
1.752, -1, 12.1199, 18.7344, 23.8243, 29.1075, -38.3562, -25.5374
1.756, -1, 12.1719, 18.7086, 23.8173, 29.19, -38.2684, -25.5769
1.76, -1, 12.2238, 18.6827, 23.8104, 29.2723, -38.1808, -25.6163
1.764, -1, 12.2756, 18.6569, 23.8035, 29.3546, -38.0932, -25.6556
1.768, -1, 12.3273, 18.6311, 23.7966, 29.4368, -38.0058, -25.695
1.772, -1, 12.379, 18.6054, 23.7897, 29.5188, -37.9185, -25.7342
1.776, -1, 12.4305, 18.5797, 23.7829, 29.6007, -37.8313, -25.7734
1.78, -1, 12.4821, 18.554, 23.776, 29.6825, -37.7442, -25.8126
1.784, -1, 12.5335, 18.5284, 23.7691, 29.7642, -37.6573, -25.8517
1.788, -1, 12.5849, 18.5028, 23.7623, 29.8458, -37.5704, -25.8907
1.792, -1, 12.6362, 18.4772, 23.7554, 29.9273, -37.4837, -25.9297
1.796, -1, 12.6874, 18.4517, 23.7486, 30.0087, -37.3971, -25.9686
1.8, -1, 12.7386, 18.4262, 23.7418, 30.0899, -37.3106, -26.0075
1.804, -1, 12.7897, 18.4007, 23.735, 30.1711, -37.2243, -26.0463
1.808, -1, 12.8407, 18.3753, 23.7282, 30.2521, -37.1381, -26.0851
1.812, -1, 12.8916, 18.3499, 23.7214, 30.333, -37.0519, -26.1238
1.816, -1, 12.9425, 18.3246, 23.7146, 30.4138, -36.9659, -26.1625
1.82, -1, 12.9933, 18.2992, 23.7078, 30.4945, -36.88, -26.2011
1.824, -1, 13.0441, 18.274, 23.7011, 30.5751, -36.7942, -26.2397
1.828, -1, 13.0948, 18.2487, 23.6943, 30.6556, -36.7086, -26.2782
1.832, -1, 13.1454, 18.2235, 23.6876, 30.736, -36.623, -26.3167
1.836, -1, 13.1959, 18.1983, 23.6808, 30.8163, -36.5376, -26.3551
1.84, -1, 13.2464, 18.1731, 23.6741, 30.8965, -36.4523, -26.3934
1.844, -1, 13.2968, 18.148, 23.6674, 30.9765, -36.3671, -26.4317
1.848, -1, 13.3472, 18.1229, 23.6607, 31.0565, -36.282, -26.47
1.852, -1, 13.3975, 18.0979, 23.654, 31.1363, -36.197, -26.5082
1.856, -1, 13.4477, 18.0729, 23.6473, 31.2161, -36.1121, -26.5464
1.86, -1, 13.4978, 18.0479, 23.6406, 31.2957, -36.0273, -26.5845
1.864, -1, 13.5479, 18.0229, 23.6339, 31.3753, -35.9427, -26.6225
1.868, -1, 13.5979, 17.998, 23.6272, 31.4547, -35.8582, -26.6606
1.872, -1, 13.6479, 17.9731, 23.6206, 31.534, -35.7737, -26.6985
1.876, -1, 13.6978, 17.9482, 23.6139, 31.6133, -35.6894, -26.7364
1.88, -1, 13.7476, 17.9234, 23.6073, 31.6924, -35.6052, -26.7743
1.884, -1, 13.7974, 17.8986, 23.6006, 31.7714, -35.5211, -26.8121
1.888, -1, 13.8471, 17.8739, 23.594, 31.8504, -35.4371, -26.8499
1.892, -1, 13.8967, 17.8491, 23.5874, 31.9292, -35.3532, -26.8876
1.896, -1, 13.9463, 17.8244, 23.5808, 32.0079, -35.2694, -26.9253
1.9, -1, 13.9958, 17.7998, 23.5742, 32.0865, -35.1857, -26.9629
1.904, -1, 14.0452, 17.7751, 23.5676, 32.1651, -35.1021, -27.0005
1.908, -1, 14.0946, 17.7505, 23.561, 32.2435, -35.0187, -27.038
1.912, -1, 14.144, 17.7259, 23.5544, 32.3218, -34.9353, -27.0755
1.916, -1, 14.1932, 17.7014, 23.5479, 32.4001, -34.852, -27.1129
1.92, -1, 14.2424, 17.6769, 23.5413, 32.4782, -34.7689, -27.1503
1.924, -1, 14.2916, 17.6524, 23.5348, 32.5563, -34.6858, -27.1877
1.928, -1, 14.3406, 17.6279, 23.5282, 32.6342, -34.6029, -27.2249
1.932, -1, 14.3896, 17.6035, 23.5217, 32.712, -34.52, -27.2622
1.936, -1, 14.4386, 17.5791, 23.5152, 32.7898, -34.4373, -27.2994
1.94, -1, 14.4875, 17.5547, 23.5086, 32.8674, -34.3546, -27.3366
1.944, -1, 14.5363, 17.5304, 23.5021, 32.945, -34.2721, -27.3737
1.948, -1, 14.5851, 17.5061, 23.4956, 33.0225, -34.1896, -27.4107
1.952, -1, 14.6338, 17.4818, 23.4891, 33.0998, -34.1073, -27.4478
1.956, -1, 14.6825, 17.4576, 23.4826, 33.1771, -34.0251, -27.4847
1.96, -1, 14.7311, 17.4334, 23.4762, 33.2543, -33.9429, -27.5217
1.964, -1, 14.7796, 17.4092, 23.4697, 33.3314, -33.8609, -27.5586
1.968, -1, 14.8281, 17.385, 23.4632, 33.4084, -33.7789, -27.5954
1.972, -1, 14.8765, 17.3609, 23.4568, 33.4853, -33.6971, -27.6322
1.976, -1, 14.9249, 17.3368, 23.4503, 33.5621, -33.6153, -27.6689
1.98, -1, 14.9732, 17.3127, 23.4439, 33.6388, -33.5337, -27.7057
1.984, -1, 15.0214, 17.2887, 23.4375, 33.7154, -33.4521, -27.7423
1.988, -1, 15.0696, 17.2647, 23.431, 33.792, -33.3707, -27.7789
1.992, -1, 15.1178, 17.2407, 23.4246, 33.8684, -33.2893, -27.8155
1.996, -1, 15.1658, 17.2167, 23.4182, 33.9448, -33.2081, -27.8521
1.999, -1, 15.2139, 17.1928, 23.4118, 34.021, -33.1269, -27.8886
2.004, -1, 15.2618, 17.1689, 23.4054, 34.0972, -33.0458, -27.925
2.008, -1, 15.3097, 17.145, 23.399, 34.1733, -32.9649, -27.9614
2.012, -1, 15.3576, 17.1212, 23.3926, 34.2493, -32.884, -27.9978
2.015, -1, 15.4054, 17.0974, 23.3863, 34.3252, -32.8032, -28.0341
2.019, -1, 15.4531, 17.0736, 23.3799, 34.401, -32.7225, -28.0704
2.024, -1, 15.5008, 17.0498, 23.3735, 34.4767, -32.6419, -28.1066
2.028, -1, 15.5484, 17.0261, 23.3672, 34.5524, -32.5614, -28.1428
2.031, -1, 15.596, 17.0024, 23.3609, 34.6279, -32.481, -28.179
2.036, -1, 15.6435, 16.9787, 23.3545, 34.7034, -32.4007, -28.2151
2.04, -1, 15.691, 16.9551, 23.3482, 34.7788, -32.3205, -28.2511
2.044, -1, 15.7384, 16.9314, 23.3419, 34.8541, -32.2403, -28.2872
2.048, -1, 15.7857, 16.9079, 23.3356, 34.9293, -32.1603, -28.3232
2.051, -1, 15.833, 16.8843, 23.3293, 35.0044, -32.0803, -28.3591
2.055, -1, 15.8803, 16.8607, 23.323, 35.0794, -32.0005, -28.395
2.06, -1, 15.9275, 16.8372, 23.3167, 35.1544, -31.9207, -28.4309
2.064, -1, 15.9746, 16.8137, 23.3104, 35.2293, -31.841, -28.4667
2.068, -1, 16.0217, 16.7903, 23.3041, 35.304, -31.7615, -28.5025
2.071, -1, 16.0687, 16.7668, 23.2978, 35.3787, -31.682, -28.5382
2.076, -1, 16.1157, 16.7434, 23.2916, 35.4533, -31.6026, -28.5739
2.08, -1, 16.1626, 16.72, 23.2853, 35.5279, -31.5232, -28.6096
2.084, -1, 16.2095, 16.6967, 23.2791, 35.6023, -31.444, -28.6452
2.087, -1, 16.2563, 16.6734, 23.2728, 35.6767, -31.3649, -28.6808
2.092, -1, 16.3031, 16.6501, 23.2666, 35.751, -31.2858, -28.7163
2.096, -1, 16.3498, 16.6268, 23.2604, 35.8252, -31.2068, -28.7518
2.1, -1, 16.3965, 16.6035, 23.2541, 35.8993, -31.128, -28.7873
2.104, -1, 16.4431, 16.5803, 23.2479, 35.9733, -31.0492, -28.8227
2.107, -1, 16.4896, 16.5571, 23.2417, 36.0473, -30.9705, -28.8581
2.111, -1, 16.5361, 16.5339, 23.2355, 36.1211, -30.8919, -28.8935
2.116, -1, 16.5826, 16.5108, 23.2293, 36.1949, -30.8133, -28.9288
2.12, -1, 16.629, 16.4876, 23.2231, 36.2686, -30.7349, -28.964
2.124, -1, 16.6754, 16.4645, 23.2169, 36.3422, -30.6565, -28.9993
2.127, -1, 16.7217, 16.4415, 23.2108, 36.4158, -30.5783, -29.0345
2.132, -1, 16.7679, 16.4184, 23.2046, 36.4893, -30.5001, -29.0696
2.136, -1, 16.8141, 16.3954, 23.1984, 36.5626, -30.422, -29.1047
2.14, -1, 16.8603, 16.3724, 23.1923, 36.636, -30.3439, -29.1398
2.143, -1, 16.9064, 16.3494, 23.1861, 36.7092, -30.266, -29.1749
2.148, -1, 16.9525, 16.3265, 23.18, 36.7823, -30.1882, -29.2099
2.152, -1, 16.9985, 16.3035, 23.1739, 36.8554, -30.1104, -29.2448
2.156, -1, 17.0444, 16.2806, 23.1677, 36.9284, -30.0327, -29.2798
2.16, -1, 17.0903, 16.2578, 23.1616, 37.0013, -29.9551, -29.3146
2.163, -1, 17.136, 16.235, 23.1555, 37.0742, -29.8776, -29.3495
2.168, -1, 17.1814, 16.2123, 23.1494, 37.1469, -29.8002, -29.3843
2.172, -1, 17.2261, 16.1899, 23.1432, 37.2195, -29.7229, -29.4191
2.176, -1, 17.2699, 16.168, 23.1369, 37.2919, -29.6459, -29.4537
2.179, -1, 17.3126, 16.1465, 23.1306, 37.364, -29.5692, -29.4882
2.184, -1, 17.3541, 16.1257, 23.1243, 37.4355, -29.4931, -29.5224
2.188, -1, 17.3942, 16.1056, 23.1179, 37.5062, -29.4179, -29.5563
2.192, -1, 17.4331, 16.0862, 23.1116, 37.5758, -29.344, -29.5895
2.196, -1, 17.4706, 16.0676, 23.1053, 37.6437, -29.2717, -29.6221
2.199, -1, 17.5068, 16.0498, 23.0992, 37.7096, -29.2017, -29.6536
2.204, -1, 17.5414, 16.0329, 23.0933, 37.7731, -29.1342, -29.684
2.208, -1, 17.5743, 16.017, 23.0876, 37.8335, -29.07, -29.7129
2.212, -1, 17.6054, 16.0022, 23.0823, 37.8904, -29.0095, -29.7402
2.216, -1, 17.6346, 15.9882, 23.0774, 37.9435, -28.9531, -29.7656
2.219, -1, 17.662, 15.9751, 23.0729, 37.9922, -28.9013, -29.7889
2.224, -1, 17.6877, 15.9626, 23.0689, 38.0363, -28.8544, -29.81
2.228, -1, 17.7118, 15.9507, 23.0656, 38.0756, -28.8126, -29.8288
2.232, -1, 17.7344, 15.9393, 23.0628, 38.11, -28.7759, -29.8453
2.235, -1, 17.7552, 15.9285, 23.0605, 38.1397, -28.7443, -29.8594
2.24, -1, 17.7743, 15.9185, 23.0588, 38.1648, -28.7176, -29.8714
2.244, -1, 17.7915, 15.9094, 23.0575, 38.1856, -28.6954, -29.8814
2.248, -1, 17.8067, 15.9013, 23.0566, 38.2025, -28.6773, -29.8895
2.252, -1, 17.8202, 15.8942, 23.056, 38.216, -28.6629, -29.8959
2.255, -1, 17.832, 15.8881, 23.0557, 38.2265, -28.6516, -29.9009
2.259, -1, 17.8423, 15.8828, 23.0556, 38.2345, -28.643, -29.9048
2.264, -1, 17.8512, 15.8784, 23.0556, 38.2404, -28.6366, -29.9076
2.268, -1, 17.8587, 15.8748, 23.0557, 38.2447, -28.632, -29.9096
2.272, -1, 17.8648, 15.8719, 23.0559, 38.2477, -28.6287, -29.9111
2.275, 2, 17.8697, 15.8697, 23.056, 38.2499, -28.6264, -29.9121
2.28, 2, 17.8733, 15.8681, 23.0561, 38.2513, -28.6248, -29.9128
2.284, 2, 17.876, 15.867, 23.0562, 38.2523, -28.6238, -29.9132
2.288, 2, 17.8778, 15.8662, 23.0563, 38.253, -28.623, -29.9136
2.291, 2, 17.879, 15.8657, 23.0563, 38.2534, -28.6226, -29.9138
2.296, 2, 17.8798, 15.8653, 23.0563, 38.2537, -28.6222, -29.9139
2.3, 2, 17.8804, 15.8651, 23.0563, 38.2539, -28.622, -29.914
2.304, 2, 17.8808, 15.8649, 23.0564, 38.2541, -28.6218, -29.9141
2.308, 2, 17.881, 15.8648, 23.0564, 38.2542, -28.6217, -29.9141
2.311, 2, 17.8812, 15.8647, 23.0564, 38.2542, -28.6217, -29.9142
2.316, 2, 17.8813, 15.8647, 23.0564, 38.2543, -28.6216, -29.9142
2.32, 2, 17.8814, 15.8646, 23.0564, 38.2543, -28.6216, -29.9142
2.324, 2, 17.8815, 15.8646, 23.0564, 38.2543, -28.6216, -29.9142
2.328, 2, 17.8815, 15.8646, 23.0564, 38.2543, -28.6215, -29.9142
2.331, 2, 17.8815, 15.8646, 23.0564, 38.2543, -28.6215, -29.9142
2.336, 2, 17.8815, 15.8646, 23.0564, 38.2544, -28.6215, -29.9142
2.34, 2, 17.8815, 15.8646, 23.0564, 38.2544, -28.6215, -29.9142
2.344, 2, 17.8816, 15.8646, 23.0564, 38.2544, -28.6215, -29.9142
2.347, 2, 17.8816, 15.8646, 23.0564, 38.2544, -28.6215, -29.9142
2.352, 2, 17.8816, 15.8646, 23.0564, 38.2544, -28.6215, -29.9142
2.356, 2, 17.8816, 15.8646, 23.0564, 38.2544, -28.6215, -29.9142
2.36, 2, 17.8816, 15.8645, 23.0564, 38.2544, -28.6215, -29.9142
2.364, 2, 17.8816, 15.8645, 23.0564, 38.2544, -28.6215, -29.9142
2.367, 2, 17.8816, 15.8645, 23.0564, 38.2544, -28.6215, -29.9142
2.372, 2, 17.8816, 15.8645, 23.0564, 38.2544, -28.6215, -29.9142
2.376, 2, 17.8816, 15.8645, 23.0564, 38.2544, -28.6215, -29.9142
2.38, 2, 17.8816, 15.8645, 23.0564, 38.2544, -28.6215, -29.9142
2.383, 2, 17.8816, 15.8645, 23.0564, 38.2544, -28.6215, -29.9142
2.388, 2, 17.8816, 15.8645, 23.0564, 38.2544, -28.6215, -29.9142
2.392, 2, 17.8816, 15.8645, 23.0564, 38.2544, -28.6215, -29.9142
2.396, 2, 17.8816, 15.8645, 23.0564, 38.2544, -28.6215, -29.9142
2.4, 2, 17.8816, 15.8645, 23.0564, 38.2544, -28.6215, -29.9142
2.403, 2, 17.8816, 15.8645, 23.0564, 38.2544, -28.6215, -29.9142
2.408, 2, 17.8816, 15.8645, 23.0564, 38.2544, -28.6215, -29.9142
2.412, 2, 17.8816, 15.8645, 23.0564, 38.2544, -28.6215, -29.9142
2.416, 2, 17.8816, 15.8645, 23.0564, 38.2544, -28.6215, -29.9142
2.42, 2, 17.8816, 15.8645, 23.0564, 38.2544, -28.6215, -29.9142
2.423, 2, 17.8816, 15.8645, 23.0564, 38.2544, -28.6215, -29.9142
2.428, 2, 17.8816, 15.8645, 23.0564, 38.2544, -28.6215, -29.9142
2.432, 2, 17.8816, 15.8645, 23.0564, 38.2544, -28.6215, -29.9142
2.436, 2, 17.8816, 15.8645, 23.0564, 38.2544, -28.6215, -29.9142
2.439, 2, 17.8816, 15.8645, 23.0564, 38.2544, -28.6215, -29.9142
2.444, 2, 17.8816, 15.8645, 23.0564, 38.2544, -28.6215, -29.9142
2.448, 2, 17.8816, 15.8645, 23.0564, 38.2544, -28.6215, -29.9142
2.452, 2, 17.8816, 15.8645, 23.0564, 38.2544, -28.6215, -29.9142
2.456, 2, 17.8816, 15.8645, 23.0564, 38.2544, -28.6215, -29.9142
2.459, 2, 17.8816, 15.8645, 23.0564, 38.2544, -28.6215, -29.9142
2.464, 2, 17.8816, 15.8645, 23.0564, 38.2544, -28.6215, -29.9142
2.468, 2, 17.8816, 15.8645, 23.0564, 38.2544, -28.6215, -29.9142
2.472, 2, 17.8816, 15.8645, 23.0564, 38.2544, -28.6215, -29.9142
2.476, 2, 17.8816, 15.8645, 23.0564, 38.2544, -28.6215, -29.9142
2.479, 2, 17.8816, 15.8645, 23.0564, 38.2544, -28.6215, -29.9142
2.484, 2, 17.8816, 15.8645, 23.0564, 38.2544, -28.6215, -29.9142
2.488, 2, 17.8816, 15.8645, 23.0564, 38.2544, -28.6215, -29.9142
2.492, 2, 17.8816, 15.8645, 23.0564, 38.2544, -28.6215, -29.9142
2.495, 2, 17.8816, 15.8645, 23.0564, 38.2544, -28.6215, -29.9142
2.5, 2, 17.8816, 15.8645, 23.0564, 38.2544, -28.6215, -29.9142
2.504, 2, 17.8816, 15.8645, 23.0564, 38.2544, -28.6215, -29.9142
2.508, 2, 17.8816, 15.8645, 23.0564, 38.2544, -28.6215, -29.9142
2.512, 2, 17.8816, 15.8645, 23.0564, 38.2544, -28.6215, -29.9142
2.515, 2, 17.8816, 15.8645, 23.0564, 38.2544, -28.6215, -29.9142
2.52, 2, 17.8816, 15.8645, 23.0564, 38.2544, -28.6215, -29.9142
2.524, 2, 17.8816, 15.8645, 23.0564, 38.2544, -28.6215, -29.9142
2.528, 2, 17.8816, 15.8645, 23.0564, 38.2544, -28.6215, -29.9142
2.531, 2, 17.8816, 15.8645, 23.0564, 38.2544, -28.6215, -29.9142
2.536, 2, 17.8816, 15.8645, 23.0564, 38.2544, -28.6215, -29.9142
2.54, 2, 17.8816, 15.8645, 23.0564, 38.2544, -28.6215, -29.9142
2.544, 2, 17.8816, 15.8645, 23.0564, 38.2544, -28.6215, -29.9142
2.548, 2, 17.8816, 15.8645, 23.0564, 38.2544, -28.6215, -29.9142
2.551, 2, 17.8816, 15.8645, 23.0564, 38.2544, -28.6215, -29.9142
2.556, 2, 17.8816, 15.8645, 23.0564, 38.2544, -28.6215, -29.9142
2.56, 2, 17.8816, 15.8645, 23.0564, 38.2544, -28.6215, -29.9142
2.564, 2, 17.8816, 15.8645, 23.0564, 38.2544, -28.6215, -29.9142
2.568, 2, 17.8816, 15.8645, 23.0564, 38.2544, -28.6215, -29.9142
2.571, 2, 17.8816, 15.8645, 23.0564, 38.2544, -28.6215, -29.9142
2.576, 2, 17.8816, 15.8645, 23.0564, 38.2544, -28.6215, -29.9142
2.58, 2, 17.8816, 15.8645, 23.0564, 38.2544, -28.6215, -29.9142
2.584, 2, 17.8816, 15.8645, 23.0564, 38.2544, -28.6215, -29.9142
2.587, 2, 17.8816, 15.8645, 23.0564, 38.2544, -28.6215, -29.9142
2.592, 2, 17.8816, 15.8645, 23.0564, 38.2544, -28.6215, -29.9142
2.596, 2, 17.8816, 15.8645, 23.0564, 38.2544, -28.6215, -29.9142
2.6, 2, 17.8816, 15.8645, 23.0564, 38.2544, -28.6215, -29.9142
2.604, 2, 17.8816, 15.8645, 23.0564, 38.2544, -28.6215, -29.9142
2.607, 2, 17.8816, 15.8645, 23.0564, 38.2544, -28.6215, -29.9142
2.612, 2, 17.8816, 15.8645, 23.0564, 38.2544, -28.6215, -29.9142
2.616, 2, 17.8816, 15.8645, 23.0564, 38.2544, -28.6215, -29.9142
2.62, 2, 17.8816, 15.8645, 23.0564, 38.2544, -28.6215, -29.9142
2.624, 2, 17.8816, 15.8645, 23.0564, 38.2544, -28.6215, -29.9142
2.627, 2, 17.8816, 15.8645, 23.0564, 38.2544, -28.6215, -29.9142
2.632, 2, 17.8816, 15.8645, 23.0564, 38.2544, -28.6215, -29.9142
2.636, 2, 17.8816, 15.8645, 23.0564, 38.2544, -28.6215, -29.9142
2.64, 2, 17.8816, 15.8645, 23.0564, 38.2544, -28.6215, -29.9142
2.643, 2, 17.8816, 15.8645, 23.0564, 38.2544, -28.6215, -29.9142
2.648, 2, 17.8816, 15.8645, 23.0564, 38.2544, -28.6215, -29.9142
2.652, 2, 17.8816, 15.8645, 23.0564, 38.2544, -28.6215, -29.9142
2.656, 2, 17.8816, 15.8645, 23.0564, 38.2544, -28.6215, -29.9142
2.66, 2, 17.8816, 15.8645, 23.0564, 38.2544, -28.6215, -29.9142
2.663, 2, 17.8816, 15.8645, 23.0564, 38.2544, -28.6215, -29.9142
2.668, 2, 17.8816, 15.8645, 23.0564, 38.2544, -28.6215, -29.9142
2.672, 2, 17.8816, 15.8645, 23.0564, 38.2544, -28.6215, -29.9142
2.676, 2, 17.8816, 15.8645, 23.0564, 38.2544, -28.6215, -29.9142
2.679, 2, 17.8816, 15.8645, 23.0564, 38.2544, -28.6215, -29.9142
2.684, 2, 17.8816, 15.8645, 23.0564, 38.2544, -28.6215, -29.9142
2.688, 2, 17.8816, 15.8645, 23.0564, 38.2544, -28.6215, -29.9142
2.692, 2, 17.8816, 15.8645, 23.0564, 38.2544, -28.6215, -29.9142
2.696, 2, 17.8816, 15.8645, 23.0564, 38.2544, -28.6215, -29.9142
2.699, 2, 17.8816, 15.8645, 23.0564, 38.2544, -28.6215, -29.9142
2.704, 2, 17.8816, 15.8645, 23.0564, 38.2544, -28.6215, -29.9142
2.708, 2, 17.8816, 15.8645, 23.0564, 38.2544, -28.6215, -29.9142
2.712, 2, 17.8816, 15.8645, 23.0564, 38.2544, -28.6215, -29.9142
2.716, 2, 17.8816, 15.8645, 23.0564, 38.2544, -28.6215, -29.9142
2.719, 2, 17.8816, 15.8645, 23.0564, 38.2544, -28.6215, -29.9142
2.724, 2, 17.8816, 15.8645, 23.0564, 38.2544, -28.6215, -29.9142
2.728, 2, 17.8816, 15.8645, 23.0564, 38.2544, -28.6215, -29.9142
2.732, 2, 17.8816, 15.8645, 23.0564, 38.2544, -28.6215, -29.9142
2.735, 2, 17.8816, 15.8645, 23.0564, 38.2544, -28.6215, -29.9142
2.74, 2, 17.8816, 15.8645, 23.0564, 38.2544, -28.6215, -29.9142
2.744, 2, 17.8816, 15.8645, 23.0564, 38.2544, -28.6215, -29.9142
2.748, 2, 17.8816, 15.8645, 23.0564, 38.2544, -28.6215, -29.9142
2.752, 2, 17.8816, 15.8645, 23.0564, 38.2544, -28.6215, -29.9142
2.755, 2, 17.8816, 15.8645, 23.0564, 38.2544, -28.6215, -29.9142
2.76, 2, 17.8816, 15.8645, 23.0564, 38.2544, -28.6215, -29.9142
2.764, 2, 17.8816, 15.8645, 23.0564, 38.2544, -28.6215, -29.9142
2.768, 2, 17.8816, 15.8645, 23.0564, 38.2544, -28.6215, -29.9142
2.772, 2, 17.8816, 15.8645, 23.0564, 38.2544, -28.6215, -29.9142
2.775, 2, 17.8816, 15.8645, 23.0564, 38.2544, -28.6215, -29.9142
2.78, 2, 17.8816, 15.8645, 23.0564, 38.2544, -28.6215, -29.9142
2.784, 2, 17.8816, 15.8645, 23.0564, 38.2544, -28.6215, -29.9142
2.788, 2, 17.8816, 15.8645, 23.0564, 38.2544, -28.6215, -29.9142
2.791, 2, 17.8816, 15.8645, 23.0564, 38.2544, -28.6215, -29.9142
2.796, 2, 17.8816, 15.8645, 23.0564, 38.2544, -28.6215, -29.9142
2.8, 2, 17.8816, 15.8645, 23.0564, 38.2544, -28.6215, -29.9142
2.804, 2, 17.8816, 15.8645, 23.0564, 38.2544, -28.6215, -29.9142
2.808, 2, 17.8816, 15.8645, 23.0564, 38.2544, -28.6215, -29.9142
2.811, 2, 17.8816, 15.8645, 23.0564, 38.2544, -28.6215, -29.9142
2.816, 2, 17.8816, 15.8645, 23.0564, 38.2544, -28.6215, -29.9142
2.82, 2, 17.8816, 15.8645, 23.0564, 38.2544, -28.6215, -29.9142
2.824, 2, 17.8816, 15.8645, 23.0564, 38.2544, -28.6215, -29.9142
2.828, 2, 17.8816, 15.8645, 23.0564, 38.2544, -28.6215, -29.9142
2.831, 2, 17.8816, 15.8645, 23.0564, 38.2544, -28.6215, -29.9142
2.836, 2, 17.8816, 15.8645, 23.0564, 38.2544, -28.6215, -29.9142
2.84, 2, 17.8816, 15.8645, 23.0564, 38.2544, -28.6215, -29.9142
2.844, 2, 17.8816, 15.8645, 23.0564, 38.2544, -28.6215, -29.9142
2.847, 2, 17.8816, 15.8645, 23.0564, 38.2544, -28.6215, -29.9142
2.852, 2, 17.8816, 15.8645, 23.0564, 38.2544, -28.6215, -29.9142
2.856, 2, 17.8816, 15.8645, 23.0564, 38.2544, -28.6215, -29.9142
2.86, 2, 17.8816, 15.8645, 23.0564, 38.2544, -28.6215, -29.9142
2.864, 2, 17.8816, 15.8645, 23.0564, 38.2544, -28.6215, -29.9142
2.867, 2, 17.8816, 15.8645, 23.0564, 38.2544, -28.6215, -29.9142
2.872, 2, 17.8816, 15.8645, 23.0564, 38.2544, -28.6215, -29.9142
2.876, 2, 17.8816, 15.8645, 23.0564, 38.2544, -28.6215, -29.9142
2.88, 2, 17.8816, 15.8645, 23.0564, 38.2544, -28.6215, -29.9142
2.883, 2, 17.8816, 15.8645, 23.0564, 38.2544, -28.6215, -29.9142
2.888, 2, 17.8816, 15.8645, 23.0564, 38.2544, -28.6215, -29.9142
2.892, 2, 17.8816, 15.8645, 23.0564, 38.2544, -28.6215, -29.9142
2.896, 2, 17.8816, 15.8645, 23.0564, 38.2544, -28.6215, -29.9142
2.9, 2, 17.8816, 15.8645, 23.0564, 38.2544, -28.6215, -29.9142
2.903, 2, 17.8816, 15.8645, 23.0564, 38.2544, -28.6215, -29.9142
2.908, 2, 17.8816, 15.8645, 23.0564, 38.2544, -28.6215, -29.9142
2.912, 2, 17.8816, 15.8645, 23.0564, 38.2544, -28.6215, -29.9142
2.916, 2, 17.8816, 15.8645, 23.0564, 38.2544, -28.6215, -29.9142
2.92, 2, 17.8816, 15.8645, 23.0564, 38.2544, -28.6215, -29.9142
2.923, 2, 17.8816, 15.8645, 23.0564, 38.2544, -28.6215, -29.9142
2.928, 2, 17.8816, 15.8645, 23.0564, 38.2544, -28.6215, -29.9142
2.932, 2, 17.8816, 15.8645, 23.0564, 38.2544, -28.6215, -29.9142
2.936, 2, 17.8816, 15.8645, 23.0564, 38.2544, -28.6215, -29.9142
2.939, 2, 17.8816, 15.8645, 23.0564, 38.2544, -28.6215, -29.9142
2.944, 2, 17.8816, 15.8645, 23.0564, 38.2544, -28.6215, -29.9142
2.948, 2, 17.8816, 15.8645, 23.0564, 38.2544, -28.6215, -29.9142
2.952, 2, 17.8816, 15.8645, 23.0564, 38.2544, -28.6215, -29.9142
2.956, 2, 17.8816, 15.8645, 23.0564, 38.2544, -28.6215, -29.9142
2.959, 2, 17.8816, 15.8645, 23.0564, 38.2544, -28.6215, -29.9142
2.964, 2, 17.8816, 15.8645, 23.0564, 38.2544, -28.6215, -29.9142
2.968, 2, 17.8816, 15.8645, 23.0564, 38.2544, -28.6215, -29.9142
2.972, 2, 17.8816, 15.8645, 23.0564, 38.2544, -28.6215, -29.9142
2.976, 2, 17.8816, 15.8645, 23.0564, 38.2544, -28.6215, -29.9142
2.98, 2, 17.8816, 15.8645, 23.0564, 38.2544, -28.6215, -29.9142
2.984, 2, 17.8816, 15.8645, 23.0564, 38.2544, -28.6215, -29.9142
2.988, 2, 17.8816, 15.8645, 23.0564, 38.2544, -28.6215, -29.9142
2.992, 2, 17.8816, 15.8645, 23.0564, 38.2544, -28.6215, -29.9142
2.995, 2, 17.8816, 15.8645, 23.0564, 38.2544, -28.6215, -29.9142
3, 2, 17.8816, 15.8645, 23.0564, 38.2544, -28.6215, -29.9142
3.004, 2, 17.8816, 15.8645, 23.0564, 38.2544, -28.6215, -29.9142
3.008, 2, 17.8816, 15.8645, 23.0564, 38.2544, -28.6215, -29.9142
3.012, 2, 17.8816, 15.8645, 23.0564, 38.2544, -28.6215, -29.9142
3.015, 2, 17.8816, 15.8645, 23.0564, 38.2544, -28.6215, -29.9142
3.02, 2, 17.8816, 15.8645, 23.0564, 38.2544, -28.6215, -29.9142
3.024, 2, 17.8816, 15.8645, 23.0564, 38.2544, -28.6215, -29.9142
3.028, 2, 17.8816, 15.8645, 23.0564, 38.2544, -28.6215, -29.9142
3.031, 2, 17.8816, 15.8645, 23.0564, 38.2544, -28.6215, -29.9142
3.036, 2, 17.8816, 15.8645, 23.0564, 38.2544, -28.6215, -29.9142
3.04, 2, 17.8816, 15.8645, 23.0564, 38.2544, -28.6215, -29.9142
3.044, 2, 17.8816, 15.8645, 23.0564, 38.2544, -28.6215, -29.9142
3.048, 2, 17.8816, 15.8645, 23.0564, 38.2544, -28.6215, -29.9142
3.051, 2, 17.8816, 15.8645, 23.0564, 38.2544, -28.6215, -29.9142
3.056, 2, 17.8816, 15.8645, 23.0564, 38.2544, -28.6215, -29.9142
3.06, 2, 17.8816, 15.8645, 23.0564, 38.2544, -28.6215, -29.9142
3.064, 2, 17.8816, 15.8645, 23.0564, 38.2544, -28.6215, -29.9142
3.068, 2, 17.8816, 15.8645, 23.0564, 38.2544, -28.6215, -29.9142
3.071, 2, 17.8816, 15.8645, 23.0564, 38.2544, -28.6215, -29.9142
3.076, 2, 17.8816, 15.8645, 23.0564, 38.2544, -28.6215, -29.9142
3.08, 2, 17.8816, 15.8645, 23.0564, 38.2544, -28.6215, -29.9142
3.084, 2, 17.8816, 15.8645, 23.0564, 38.2544, -28.6215, -29.9142
3.087, 2, 17.8816, 15.8645, 23.0564, 38.2544, -28.6215, -29.9142
3.092, 2, 17.8816, 15.8645, 23.0564, 38.2544, -28.6215, -29.9142
3.096, 2, 17.8816, 15.8645, 23.0564, 38.2544, -28.6215, -29.9142
3.1, 2, 17.8816, 15.8645, 23.0564, 38.2544, -28.6215, -29.9142
3.104, 2, 17.8816, 15.8645, 23.0564, 38.2544, -28.6215, -29.9142
3.107, 2, 17.8816, 15.8645, 23.0564, 38.2544, -28.6215, -29.9142
3.112, 2, 17.8816, 15.8645, 23.0564, 38.2544, -28.6215, -29.9142
3.116, 2, 17.8816, 15.8645, 23.0564, 38.2544, -28.6215, -29.9142
3.12, 2, 17.8816, 15.8645, 23.0564, 38.2544, -28.6215, -29.9142
3.124, 2, 17.8816, 15.8645, 23.0564, 38.2544, -28.6215, -29.9142
3.128, 2, 17.8816, 15.8645, 23.0564, 38.2544, -28.6215, -29.9142
3.132, 2, 17.8816, 15.8645, 23.0564, 38.2544, -28.6215, -29.9142
3.136, 2, 17.8816, 15.8645, 23.0564, 38.2544, -28.6215, -29.9142
3.14, 2, 17.8816, 15.8645, 23.0564, 38.2544, -28.6215, -29.9142
3.143, 2, 17.8816, 15.8645, 23.0564, 38.2544, -28.6215, -29.9142
3.148, 2, 17.8816, 15.8645, 23.0564, 38.2544, -28.6215, -29.9142
3.152, 2, 17.8816, 15.8645, 23.0564, 38.2544, -28.6215, -29.9142
3.156, 2, 17.8816, 15.8645, 23.0564, 38.2544, -28.6215, -29.9142
3.16, 2, 17.8816, 15.8645, 23.0564, 38.2544, -28.6215, -29.9142
3.163, 2, 17.8816, 15.8645, 23.0564, 38.2544, -28.6215, -29.9142
3.168, 2, 17.8816, 15.8645, 23.0564, 38.2544, -28.6215, -29.9142
3.172, 2, 17.8816, 15.8645, 23.0564, 38.2544, -28.6215, -29.9142
3.176, 2, 17.8816, 15.8645, 23.0564, 38.2544, -28.6215, -29.9142
3.179, 2, 17.8816, 15.8645, 23.0564, 38.2544, -28.6215, -29.9142
3.184, 2, 17.8816, 15.8645, 23.0564, 38.2544, -28.6215, -29.9142
3.188, 2, 17.8816, 15.8645, 23.0564, 38.2544, -28.6215, -29.9142
3.192, 2, 17.8816, 15.8645, 23.0564, 38.2544, -28.6215, -29.9142
3.196, 2, 17.8816, 15.8645, 23.0564, 38.2544, -28.6215, -29.9142
3.199, 2, 17.8816, 15.8645, 23.0564, 38.2544, -28.6215, -29.9142
3.204, 2, 17.8816, 15.8645, 23.0564, 38.2544, -28.6215, -29.9142
3.208, 2, 17.8816, 15.8645, 23.0564, 38.2544, -28.6215, -29.9142
3.212, 2, 17.8816, 15.8645, 23.0564, 38.2544, -28.6215, -29.9142
3.216, 2, 17.8816, 15.8645, 23.0564, 38.2544, -28.6215, -29.9142
3.22, 2, 17.8816, 15.8645, 23.0564, 38.2544, -28.6215, -29.9142
3.224, 2, 17.8816, 15.8645, 23.0564, 38.2544, -28.6215, -29.9142
3.228, 2, 17.8816, 15.8645, 23.0564, 38.2544, -28.6215, -29.9142
3.232, 2, 17.8816, 15.8645, 23.0564, 38.2544, -28.6215, -29.9142
3.235, 2, 17.8816, 15.8645, 23.0564, 38.2544, -28.6215, -29.9142
3.24, 2, 17.8816, 15.8645, 23.0564, 38.2544, -28.6215, -29.9142
3.244, 2, 17.8816, 15.8645, 23.0564, 38.2544, -28.6215, -29.9142
3.248, 2, 17.8816, 15.8645, 23.0564, 38.2544, -28.6215, -29.9142
3.252, 2, 17.8816, 15.8645, 23.0564, 38.2544, -28.6215, -29.9142
3.255, 2, 17.8816, 15.8645, 23.0564, 38.2544, -28.6215, -29.9142
3.26, 2, 17.8816, 15.8645, 23.0564, 38.2544, -28.6215, -29.9142
3.264, 2, 17.8816, 15.8645, 23.0564, 38.2544, -28.6215, -29.9142
3.268, 2, 17.8816, 15.8645, 23.0564, 38.2544, -28.6215, -29.9142
3.272, 2, 17.8816, 15.8645, 23.0564, 38.2544, -28.6215, -29.9142
3.276, 2, 17.8816, 15.8645, 23.0564, 38.2544, -28.6215, -29.9142
3.28, 2, 17.8816, 15.8645, 23.0564, 38.2544, -28.6215, -29.9142
3.284, 2, 17.8816, 15.8645, 23.0564, 38.2544, -28.6215, -29.9142
3.288, 2, 17.8816, 15.8645, 23.0564, 38.2544, -28.6215, -29.9142
3.291, 2, 17.8816, 15.8645, 23.0564, 38.2544, -28.6215, -29.9142
3.296, 2, 17.8816, 15.8645, 23.0564, 38.2544, -28.6215, -29.9142
3.3, 2, 17.8816, 15.8645, 23.0564, 38.2544, -28.6215, -29.9142
3.304, 2, 17.8816, 15.8645, 23.0564, 38.2544, -28.6215, -29.9142
3.308, 2, 17.8816, 15.8645, 23.0564, 38.2544, -28.6215, -29.9142
3.312, 2, 17.8816, 15.8645, 23.0564, 38.2544, -28.6215, -29.9142
3.316, 2, 17.8816, 15.8645, 23.0564, 38.2544, -28.6215, -29.9142
3.32, 2, 17.8816, 15.8645, 23.0564, 38.2544, -28.6215, -29.9142
3.324, 2, 17.8816, 15.8645, 23.0564, 38.2544, -28.6215, -29.9142
3.328, 2, 17.8816, 15.8645, 23.0564, 38.2544, -28.6215, -29.9142
3.332, 2, 17.8816, 15.8645, 23.0564, 38.2544, -28.6215, -29.9142
3.336, 2, 17.8816, 15.8645, 23.0564, 38.2544, -28.6215, -29.9142
3.34, 2, 17.8816, 15.8645, 23.0564, 38.2544, -28.6215, -29.9142
3.344, 2, 17.8816, 15.8645, 23.0564, 38.2544, -28.6215, -29.9142
3.347, 2, 17.8816, 15.8645, 23.0564, 38.2544, -28.6215, -29.9142
3.352, 4, 17.8816, 15.8645, 23.0564, 38.2544, -28.6215, -29.9142
3.356, 4, 17.8816, 15.8645, 23.0564, 38.2544, -28.6215, -29.9142
3.36, 4, 17.8816, 15.8645, 23.0564, 38.2544, -28.6215, -29.9142
3.364, 4, 17.8816, 15.8645, 23.0564, 38.2544, -28.6215, -29.9142
3.368, 4, 17.8816, 15.8645, 23.0564, 38.2544, -28.6215, -29.9142
3.372, 4, 17.8816, 15.8645, 23.0564, 38.2544, -28.6215, -29.9142
3.376, 4, 17.8816, 15.8645, 23.0564, 38.2544, -28.6215, -29.9142
3.38, 4, 17.8816, 15.8645, 23.0564, 38.2544, -28.6215, -29.9142
3.383, 4, 17.8816, 15.8645, 23.0564, 38.2544, -28.6215, -29.9142
3.388, 4, 17.8816, 15.8645, 23.0564, 38.2544, -28.6215, -29.9142
3.392, 4, 17.8816, 15.8645, 23.0564, 38.2544, -28.6215, -29.9142
3.396, 4, 17.8816, 15.8645, 23.0564, 38.2544, -28.6215, -29.9142
3.4, 4, 17.8816, 15.8645, 23.0564, 38.2544, -28.6215, -29.9142
3.403, 4, 17.8816, 15.8645, 23.0564, 38.2544, -28.6215, -29.9142
3.408, 4, 17.8816, 15.8645, 23.0564, 38.2544, -28.6215, -29.9142
3.412, 4, 17.8816, 15.8645, 23.0564, 38.2544, -28.6215, -29.9142
3.416, 4, 17.8816, 15.8645, 23.0564, 38.2544, -28.6215, -29.9142
3.42, 4, 17.8816, 15.8645, 23.0564, 38.2544, -28.6215, -29.9142
3.424, 4, 17.8816, 15.8645, 23.0564, 38.2544, -28.6215, -29.9142
3.428, 4, 17.8816, 15.8645, 23.0564, 38.2544, -28.6215, -29.9142
3.432, 4, 17.8816, 15.8645, 23.0564, 38.2544, -28.6215, -29.9142
3.436, 4, 17.8816, 15.8645, 23.0564, 38.2544, -28.6215, -29.9142
3.439, 4, 17.8816, 15.8645, 23.0564, 38.2544, -28.6215, -29.9142
3.444, 4, 17.8816, 15.8645, 23.0564, 38.2544, -28.6215, -29.9142
3.448, 4, 17.8816, 15.8645, 23.0564, 38.2544, -28.6215, -29.9142
3.452, 4, 17.8816, 15.8645, 23.0564, 38.2544, -28.6215, -29.9142
3.456, 4, 17.8816, 15.8645, 23.0564, 38.2544, -28.6215, -29.9142
3.46, 4, 17.8816, 15.8645, 23.0564, 38.2544, -28.6215, -29.9142
3.464, 4, 17.8816, 15.8645, 23.0564, 38.2544, -28.6215, -29.9142
3.468, 4, 17.8816, 15.8645, 23.0564, 38.2544, -28.6215, -29.9142
3.472, 4, 17.8816, 15.8645, 23.0564, 38.2544, -28.6215, -29.9142
3.476, 4, 17.8816, 15.8645, 23.0564, 38.2544, -28.6215, -29.9142
3.48, 4, 17.8816, 15.8645, 23.0564, 38.2544, -28.6215, -29.9142
3.484, 4, 17.8815, 15.8645, 23.0564, 38.2544, -28.6215, -29.9142
3.488, 4, 17.8812, 15.8645, 23.0564, 38.2543, -28.6215, -29.9142
3.492, 4, 17.8806, 15.8645, 23.0565, 38.2542, -28.6216, -29.9141
3.495, 4, 17.8793, 15.8645, 23.0566, 38.2539, -28.6217, -29.9139
3.5, 4, 17.8773, 15.8644, 23.0569, 38.2532, -28.6219, -29.9133
3.504, 4, 17.8745, 15.8643, 23.0576, 38.2517, -28.6225, -29.912
3.508, 4, 17.8707, 15.864, 23.0586, 38.2489, -28.6235, -29.9095
3.512, 4, 17.8659, 15.8636, 23.0603, 38.2441, -28.6252, -29.9053
3.516, 4, 17.8601, 15.863, 23.0629, 38.2365, -28.628, -29.8986
3.52, 4, 17.8533, 15.8621, 23.0667, 38.225, -28.6321, -29.8885
3.524, 5, 17.8454, 15.8608, 23.072, 38.2087, -28.6379, -29.874
3.528, 5, 17.8363, 15.8591, 23.0792, 38.1865, -28.6459, -29.8544
3.531, 5, 17.8257, 15.857, 23.0884, 38.1572, -28.6565, -29.8284
3.536, 5, 17.8136, 15.8542, 23.1001, 38.1198, -28.6699, -29.7953
3.54, 5, 17.8, 15.8508, 23.1146, 38.0734, -28.6867, -29.7542
3.544, 5, 17.7848, 15.8467, 23.132, 38.0171, -28.7071, -29.7044
3.548, 5, 17.7681, 15.8419, 23.1525, 37.9503, -28.7313, -29.6453
3.552, 5, 17.75, 15.8363, 23.1763, 37.8728, -28.7594, -29.5766
3.556, 5, 17.7303, 15.83, 23.2033, 37.7846, -28.7916, -29.4984
3.56, 5, 17.7091, 15.8229, 23.2334, 37.6858, -28.8278, -29.4109
3.564, 5, 17.6863, 15.8152, 23.2666, 37.5771, -28.8677, -29.3147
3.568, 5, 17.6618, 15.8068, 23.3025, 37.4592, -28.9111, -29.2103
3.572, 5, 17.6358, 15.7979, 23.341, 37.3331, -28.9578, -29.0987
3.576, 5, 17.6082, 15.7885, 23.3818, 37.1998, -29.0073, -28.9808
3.58, 5, 17.5792, 15.7787, 23.4244, 37.0604, -29.0593, -28.8576
3.584, 5, 17.549, 15.7685, 23.4687, 36.916, -29.1135, -28.7299
3.587, 5, 17.5176, 15.7581, 23.5143, 36.7675, -29.1695, -28.5987
3.592, 5, 17.4851, 15.7475, 23.5609, 36.616, -29.227, -28.4649
3.596, 5, 17.4516, 15.7367, 23.6084, 36.4622, -29.2856, -28.3292
3.6, 5, 17.4171, 15.7259, 23.6563, 36.307, -29.3452, -28.1922
3.604, 5, 17.3816, 15.7151, 23.7047, 36.1508, -29.4055, -28.0544
3.608, 5, 17.3453, 15.7042, 23.7534, 35.9941, -29.4663, -27.9163
3.612, 5, 17.3083, 15.6934, 23.8022, 35.8372, -29.5276, -27.7782
3.616, 5, 17.2708, 15.6827, 23.8511, 35.6805, -29.5892, -27.6401
3.62, 5, 17.233, 15.672, 23.8999, 35.5239, -29.6511, -27.5024
3.624, 5, 17.1949, 15.6614, 23.9488, 35.3677, -29.7133, -27.365
3.628, 5, 17.1567, 15.6509, 23.9976, 35.2119, -29.7757, -27.2281
3.632, 5, 17.1183, 15.6405, 24.0464, 35.0565, -29.8383, -27.0916
3.636, 5, 17.0798, 15.6301, 24.0951, 34.9017, -29.9012, -26.9556
3.64, 5, 17.0413, 15.6199, 24.1437, 34.7473, -29.9642, -26.8201
3.644, 5, 17.0027, 15.6097, 24.1922, 34.5934, -30.0274, -26.6851
3.648, 5, 16.964, 15.5996, 24.2406, 34.4401, -30.0908, -26.5507
3.652, 5, 16.9253, 15.5897, 24.289, 34.2873, -30.1544, -26.4168
3.656, 5, 16.8865, 15.5798, 24.3372, 34.135, -30.2181, -26.2835
3.66, 5, 16.8477, 15.57, 24.3853, 33.9832, -30.2821, -26.1506
3.664, 5, 16.8089, 15.5603, 24.4334, 33.832, -30.3462, -26.0184
3.668, 5, 16.77, 15.5507, 24.4813, 33.6813, -30.4104, -25.8866
3.672, 5, 16.7311, 15.5412, 24.5292, 33.5312, -30.4749, -25.7554
3.676, 5, 16.6922, 15.5318, 24.577, 33.3815, -30.5395, -25.6247
3.679, 5, 16.6532, 15.5225, 24.6246, 33.2324, -30.6042, -25.4946
3.684, 5, 16.6142, 15.5133, 24.6722, 33.0838, -30.6692, -25.365
3.688, 5, 16.5751, 15.5042, 24.7196, 32.9358, -30.7343, -25.2359
3.692, 5, 16.536, 15.4952, 24.767, 32.7882, -30.7995, -25.1074
3.696, 5, 16.4969, 15.4863, 24.8143, 32.6412, -30.865, -24.9794
3.7, 5, 16.4578, 15.4775, 24.8614, 32.4947, -30.9306, -24.8519
3.704, 5, 16.4186, 15.4687, 24.9085, 32.3487, -30.9963, -24.7249
3.708, 5, 16.3794, 15.4601, 24.9555, 32.2033, -31.0622, -24.5985
3.712, 5, 16.3402, 15.4516, 25.0023, 32.0583, -31.1283, -24.4725
3.716, 5, 16.3009, 15.4432, 25.0491, 31.9139, -31.1945, -24.3471
3.72, 5, 16.2616, 15.4348, 25.0958, 31.7699, -31.2609, -24.2222
3.724, 5, 16.2222, 15.4266, 25.1423, 31.6265, -31.3275, -24.0978
3.728, 5, 16.1828, 15.4185, 25.1888, 31.4835, -31.3942, -23.9739
3.732, 5, 16.1434, 15.4104, 25.2352, 31.3411, -31.4611, -23.8506
3.735, 5, 16.104, 15.4025, 25.2814, 31.1992, -31.5281, -23.7277
3.74, 5, 16.0645, 15.3946, 25.3276, 31.0578, -31.5952, -23.6054
3.744, 5, 16.025, 15.3869, 25.3736, 30.9168, -31.6626, -23.4835
3.748, 5, 15.9855, 15.3792, 25.4196, 30.7764, -31.73, -23.3622
3.752, 5, 15.9459, 15.3717, 25.4655, 30.6364, -31.7976, -23.2413
3.756, 5, 15.9063, 15.3643, 25.5112, 30.497, -31.8654, -23.1209
3.76, 5, 15.8667, 15.3569, 25.5569, 30.358, -31.9333, -23.0011
3.764, 5, 15.827, 15.3497, 25.6024, 30.2195, -32.0014, -22.8817
3.768, 5, 15.7873, 15.3425, 25.6479, 30.0815, -32.0696, -22.7628
3.772, 5, 15.7476, 15.3355, 25.6933, 29.944, -32.138, -22.6444
3.776, 5, 15.7078, 15.3285, 25.7385, 29.807, -32.2065, -22.5265
3.78, 5, 15.668, 15.3216, 25.7837, 29.6704, -32.2752, -22.4091
3.784, 5, 15.6282, 15.3149, 25.8287, 29.5343, -32.344, -22.2922
3.788, 5, 15.5883, 15.3082, 25.8737, 29.3987, -32.4129, -22.1757
3.792, 5, 15.5484, 15.3017, 25.9185, 29.2636, -32.482, -22.0598
3.796, 5, 15.5085, 15.2952, 25.9633, 29.1289, -32.5512, -21.9443
3.8, 5, 15.4686, 15.2889, 26.0079, 28.9947, -32.6206, -21.8292
3.804, 5, 15.4286, 15.2826, 26.0525, 28.861, -32.6901, -21.7147
3.808, 5, 15.3886, 15.2764, 26.0969, 28.7277, -32.7598, -21.6006
3.812, 5, 15.3485, 15.2704, 26.1412, 28.5949, -32.8295, -21.487
3.816, 5, 15.3084, 15.2644, 26.1855, 28.4625, -32.8995, -21.3739
3.82, 5, 15.2683, 15.2585, 26.2296, 28.3307, -32.9695, -21.2612
3.824, 5, 15.2282, 15.2528, 26.2737, 28.1992, -33.0397, -21.149
3.828, 5, 15.188, 15.2471, 26.3176, 28.0682, -33.1101, -21.0373
3.832, 5, 15.1478, 15.2415, 26.3614, 27.9377, -33.1805, -20.926
3.836, 5, 15.1075, 15.2361, 26.4052, 27.8077, -33.2512, -20.8151
3.84, 5, 15.0673, 15.2307, 26.4488, 27.678, -33.3219, -20.7048
3.844, 5, 15.027, 15.2254, 26.4923, 27.5489, -33.3928, -20.5948
3.848, 5, 14.9866, 15.2203, 26.5358, 27.4201, -33.4638, -20.4854
3.852, 5, 14.9463, 15.2152, 26.5791, 27.2919, -33.5349, -20.3764
3.856, 5, 14.9059, 15.2102, 26.6223, 27.164, -33.6062, -20.2678
3.86, 5, 14.8654, 15.2053, 26.6655, 27.0366, -33.6776, -20.1597
3.864, 5, 14.825, 15.2006, 26.7085, 26.9096, -33.7491, -20.052
3.868, 5, 14.7845, 15.1959, 26.7514, 26.7831, -33.8208, -19.9448
3.872, 5, 14.744, 15.1913, 26.7943, 26.657, -33.8925, -19.838
3.876, 5, 14.7034, 15.1868, 26.837, 26.5314, -33.9644, -19.7316
3.88, 5, 14.6629, 15.1824, 26.8796, 26.4061, -34.0365, -19.6257
3.884, 5, 14.6222, 15.1781, 26.9222, 26.2813, -34.1086, -19.5203
3.888, 5, 14.5816, 15.1739, 26.9646, 26.157, -34.1809, -19.4152
3.892, 5, 14.5409, 15.1698, 27.0069, 26.033, -34.2533, -19.3106
3.896, 5, 14.5002, 15.1659, 27.0491, 25.9095, -34.3259, -19.2064
3.9, 5, 14.4595, 15.162, 27.0913, 25.7864, -34.3985, -19.1027
3.904, 5, 14.4187, 15.1582, 27.1333, 25.6637, -34.4713, -18.9994
3.908, 5, 14.3779, 15.1545, 27.1752, 25.5415, -34.5442, -18.8965
3.912, 5, 14.3371, 15.1509, 27.2171, 25.4196, -34.6173, -18.794
3.916, 5, 14.2963, 15.1474, 27.2588, 25.2982, -34.6904, -18.692
3.92, 5, 14.2554, 15.144, 27.3004, 25.1772, -34.7637, -18.5904
3.924, 5, 14.2145, 15.1406, 27.342, 25.0566, -34.8371, -18.4892
3.928, 5, 14.1735, 15.1374, 27.3834, 24.9364, -34.9106, -18.3884
3.932, 5, 14.1325, 15.1343, 27.4247, 24.8167, -34.9842, -18.288
3.936, 5, 14.0915, 15.1313, 27.4659, 24.6973, -35.0579, -18.188
3.94, 5, 14.0505, 15.1284, 27.5071, 24.5783, -35.1318, -18.0885
3.944, 5, 14.0094, 15.1256, 27.5481, 24.4598, -35.2058, -17.9894
3.948, 5, 13.9683, 15.1229, 27.589, 24.3416, -35.2799, -17.8907
3.952, 5, 13.9272, 15.1203, 27.6298, 24.2239, -35.3541, -17.7923
3.956, 5, 13.8861, 15.1178, 27.6706, 24.1065, -35.4284, -17.6944
3.96, 5, 13.8449, 15.1154, 27.7112, 23.9895, -35.5029, -17.5969
3.964, 5, 13.8037, 15.113, 27.7517, 23.8729, -35.5774, -17.4998
3.968, 5, 13.7624, 15.1108, 27.7921, 23.7568, -35.6521, -17.4031
3.972, 5, 13.7211, 15.1087, 27.8324, 23.641, -35.7268, -17.3068
3.976, 5, 13.6798, 15.1067, 27.8726, 23.5256, -35.8017, -17.2108
3.98, 5, 13.6385, 15.1048, 27.9127, 23.4105, -35.8767, -17.1153
3.984, 5, 13.5972, 15.103, 27.9527, 23.2959, -35.9518, -17.0202
3.988, 5, 13.5558, 15.1012, 27.9927, 23.1816, -36.027, -16.9254
3.992, 5, 13.5143, 15.0996, 28.0324, 23.0678, -36.1024, -16.831
3.996, 5, 13.4729, 15.0981, 28.0721, 22.9542, -36.1778, -16.7371
3.999, 5, 13.4314, 15.0967, 28.1117, 22.8411, -36.2533, -16.6435
4.004, 5, 13.3899, 15.0954, 28.1512, 22.7284, -36.329, -16.5502
4.008, 5, 13.3484, 15.0942, 28.1906, 22.616, -36.4047, -16.4574
4.012, 5, 13.3068, 15.0931, 28.2299, 22.504, -36.4806, -16.3649
4.016, 5, 13.2652, 15.0921, 28.2691, 22.3923, -36.5565, -16.2728
4.02, 5, 13.2236, 15.0911, 28.3082, 22.281, -36.6326, -16.1811
4.024, 5, 13.182, 15.0903, 28.3471, 22.1701, -36.7087, -16.0898
4.028, 5, 13.1403, 15.0896, 28.386, 22.0595, -36.785, -15.9988
4.032, 5, 13.0986, 15.089, 28.4248, 21.9493, -36.8614, -15.9082
4.036, 5, 13.0569, 15.0885, 28.4634, 21.8395, -36.9378, -15.8179
4.04, 5, 13.0151, 15.0881, 28.502, 21.73, -37.0144, -15.728
4.044, 5, 12.9733, 15.0878, 28.5404, 21.6209, -37.0911, -15.6385
4.048, 5, 12.9315, 15.0876, 28.5788, 21.5121, -37.1678, -15.5493
4.052, 5, 12.8896, 15.0875, 28.617, 21.4037, -37.2447, -15.4605
4.056, 5, 12.8478, 15.0875, 28.6552, 21.2956, -37.3216, -15.3721
4.06, 5, 12.8059, 15.0876, 28.6932, 21.1879, -37.3987, -15.284
4.064, 5, 12.7639, 15.0878, 28.7311, 21.0805, -37.4759, -15.1962
4.068, 5, 12.722, 15.0881, 28.769, 20.9734, -37.5531, -15.1089
4.072, 5, 12.68, 15.0885, 28.8067, 20.8668, -37.6305, -15.0218
4.076, 5, 12.638, 15.089, 28.8443, 20.7604, -37.7079, -14.9351
4.08, 5, 12.596, 15.0896, 28.8818, 20.6544, -37.7854, -14.8488
4.084, 5, 12.5539, 15.0903, 28.9192, 20.5487, -37.8631, -14.7628
4.088, 5, 12.5118, 15.0911, 28.9565, 20.4434, -37.9408, -14.6771
4.092, 5, 12.4697, 15.092, 28.9937, 20.3384, -38.0186, -14.5918
4.096, 5, 12.4275, 15.093, 29.0308, 20.2337, -38.0965, -14.5069
4.1, 5, 12.3854, 15.0941, 29.0678, 20.1294, -38.1745, -14.4222
4.104, 5, 12.3432, 15.0953, 29.1047, 20.0254, -38.2526, -14.3379
4.108, 5, 12.3009, 15.0967, 29.1415, 19.9217, -38.3308, -14.254
4.112, 5, 12.2587, 15.0981, 29.1782, 19.8184, -38.4091, -14.1704
4.116, 5, 12.2164, 15.0996, 29.2147, 19.7153, -38.4875, -14.0871
4.12, 5, 12.1741, 15.1012, 29.2512, 19.6126, -38.5659, -14.0041
4.124, 5, 12.1318, 15.1029, 29.2876, 19.5103, -38.6445, -13.9215
4.128, 5, 12.0894, 15.1047, 29.3238, 19.4082, -38.7231, -13.8392
4.132, 5, 12.047, 15.1067, 29.36, 19.3065, -38.8018, -13.7573
4.136, 5, 12.0046, 15.1087, 29.396, 19.2051, -38.8806, -13.6756
4.14, 5, 11.9622, 15.1108, 29.432, 19.104, -38.9595, -13.5943
4.144, 5, 11.9197, 15.113, 29.4678, 19.0032, -39.0385, -13.5133
4.148, 5, 11.8772, 15.1153, 29.5035, 18.9027, -39.1176, -13.4327
4.152, 5, 11.8347, 15.1178, 29.5392, 18.8026, -39.1967, -13.3523
4.156, 5, 11.7921, 15.1203, 29.5747, 18.7028, -39.276, -13.2723
4.16, 5, 11.7496, 15.1229, 29.6101, 18.6032, -39.3553, -13.1926
4.164, 5, 11.707, 15.1257, 29.6454, 18.504, -39.4347, -13.1132
4.168, 5, 11.6643, 15.1285, 29.6806, 18.4051, -39.5142, -13.0341
4.172, 5, 11.6217, 15.1314, 29.7157, 18.3065, -39.5938, -12.9554
4.176, 5, 11.579, 15.1345, 29.7507, 18.2083, -39.6734, -12.8769
4.18, 5, 11.5363, 15.1376, 29.7856, 18.1103, -39.7532, -12.7988
4.184, 5, 11.4936, 15.1408, 29.8204, 18.0126, -39.833, -12.721
4.188, 5, 11.4508, 15.1442, 29.855, 17.9152, -39.9129, -12.6434
4.192, 5, 11.4081, 15.1476, 29.8896, 17.8181, -39.9929, -12.5662
4.196, 5, 11.3653, 15.1511, 29.9241, 17.7214, -40.073, -12.4893
4.2, 5, 11.3224, 15.1548, 29.9584, 17.6249, -40.1532, -12.4128
4.204, 5, 11.2796, 15.1585, 29.9927, 17.5287, -40.2334, -12.3365
4.208, 5, 11.2367, 15.1624, 30.0268, 17.4328, -40.3137, -12.2605
4.212, 5, 11.1938, 15.1663, 30.0609, 17.3372, -40.3941, -12.1848
4.216, 5, 11.1509, 15.1704, 30.0948, 17.2419, -40.4746, -12.1094
4.22, 5, 11.1079, 15.1745, 30.1287, 17.1469, -40.5551, -12.0344
4.224, 5, 11.0649, 15.1788, 30.1624, 17.0522, -40.6357, -11.9596
4.228, 5, 11.0219, 15.1831, 30.196, 16.9578, -40.7165, -11.8851
4.232, 5, 10.9789, 15.1876, 30.2295, 16.8637, -40.7972, -11.8109
4.236, 5, 10.9358, 15.1921, 30.263, 16.7698, -40.8781, -11.737
4.24, 5, 10.8927, 15.1968, 30.2963, 16.6763, -40.959, -11.6634
4.244, 5, 10.8496, 15.2015, 30.3295, 16.583, -41.0401, -11.5901
4.248, 5, 10.8065, 15.2064, 30.3626, 16.49, -41.1212, -11.5171
4.252, 5, 10.7634, 15.2113, 30.3956, 16.3973, -41.2023, -11.4444
4.256, 5, 10.7202, 15.2164, 30.4284, 16.3049, -41.2836, -11.372
4.26, 5, 10.677, 15.2216, 30.4612, 16.2128, -41.3649, -11.2999
4.264, 5, 10.6337, 15.2268, 30.4939, 16.1209, -41.4463, -11.228
4.268, 5, 10.5905, 15.2322, 30.5264, 16.0293, -41.5278, -11.1564
4.272, 5, 10.5472, 15.2377, 30.5589, 15.938, -41.6093, -11.0851
4.276, 5, 10.5039, 15.2432, 30.5912, 15.847, -41.6909, -11.0141
4.28, 5, 10.4606, 15.2489, 30.6235, 15.7563, -41.7726, -10.9434
4.284, 5, 10.4172, 15.2547, 30.6556, 15.6658, -41.8544, -10.873
4.288, 5, 10.3738, 15.2605, 30.6877, 15.5756, -41.9362, -10.8028
4.292, 5, 10.3305, 15.2665, 30.7196, 15.4856, -42.0181, -10.7329
4.296, 5, 10.287, 15.2726, 30.7514, 15.3959, -42.1001, -10.6633
4.3, 5, 10.2436, 15.2788, 30.7831, 15.3065, -42.1822, -10.594
4.304, 5, 10.2001, 15.2851, 30.8147, 15.2174, -42.2643, -10.5249
4.308, 5, 10.1566, 15.2915, 30.8462, 15.1285, -42.3464, -10.4561
4.312, 5, 10.1131, 15.2979, 30.8776, 15.0399, -42.4287, -10.3876
4.316, 5, 10.0696, 15.3045, 30.9088, 14.9515, -42.511, -10.3193
4.32, 5, 10.026, 15.3112, 30.94, 14.8634, -42.5934, -10.2513
4.324, 5, 9.98242, 15.318, 30.9711, 14.7756, -42.6759, -10.1836
4.328, 5, 9.93881, 15.3249, 31.002, 14.688, -42.7584, -10.1161
4.332, 5, 9.89518, 15.3319, 31.0329, 14.6006, -42.841, -10.0489
4.336, 5, 9.85152, 15.339, 31.0636, 14.5135, -42.9236, -9.98196
4.34, 5, 9.80785, 15.3462, 31.0942, 14.4267, -43.0063, -9.91527
4.344, 5, 9.76415, 15.3535, 31.1248, 14.3401, -43.0891, -9.84884
4.348, 5, 9.72043, 15.3609, 31.1552, 14.2538, -43.1719, -9.78267
4.352, 5, 9.67669, 15.3684, 31.1855, 14.1677, -43.2548, -9.71675
4.356, 5, 9.63292, 15.376, 31.2157, 14.0819, -43.3378, -9.65108
4.36, 5, 9.58914, 15.3837, 31.2458, 13.9963, -43.4208, -9.58567
4.364, 5, 9.54533, 15.3915, 31.2757, 13.9109, -43.5039, -9.5205
4.368, 5, 9.5015, 15.3994, 31.3056, 13.8258, -43.5871, -9.45559
4.372, 5, 9.45765, 15.4074, 31.3354, 13.7409, -43.6703, -9.39092
4.376, 5, 9.41378, 15.4155, 31.365, 13.6563, -43.7536, -9.3265
4.38, 5, 9.36989, 15.4237, 31.3946, 13.5719, -43.8369, -9.26233
4.384, 5, 9.32597, 15.4321, 31.424, 13.4878, -43.9203, -9.19841
4.388, 5, 9.28204, 15.4405, 31.4534, 13.4039, -44.0037, -9.13472
4.392, 5, 9.23808, 15.449, 31.4826, 13.3202, -44.0872, -9.07128
4.396, 5, 9.1941, 15.4576, 31.5117, 13.2367, -44.1708, -9.00808
4.4, 5, 9.1501, 15.4663, 31.5407, 13.1535, -44.2544, -8.94512
4.404, 5, 9.10609, 15.4751, 31.5696, 13.0705, -44.3381, -8.8824
4.408, 5, 9.06205, 15.484, 31.5984, 12.9878, -44.4219, -8.81992
4.412, 5, 9.01799, 15.493, 31.6271, 12.9053, -44.5057, -8.75767
4.416, 5, 8.97391, 15.5022, 31.6556, 12.823, -44.5895, -8.69566
4.42, 5, 8.92981, 15.5114, 31.6841, 12.7409, -44.6734, -8.63389
4.424, 5, 8.88569, 15.5207, 31.7125, 12.6591, -44.7574, -8.57235
4.428, 5, 8.84155, 15.5301, 31.7407, 12.5775, -44.8414, -8.51104
4.432, 5, 8.79739, 15.5396, 31.7688, 12.4961, -44.9255, -8.44996
4.436, 5, 8.75321, 15.5492, 31.7969, 12.4149, -45.0096, -8.38911
4.44, 5, 8.70901, 15.559, 31.8248, 12.334, -45.0938, -8.32849
4.444, 5, 8.66479, 15.5688, 31.8526, 12.2533, -45.178, -8.2681
4.448, 5, 8.62055, 15.5787, 31.8803, 12.1728, -45.2623, -8.20794
4.452, 5, 8.57629, 15.5887, 31.9079, 12.0925, -45.3466, -8.14801
4.456, 5, 8.53202, 15.5988, 31.9354, 12.0124, -45.431, -8.0883
4.46, 5, 8.48772, 15.6091, 31.9627, 11.9326, -45.5155, -8.02881
4.464, 5, 8.4434, 15.6194, 31.99, 11.8529, -45.5999, -7.96955
4.468, 5, 8.39907, 15.6298, 32.0171, 11.7735, -45.6845, -7.91051
4.472, 5, 8.35471, 15.6403, 32.0442, 11.6943, -45.7691, -7.85169
4.476, 5, 8.31034, 15.6509, 32.0711, 11.6153, -45.8537, -7.79309
4.48, 5, 8.26595, 15.6617, 32.0979, 11.5366, -45.9384, -7.73471
4.484, 5, 8.22154, 15.6725, 32.1246, 11.458, -46.0232, -7.67655
4.488, 5, 8.17711, 15.6834, 32.1512, 11.3797, -46.108, -7.61861
4.492, 5, 8.13266, 15.6944, 32.1777, 11.3015, -46.1928, -7.56088
4.496, 5, 8.08819, 15.7055, 32.2041, 11.2236, -46.2777, -7.50338
4.5, 5, 8.04371, 15.7168, 32.2304, 11.1459, -46.3626, -7.44608
4.504, 5, 7.99921, 15.7281, 32.2566, 11.0683, -46.4476, -7.389
4.508, 5, 7.95469, 15.7395, 32.2826, 10.991, -46.5327, -7.33214
4.512, 5, 7.91015, 15.751, 32.3085, 10.9139, -46.6177, -7.27548
4.516, 5, 7.86559, 15.7627, 32.3344, 10.837, -46.7029, -7.21904
4.52, 5, 7.82101, 15.7744, 32.3601, 10.7603, -46.788, -7.16281
4.524, 5, 7.77642, 15.7862, 32.3857, 10.6838, -46.8733, -7.10679
4.528, 5, 7.73181, 15.7981, 32.4112, 10.6075, -46.9585, -7.05097
4.532, 5, 7.68718, 15.8101, 32.4366, 10.5315, -47.0438, -6.99537
4.536, 5, 7.64253, 15.8223, 32.4619, 10.4556, -47.1292, -6.93997
4.54, 5, 7.59787, 15.8345, 32.487, 10.3799, -47.2146, -6.88478
4.544, 5, 7.55319, 15.8468, 32.5121, 10.3044, -47.3001, -6.8298
4.548, 5, 7.50849, 15.8592, 32.537, 10.2291, -47.3855, -6.77502
4.552, 5, 7.46377, 15.8718, 32.5619, 10.154, -47.4711, -6.72045
4.556, 5, 7.41903, 15.8844, 32.5866, 10.0791, -47.5567, -6.66608
4.56, 5, 7.37428, 15.8971, 32.6112, 10.0044, -47.6423, -6.61191
4.564, 5, 7.32951, 15.9099, 32.6357, 9.9299, -47.728, -6.55794
4.568, 5, 7.28473, 15.9228, 32.6601, 9.85558, -47.8137, -6.50418
4.572, 5, 7.23992, 15.9359, 32.6844, 9.78146, -47.8994, -6.45062
4.576, 5, 7.1951, 15.949, 32.7085, 9.70754, -47.9852, -6.39725
4.58, 5, 7.15027, 15.9622, 32.7326, 9.6338, -48.0711, -6.34409
4.584, 5, 7.10541, 15.9755, 32.7565, 9.56026, -48.1569, -6.29112
4.588, 5, 7.06054, 15.989, 32.7804, 9.48691, -48.2428, -6.23835
4.592, 5, 7.01565, 16.0025, 32.8041, 9.41375, -48.3288, -6.18578
4.596, 5, 6.97075, 16.0161, 32.8277, 9.34078, -48.4148, -6.13341
4.6, 5, 6.92583, 16.0298, 32.8512, 9.26799, -48.5009, -6.08123
4.604, 5, 6.88089, 16.0437, 32.8746, 9.1954, -48.5869, -6.02924
4.608, 5, 6.83594, 16.0576, 32.8978, 9.12299, -48.6731, -5.97745
4.612, 5, 6.79097, 16.0716, 32.921, 9.05077, -48.7592, -5.92585
4.616, 5, 6.74598, 16.0857, 32.944, 8.97873, -48.8454, -5.87445
4.62, 5, 6.70098, 16.1, 32.967, 8.90688, -48.9317, -5.82324
4.624, 5, 6.65596, 16.1143, 32.9898, 8.83521, -49.018, -5.77222
4.628, 5, 6.61093, 16.1287, 33.0125, 8.76373, -49.1043, -5.72139
4.632, 5, 6.56588, 16.1432, 33.0351, 8.69243, -49.1906, -5.67075
4.636, 5, 6.52081, 16.1579, 33.0576, 8.62131, -49.277, -5.62029
4.64, 5, 6.47573, 16.1726, 33.08, 8.55037, -49.3635, -5.57003
4.644, 5, 6.43063, 16.1874, 33.1022, 8.47962, -49.45, -5.51995
4.648, 5, 6.38552, 16.2023, 33.1244, 8.40904, -49.5365, -5.47006
4.652, 5, 6.3404, 16.2174, 33.1464, 8.33864, -49.623, -5.42036
4.656, 5, 6.29525, 16.2325, 33.1683, 8.26842, -49.7096, -5.37083
4.66, 5, 6.2501, 16.2477, 33.1901, 8.19837, -49.7962, -5.3215
4.664, 5, 6.20493, 16.263, 33.2118, 8.1285, -49.8829, -5.27234
4.668, 5, 6.15974, 16.2784, 33.2334, 8.0588, -49.9695, -5.22336
4.672, 5, 6.11454, 16.294, 33.2549, 7.98928, -50.0563, -5.17457
4.676, 5, 6.06932, 16.3096, 33.2762, 7.91993, -50.143, -5.12595
4.68, 5, 6.02409, 16.3253, 33.2975, 7.85075, -50.2298, -5.07751
4.684, 5, 5.97885, 16.3411, 33.3186, 7.78174, -50.3166, -5.02925
4.688, 5, 5.93359, 16.357, 33.3396, 7.7129, -50.4035, -4.98117
4.692, 5, 5.88832, 16.373, 33.3605, 7.64423, -50.4904, -4.93326
4.696, 5, 5.84303, 16.3892, 33.3813, 7.57573, -50.5773, -4.88552
4.7, 5, 5.79773, 16.4054, 33.402, 7.50739, -50.6642, -4.83797
4.704, 5, 5.75242, 16.4217, 33.4226, 7.43922, -50.7512, -4.79058
4.708, 5, 5.70709, 16.4381, 33.443, 7.37122, -50.8382, -4.74336
4.712, 5, 5.66175, 16.4546, 33.4634, 7.30339, -50.9253, -4.69632
4.716, 5, 5.61639, 16.4712, 33.4836, 7.23572, -51.0123, -4.64945
4.72, 5, 5.57103, 16.4879, 33.5037, 7.16821, -51.0994, -4.60275
4.724, 5, 5.52565, 16.5047, 33.5237, 7.10086, -51.1866, -4.55622
4.728, 5, 5.48025, 16.5216, 33.5436, 7.03368, -51.2737, -4.50985
4.732, 5, 5.43485, 16.5386, 33.5633, 6.96666, -51.3609, -4.46366
4.736, 5, 5.38943, 16.5557, 33.583, 6.8998, -51.4481, -4.41763
4.74, 5, 5.344, 16.5729, 33.6025, 6.8331, -51.5354, -4.37177
4.744, 5, 5.29856, 16.5902, 33.622, 6.76656, -51.6226, -4.32607
4.748, 5, 5.2531, 16.6075, 33.6413, 6.70017, -51.7099, -4.28054
4.752, 5, 5.20763, 16.625, 33.6605, 6.63395, -51.7972, -4.23517
4.756, 5, 5.16215, 16.6426, 33.6796, 6.56788, -51.8846, -4.18997
4.76, 5, 5.11666, 16.6603, 33.6986, 6.50197, -51.972, -4.14493
4.764, 5, 5.07116, 16.678, 33.7174, 6.43622, -52.0594, -4.10005
4.768, 5, 5.02565, 16.6959, 33.7362, 6.37062, -52.1468, -4.05533
4.772, 5, 4.98012, 16.7139, 33.7548, 6.30517, -52.2342, -4.01077
4.776, 5, 4.93458, 16.7319, 33.7733, 6.23988, -52.3217, -3.96637
4.78, 5, 4.88903, 16.7501, 33.7917, 6.17474, -52.4092, -3.92214
4.784, 5, 4.84347, 16.7683, 33.81, 6.10976, -52.4967, -3.87806
4.788, 5, 4.7979, 16.7867, 33.8282, 6.04493, -52.5843, -3.83413
4.792, 5, 4.75232, 16.8051, 33.8463, 5.98024, -52.6718, -3.79037
4.796, 5, 4.70672, 16.8237, 33.8642, 5.91571, -52.7594, -3.74676
4.8, 5, 4.66112, 16.8423, 33.882, 5.85133, -52.8471, -3.70331
4.804, 5, 4.61551, 16.861, 33.8998, 5.7871, -52.9347, -3.66001
4.808, 5, 4.56988, 16.8799, 33.9174, 5.72302, -53.0223, -3.61687
4.812, 5, 4.52424, 16.8988, 33.9349, 5.65908, -53.11, -3.57388
4.816, 5, 4.4786, 16.9178, 33.9522, 5.5953, -53.1977, -3.53105
4.82, 5, 4.43294, 16.9369, 33.9695, 5.53166, -53.2855, -3.48837
4.824, 5, 4.38727, 16.9562, 33.9866, 5.46816, -53.3732, -3.44584
4.828, 5, 4.3416, 16.9755, 34.0037, 5.40481, -53.461, -3.40346
4.832, 5, 4.29591, 16.9949, 34.0206, 5.34161, -53.5487, -3.36123
4.836, 5, 4.25021, 17.0144, 34.0374, 5.27855, -53.6365, -3.31916
4.84, 5, 4.20451, 17.034, 34.0541, 5.21564, -53.7244, -3.27723
4.844, 5, 4.15879, 17.0536, 34.0706, 5.15286, -53.8122, -3.23545
4.848, 5, 4.11306, 17.0734, 34.0871, 5.09024, -53.9001, -3.19382
4.852, 5, 4.06733, 17.0933, 34.1035, 5.02775, -53.988, -3.15234
4.856, 5, 4.02158, 17.1133, 34.1197, 4.96541, -54.0759, -3.11101
4.86, 5, 3.97583, 17.1334, 34.1358, 4.9032, -54.1638, -3.06982
4.864, 5, 3.93007, 17.1535, 34.1518, 4.84114, -54.2517, -3.02878
4.868, 5, 3.8843, 17.1738, 34.1677, 4.77922, -54.3397, -2.98788
4.872, 5, 3.83851, 17.1941, 34.1834, 4.71743, -54.4276, -2.94713
4.876, 5, 3.79272, 17.2146, 34.1991, 4.65579, -54.5156, -2.90652
4.88, 5, 3.74693, 17.2351, 34.2146, 4.59428, -54.6036, -2.86606
4.884, 5, 3.70112, 17.2558, 34.23, 4.53292, -54.6916, -2.82574
4.888, 5, 3.6553, 17.2765, 34.2453, 4.47168, -54.7797, -2.78557
4.892, 5, 3.60948, 17.2973, 34.2605, 4.41059, -54.8677, -2.74553
4.896, 5, 3.56365, 17.3183, 34.2756, 4.34963, -54.9558, -2.70564
4.9, 5, 3.51781, 17.3393, 34.2906, 4.28881, -55.0438, -2.66589
4.904, 5, 3.47196, 17.3604, 34.3054, 4.22812, -55.1319, -2.62627
4.908, 5, 3.4261, 17.3816, 34.3201, 4.16757, -55.2201, -2.5868
4.912, 5, 3.38024, 17.4029, 34.3347, 4.10715, -55.3082, -2.54747
4.916, 5, 3.33436, 17.4243, 34.3492, 4.04686, -55.3963, -2.50827
4.92, 5, 3.28849, 17.4458, 34.3636, 3.98671, -55.4845, -2.46922
4.924, 5, 3.2426, 17.4674, 34.3778, 3.92668, -55.5726, -2.4303
4.928, 5, 3.1967, 17.4891, 34.392, 3.86679, -55.6608, -2.39151
4.932, 5, 3.1508, 17.5108, 34.406, 3.80703, -55.749, -2.35287
4.936, 5, 3.10489, 17.5327, 34.4199, 3.7474, -55.8372, -2.31436
4.94, 5, 3.05898, 17.5547, 34.4337, 3.68791, -55.9254, -2.27598
4.944, 5, 3.01306, 17.5767, 34.4474, 3.62853, -56.0136, -2.23774
4.948, 5, 2.96713, 17.5988, 34.461, 3.56929, -56.1018, -2.19963
4.952, 5, 2.92119, 17.6211, 34.4744, 3.51018, -56.1901, -2.16165
4.956, 5, 2.87525, 17.6434, 34.4877, 3.45119, -56.2783, -2.12381
4.96, 5, 2.8293, 17.6658, 34.5009, 3.39234, -56.3666, -2.0861
4.964, 5, 2.78334, 17.6883, 34.514, 3.3336, -56.4549, -2.04852
4.968, 5, 2.73738, 17.7109, 34.527, 3.275, -56.5431, -2.01107
4.972, 5, 2.69141, 17.7336, 34.5399, 3.21652, -56.6314, -1.97375
4.976, 5, 2.64544, 17.7564, 34.5526, 3.15816, -56.7197, -1.93656
4.98, 5, 2.59946, 17.7793, 34.5653, 3.09993, -56.808, -1.8995
4.984, 5, 2.55348, 17.8023, 34.5778, 3.04183, -56.8964, -1.86257
4.988, 5, 2.50749, 17.8254, 34.5902, 2.98384, -56.9847, -1.82576
4.992, 5, 2.46149, 17.8485, 34.6025, 2.92598, -57.073, -1.78909
4.996, 5, 2.41549, 17.8718, 34.6146, 2.86825, -57.1613, -1.75254
5, 5, 2.36949, 17.8951, 34.6267, 2.81063, -57.2497, -1.71611
5.004, 5, 2.32347, 17.9185, 34.6386, 2.75314, -57.338, -1.67981
5.008, 5, 2.27746, 17.942, 34.6504, 2.69577, -57.4264, -1.64364
5.012, 5, 2.23144, 17.9657, 34.6621, 2.63851, -57.5147, -1.60759
5.016, 5, 2.18541, 17.9894, 34.6737, 2.58138, -57.6031, -1.57167
5.02, 5, 2.13938, 18.0131, 34.6852, 2.52437, -57.6915, -1.53587
5.024, 5, 2.09335, 18.037, 34.6965, 2.46748, -57.7799, -1.5002
5.028, 5, 2.04731, 18.061, 34.7077, 2.4107, -57.8682, -1.46464
5.032, 5, 2.00127, 18.0851, 34.7188, 2.35405, -57.9566, -1.42921
5.036, 5, 1.95522, 18.1092, 34.7298, 2.29751, -58.045, -1.3939
5.04, 5, 1.90917, 18.1335, 34.7407, 2.24109, -58.1334, -1.35871
5.044, 5, 1.86311, 18.1578, 34.7515, 2.18478, -58.2218, -1.32364
5.048, 5, 1.81705, 18.1822, 34.7621, 2.1286, -58.3102, -1.2887
5.052, 5, 1.77099, 18.2067, 34.7727, 2.07253, -58.3986, -1.25387
5.056, 5, 1.72493, 18.2313, 34.7831, 2.01657, -58.487, -1.21916
5.06, 5, 1.67886, 18.256, 34.7934, 1.96073, -58.5754, -1.18457
5.064, 5, 1.63279, 18.2808, 34.8035, 1.905, -58.6638, -1.15009
5.068, 5, 1.58671, 18.3057, 34.8136, 1.84939, -58.7522, -1.11574
5.072, 5, 1.54063, 18.3306, 34.8236, 1.79389, -58.8406, -1.0815
5.076, 5, 1.49455, 18.3557, 34.8334, 1.7385, -58.929, -1.04738
5.08, 5, 1.44847, 18.3808, 34.8431, 1.68323, -59.0174, -1.01337
5.084, 5, 1.40238, 18.406, 34.8527, 1.62807, -59.1058, -0.979485
5.088, 5, 1.35629, 18.4313, 34.8621, 1.57302, -59.1942, -0.945711
5.092, 5, 1.3102, 18.4567, 34.8715, 1.51809, -59.2826, -0.912052
5.096, 5, 1.2641, 18.4822, 34.8807, 1.46326, -59.371, -0.878507
5.1, 5, 1.218, 18.5078, 34.8899, 1.40855, -59.4594, -0.845075
5.104, 5, 1.1719, 18.5335, 34.8989, 1.35394, -59.5478, -0.811757
5.108, 5, 1.1258, 18.5592, 34.9078, 1.29945, -59.6362, -0.778552
5.112, 5, 1.0797, 18.585, 34.9165, 1.24506, -59.7246, -0.74546
5.116, 5, 1.03359, 18.611, 34.9252, 1.19078, -59.813, -0.712482
5.12, 5, 0.987483, 18.637, 34.9337, 1.13661, -59.9014, -0.679623
5.124, 5, 0.941369, 18.663, 34.9421, 1.08255, -59.9898, -0.646893
5.128, 5, 0.89525, 18.6891, 34.9504, 1.02858, -60.0781, -0.614308
5.132, 5, 0.849125, 18.7153, 34.9586, 0.974713, -60.1664, -0.581895
5.136, 5, 0.802995, 18.7415, 34.9666, 0.920934, -60.2547, -0.549693
5.14, 5, 0.756858, 18.7678, 34.9745, 0.867234, -60.3429, -0.517748
5.144, 5, 0.710715, 18.7941, 34.9823, 0.813603, -60.431, -0.486119
5.148, 5, 0.664566, 18.8204, 34.99, 0.760028, -60.519, -0.454871
5.152, 5, 0.618411, 18.8468, 34.9975, 0.706498, -60.6068, -0.424074
5.156, 5, 0.57225, 18.8732, 35.0049, 0.652997, -60.6944, -0.393804
5.16, 5, 0.526082, 18.8996, 35.0122, 0.599512, -60.7818, -0.364137
5.164, 5, 0.479907, 18.926, 35.0194, 0.546027, -60.8688, -0.33515
5.168, 5, 0.433723, 18.9524, 35.0264, 0.49253, -60.9556, -0.30692
5.172, 5, 0.387529, 18.9787, 35.0332, 0.439005, -61.042, -0.279517
5.176, 5, 0.341326, 19.0051, 35.0399, 0.385442, -61.1281, -0.253004
5.18, 6, 0.295113, 19.0315, 35.0465, 0.331827, -61.2137, -0.227437
5.184, 6, 0.24889, 19.0578, 35.0529, 0.278152, -61.299, -0.202859
5.188, 6, 0.202657, 19.0841, 35.0592, 0.224409, -61.3837, -0.179304
5.192, 6, 0.156411, 19.1104, 35.0654, 0.170591, -61.4681, -0.156796
5.196, 6, 0.110152, 19.1366, 35.0714, 0.116694, -61.5519, -0.135351
5.2, 6, 0.0638765, 19.1627, 35.0772, 0.0627119, -61.6353, -0.11498
5.204, 6, 0.0175832, 19.1888, 35.083, 0.00864202, -61.7182, -0.0956904
5.208, 6, -0.0287278, 19.2149, 35.0885, -0.0455195, -61.8007, -0.077485
5.212, 6, -0.0750555, 19.2408, 35.094, -0.0997761, -61.8826, -0.0603658
5.216, 6, -0.121399, 19.2667, 35.0993, -0.154131, -61.9641, -0.0443314
5.22, 6, -0.167758, 19.2926, 35.1044, -0.208585, -62.0451, -0.0293761
5.224, 6, -0.21413, 19.3184, 35.1094, -0.263141, -62.1257, -0.0154879
5.228, 6, -0.260516, 19.3441, 35.1143, -0.317797, -62.2058, -0.00264641
5.232, 6, -0.306915, 19.3698, 35.119, -0.372551, -62.2854, 0.00917881
5.236, 6, -0.353328, 19.3955, 35.1236, -0.427399, -62.3646, 0.0200289
5.24, 6, -0.399756, 19.4212, 35.1281, -0.482335, -62.4434, 0.0299554
5.244, 6, -0.446197, 19.4468, 35.1324, -0.537349, -62.5218, 0.0390191
5.248, 6, -0.492651, 19.4724, 35.1367, -0.592432, -62.5998, 0.047288
5.252, 6, -0.539116, 19.498, 35.1407, -0.647574, -62.6776, 0.0548353
5.256, 6, -0.585594, 19.5236, 35.1447, -0.702761, -62.7551, 0.0617376
5.26, 6, -0.632083, 19.5491, 35.1486, -0.757982, -62.8323, 0.0680733
5.264, 6, -0.678584, 19.5747, 35.1523, -0.813224, -62.9094, 0.0739207
5.268, 6, -0.725097, 19.6003, 35.1559, -0.868474, -62.9862, 0.0793556
5.272, 6, -0.771622, 19.6259, 35.1594, -0.923721, -63.063, 0.0844488
5.276, 6, -0.81816, 19.6516, 35.1628, -0.978952, -63.1396, 0.0892633
5.28, 6, -0.86471, 19.6772, 35.166, -1.03416, -63.2161, 0.0938527
5.284, 6, -0.911272, 19.7029, 35.1692, -1.08933, -63.2926, 0.0982602
5.288, 6, -0.957844, 19.7287, 35.1722, -1.14447, -63.3691, 0.102519
5.292, 6, -1.00442, 19.7544, 35.1752, -1.19957, -63.4455, 0.106651
5.296, 6, -1.05101, 19.7803, 35.178, -1.25462, -63.5219, 0.110676
5.3, 6, -1.09761, 19.8062, 35.1807, -1.30962, -63.5983, 0.114602
5.304, 6, -1.14422, 19.8321, 35.1834, -1.36458, -63.6746, 0.11844
5.308, 6, -1.19083, 19.8582, 35.1859, -1.41948, -63.751, 0.122192
5.312, 6, -1.23745, 19.8842, 35.1883, -1.47434, -63.8273, 0.125865
5.316, 6, -1.28408, 19.9104, 35.1906, -1.52915, -63.9036, 0.129459
5.32, 6, -1.33071, 19.9366, 35.1928, -1.58391, -63.9799, 0.132977
5.324, 6, -1.37735, 19.9629, 35.1949, -1.63862, -64.0562, 0.13642
5.328, 6, -1.424, 19.9893, 35.1968, -1.69328, -64.1325, 0.139789
5.332, 6, -1.47065, 20.0158, 35.1987, -1.74789, -64.2088, 0.143085
5.336, 6, -1.51731, 20.0423, 35.2005, -1.80246, -64.285, 0.146308
5.34, 6, -1.56398, 20.0689, 35.2022, -1.85697, -64.3613, 0.149459
5.344, 6, -1.61065, 20.0955, 35.2037, -1.91143, -64.4375, 0.152538
5.348, 6, -1.65733, 20.1222, 35.2052, -1.96585, -64.5137, 0.155545
5.352, 6, -1.70401, 20.149, 35.2065, -2.02021, -64.5899, 0.158481
5.356, 6, -1.7507, 20.1759, 35.2078, -2.07453, -64.6661, 0.161346
5.36, 6, -1.7974, 20.2028, 35.2089, -2.1288, -64.7423, 0.16414
5.364, 6, -1.8441, 20.2299, 35.2099, -2.18302, -64.8185, 0.166863
5.368, 6, -1.8908, 20.2569, 35.2108, -2.23719, -64.8947, 0.169516
5.372, 6, -1.93751, 20.2841, 35.2116, -2.29132, -64.9708, 0.172099
5.376, 6, -1.98423, 20.3113, 35.2123, -2.34539, -65.047, 0.174612
5.38, 6, -2.03095, 20.3386, 35.2129, -2.39942, -65.1231, 0.177055
5.384, 6, -2.07768, 20.3659, 35.2134, -2.4534, -65.1992, 0.179429
5.388, 6, -2.12441, 20.3934, 35.2138, -2.50734, -65.2753, 0.181733
5.392, 6, -2.17114, 20.4209, 35.2141, -2.56122, -65.3514, 0.183968
5.396, 6, -2.21788, 20.4484, 35.2143, -2.61506, -65.4275, 0.186134
5.4, 6, -2.26463, 20.4761, 35.2144, -2.66885, -65.5035, 0.188232
5.404, 6, -2.31137, 20.5038, 35.2143, -2.7226, -65.5796, 0.190261
5.408, 6, -2.35813, 20.5315, 35.2142, -2.77629, -65.6556, 0.192222
5.412, 6, -2.40489, 20.5594, 35.2139, -2.82995, -65.7316, 0.194115
5.416, 6, -2.45165, 20.5873, 35.2136, -2.88355, -65.8076, 0.19594
5.42, 6, -2.49841, 20.6153, 35.2131, -2.93711, -65.8836, 0.197697
5.424, 6, -2.54518, 20.6433, 35.2125, -2.99062, -65.9595, 0.199387
5.428, 6, -2.59195, 20.6714, 35.2118, -3.04409, -66.0355, 0.20101
5.432, 6, -2.63873, 20.6996, 35.2111, -3.0975, -66.1114, 0.202565
5.436, 6, -2.68551, 20.7278, 35.2102, -3.15088, -66.1873, 0.204054
5.44, 6, -2.73229, 20.7562, 35.2092, -3.20421, -66.2632, 0.205476
5.444, 6, -2.77908, 20.7845, 35.208, -3.25749, -66.3391, 0.206832
5.448, 6, -2.82587, 20.813, 35.2068, -3.31073, -66.4149, 0.208121
5.452, 6, -2.87266, 20.8415, 35.2055, -3.36392, -66.4908, 0.209345
5.456, 6, -2.91945, 20.8701, 35.2041, -3.41707, -66.5666, 0.210502
5.46, 6, -2.96625, 20.8988, 35.2025, -3.47017, -66.6424, 0.211594
5.464, 6, -3.01305, 20.9275, 35.2009, -3.52323, -66.7182, 0.212621
5.468, 6, -3.05985, 20.9563, 35.1992, -3.57624, -66.794, 0.213582
5.472, 6, -3.10666, 20.9851, 35.1973, -3.62921, -66.8697, 0.214479
5.476, 6, -3.15347, 21.014, 35.1953, -3.68213, -66.9454, 0.21531
5.48, 6, -3.20028, 21.043, 35.1933, -3.73501, -67.0211, 0.216077
5.484, 6, -3.24709, 21.0721, 35.1911, -3.78785, -67.0968, 0.21678
5.488, 6, -3.29391, 21.1012, 35.1888, -3.84064, -67.1725, 0.217418
5.492, 6, -3.34072, 21.1304, 35.1864, -3.89339, -67.2482, 0.217992
5.496, 6, -3.38754, 21.1596, 35.1839, -3.94609, -67.3238, 0.218503
5.5, 6, -3.43436, 21.1889, 35.1813, -3.99875, -67.3994, 0.21895
5.504, 6, -3.48118, 21.2183, 35.1786, -4.05137, -67.475, 0.219334
5.508, 6, -3.528, 21.2478, 35.1758, -4.10394, -67.5506, 0.219654
5.512, 6, -3.57483, 21.2773, 35.1728, -4.15647, -67.6261, 0.219911
5.516, 6, -3.62165, 21.3069, 35.1698, -4.20896, -67.7017, 0.220106
5.52, 6, -3.66848, 21.3365, 35.1666, -4.26141, -67.7772, 0.220238
5.524, 6, -3.71531, 21.3662, 35.1634, -4.31381, -67.8526, 0.220308
5.528, 6, -3.76214, 21.396, 35.16, -4.36617, -67.9281, 0.220315
5.532, 6, -3.80897, 21.4258, 35.1565, -4.41849, -68.0035, 0.22026
5.536, 6, -3.8558, 21.4557, 35.153, -4.47076, -68.079, 0.220144
5.54, 6, -3.90263, 21.4857, 35.1493, -4.52299, -68.1544, 0.219966
5.544, 6, -3.94946, 21.5157, 35.1455, -4.57519, -68.2297, 0.219727
5.548, 6, -3.99629, 21.5458, 35.1416, -4.62734, -68.3051, 0.219426
5.552, 6, -4.04312, 21.576, 35.1376, -4.67944, -68.3804, 0.219064
5.556, 6, -4.08995, 21.6062, 35.1335, -4.73151, -68.4557, 0.218642
5.56, 6, -4.13678, 21.6365, 35.1292, -4.78353, -68.531, 0.218159
5.564, 6, -4.18362, 21.6669, 35.1249, -4.83552, -68.6062, 0.217615
5.568, 6, -4.23045, 21.6973, 35.1205, -4.88746, -68.6815, 0.217012
5.572, 6, -4.27728, 21.7278, 35.1159, -4.93936, -68.7567, 0.216348
5.576, 6, -4.32411, 21.7583, 35.1113, -4.99122, -68.8318, 0.215624
5.58, 6, -4.37094, 21.7889, 35.1065, -5.04304, -68.907, 0.214841
5.584, 6, -4.41777, 21.8196, 35.1016, -5.09482, -68.9821, 0.213999
5.588, 6, -4.4646, 21.8503, 35.0966, -5.14656, -69.0572, 0.213097
5.592, 6, -4.51143, 21.8811, 35.0915, -5.19825, -69.1323, 0.212136
5.596, 6, -4.55826, 21.912, 35.0863, -5.24991, -69.2074, 0.211116
5.6, 6, -4.60508, 21.9429, 35.081, -5.30153, -69.2824, 0.210038
5.604, 6, -4.65191, 21.9739, 35.0756, -5.35311, -69.3574, 0.208901
5.608, 6, -4.69873, 22.0049, 35.0701, -5.40465, -69.4324, 0.207706
5.612, 6, -4.74556, 22.0361, 35.0645, -5.45614, -69.5073, 0.206453
5.616, 6, -4.79238, 22.0672, 35.0587, -5.5076, -69.5822, 0.205142
5.62, 6, -4.8392, 22.0985, 35.0529, -5.55902, -69.6571, 0.203773
5.624, 6, -4.88602, 22.1298, 35.0469, -5.6104, -69.732, 0.202347
5.628, 6, -4.93283, 22.1611, 35.0408, -5.66174, -69.8068, 0.200863
5.632, 6, -4.97965, 22.1926, 35.0347, -5.71305, -69.8816, 0.199323
5.636, 6, -5.02646, 22.224, 35.0284, -5.76431, -69.9564, 0.197725
5.64, 6, -5.07327, 22.2556, 35.022, -5.81554, -70.0312, 0.196071
5.644, 6, -5.12008, 22.2872, 35.0155, -5.86672, -70.1059, 0.19436
5.648, 6, -5.16689, 22.3189, 35.0089, -5.91787, -70.1806, 0.192593
5.652, 6, -5.21369, 22.3506, 35.0022, -5.96898, -70.2552, 0.19077
5.656, 6, -5.26049, 22.3824, 34.9953, -6.02005, -70.3299, 0.18889
5.66, 6, -5.30729, 22.4142, 34.9884, -6.07108, -70.4045, 0.186955
5.664, 6, -5.35409, 22.4461, 34.9814, -6.12208, -70.479, 0.184965
5.668, 6, -5.40088, 22.4781, 34.9742, -6.17304, -70.5536, 0.182919
5.672, 6, -5.44767, 22.5102, 34.9669, -6.22396, -70.6281, 0.180818
5.676, 6, -5.49446, 22.5422, 34.9596, -6.27484, -70.7026, 0.178662
5.68, 6, -5.54124, 22.5744, 34.9521, -6.32568, -70.7771, 0.176451
5.684, 6, -5.58802, 22.6066, 34.9445, -6.37649, -70.8515, 0.174185
5.688, 6, -5.6348, 22.6389, 34.9368, -6.42726, -70.9259, 0.171865
5.692, 6, -5.68158, 22.6712, 34.929, -6.478, -71.0002, 0.169491
5.696, 6, -5.72835, 22.7036, 34.9211, -6.52869, -71.0746, 0.167063
5.7, 6, -5.77511, 22.7361, 34.913, -6.57935, -71.1489, 0.164581
5.704, 6, -5.82188, 22.7686, 34.9049, -6.62998, -71.2231, 0.162045
5.708, 6, -5.86864, 22.8012, 34.8966, -6.68056, -71.2974, 0.159456
5.712, 6, -5.91539, 22.8338, 34.8883, -6.73112, -71.3716, 0.156814
5.716, 6, -5.96214, 22.8665, 34.8798, -6.78163, -71.4457, 0.154118
5.72, 6, -6.00889, 22.8993, 34.8712, -6.83211, -71.5199, 0.15137
5.724, 6, -6.05563, 22.9321, 34.8626, -6.88255, -71.594, 0.148569
5.728, 6, -6.10237, 22.965, 34.8538, -6.93296, -71.668, 0.145715
5.732, 6, -6.1491, 22.9979, 34.8448, -6.98333, -71.7421, 0.142809
5.736, 6, -6.19583, 23.0309, 34.8358, -7.03367, -71.8161, 0.139851
5.74, 6, -6.24256, 23.0639, 34.8267, -7.08397, -71.89, 0.136841
5.744, 6, -6.28928, 23.097, 34.8175, -7.13423, -71.964, 0.133779
5.748, 6, -6.33599, 23.1302, 34.8081, -7.18446, -72.0379, 0.130665
5.752, 6, -6.3827, 23.1634, 34.7987, -7.23466, -72.1117, 0.1275
5.756, 6, -6.42941, 23.1967, 34.7891, -7.28482, -72.1856, 0.124284
5.76, 6, -6.47611, 23.2301, 34.7794, -7.33495, -72.2594, 0.121017
5.764, 6, -6.5228, 23.2635, 34.7697, -7.38504, -72.3331, 0.117699
5.768, 6, -6.56949, 23.2969, 34.7598, -7.4351, -72.4068, 0.11433
5.772, 6, -6.61617, 23.3304, 34.7498, -7.48512, -72.4805, 0.110911
5.776, 6, -6.66285, 23.364, 34.7397, -7.53511, -72.5542, 0.107442
5.78, 6, -6.70952, 23.3976, 34.7294, -7.58506, -72.6278, 0.103922
5.784, 6, -6.75619, 23.4313, 34.7191, -7.63498, -72.7014, 0.100353
5.788, 6, -6.80285, 23.4651, 34.7086, -7.68487, -72.7749, 0.0967336
5.792, 6, -6.8495, 23.4989, 34.6981, -7.73472, -72.8484, 0.093065
5.796, 6, -6.89615, 23.5328, 34.6874, -7.78454, -72.9219, 0.0893469
5.8, 6, -6.94279, 23.5667, 34.6767, -7.83433, -72.9953, 0.0855797
5.804, 6, -6.98942, 23.6006, 34.6658, -7.88408, -73.0687, 0.0817635
5.808, 6, -7.03605, 23.6347, 34.6548, -7.9338, -73.1421, 0.0778984
5.812, 6, -7.08267, 23.6688, 34.6437, -7.98349, -73.2154, 0.0739848
5.816, 6, -7.12929, 23.7029, 34.6324, -8.03314, -73.2887, 0.0700227
5.82, 6, -7.1759, 23.7371, 34.6211, -8.08276, -73.3619, 0.0660123
5.824, 6, -7.2225, 23.7714, 34.6097, -8.13235, -73.4351, 0.0619539
5.828, 6, -7.26909, 23.8057, 34.5981, -8.18191, -73.5083, 0.0578475
5.832, 6, -7.31568, 23.84, 34.5865, -8.23143, -73.5814, 0.0536934
5.836, 6, -7.36226, 23.8745, 34.5747, -8.28092, -73.6545, 0.0494918
5.84, 6, -7.40883, 23.909, 34.5628, -8.33038, -73.7275, 0.0452429
5.844, 6, -7.45539, 23.9435, 34.5508, -8.3798, -73.8005, 0.0409468
5.848, 6, -7.50195, 23.9781, 34.5387, -8.4292, -73.8735, 0.0366037
5.852, 6, -7.5485, 24.0127, 34.5265, -8.47856, -73.9464, 0.0322139
5.856, 6, -7.59504, 24.0474, 34.5142, -8.52789, -74.0193, 0.0277775
5.86, 6, -7.64157, 24.0822, 34.5018, -8.57719, -74.0921, 0.0232946
5.864, 6, -7.6881, 24.117, 34.4892, -8.62646, -74.1649, 0.0187656
5.868, 6, -7.73461, 24.1519, 34.4766, -8.67569, -74.2377, 0.0141905
5.872, 6, -7.78112, 24.1868, 34.4638, -8.72489, -74.3104, 0.00956964
5.876, 6, -7.82762, 24.2217, 34.451, -8.77406, -74.3831, 0.00490315
5.88, 6, -7.87411, 24.2568, 34.438, -8.8232, -74.4557, 0.000191224
5.884, 6, -7.9206, 24.2918, 34.4249, -8.87231, -74.5283, -0.00456594
5.888, 6, -7.96707, 24.327, 34.4117, -8.92138, -74.6009, -0.00936814
5.892, 6, -8.01354, 24.3622, 34.3984, -8.97043, -74.6734, -0.0142152
5.896, 6, -8.05999, 24.3974, 34.3849, -9.01944, -74.7458, -0.0191069
5.9, 6, -8.10644, 24.4327, 34.3714, -9.06842, -74.8183, -0.024043
5.904, 6, -8.15288, 24.468, 34.3578, -9.11737, -74.8906, -0.0290235
5.908, 6, -8.19931, 24.5034, 34.344, -9.16628, -74.963, -0.034048
5.912, 6, -8.24573, 24.5389, 34.3301, -9.21517, -75.0353, -0.0391163
5.916, 6, -8.29214, 24.5744, 34.3162, -9.26402, -75.1075, -0.0442284
5.92, 6, -8.33854, 24.61, 34.3021, -9.31285, -75.1797, -0.0493839
5.924, 6, -8.38493, 24.6456, 34.2879, -9.36164, -75.2519, -0.0545828
5.928, 6, -8.43132, 24.6812, 34.2736, -9.4104, -75.324, -0.0598247
