hehonglu123/ABB_Primitive_Study/execution/movel_30_ori/curve_exe_v50_z1.csv
timestamp, cmd_num, J1, J2, J3, J4, J5, J6
0, -1, -18.7697, 34.1307, 27.9437, -19.9675, -90.5849, -2.05479
0.002, -1, -18.7697, 34.1307, 27.9437, -19.9675, -90.5849, -2.05479
0.006, -1, -18.7697, 34.1307, 27.9437, -19.9675, -90.5849, -2.05479
0.008, -1, -18.7697, 34.1307, 27.9437, -19.9675, -90.5849, -2.05479
0.011, -1, -18.7697, 34.1307, 27.9437, -19.9675, -90.5849, -2.05479
0.016, -1, -18.7697, 34.1307, 27.9437, -19.9675, -90.5849, -2.05479
0.02, -1, -18.7697, 34.1307, 27.9437, -19.9675, -90.5849, -2.05479
0.024, -1, -18.7697, 34.1307, 27.9437, -19.9675, -90.5849, -2.05479
0.028, -1, -18.7697, 34.1307, 27.9437, -19.9675, -90.5849, -2.05479
0.032, -1, -18.7697, 34.1307, 27.9437, -19.9675, -90.5849, -2.05479
0.036, -1, -18.7697, 34.1306, 27.9437, -19.9675, -90.5849, -2.05479
0.04, -1, -18.7694, 34.1306, 27.9437, -19.9675, -90.5849, -2.05479
0.044, -1, -18.7688, 34.1304, 27.9437, -19.9675, -90.5848, -2.05481
0.048, -1, -18.7677, 34.13, 27.9438, -19.9674, -90.5848, -2.05485
0.052, -1, -18.7659, 34.1293, 27.9439, -19.9672, -90.5846, -2.05494
0.056, -1, -18.7633, 34.1282, 27.9441, -19.9669, -90.5841, -2.05514
0.06, -1, -18.7599, 34.1267, 27.9443, -19.9661, -90.5833, -2.05552
0.064, -1, -18.7555, 34.1248, 27.9446, -19.9648, -90.5819, -2.05618
0.068, -1, -18.7501, 34.1222, 27.9448, -19.9626, -90.5796, -2.05723
0.072, -1, -18.7435, 34.119, 27.945, -19.9593, -90.576, -2.05884
0.076, -1, -18.7354, 34.115, 27.9452, -19.9545, -90.5709, -2.06119
0.08, -1, -18.7256, 34.11, 27.9454, -19.9477, -90.5636, -2.06449
0.084, -1, -18.7137, 34.104, 27.9453, -19.9384, -90.5537, -2.06898
0.088, -1, -18.6996, 34.0968, 27.9451, -19.9261, -90.5406, -2.07492
0.092, -1, -18.6829, 34.0883, 27.9446, -19.9102, -90.5236, -2.08261
0.096, -1, -18.6635, 34.0784, 27.9438, -19.89, -90.502, -2.09234
0.1, -1, -18.6412, 34.0671, 27.9426, -19.8649, -90.4752, -2.10442
0.104, -1, -18.6159, 34.0542, 27.9408, -19.8342, -90.4426, -2.11914
0.108, -1, -18.5871, 34.0396, 27.9385, -19.7974, -90.4034, -2.13679
0.112, -1, -18.5548, 34.0233, 27.9355, -19.754, -90.3571, -2.15761
0.116, -1, -18.519, 34.0053, 27.9318, -19.7034, -90.3033, -2.18184
0.12, -1, -18.4795, 33.9854, 27.9274, -19.6454, -90.2415, -2.20966
0.124, -1, -18.4364, 33.9638, 27.9221, -19.5795, -90.1714, -2.24119
0.128, -1, -18.3897, 33.9405, 27.916, -19.5056, -90.0928, -2.27653
0.131, -1, -18.3395, 33.9154, 27.909, -19.4238, -90.0058, -2.31566
0.136, -1, -18.2858, 33.8886, 27.9012, -19.3341, -89.9103, -2.35855
0.139, -1, -18.2285, 33.8601, 27.8926, -19.2369, -89.8069, -2.40506
0.144, -1, -18.1677, 33.8299, 27.8833, -19.1324, -89.6957, -2.45501
0.148, -1, -18.1034, 33.798, 27.8733, -19.0212, -89.5774, -2.50817
0.152, -1, -18.0358, 33.7644, 27.8627, -18.9038, -89.4525, -2.56429
0.156, -1, -17.9651, 33.7293, 27.8515, -18.7808, -89.3217, -2.62308
0.16, -1, -17.8915, 33.6928, 27.8399, -18.6529, -89.1856, -2.68422
0.164, -1, -17.8153, 33.6549, 27.828, -18.5207, -89.045, -2.74741
0.168, -1, -17.7365, 33.6157, 27.8158, -18.3849, -88.9005, -2.81233
0.172, -1, -17.6553, 33.5753, 27.8034, -18.2462, -88.7528, -2.87868
0.176, -1, -17.572, 33.5337, 27.7909, -18.105, -88.6026, -2.94619
0.18, -1, -17.4867, 33.4912, 27.7784, -17.9619, -88.4503, -3.01463
0.184, -1, -17.3998, 33.4477, 27.7658, -17.8172, -88.2964, -3.0838
0.188, -1, -17.3114, 33.4034, 27.7532, -17.6715, -88.1413, -3.15353
0.192, -1, -17.2218, 33.3586, 27.7406, -17.5248, -87.9852, -3.2237
0.196, -1, -17.1312, 33.3132, 27.728, -17.3774, -87.8284, -3.2942
0.2, -1, -17.0399, 33.2675, 27.7155, -17.2295, -87.671, -3.36496
0.204, -1, -16.9478, 33.2215, 27.7029, -17.0812, -87.5132, -3.43592
0.208, -1, -16.8552, 33.1752, 27.6903, -16.9326, -87.355, -3.50704
0.212, -1, -16.7621, 33.1287, 27.6778, -16.7836, -87.1965, -3.5783
0.216, -1, -16.6687, 33.0821, 27.6652, -16.6345, -87.0378, -3.64966
0.22, -1, -16.5751, 33.0353, 27.6527, -16.4851, -86.8788, -3.72113
0.224, -1, -16.4812, 32.9885, 27.6401, -16.3356, -86.7197, -3.79268
0.228, -1, -16.3872, 32.9416, 27.6275, -16.1859, -86.5604, -3.8643
0.232, -1, -16.2931, 32.8947, 27.6149, -16.0361, -86.4009, -3.936
0.236, -1, -16.1988, 32.8477, 27.6023, -15.8861, -86.2413, -4.00777
0.24, -1, -16.1045, 32.8006, 27.5897, -15.736, -86.0815, -4.0796
0.244, -1, -16.01, 32.7535, 27.5771, -15.5857, -85.9216, -4.15149
0.248, -1, -15.9155, 32.7064, 27.5645, -15.4354, -85.7616, -4.22345
0.252, -1, -15.8209, 32.6592, 27.5518, -15.2849, -85.6014, -4.29546
0.256, -1, -15.7262, 32.6119, 27.5392, -15.1343, -85.4411, -4.36752
0.26, -1, -15.6314, 32.5647, 27.5265, -14.9836, -85.2807, -4.43964
0.264, -1, -15.5366, 32.5174, 27.5139, -14.8327, -85.1202, -4.5118
0.268, -1, -15.4417, 32.4701, 27.5012, -14.6818, -84.9596, -4.58402
0.272, -1, -15.3467, 32.4227, 27.4885, -14.5308, -84.7989, -4.65628
0.276, -1, -15.2517, 32.3753, 27.4758, -14.3797, -84.638, -4.72859
0.28, -1, -15.1566, 32.3279, 27.4631, -14.2285, -84.4771, -4.80094
0.284, -1, -15.0615, 32.2805, 27.4504, -14.0772, -84.3161, -4.87333
0.288, -1, -14.9663, 32.233, 27.4377, -13.9258, -84.155, -4.94576
0.292, -1, -14.8711, 32.1855, 27.425, -13.7744, -83.9938, -5.01823
0.296, -1, -14.7758, 32.138, 27.4123, -13.6229, -83.8326, -5.09074
0.3, -1, -14.6805, 32.0905, 27.3995, -13.4713, -83.6712, -5.16327
0.304, -1, -14.5851, 32.0429, 27.3868, -13.3196, -83.5098, -5.23584
0.308, -1, -14.4897, 31.9953, 27.3741, -13.1679, -83.3484, -5.30844
0.312, -1, -14.3943, 31.9478, 27.3613, -13.0161, -83.1868, -5.38107
0.316, -1, -14.2988, 31.9001, 27.3486, -12.8643, -83.0252, -5.45372
0.32, -1, -14.2033, 31.8525, 27.3358, -12.7124, -82.8636, -5.5264
0.324, -1, -14.1078, 31.8049, 27.3231, -12.5604, -82.7019, -5.5991
0.328, -1, -14.0122, 31.7572, 27.3103, -12.4085, -82.5401, -5.67183
0.332, -1, -13.9167, 31.7096, 27.2975, -12.2564, -82.3784, -5.74457
0.336, -1, -13.8211, 31.6619, 27.2848, -12.1044, -82.2165, -5.81732
0.34, -1, -13.7255, 31.6142, 27.272, -11.9523, -82.0547, -5.89009
0.344, -1, -13.6298, 31.5665, 27.2592, -11.8002, -81.8928, -5.96287
0.348, -1, -13.5342, 31.5188, 27.2464, -11.6481, -81.7309, -6.03567
0.352, -1, -13.4385, 31.4711, 27.2337, -11.4959, -81.569, -6.10847
0.356, -1, -13.3429, 31.4234, 27.2209, -11.3438, -81.4071, -6.18127
0.36, -1, -13.2472, 31.3757, 27.2081, -11.1916, -81.2451, -6.25408
0.364, -1, -13.1516, 31.328, 27.1953, -11.0395, -81.0832, -6.32689
0.368, -1, -13.0559, 31.2803, 27.1825, -10.8873, -80.9212, -6.3997
0.372, -1, -12.9603, 31.2326, 27.1697, -10.7352, -80.7593, -6.47251
0.376, -1, -12.8646, 31.1849, 27.157, -10.583, -80.5974, -6.54531
0.38, -1, -12.769, 31.1372, 27.1442, -10.4309, -80.4355, -6.6181
0.384, -1, -12.6734, 31.0895, 27.1314, -10.2788, -80.2736, -6.69088
0.388, -1, -12.5777, 31.0418, 27.1186, -10.1267, -80.1118, -6.76365
0.392, -1, -12.4822, 30.9941, 27.1059, -9.97466, -79.9499, -6.8364
0.396, -1, -12.3866, 30.9465, 27.0931, -9.82266, -79.7882, -6.90914
0.4, -1, -12.291, 30.8988, 27.0803, -9.67069, -79.6264, -6.98185
0.404, -1, -12.1955, 30.8512, 27.0676, -9.51877, -79.4647, -7.05455
0.408, -1, -12.1, 30.8036, 27.0548, -9.36689, -79.3031, -7.12722
0.412, -1, -12.0046, 30.756, 27.0421, -9.21508, -79.1415, -7.19987
0.416, -1, -11.9092, 30.7084, 27.0293, -9.06332, -78.98, -7.27248
0.42, -1, -11.8138, 30.6608, 27.0166, -8.91163, -78.8186, -7.34507
0.424, -1, -11.7184, 30.6133, 27.0038, -8.76, -78.6572, -7.41762
0.428, -1, -11.6231, 30.5658, 26.9911, -8.60845, -78.4959, -7.49014
0.432, -1, -11.5279, 30.5183, 26.9784, -8.45698, -78.3347, -7.56262
0.436, -1, -11.4326, 30.4708, 26.9657, -8.30559, -78.1736, -7.63506
0.44, -1, -11.3375, 30.4234, 26.953, -8.15429, -78.0126, -7.70745
0.444, -1, -11.2424, 30.376, 26.9403, -8.00308, -77.8517, -7.77981
0.448, -1, -11.1473, 30.3286, 26.9276, -7.85197, -77.6908, -7.85211
0.452, -1, -11.0524, 30.2813, 26.9149, -7.70096, -77.5301, -7.92437
0.456, -1, -10.9574, 30.2339, 26.9022, -7.55005, -77.3695, -7.99658
0.46, -1, -10.8626, 30.1867, 26.8895, -7.39926, -77.209, -8.06874
0.464, -1, -10.7678, 30.1394, 26.8769, -7.24857, -77.0487, -8.14084
0.468, -1, -10.6731, 30.0922, 26.8642, -7.09801, -76.8884, -8.21289
0.472, -1, -10.5785, 30.045, 26.8516, -6.94757, -76.7283, -8.28487
0.476, -1, -10.4839, 29.9979, 26.839, -6.79726, -76.5683, -8.3568
0.48, -1, -10.3895, 29.9508, 26.8264, -6.64708, -76.4085, -8.42866
0.484, -1, -10.2951, 29.9038, 26.8138, -6.49703, -76.2488, -8.50046
0.488, -1, -10.2008, 29.8568, 26.8012, -6.34712, -76.0893, -8.57219
0.492, -1, -10.1066, 29.8098, 26.7886, -6.19736, -75.9299, -8.64385
0.496, -1, -10.0125, 29.7629, 26.776, -6.04775, -75.7707, -8.71544
0.5, -1, -9.91844, 29.716, 26.7635, -5.89829, -75.6116, -8.78695
0.504, -1, -9.82452, 29.6692, 26.7509, -5.74898, -75.4527, -8.8584
0.508, -1, -9.73069, 29.6225, 26.7384, -5.59984, -75.294, -8.92976
0.512, -1, -9.63697, 29.5757, 26.7259, -5.45086, -75.1354, -9.00105
0.516, -1, -9.54335, 29.5291, 26.7134, -5.30204, -74.977, -9.07226
0.52, -1, -9.44984, 29.4825, 26.7009, -5.1534, -74.8188, -9.14339
0.524, -1, -9.35644, 29.4359, 26.6884, -5.00493, -74.6608, -9.21443
0.528, -1, -9.26314, 29.3894, 26.676, -4.85664, -74.503, -9.28539
0.532, -1, -9.16997, 29.343, 26.6635, -4.70853, -74.3454, -9.35626
0.536, -1, -9.0769, 29.2966, 26.6511, -4.56061, -74.188, -9.42704
0.54, -1, -8.98396, 29.2503, 26.6387, -4.41288, -74.0307, -9.49773
0.544, -1, -8.89113, 29.204, 26.6263, -4.26534, -73.8737, -9.56833
0.548, -1, -8.79843, 29.1578, 26.6139, -4.11799, -73.7169, -9.63883
0.552, -1, -8.70584, 29.1116, 26.6016, -3.97084, -73.5603, -9.70924
0.556, -1, -8.61339, 29.0656, 26.5892, -3.82389, -73.4039, -9.77956
0.56, -1, -8.52106, 29.0196, 26.5769, -3.67715, -73.2477, -9.84978
0.564, -1, -8.42886, 28.9736, 26.5646, -3.53062, -73.0918, -9.91989
0.568, -1, -8.3368, 28.9277, 26.5523, -3.38429, -72.936, -9.98991
0.572, -1, -8.24486, 28.8819, 26.54, -3.23818, -72.7805, -10.0598
0.576, -1, -8.15307, 28.8361, 26.5278, -3.09229, -72.6253, -10.1296
0.58, -1, -8.06141, 28.7905, 26.5155, -2.94661, -72.4702, -10.1993
0.584, -1, -7.96988, 28.7448, 26.5033, -2.80116, -72.3154, -10.2689
0.588, -1, -7.8785, 28.6993, 26.4911, -2.65593, -72.1609, -10.3384
0.592, -1, -7.78726, 28.6538, 26.4789, -2.51093, -72.0065, -10.4078
0.596, -1, -7.69617, 28.6084, 26.4668, -2.36616, -71.8525, -10.4771
0.6, -1, -7.60522, 28.5631, 26.4546, -2.22162, -71.6986, -10.5463
0.604, -1, -7.51441, 28.5178, 26.4425, -2.07732, -71.5451, -10.6153
0.608, -1, -7.42376, 28.4727, 26.4304, -1.93325, -71.3917, -10.6842
0.612, -1, -7.33326, 28.4276, 26.4183, -1.78942, -71.2387, -10.7531
0.616, -1, -7.2429, 28.3825, 26.4063, -1.64584, -71.0859, -10.8218
0.62, -1, -7.1527, 28.3376, 26.3942, -1.5025, -70.9333, -10.8904
0.624, -1, -7.06265, 28.2927, 26.3822, -1.3594, -70.781, -10.9588
0.628, -1, -6.97276, 28.2479, 26.3702, -1.21656, -70.629, -11.0272
0.632, -1, -6.88303, 28.2032, 26.3582, -1.07396, -70.4772, -11.0954
0.636, -1, -6.79346, 28.1585, 26.3463, -0.931622, -70.3257, -11.1635
0.64, -1, -6.70404, 28.114, 26.3344, -0.789537, -70.1745, -11.2315
0.644, -1, -6.61479, 28.0695, 26.3224, -0.647708, -70.0236, -11.2994
0.648, -1, -6.5257, 28.0251, 26.3106, -0.506139, -69.8729, -11.3671
0.652, -1, -6.43677, 27.9808, 26.2987, -0.364831, -69.7225, -11.4347
0.656, -1, -6.34801, 27.9366, 26.2868, -0.223785, -69.5724, -11.5022
0.66, -1, -6.25941, 27.8924, 26.275, -0.0830049, -69.4226, -11.5696
0.664, -1, -6.17098, 27.8483, 26.2632, 0.057509, -69.273, -11.6368
0.668, -1, -6.08272, 27.8044, 26.2514, 0.197755, -69.1238, -11.7039
0.672, -1, -5.99463, 27.7605, 26.2397, 0.33773, -68.9748, -11.7709
0.676, -1, -5.9067, 27.7166, 26.2279, 0.477435, -68.8261, -11.8378
0.68, -1, -5.81895, 27.6729, 26.2162, 0.616866, -68.6777, -11.9045
0.684, -1, -5.73137, 27.6293, 26.2045, 0.756022, -68.5296, -11.9711
0.688, -1, -5.64396, 27.5857, 26.1929, 0.894902, -68.3818, -12.0375
0.692, -1, -5.55673, 27.5422, 26.1812, 1.0335, -68.2343, -12.1038
0.696, -1, -5.46968, 27.4988, 26.1696, 1.17183, -68.0871, -12.17
0.7, -1, -5.38279, 27.4556, 26.158, 1.30987, -67.9402, -12.2361
0.704, -1, -5.29609, 27.4123, 26.1465, 1.44763, -67.7936, -12.302
0.708, -1, -5.20956, 27.3692, 26.1349, 1.58511, -67.6473, -12.3678
0.712, -1, -5.12321, 27.3262, 26.1234, 1.72231, -67.5013, -12.4334
0.716, -1, -5.03704, 27.2833, 26.1119, 1.85921, -67.3555, -12.4989
0.72, -1, -4.95105, 27.2404, 26.1004, 1.99584, -67.2101, -12.5643
0.724, -1, -4.86524, 27.1976, 26.089, 2.13217, -67.065, -12.6296
0.728, -1, -4.77961, 27.155, 26.0775, 2.26822, -66.9203, -12.6947
0.732, -1, -4.69416, 27.1124, 26.0661, 2.40397, -66.7758, -12.7596
0.736, -1, -4.6089, 27.0699, 26.0548, 2.53944, -66.6316, -12.8244
0.74, -1, -4.52381, 27.0275, 26.0434, 2.67461, -66.4877, -12.8891
0.744, -1, -4.43891, 26.9852, 26.0321, 2.8095, -66.3442, -12.9537
0.748, -1, -4.3542, 26.943, 26.0208, 2.94408, -66.201, -13.0181
0.752, -1, -4.26966, 26.9009, 26.0095, 3.07838, -66.058, -13.0823
0.756, -1, -4.18531, 26.8588, 25.9983, 3.21238, -65.9154, -13.1464
0.76, -1, -4.10115, 26.8169, 25.987, 3.34609, -65.7731, -13.2104
0.764, -1, -4.01717, 26.775, 25.9758, 3.4795, -65.6311, -13.2743
0.768, -1, -3.93337, 26.7333, 25.9646, 3.61261, -65.4895, -13.338
0.772, -1, -3.84976, 26.6916, 25.9535, 3.74543, -65.3481, -13.4015
0.776, -1, -3.76633, 26.65, 25.9424, 3.87795, -65.2071, -13.4649
0.78, -1, -3.68309, 26.6086, 25.9313, 4.01018, -65.0664, -13.5282
0.784, -1, -3.60003, 26.5672, 25.9202, 4.14211, -64.9259, -13.5913
0.788, -1, -3.51716, 26.5259, 25.9091, 4.27375, -64.7858, -13.6543
0.792, -1, -3.43447, 26.4847, 25.8981, 4.40509, -64.6461, -13.7172
0.796, -1, -3.35197, 26.4436, 25.8871, 4.53613, -64.5066, -13.7799
0.8, -1, -3.26966, 26.4026, 25.8761, 4.66688, -64.3674, -13.8424
0.804, -1, -3.18753, 26.3616, 25.8652, 4.79734, -64.2286, -13.9049
0.808, -1, -3.10558, 26.3208, 25.8542, 4.9275, -64.0901, -13.9671
0.812, -1, -3.02382, 26.2801, 25.8433, 5.05736, -63.9519, -14.0293
0.816, -1, -2.94225, 26.2394, 25.8324, 5.18693, -63.814, -14.0913
0.82, -1, -2.86085, 26.1989, 25.8216, 5.31621, -63.6764, -14.1531
0.824, -1, -2.77965, 26.1584, 25.8108, 5.4452, -63.5391, -14.2149
0.828, -1, -2.69862, 26.118, 25.8, 5.57389, -63.4021, -14.2764
0.832, -1, -2.61778, 26.0777, 25.7892, 5.70229, -63.2655, -14.3379
0.836, -1, -2.53713, 26.0375, 25.7784, 5.8304, -63.1292, -14.3992
0.84, -1, -2.45665, 25.9974, 25.7677, 5.95822, -62.9931, -14.4603
0.844, -1, -2.37636, 25.9574, 25.757, 6.08575, -62.8574, -14.5214
0.848, -1, -2.29625, 25.9175, 25.7463, 6.21298, -62.722, -14.5823
0.852, -1, -2.21633, 25.8777, 25.7356, 6.33993, -62.5869, -14.643
0.856, -1, -2.13658, 25.838, 25.725, 6.46659, -62.4521, -14.7036
0.86, -1, -2.05702, 25.7983, 25.7144, 6.59296, -62.3176, -14.7641
0.864, -1, -1.97764, 25.7588, 25.7038, 6.71904, -62.1834, -14.8244
0.868, -1, -1.89844, 25.7193, 25.6932, 6.84484, -62.0495, -14.8846
0.872, -1, -1.81942, 25.6799, 25.6827, 6.97035, -61.916, -14.9447
0.876, -1, -1.74058, 25.6406, 25.6722, 7.09557, -61.7827, -15.0046
0.88, -1, -1.66192, 25.6014, 25.6617, 7.2205, -61.6497, -15.0644
0.884, -1, -1.58344, 25.5623, 25.6512, 7.34516, -61.5171, -15.124
0.888, -1, -1.50513, 25.5233, 25.6408, 7.46952, -61.3847, -15.1835
0.892, -1, -1.42701, 25.4844, 25.6304, 7.5936, -61.2526, -15.2429
0.896, -1, -1.34906, 25.4456, 25.62, 7.7174, -61.1209, -15.3021
0.9, -1, -1.2713, 25.4068, 25.6096, 7.84092, -60.9894, -15.3612
0.904, -1, -1.19371, 25.3681, 25.5993, 7.96415, -60.8583, -15.4202
0.908, -1, -1.11629, 25.3296, 25.5889, 8.08711, -60.7274, -15.479
0.912, -1, -1.03905, 25.2911, 25.5786, 8.20978, -60.5969, -15.5377
0.916, -1, -0.961994, 25.2527, 25.5684, 8.33217, -60.4666, -15.5963
0.92, -1, -0.885109, 25.2144, 25.5581, 8.45428, -60.3366, -15.6547
0.924, -1, -0.808399, 25.1762, 25.5479, 8.57612, -60.207, -15.713
0.928, -1, -0.731865, 25.138, 25.5377, 8.69767, -60.0776, -15.7712
0.932, -1, -0.655505, 25.1, 25.5275, 8.81895, -59.9485, -15.8292
0.936, -1, -0.579319, 25.062, 25.5173, 8.93995, -59.8198, -15.8871
0.94, -1, -0.503307, 25.0241, 25.5072, 9.06068, -59.6913, -15.9449
0.944, -1, -0.427468, 24.9863, 25.4971, 9.18113, -59.5631, -16.0025
0.948, -1, -0.351802, 24.9486, 25.487, 9.30131, -59.4352, -16.06
0.952, -1, -0.276308, 24.911, 25.4769, 9.42121, -59.3076, -16.1174
0.956, -1, -0.200986, 24.8735, 25.4669, 9.54084, -59.1803, -16.1746
0.96, -1, -0.125835, 24.8361, 25.4569, 9.66019, -59.0532, -16.2318
0.964, -1, -0.0508559, 24.7987, 25.4469, 9.77928, -58.9265, -16.2887
0.968, -1, 0.023953, 24.7614, 25.4369, 9.89809, -58.8001, -16.3456
0.972, -1, 0.0985918, 24.7242, 25.4269, 10.0166, -58.6739, -16.4023
0.976, -1, 0.173061, 24.6871, 25.417, 10.1349, -58.548, -16.4589
0.98, -1, 0.247361, 24.6501, 25.4071, 10.2529, -58.4224, -16.5154
0.984, -1, 0.321492, 24.6132, 25.3972, 10.3706, -58.2971, -16.5717
0.988, -1, 0.395455, 24.5763, 25.3873, 10.4881, -58.1721, -16.6279
0.992, -1, 0.469251, 24.5395, 25.3775, 10.6053, -58.0474, -16.684
0.996, -1, 0.542879, 24.5028, 25.3677, 10.7223, -57.9229, -16.74
1, -1, 0.61634, 24.4662, 25.3579, 10.8389, -57.7988, -16.7958
1.004, -1, 0.689635, 24.4297, 25.3481, 10.9553, -57.6749, -16.8515
1.008, -1, 0.762764, 24.3933, 25.3384, 11.0715, -57.5513, -16.9071
1.012, -1, 0.835728, 24.3569, 25.3286, 11.1874, -57.4279, -16.9625
1.016, -1, 0.908526, 24.3207, 25.3189, 11.303, -57.3049, -17.0178
1.02, -1, 0.981161, 24.2845, 25.3092, 11.4183, -57.1821, -17.073
1.024, -1, 1.05363, 24.2484, 25.2996, 11.5334, -57.0596, -17.1281
1.027, -1, 1.12594, 24.2123, 25.2899, 11.6483, -56.9374, -17.1831
1.032, -1, 1.19808, 24.1764, 25.2803, 11.7629, -56.8155, -17.2379
1.036, -1, 1.27007, 24.1405, 25.2707, 11.8772, -56.6938, -17.2926
1.04, -1, 1.34189, 24.1047, 25.2611, 11.9912, -56.5724, -17.3472
1.044, -1, 1.41355, 24.069, 25.2516, 12.105, -56.4513, -17.4016
1.048, -1, 1.48505, 24.0334, 25.2421, 12.2186, -56.3304, -17.456
1.052, -1, 1.55639, 23.9978, 25.2325, 12.3319, -56.2098, -17.5102
1.055, -1, 1.62757, 23.9624, 25.2231, 12.4449, -56.0895, -17.5643
1.06, -1, 1.69859, 23.927, 25.2136, 12.5577, -55.9695, -17.6182
1.064, -1, 1.76945, 23.8917, 25.2041, 12.6703, -55.8497, -17.6721
1.068, -1, 1.84016, 23.8565, 25.1947, 12.7826, -55.7302, -17.7258
1.072, -1, 1.91071, 23.8213, 25.1853, 12.8946, -55.611, -17.7794
1.076, -1, 1.9811, 23.7862, 25.1759, 13.0064, -55.492, -17.8329
1.08, -1, 2.05134, 23.7512, 25.1666, 13.1179, -55.3733, -17.8863
1.084, -1, 2.12143, 23.7163, 25.1572, 13.2292, -55.2549, -17.9396
1.088, -1, 2.19136, 23.6815, 25.1479, 13.3403, -55.1367, -17.9927
1.091, -1, 2.26113, 23.6467, 25.1386, 13.4511, -55.0187, -18.0457
1.096, -1, 2.33076, 23.612, 25.1293, 13.5616, -54.9011, -18.0986
1.1, -1, 2.40023, 23.5774, 25.12, 13.672, -54.7837, -18.1514
1.104, -1, 2.46955, 23.5429, 25.1108, 13.7821, -54.6665, -18.2041
1.108, -1, 2.53871, 23.5084, 25.1016, 13.8919, -54.5496, -18.2567
1.112, -1, 2.60773, 23.474, 25.0924, 14.0015, -54.4329, -18.3091
1.116, -1, 2.6766, 23.4397, 25.0832, 14.1109, -54.3166, -18.3614
1.119, -1, 2.74532, 23.4055, 25.074, 14.22, -54.2004, -18.4137
1.124, -1, 2.8139, 23.3713, 25.0649, 14.3289, -54.0845, -18.4658
1.128, -1, 2.88232, 23.3372, 25.0558, 14.4376, -53.9689, -18.5178
1.132, -1, 2.9506, 23.3032, 25.0467, 14.546, -53.8535, -18.5696
1.136, -1, 3.01874, 23.2692, 25.0376, 14.6542, -53.7383, -18.6214
1.14, -1, 3.08673, 23.2353, 25.0285, 14.7622, -53.6234, -18.6731
1.144, -1, 3.15457, 23.2015, 25.0195, 14.8699, -53.5087, -18.7246
1.147, -1, 3.22227, 23.1678, 25.0104, 14.9774, -53.3943, -18.7761
1.152, -1, 3.28983, 23.1341, 25.0014, 15.0847, -53.2801, -18.8274
1.156, -1, 3.35725, 23.1006, 24.9925, 15.1918, -53.1662, -18.8786
1.16, -1, 3.42452, 23.067, 24.9835, 15.2986, -53.0525, -18.9298
1.164, -1, 3.49165, 23.0336, 24.9745, 15.4052, -52.939, -18.9808
1.168, -1, 3.55865, 23.0002, 24.9656, 15.5116, -52.8258, -19.0317
1.172, -1, 3.6255, 22.9669, 24.9567, 15.6178, -52.7128, -19.0825
1.175, -1, 3.69221, 22.9337, 24.9478, 15.7237, -52.6001, -19.1332
1.18, -1, 3.75879, 22.9005, 24.9389, 15.8294, -52.4876, -19.1838
1.184, -1, 3.82523, 22.8674, 24.9301, 15.9349, -52.3753, -19.2343
1.188, -1, 3.89153, 22.8343, 24.9212, 16.0402, -52.2632, -19.2846
1.192, -1, 3.95769, 22.8014, 24.9124, 16.1453, -52.1514, -19.3349
1.196, -1, 4.02372, 22.7685, 24.9036, 16.2501, -52.0398, -19.3851
1.2, -1, 4.08961, 22.7356, 24.8948, 16.3548, -51.9284, -19.4352
1.204, -1, 4.15537, 22.7029, 24.886, 16.4592, -51.8173, -19.4851
1.208, -1, 4.221, 22.6702, 24.8773, 16.5634, -51.7064, -19.535
1.212, -1, 4.28649, 22.6376, 24.8686, 16.6674, -51.5957, -19.5848
1.216, -1, 4.35185, 22.605, 24.8599, 16.7712, -51.4852, -19.6344
1.22, -1, 4.41707, 22.5725, 24.8512, 16.8748, -51.375, -19.684
1.224, -1, 4.48217, 22.54, 24.8425, 16.9782, -51.265, -19.7335
1.228, -1, 4.54713, 22.5077, 24.8338, 17.0814, -51.1552, -19.7828
1.232, -1, 4.61196, 22.4754, 24.8252, 17.1843, -51.0456, -19.8321
1.236, -1, 4.67667, 22.4431, 24.8166, 17.2871, -50.9362, -19.8813
1.24, -1, 4.74124, 22.411, 24.8079, 17.3896, -50.8271, -19.9303
1.244, -1, 4.80569, 22.3788, 24.7994, 17.492, -50.7182, -19.9793
1.248, -1, 4.87, 22.3468, 24.7908, 17.5941, -50.6095, -20.0282
1.252, -1, 4.93419, 22.3148, 24.7822, 17.696, -50.501, -20.077
1.256, -1, 4.99826, 22.2829, 24.7737, 17.7978, -50.3927, -20.1256
1.26, -1, 5.06219, 22.251, 24.7652, 17.8993, -50.2846, -20.1742
1.264, -1, 5.126, 22.2192, 24.7566, 18.0007, -50.1768, -20.2227
1.267, -1, 5.18969, 22.1875, 24.7482, 18.1018, -50.0692, -20.2711
1.272, -1, 5.25325, 22.1558, 24.7397, 18.2027, -49.9617, -20.3194
1.276, -1, 5.31669, 22.1242, 24.7312, 18.3035, -49.8545, -20.3676
1.28, -1, 5.38, 22.0927, 24.7228, 18.404, -49.7475, -20.4157
1.284, -1, 5.44319, 22.0612, 24.7144, 18.5044, -49.6407, -20.4638
1.288, -1, 5.50626, 22.0298, 24.706, 18.6045, -49.5341, -20.5117
1.292, -1, 5.56921, 21.9984, 24.6976, 18.7045, -49.4277, -20.5595
1.295, -1, 5.63203, 21.9671, 24.6892, 18.8043, -49.3215, -20.6073
1.3, -1, 5.69473, 21.9359, 24.6808, 18.9038, -49.2156, -20.6549
1.304, -1, 5.75732, 21.9047, 24.6725, 19.0032, -49.1098, -20.7025
1.308, -1, 5.81978, 21.8736, 24.6642, 19.1024, -49.0042, -20.7499
1.312, -1, 5.88212, 21.8425, 24.6558, 19.2014, -48.8988, -20.7973
1.316, -1, 5.94435, 21.8115, 24.6475, 19.3003, -48.7937, -20.8446
1.32, -1, 6.00646, 21.7805, 24.6393, 19.3989, -48.6887, -20.8918
1.324, -1, 6.06845, 21.7497, 24.631, 19.4973, -48.5839, -20.9389
1.328, -1, 6.13032, 21.7188, 24.6228, 19.5956, -48.4794, -20.9859
1.332, -1, 6.19207, 21.6881, 24.6145, 19.6937, -48.375, -21.0328
1.336, -1, 6.25371, 21.6573, 24.6063, 19.7916, -48.2708, -21.0797
1.34, -1, 6.31523, 21.6267, 24.5981, 19.8893, -48.1668, -21.1264
1.344, -1, 6.37664, 21.5961, 24.5899, 19.9868, -48.063, -21.1731
1.348, -1, 6.43793, 21.5655, 24.5817, 20.0841, -47.9594, -21.2197
1.352, -1, 6.49911, 21.5351, 24.5736, 20.1813, -47.856, -21.2662
1.356, -1, 6.56018, 21.5046, 24.5654, 20.2783, -47.7528, -21.3126
1.36, -1, 6.62113, 21.4743, 24.5573, 20.3751, -47.6498, -21.3589
1.364, -1, 6.68197, 21.4439, 24.5492, 20.4717, -47.547, -21.4051
1.368, -1, 6.74269, 21.4137, 24.5411, 20.5681, -47.4443, -21.4513
1.372, -1, 6.80331, 21.3835, 24.533, 20.6644, -47.3419, -21.4973
1.376, -1, 6.86381, 21.3533, 24.525, 20.7605, -47.2396, -21.5433
1.38, -1, 6.9242, 21.3232, 24.5169, 20.8564, -47.1375, -21.5892
1.384, -1, 6.98448, 21.2932, 24.5089, 20.9521, -47.0357, -21.635
1.388, -1, 7.04465, 21.2632, 24.5009, 21.0477, -46.934, -21.6807
1.392, -1, 7.10471, 21.2333, 24.4928, 21.1431, -46.8324, -21.7264
1.396, -1, 7.16467, 21.2034, 24.4849, 21.2383, -46.7311, -21.7719
1.4, -1, 7.22451, 21.1736, 24.4769, 21.3333, -46.63, -21.8174
1.404, -1, 7.28425, 21.1438, 24.4689, 21.4282, -46.529, -21.8628
1.408, -1, 7.34387, 21.1141, 24.461, 21.5229, -46.4282, -21.9081
1.412, -1, 7.4034, 21.0845, 24.453, 21.6174, -46.3276, -21.9534
1.416, -1, 7.46281, 21.0549, 24.4451, 21.7118, -46.2272, -21.9985
1.42, -1, 7.52212, 21.0253, 24.4372, 21.806, -46.1269, -22.0436
1.424, -1, 7.58133, 20.9958, 24.4293, 21.9, -46.0269, -22.0886
1.428, -1, 7.64043, 20.9664, 24.4214, 21.9938, -45.927, -22.1335
1.432, -1, 7.69943, 20.937, 24.4136, 22.0875, -45.8273, -22.1783
1.436, -1, 7.75832, 20.9076, 24.4057, 22.181, -45.7278, -22.2231
1.44, -1, 7.81711, 20.8783, 24.3979, 22.2744, -45.6284, -22.2677
1.444, -1, 7.8758, 20.8491, 24.3901, 22.3676, -45.5292, -22.3123
1.448, -1, 7.93438, 20.8199, 24.3822, 22.4606, -45.4302, -22.3568
1.452, -1, 7.99287, 20.7908, 24.3744, 22.5535, -45.3314, -22.4013
1.456, -1, 8.05125, 20.7617, 24.3667, 22.6462, -45.2327, -22.4456
1.46, -1, 8.10953, 20.7326, 24.3589, 22.7387, -45.1342, -22.4899
1.464, -1, 8.16771, 20.7037, 24.3511, 22.8311, -45.0359, -22.5341
1.468, -1, 8.22578, 20.6747, 24.3434, 22.9234, -44.9378, -22.5783
1.472, -1, 8.28376, 20.6458, 24.3357, 23.0154, -44.8398, -22.6223
1.476, -1, 8.34164, 20.617, 24.328, 23.1073, -44.742, -22.6663
1.48, -1, 8.39942, 20.5882, 24.3203, 23.1991, -44.6443, -22.7102
1.484, -1, 8.4571, 20.5595, 24.3126, 23.2907, -44.5468, -22.754
1.488, -1, 8.51469, 20.5308, 24.3049, 23.3821, -44.4495, -22.7978
1.492, -1, 8.57218, 20.5021, 24.2972, 23.4734, -44.3523, -22.8415
1.496, -1, 8.62957, 20.4735, 24.2896, 23.5645, -44.2554, -22.8851
1.5, -1, 8.68686, 20.445, 24.2819, 23.6555, -44.1585, -22.9286
1.504, -1, 8.74406, 20.4165, 24.2743, 23.7464, -44.0619, -22.9721
1.508, -1, 8.80116, 20.388, 24.2667, 23.837, -43.9654, -23.0155
1.512, -1, 8.85816, 20.3596, 24.2591, 23.9276, -43.869, -23.0588
1.516, -1, 8.91508, 20.3313, 24.2515, 24.0179, -43.7728, -23.102
1.52, -1, 8.97189, 20.303, 24.2439, 24.1082, -43.6768, -23.1452
1.524, -1, 9.02862, 20.2747, 24.2364, 24.1982, -43.5809, -23.1883
1.528, -1, 9.08525, 20.2465, 24.2288, 24.2882, -43.4852, -23.2313
1.532, -1, 9.14179, 20.2183, 24.2213, 24.378, -43.3897, -23.2743
1.536, -1, 9.19823, 20.1902, 24.2138, 24.4676, -43.2943, -23.3172
1.54, -1, 9.25459, 20.1621, 24.2063, 24.5571, -43.199, -23.36
1.544, -1, 9.31085, 20.1341, 24.1988, 24.6464, -43.1039, -23.4028
1.548, -1, 9.36702, 20.1061, 24.1913, 24.7356, -43.009, -23.4454
1.552, -1, 9.4231, 20.0782, 24.1838, 24.8247, -42.9142, -23.4881
1.556, -1, 9.47909, 20.0503, 24.1763, 24.9136, -42.8196, -23.5306
1.56, -1, 9.53499, 20.0224, 24.1689, 25.0024, -42.7251, -23.5731
1.564, -1, 9.5908, 19.9946, 24.1614, 25.091, -42.6308, -23.6155
1.568, -1, 9.64652, 19.9668, 24.154, 25.1795, -42.5366, -23.6578
1.572, -1, 9.70215, 19.9391, 24.1466, 25.2678, -42.4426, -23.7001
1.576, -1, 9.7577, 19.9114, 24.1392, 25.3561, -42.3487, -23.7423
1.58, -1, 9.81316, 19.8838, 24.1318, 25.4441, -42.255, -23.7845
1.584, -1, 9.86852, 19.8562, 24.1244, 25.5321, -42.1614, -23.8265
1.588, -1, 9.92381, 19.8287, 24.117, 25.6198, -42.068, -23.8685
1.592, -1, 9.979, 19.8012, 24.1097, 25.7075, -41.9747, -23.9105
1.596, -1, 10.0341, 19.7737, 24.1023, 25.795, -41.8816, -23.9524
1.6, -1, 10.0891, 19.7463, 24.095, 25.8824, -41.7886, -23.9942
1.604, -1, 10.1441, 19.7189, 24.0877, 25.9696, -41.6957, -24.0359
1.608, -1, 10.1989, 19.6916, 24.0804, 26.0567, -41.603, -24.0776
1.612, -1, 10.2537, 19.6643, 24.0731, 26.1437, -41.5104, -24.1192
1.616, -1, 10.3084, 19.6371, 24.0658, 26.2306, -41.418, -24.1608
1.62, -1, 10.363, 19.6099, 24.0585, 26.3173, -41.3257, -24.2023
1.624, -1, 10.4175, 19.5827, 24.0512, 26.4038, -41.2336, -24.2437
1.628, -1, 10.4719, 19.5556, 24.044, 26.4903, -41.1416, -24.2851
1.632, -1, 10.5263, 19.5285, 24.0367, 26.5766, -41.0497, -24.3264
1.636, -1, 10.5806, 19.5015, 24.0295, 26.6628, -40.958, -24.3676
1.64, -1, 10.6347, 19.4745, 24.0223, 26.7488, -40.8664, -24.4088
1.644, -1, 10.6888, 19.4475, 24.0151, 26.8348, -40.775, -24.4499
1.648, -1, 10.7429, 19.4206, 24.0079, 26.9205, -40.6837, -24.4909
1.652, -1, 10.7968, 19.3937, 24.0007, 27.0062, -40.5925, -24.5319
1.656, -1, 10.8507, 19.3669, 23.9935, 27.0917, -40.5015, -24.5729
1.66, -1, 10.9044, 19.3401, 23.9863, 27.1771, -40.4106, -24.6137
1.664, -1, 10.9581, 19.3133, 23.9792, 27.2624, -40.3198, -24.6545
1.668, -1, 11.0118, 19.2866, 23.972, 27.3476, -40.2292, -24.6953
1.672, -1, 11.0653, 19.2599, 23.9649, 27.4326, -40.1387, -24.736
1.676, -1, 11.1188, 19.2333, 23.9577, 27.5175, -40.0484, -24.7766
1.68, -1, 11.1722, 19.2067, 23.9506, 27.6023, -39.9581, -24.8172
1.684, -1, 11.2255, 19.1801, 23.9435, 27.6869, -39.868, -24.8577
1.688, -1, 11.2787, 19.1536, 23.9364, 27.7715, -39.7781, -24.8981
1.692, -1, 11.3318, 19.1271, 23.9293, 27.8559, -39.6883, -24.9385
1.696, -1, 11.3849, 19.1007, 23.9223, 27.9401, -39.5986, -24.9788
1.7, -1, 11.4379, 19.0743, 23.9152, 28.0243, -39.509, -25.0191
1.704, -1, 11.4908, 19.0479, 23.9081, 28.1083, -39.4196, -25.0593
1.708, -1, 11.5437, 19.0216, 23.9011, 28.1923, -39.3303, -25.0995
1.712, -1, 11.5964, 18.9953, 23.8941, 28.2761, -39.2411, -25.1396
1.716, -1, 11.6491, 18.969, 23.887, 28.3597, -39.152, -25.1796
1.72, -1, 11.7017, 18.9428, 23.88, 28.4433, -39.0631, -25.2196
1.724, -1, 11.7543, 18.9166, 23.873, 28.5267, -38.9743, -25.2595
1.728, -1, 11.8067, 18.8905, 23.866, 28.61, -38.8856, -25.2994
1.732, -1, 11.8591, 18.8644, 23.859, 28.6932, -38.7971, -25.3392
1.736, -1, 11.9114, 18.8383, 23.8521, 28.7763, -38.7087, -25.3789
1.74, -1, 11.9637, 18.8123, 23.8451, 28.8593, -38.6204, -25.4186
1.744, -1, 12.0158, 18.7863, 23.8381, 28.9421, -38.5322, -25.4583
1.748, -1, 12.0679, 18.7604, 23.8312, 29.0248, -38.4442, -25.4979
1.752, -1, 12.1199, 18.7344, 23.8243, 29.1075, -38.3562, -25.5374
1.756, -1, 12.1719, 18.7086, 23.8173, 29.19, -38.2684, -25.5769
1.76, -1, 12.2238, 18.6827, 23.8104, 29.2723, -38.1808, -25.6163
1.764, -1, 12.2756, 18.6569, 23.8035, 29.3546, -38.0932, -25.6556
1.768, -1, 12.3273, 18.6311, 23.7966, 29.4368, -38.0058, -25.695
1.772, -1, 12.379, 18.6054, 23.7897, 29.5188, -37.9185, -25.7342
1.776, -1, 12.4305, 18.5797, 23.7829, 29.6007, -37.8313, -25.7734
1.78, -1, 12.4821, 18.554, 23.776, 29.6825, -37.7442, -25.8126
1.784, -1, 12.5335, 18.5284, 23.7691, 29.7642, -37.6573, -25.8517
1.788, -1, 12.5849, 18.5028, 23.7623, 29.8458, -37.5704, -25.8907
1.792, -1, 12.6362, 18.4772, 23.7554, 29.9273, -37.4837, -25.9297
1.796, -1, 12.6874, 18.4517, 23.7486, 30.0087, -37.3971, -25.9686
1.8, -1, 12.7386, 18.4262, 23.7418, 30.0899, -37.3106, -26.0075
1.804, -1, 12.7897, 18.4007, 23.735, 30.1711, -37.2243, -26.0463
1.808, -1, 12.8407, 18.3753, 23.7282, 30.2521, -37.1381, -26.0851
1.812, -1, 12.8916, 18.3499, 23.7214, 30.333, -37.0519, -26.1238
1.816, -1, 12.9425, 18.3246, 23.7146, 30.4138, -36.9659, -26.1625
1.82, -1, 12.9933, 18.2992, 23.7078, 30.4945, -36.88, -26.2011
1.824, -1, 13.0441, 18.274, 23.7011, 30.5751, -36.7942, -26.2397
1.828, -1, 13.0948, 18.2487, 23.6943, 30.6556, -36.7086, -26.2782
1.832, -1, 13.1454, 18.2235, 23.6876, 30.736, -36.623, -26.3167
1.836, -1, 13.1959, 18.1983, 23.6808, 30.8163, -36.5376, -26.3551
1.84, -1, 13.2464, 18.1731, 23.6741, 30.8965, -36.4523, -26.3934
1.844, -1, 13.2968, 18.148, 23.6674, 30.9765, -36.3671, -26.4317
1.848, -1, 13.3472, 18.1229, 23.6607, 31.0565, -36.282, -26.47
1.852, -1, 13.3975, 18.0979, 23.654, 31.1363, -36.197, -26.5082
1.856, -1, 13.4477, 18.0729, 23.6473, 31.2161, -36.1121, -26.5464
1.86, -1, 13.4978, 18.0479, 23.6406, 31.2957, -36.0273, -26.5845
1.864, -1, 13.5479, 18.0229, 23.6339, 31.3753, -35.9427, -26.6225
1.868, -1, 13.5979, 17.998, 23.6272, 31.4547, -35.8582, -26.6606
1.872, -1, 13.6479, 17.9731, 23.6206, 31.534, -35.7737, -26.6985
1.876, -1, 13.6978, 17.9482, 23.6139, 31.6133, -35.6894, -26.7364
1.88, -1, 13.7476, 17.9234, 23.6073, 31.6924, -35.6052, -26.7743
1.884, -1, 13.7974, 17.8986, 23.6006, 31.7714, -35.5211, -26.8121
1.888, -1, 13.8471, 17.8739, 23.594, 31.8504, -35.4371, -26.8499
1.892, -1, 13.8967, 17.8491, 23.5874, 31.9292, -35.3532, -26.8876
1.896, -1, 13.9463, 17.8244, 23.5808, 32.0079, -35.2694, -26.9253
1.9, -1, 13.9958, 17.7998, 23.5742, 32.0865, -35.1857, -26.9629
1.904, -1, 14.0452, 17.7751, 23.5676, 32.1651, -35.1021, -27.0005
1.908, -1, 14.0946, 17.7505, 23.561, 32.2435, -35.0187, -27.038
1.912, -1, 14.144, 17.7259, 23.5544, 32.3218, -34.9353, -27.0755
1.916, -1, 14.1932, 17.7014, 23.5479, 32.4001, -34.852, -27.1129
1.92, -1, 14.2424, 17.6769, 23.5413, 32.4782, -34.7689, -27.1503
1.924, -1, 14.2916, 17.6524, 23.5348, 32.5563, -34.6858, -27.1877
1.928, -1, 14.3406, 17.6279, 23.5282, 32.6342, -34.6029, -27.2249
1.932, -1, 14.3896, 17.6035, 23.5217, 32.712, -34.52, -27.2622
1.936, -1, 14.4386, 17.5791, 23.5152, 32.7898, -34.4373, -27.2994
1.94, -1, 14.4875, 17.5547, 23.5086, 32.8674, -34.3546, -27.3366
1.944, -1, 14.5363, 17.5304, 23.5021, 32.945, -34.2721, -27.3737
1.948, -1, 14.5851, 17.5061, 23.4956, 33.0225, -34.1896, -27.4107
1.952, -1, 14.6338, 17.4818, 23.4891, 33.0998, -34.1073, -27.4478
1.956, -1, 14.6825, 17.4576, 23.4826, 33.1771, -34.0251, -27.4847
1.96, -1, 14.7311, 17.4334, 23.4762, 33.2543, -33.9429, -27.5217
1.964, -1, 14.7796, 17.4092, 23.4697, 33.3314, -33.8609, -27.5586
1.968, -1, 14.8281, 17.385, 23.4632, 33.4084, -33.7789, -27.5954
1.972, -1, 14.8765, 17.3609, 23.4568, 33.4853, -33.6971, -27.6322
1.976, -1, 14.9249, 17.3368, 23.4503, 33.5621, -33.6153, -27.6689
1.98, -1, 14.9732, 17.3127, 23.4439, 33.6388, -33.5337, -27.7057
1.984, -1, 15.0214, 17.2887, 23.4375, 33.7154, -33.4521, -27.7423
1.988, -1, 15.0696, 17.2647, 23.431, 33.792, -33.3707, -27.7789
1.992, -1, 15.1178, 17.2407, 23.4246, 33.8684, -33.2893, -27.8155
1.996, -1, 15.1658, 17.2167, 23.4182, 33.9448, -33.2081, -27.8521
1.999, -1, 15.2139, 17.1928, 23.4118, 34.021, -33.1269, -27.8886
2.004, -1, 15.2618, 17.1689, 23.4054, 34.0972, -33.0458, -27.925
2.008, -1, 15.3097, 17.145, 23.399, 34.1733, -32.9649, -27.9614
2.012, -1, 15.3576, 17.1212, 23.3926, 34.2493, -32.884, -27.9978
2.015, -1, 15.4054, 17.0974, 23.3863, 34.3252, -32.8032, -28.0341
2.019, -1, 15.4531, 17.0736, 23.3799, 34.401, -32.7225, -28.0704
2.024, -1, 15.5008, 17.0498, 23.3735, 34.4767, -32.6419, -28.1066
2.028, -1, 15.5484, 17.0261, 23.3672, 34.5524, -32.5614, -28.1428
2.031, -1, 15.596, 17.0024, 23.3609, 34.6279, -32.481, -28.179
2.036, -1, 15.6435, 16.9787, 23.3545, 34.7034, -32.4007, -28.2151
2.04, -1, 15.691, 16.9551, 23.3482, 34.7788, -32.3205, -28.2511
2.044, -1, 15.7384, 16.9314, 23.3419, 34.8541, -32.2403, -28.2872
2.048, -1, 15.7857, 16.9079, 23.3356, 34.9293, -32.1603, -28.3232
2.051, -1, 15.833, 16.8843, 23.3293, 35.0044, -32.0803, -28.3591
2.055, -1, 15.8803, 16.8607, 23.323, 35.0794, -32.0005, -28.395
2.06, -1, 15.9275, 16.8372, 23.3167, 35.1544, -31.9207, -28.4309
2.064, -1, 15.9746, 16.8137, 23.3104, 35.2293, -31.841, -28.4667
2.068, -1, 16.0217, 16.7903, 23.3041, 35.304, -31.7615, -28.5025
2.071, -1, 16.0687, 16.7668, 23.2978, 35.3787, -31.682, -28.5382
2.076, -1, 16.1157, 16.7434, 23.2916, 35.4533, -31.6026, -28.5739
2.08, -1, 16.1626, 16.72, 23.2853, 35.5279, -31.5232, -28.6096
2.084, -1, 16.2095, 16.6967, 23.2791, 35.6023, -31.444, -28.6452
2.087, -1, 16.2563, 16.6734, 23.2728, 35.6767, -31.3649, -28.6808
2.092, -1, 16.3031, 16.6501, 23.2666, 35.751, -31.2858, -28.7163
2.096, -1, 16.3498, 16.6268, 23.2604, 35.8252, -31.2068, -28.7518
2.1, -1, 16.3965, 16.6035, 23.2541, 35.8993, -31.128, -28.7873
2.104, -1, 16.4431, 16.5803, 23.2479, 35.9733, -31.0492, -28.8227
2.107, -1, 16.4896, 16.5571, 23.2417, 36.0473, -30.9705, -28.8581
2.111, -1, 16.5361, 16.5339, 23.2355, 36.1211, -30.8919, -28.8935
2.116, -1, 16.5826, 16.5108, 23.2293, 36.1949, -30.8133, -28.9288
2.12, -1, 16.629, 16.4876, 23.2231, 36.2686, -30.7349, -28.964
2.124, -1, 16.6754, 16.4645, 23.2169, 36.3422, -30.6565, -28.9993
2.127, -1, 16.7217, 16.4415, 23.2108, 36.4158, -30.5783, -29.0345
2.132, -1, 16.7679, 16.4184, 23.2046, 36.4893, -30.5001, -29.0696
2.136, -1, 16.8141, 16.3954, 23.1984, 36.5626, -30.422, -29.1047
2.14, -1, 16.8603, 16.3724, 23.1923, 36.636, -30.3439, -29.1398
2.143, -1, 16.9064, 16.3494, 23.1861, 36.7092, -30.266, -29.1749
2.148, -1, 16.9525, 16.3265, 23.18, 36.7823, -30.1882, -29.2099
2.152, -1, 16.9985, 16.3035, 23.1739, 36.8554, -30.1104, -29.2448
2.156, -1, 17.0444, 16.2806, 23.1677, 36.9284, -30.0327, -29.2798
2.16, -1, 17.0903, 16.2578, 23.1616, 37.0013, -29.9551, -29.3146
2.163, -1, 17.136, 16.235, 23.1555, 37.0742, -29.8776, -29.3495
2.168, -1, 17.1814, 16.2123, 23.1494, 37.1469, -29.8002, -29.3843
2.172, -1, 17.2261, 16.1899, 23.1432, 37.2195, -29.7229, -29.4191
2.176, -1, 17.2699, 16.168, 23.1369, 37.2919, -29.6459, -29.4537
2.179, -1, 17.3126, 16.1465, 23.1306, 37.364, -29.5692, -29.4882
2.184, -1, 17.3541, 16.1257, 23.1243, 37.4355, -29.4931, -29.5224
2.188, -1, 17.3942, 16.1056, 23.1179, 37.5062, -29.4179, -29.5563
2.192, -1, 17.4331, 16.0862, 23.1116, 37.5758, -29.344, -29.5895
2.196, -1, 17.4706, 16.0676, 23.1053, 37.6437, -29.2717, -29.6221
2.199, -1, 17.5068, 16.0498, 23.0992, 37.7096, -29.2017, -29.6536
2.204, -1, 17.5414, 16.0329, 23.0933, 37.7731, -29.1342, -29.684
2.208, -1, 17.5743, 16.017, 23.0876, 37.8335, -29.07, -29.7129
2.212, -1, 17.6054, 16.0022, 23.0823, 37.8904, -29.0095, -29.7402
2.216, -1, 17.6346, 15.9882, 23.0774, 37.9435, -28.9531, -29.7656
2.219, -1, 17.662, 15.9751, 23.0729, 37.9922, -28.9013, -29.7889
2.224, -1, 17.6877, 15.9626, 23.0689, 38.0363, -28.8544, -29.81
2.228, -1, 17.7118, 15.9507, 23.0656, 38.0756, -28.8126, -29.8288
2.232, -1, 17.7344, 15.9393, 23.0628, 38.11, -28.7759, -29.8453
2.235, -1, 17.7552, 15.9285, 23.0605, 38.1397, -28.7443, -29.8594
2.24, -1, 17.7743, 15.9185, 23.0588, 38.1648, -28.7176, -29.8714
2.244, -1, 17.7915, 15.9094, 23.0575, 38.1856, -28.6954, -29.8814
2.248, -1, 17.8067, 15.9013, 23.0566, 38.2025, -28.6773, -29.8895
2.252, -1, 17.8202, 15.8942, 23.056, 38.216, -28.6629, -29.8959
2.255, -1, 17.832, 15.8881, 23.0557, 38.2265, -28.6516, -29.9009
2.259, -1, 17.8423, 15.8828, 23.0556, 38.2345, -28.643, -29.9048
2.264, -1, 17.8512, 15.8784, 23.0556, 38.2404, -28.6366, -29.9076
2.268, -1, 17.8587, 15.8748, 23.0557, 38.2447, -28.632, -29.9096
2.272, -1, 17.8648, 15.8719, 23.0559, 38.2477, -28.6287, -29.9111
2.275, 2, 17.8697, 15.8697, 23.056, 38.2499, -28.6264, -29.9121
2.28, 2, 17.8733, 15.8681, 23.0561, 38.2513, -28.6248, -29.9128
2.284, 2, 17.876, 15.867, 23.0562, 38.2523, -28.6238, -29.9132
2.288, 2, 17.8778, 15.8662, 23.0563, 38.253, -28.623, -29.9136
2.291, 2, 17.879, 15.8657, 23.0563, 38.2534, -28.6226, -29.9138
2.296, 2, 17.8798, 15.8653, 23.0563, 38.2537, -28.6222, -29.9139
2.3, 2, 17.8804, 15.8651, 23.0563, 38.2539, -28.622, -29.914
2.304, 2, 17.8808, 15.8649, 23.0564, 38.2541, -28.6218, -29.9141
2.308, 2, 17.881, 15.8648, 23.0564, 38.2542, -28.6217, -29.9141
2.311, 2, 17.8812, 15.8647, 23.0564, 38.2542, -28.6217, -29.9142
2.316, 2, 17.8813, 15.8647, 23.0564, 38.2543, -28.6216, -29.9142
2.32, 2, 17.8814, 15.8646, 23.0564, 38.2543, -28.6216, -29.9142
2.324, 2, 17.8815, 15.8646, 23.0564, 38.2543, -28.6216, -29.9142
2.328, 2, 17.8815, 15.8646, 23.0564, 38.2543, -28.6215, -29.9142
2.331, 2, 17.8815, 15.8646, 23.0564, 38.2543, -28.6215, -29.9142
2.336, 2, 17.8815, 15.8646, 23.0564, 38.2544, -28.6215, -29.9142
2.34, 2, 17.8815, 15.8646, 23.0564, 38.2544, -28.6215, -29.9142
2.344, 2, 17.8816, 15.8646, 23.0564, 38.2544, -28.6215, -29.9142
2.347, 2, 17.8816, 15.8646, 23.0564, 38.2544, -28.6215, -29.9142
2.352, 2, 17.8816, 15.8646, 23.0564, 38.2544, -28.6215, -29.9142
2.356, 2, 17.8816, 15.8646, 23.0564, 38.2544, -28.6215, -29.9142
2.36, 2, 17.8816, 15.8645, 23.0564, 38.2544, -28.6215, -29.9142
2.364, 2, 17.8816, 15.8645, 23.0564, 38.2544, -28.6215, -29.9142
2.367, 2, 17.8816, 15.8645, 23.0564, 38.2544, -28.6215, -29.9142
2.372, 2, 17.8816, 15.8645, 23.0564, 38.2544, -28.6215, -29.9142
2.376, 2, 17.8816, 15.8645, 23.0564, 38.2544, -28.6215, -29.9142
2.38, 2, 17.8816, 15.8645, 23.0564, 38.2544, -28.6215, -29.9142
2.383, 2, 17.8816, 15.8645, 23.0564, 38.2544, -28.6215, -29.9142
2.388, 2, 17.8816, 15.8645, 23.0564, 38.2544, -28.6215, -29.9142
2.392, 2, 17.8816, 15.8645, 23.0564, 38.2544, -28.6215, -29.9142
2.396, 2, 17.8816, 15.8645, 23.0564, 38.2544, -28.6215, -29.9142
2.4, 2, 17.8816, 15.8645, 23.0564, 38.2544, -28.6215, -29.9142
2.403, 2, 17.8816, 15.8645, 23.0564, 38.2544, -28.6215, -29.9142
2.408, 2, 17.8816, 15.8645, 23.0564, 38.2544, -28.6215, -29.9142
2.412, 2, 17.8816, 15.8645, 23.0564, 38.2544, -28.6215, -29.9142
2.416, 2, 17.8816, 15.8645, 23.0564, 38.2544, -28.6215, -29.9142
2.42, 2, 17.8816, 15.8645, 23.0564, 38.2544, -28.6215, -29.9142
2.423, 2, 17.8816, 15.8645, 23.0564, 38.2544, -28.6215, -29.9142
2.428, 2, 17.8816, 15.8645, 23.0564, 38.2544, -28.6215, -29.9142
2.432, 2, 17.8816, 15.8645, 23.0564, 38.2544, -28.6215, -29.9142
2.436, 2, 17.8816, 15.8645, 23.0564, 38.2544, -28.6215, -29.9142
2.439, 2, 17.8816, 15.8645, 23.0564, 38.2544, -28.6215, -29.9142
2.444, 2, 17.8816, 15.8645, 23.0564, 38.2544, -28.6215, -29.9142
2.448, 2, 17.8816, 15.8645, 23.0564, 38.2544, -28.6215, -29.9142
2.452, 2, 17.8816, 15.8645, 23.0564, 38.2544, -28.6215, -29.9142
2.456, 2, 17.8816, 15.8645, 23.0564, 38.2544, -28.6215, -29.9142
2.459, 2, 17.8816, 15.8645, 23.0564, 38.2544, -28.6215, -29.9142
2.464, 2, 17.8816, 15.8645, 23.0564, 38.2544, -28.6215, -29.9142
2.468, 2, 17.8816, 15.8645, 23.0564, 38.2544, -28.6215, -29.9142
2.472, 2, 17.8816, 15.8645, 23.0564, 38.2544, -28.6215, -29.9142
2.476, 2, 17.8816, 15.8645, 23.0564, 38.2544, -28.6215, -29.9142
2.479, 2, 17.8816, 15.8645, 23.0564, 38.2544, -28.6215, -29.9142
2.484, 2, 17.8816, 15.8645, 23.0564, 38.2544, -28.6215, -29.9142
2.488, 2, 17.8816, 15.8645, 23.0564, 38.2544, -28.6215, -29.9142
2.492, 2, 17.8816, 15.8645, 23.0564, 38.2544, -28.6215, -29.9142
2.495, 2, 17.8816, 15.8645, 23.0564, 38.2544, -28.6215, -29.9142
2.5, 2, 17.8816, 15.8645, 23.0564, 38.2544, -28.6215, -29.9142
2.504, 2, 17.8816, 15.8645, 23.0564, 38.2544, -28.6215, -29.9142
2.508, 2, 17.8816, 15.8645, 23.0564, 38.2544, -28.6215, -29.9142
2.512, 2, 17.8816, 15.8645, 23.0564, 38.2544, -28.6215, -29.9142
2.515, 2, 17.8816, 15.8645, 23.0564, 38.2544, -28.6215, -29.9142
2.52, 2, 17.8816, 15.8645, 23.0564, 38.2544, -28.6215, -29.9142
2.524, 2, 17.8816, 15.8645, 23.0564, 38.2544, -28.6215, -29.9142
2.528, 2, 17.8816, 15.8645, 23.0564, 38.2544, -28.6215, -29.9142
2.531, 2, 17.8816, 15.8645, 23.0564, 38.2544, -28.6215, -29.9142
2.536, 2, 17.8816, 15.8645, 23.0564, 38.2544, -28.6215, -29.9142
2.54, 2, 17.8816, 15.8645, 23.0564, 38.2544, -28.6215, -29.9142
2.544, 2, 17.8816, 15.8645, 23.0564, 38.2544, -28.6215, -29.9142
2.548, 2, 17.8816, 15.8645, 23.0564, 38.2544, -28.6215, -29.9142
2.551, 2, 17.8816, 15.8645, 23.0564, 38.2544, -28.6215, -29.9142
2.556, 2, 17.8816, 15.8645, 23.0564, 38.2544, -28.6215, -29.9142
2.56, 2, 17.8816, 15.8645, 23.0564, 38.2544, -28.6215, -29.9142
2.564, 2, 17.8816, 15.8645, 23.0564, 38.2544, -28.6215, -29.9142
2.568, 2, 17.8816, 15.8645, 23.0564, 38.2544, -28.6215, -29.9142
2.571, 2, 17.8816, 15.8645, 23.0564, 38.2544, -28.6215, -29.9142
2.576, 2, 17.8816, 15.8645, 23.0564, 38.2544, -28.6215, -29.9142
2.58, 2, 17.8816, 15.8645, 23.0564, 38.2544, -28.6215, -29.9142
2.584, 2, 17.8816, 15.8645, 23.0564, 38.2544, -28.6215, -29.9142
2.587, 2, 17.8816, 15.8645, 23.0564, 38.2544, -28.6215, -29.9142
2.592, 2, 17.8816, 15.8645, 23.0564, 38.2544, -28.6215, -29.9142
2.596, 2, 17.8816, 15.8645, 23.0564, 38.2544, -28.6215, -29.9142
2.6, 2, 17.8816, 15.8645, 23.0564, 38.2544, -28.6215, -29.9142
2.604, 2, 17.8816, 15.8645, 23.0564, 38.2544, -28.6215, -29.9142
2.607, 2, 17.8816, 15.8645, 23.0564, 38.2544, -28.6215, -29.9142
2.612, 2, 17.8816, 15.8645, 23.0564, 38.2544, -28.6215, -29.9142
2.616, 2, 17.8816, 15.8645, 23.0564, 38.2544, -28.6215, -29.9142
2.62, 2, 17.8816, 15.8645, 23.0564, 38.2544, -28.6215, -29.9142
2.624, 2, 17.8816, 15.8645, 23.0564, 38.2544, -28.6215, -29.9142
2.627, 2, 17.8816, 15.8645, 23.0564, 38.2544, -28.6215, -29.9142
2.632, 2, 17.8816, 15.8645, 23.0564, 38.2544, -28.6215, -29.9142
2.636, 2, 17.8816, 15.8645, 23.0564, 38.2544, -28.6215, -29.9142
2.64, 2, 17.8816, 15.8645, 23.0564, 38.2544, -28.6215, -29.9142
2.643, 2, 17.8816, 15.8645, 23.0564, 38.2544, -28.6215, -29.9142
2.648, 2, 17.8816, 15.8645, 23.0564, 38.2544, -28.6215, -29.9142
2.652, 2, 17.8816, 15.8645, 23.0564, 38.2544, -28.6215, -29.9142
2.656, 2, 17.8816, 15.8645, 23.0564, 38.2544, -28.6215, -29.9142
2.66, 2, 17.8816, 15.8645, 23.0564, 38.2544, -28.6215, -29.9142
2.663, 2, 17.8816, 15.8645, 23.0564, 38.2544, -28.6215, -29.9142
2.668, 2, 17.8816, 15.8645, 23.0564, 38.2544, -28.6215, -29.9142
2.672, 2, 17.8816, 15.8645, 23.0564, 38.2544, -28.6215, -29.9142
2.676, 2, 17.8816, 15.8645, 23.0564, 38.2544, -28.6215, -29.9142
2.679, 2, 17.8816, 15.8645, 23.0564, 38.2544, -28.6215, -29.9142
2.684, 2, 17.8816, 15.8645, 23.0564, 38.2544, -28.6215, -29.9142
2.688, 2, 17.8816, 15.8645, 23.0564, 38.2544, -28.6215, -29.9142
2.692, 2, 17.8816, 15.8645, 23.0564, 38.2544, -28.6215, -29.9142
2.696, 2, 17.8816, 15.8645, 23.0564, 38.2544, -28.6215, -29.9142
2.699, 2, 17.8816, 15.8645, 23.0564, 38.2544, -28.6215, -29.9142
2.704, 2, 17.8816, 15.8645, 23.0564, 38.2544, -28.6215, -29.9142
2.708, 2, 17.8816, 15.8645, 23.0564, 38.2544, -28.6215, -29.9142
2.712, 2, 17.8816, 15.8645, 23.0564, 38.2544, -28.6215, -29.9142
2.716, 2, 17.8816, 15.8645, 23.0564, 38.2544, -28.6215, -29.9142
2.719, 2, 17.8816, 15.8645, 23.0564, 38.2544, -28.6215, -29.9142
2.724, 2, 17.8816, 15.8645, 23.0564, 38.2544, -28.6215, -29.9142
2.728, 2, 17.8816, 15.8645, 23.0564, 38.2544, -28.6215, -29.9142
2.732, 2, 17.8816, 15.8645, 23.0564, 38.2544, -28.6215, -29.9142
2.735, 2, 17.8816, 15.8645, 23.0564, 38.2544, -28.6215, -29.9142
2.74, 2, 17.8816, 15.8645, 23.0564, 38.2544, -28.6215, -29.9142
2.744, 2, 17.8816, 15.8645, 23.0564, 38.2544, -28.6215, -29.9142
2.748, 2, 17.8816, 15.8645, 23.0564, 38.2544, -28.6215, -29.9142
2.752, 2, 17.8816, 15.8645, 23.0564, 38.2544, -28.6215, -29.9142
2.755, 2, 17.8816, 15.8645, 23.0564, 38.2544, -28.6215, -29.9142
2.76, 2, 17.8816, 15.8645, 23.0564, 38.2544, -28.6215, -29.9142
2.764, 2, 17.8816, 15.8645, 23.0564, 38.2544, -28.6215, -29.9142
2.768, 2, 17.8816, 15.8645, 23.0564, 38.2544, -28.6215, -29.9142
2.772, 2, 17.8816, 15.8645, 23.0564, 38.2544, -28.6215, -29.9142
2.775, 2, 17.8816, 15.8645, 23.0564, 38.2544, -28.6215, -29.9142
2.78, 2, 17.8816, 15.8645, 23.0564, 38.2544, -28.6215, -29.9142
2.784, 2, 17.8816, 15.8645, 23.0564, 38.2544, -28.6215, -29.9142
2.788, 2, 17.8816, 15.8645, 23.0564, 38.2544, -28.6215, -29.9142
2.791, 2, 17.8816, 15.8645, 23.0564, 38.2544, -28.6215, -29.9142
2.796, 2, 17.8816, 15.8645, 23.0564, 38.2544, -28.6215, -29.9142
2.8, 2, 17.8816, 15.8645, 23.0564, 38.2544, -28.6215, -29.9142
2.804, 2, 17.8816, 15.8645, 23.0564, 38.2544, -28.6215, -29.9142
2.808, 2, 17.8816, 15.8645, 23.0564, 38.2544, -28.6215, -29.9142
2.811, 2, 17.8816, 15.8645, 23.0564, 38.2544, -28.6215, -29.9142
2.816, 2, 17.8816, 15.8645, 23.0564, 38.2544, -28.6215, -29.9142
2.82, 2, 17.8816, 15.8645, 23.0564, 38.2544, -28.6215, -29.9142
2.824, 2, 17.8816, 15.8645, 23.0564, 38.2544, -28.6215, -29.9142
2.828, 2, 17.8816, 15.8645, 23.0564, 38.2544, -28.6215, -29.9142
2.831, 2, 17.8816, 15.8645, 23.0564, 38.2544, -28.6215, -29.9142
2.836, 2, 17.8816, 15.8645, 23.0564, 38.2544, -28.6215, -29.9142
2.84, 2, 17.8816, 15.8645, 23.0564, 38.2544, -28.6215, -29.9142
2.844, 2, 17.8816, 15.8645, 23.0564, 38.2544, -28.6215, -29.9142
2.847, 2, 17.8816, 15.8645, 23.0564, 38.2544, -28.6215, -29.9142
2.852, 2, 17.8816, 15.8645, 23.0564, 38.2544, -28.6215, -29.9142
2.856, 2, 17.8816, 15.8645, 23.0564, 38.2544, -28.6215, -29.9142
2.86, 2, 17.8816, 15.8645, 23.0564, 38.2544, -28.6215, -29.9142
2.864, 2, 17.8816, 15.8645, 23.0564, 38.2544, -28.6215, -29.9142
2.867, 2, 17.8816, 15.8645, 23.0564, 38.2544, -28.6215, -29.9142
2.872, 2, 17.8816, 15.8645, 23.0564, 38.2544, -28.6215, -29.9142
2.876, 2, 17.8816, 15.8645, 23.0564, 38.2544, -28.6215, -29.9142
2.88, 2, 17.8816, 15.8645, 23.0564, 38.2544, -28.6215, -29.9142
2.883, 2, 17.8816, 15.8645, 23.0564, 38.2544, -28.6215, -29.9142
2.888, 2, 17.8816, 15.8645, 23.0564, 38.2544, -28.6215, -29.9142
2.892, 2, 17.8816, 15.8645, 23.0564, 38.2544, -28.6215, -29.9142
2.896, 2, 17.8816, 15.8645, 23.0564, 38.2544, -28.6215, -29.9142
2.9, 2, 17.8816, 15.8645, 23.0564, 38.2544, -28.6215, -29.9142
2.903, 2, 17.8816, 15.8645, 23.0564, 38.2544, -28.6215, -29.9142
2.908, 2, 17.8816, 15.8645, 23.0564, 38.2544, -28.6215, -29.9142
2.912, 2, 17.8816, 15.8645, 23.0564, 38.2544, -28.6215, -29.9142
2.916, 2, 17.8816, 15.8645, 23.0564, 38.2544, -28.6215, -29.9142
2.92, 2, 17.8816, 15.8645, 23.0564, 38.2544, -28.6215, -29.9142
2.923, 2, 17.8816, 15.8645, 23.0564, 38.2544, -28.6215, -29.9142
2.928, 2, 17.8816, 15.8645, 23.0564, 38.2544, -28.6215, -29.9142
2.932, 2, 17.8816, 15.8645, 23.0564, 38.2544, -28.6215, -29.9142
2.936, 2, 17.8816, 15.8645, 23.0564, 38.2544, -28.6215, -29.9142
2.939, 2, 17.8816, 15.8645, 23.0564, 38.2544, -28.6215, -29.9142
2.944, 2, 17.8816, 15.8645, 23.0564, 38.2544, -28.6215, -29.9142
2.948, 2, 17.8816, 15.8645, 23.0564, 38.2544, -28.6215, -29.9142
2.952, 2, 17.8816, 15.8645, 23.0564, 38.2544, -28.6215, -29.9142
2.956, 2, 17.8816, 15.8645, 23.0564, 38.2544, -28.6215, -29.9142
2.959, 2, 17.8816, 15.8645, 23.0564, 38.2544, -28.6215, -29.9142
2.964, 2, 17.8816, 15.8645, 23.0564, 38.2544, -28.6215, -29.9142
2.968, 2, 17.8816, 15.8645, 23.0564, 38.2544, -28.6215, -29.9142
2.972, 2, 17.8816, 15.8645, 23.0564, 38.2544, -28.6215, -29.9142
2.976, 2, 17.8816, 15.8645, 23.0564, 38.2544, -28.6215, -29.9142
2.98, 2, 17.8816, 15.8645, 23.0564, 38.2544, -28.6215, -29.9142
2.984, 2, 17.8816, 15.8645, 23.0564, 38.2544, -28.6215, -29.9142
2.988, 2, 17.8816, 15.8645, 23.0564, 38.2544, -28.6215, -29.9142
2.992, 2, 17.8816, 15.8645, 23.0564, 38.2544, -28.6215, -29.9142
2.995, 2, 17.8816, 15.8645, 23.0564, 38.2544, -28.6215, -29.9142
3, 2, 17.8816, 15.8645, 23.0564, 38.2544, -28.6215, -29.9142
3.004, 2, 17.8816, 15.8645, 23.0564, 38.2544, -28.6215, -29.9142
3.008, 2, 17.8816, 15.8645, 23.0564, 38.2544, -28.6215, -29.9142
3.012, 2, 17.8816, 15.8645, 23.0564, 38.2544, -28.6215, -29.9142
3.015, 2, 17.8816, 15.8645, 23.0564, 38.2544, -28.6215, -29.9142
3.02, 2, 17.8816, 15.8645, 23.0564, 38.2544, -28.6215, -29.9142
3.024, 2, 17.8816, 15.8645, 23.0564, 38.2544, -28.6215, -29.9142
3.028, 2, 17.8816, 15.8645, 23.0564, 38.2544, -28.6215, -29.9142
3.031, 2, 17.8816, 15.8645, 23.0564, 38.2544, -28.6215, -29.9142
3.036, 2, 17.8816, 15.8645, 23.0564, 38.2544, -28.6215, -29.9142
3.04, 2, 17.8816, 15.8645, 23.0564, 38.2544, -28.6215, -29.9142
3.044, 2, 17.8816, 15.8645, 23.0564, 38.2544, -28.6215, -29.9142
3.048, 2, 17.8816, 15.8645, 23.0564, 38.2544, -28.6215, -29.9142
3.051, 2, 17.8816, 15.8645, 23.0564, 38.2544, -28.6215, -29.9142
3.056, 2, 17.8816, 15.8645, 23.0564, 38.2544, -28.6215, -29.9142
3.06, 2, 17.8816, 15.8645, 23.0564, 38.2544, -28.6215, -29.9142
3.064, 2, 17.8816, 15.8645, 23.0564, 38.2544, -28.6215, -29.9142
3.068, 2, 17.8816, 15.8645, 23.0564, 38.2544, -28.6215, -29.9142
3.071, 2, 17.8816, 15.8645, 23.0564, 38.2544, -28.6215, -29.9142
3.076, 2, 17.8816, 15.8645, 23.0564, 38.2544, -28.6215, -29.9142
3.08, 2, 17.8816, 15.8645, 23.0564, 38.2544, -28.6215, -29.9142
3.084, 2, 17.8816, 15.8645, 23.0564, 38.2544, -28.6215, -29.9142
3.087, 2, 17.8816, 15.8645, 23.0564, 38.2544, -28.6215, -29.9142
3.092, 2, 17.8816, 15.8645, 23.0564, 38.2544, -28.6215, -29.9142
3.096, 2, 17.8816, 15.8645, 23.0564, 38.2544, -28.6215, -29.9142
3.1, 2, 17.8816, 15.8645, 23.0564, 38.2544, -28.6215, -29.9142
3.104, 2, 17.8816, 15.8645, 23.0564, 38.2544, -28.6215, -29.9142
3.107, 2, 17.8816, 15.8645, 23.0564, 38.2544, -28.6215, -29.9142
3.112, 2, 17.8816, 15.8645, 23.0564, 38.2544, -28.6215, -29.9142
3.116, 2, 17.8816, 15.8645, 23.0564, 38.2544, -28.6215, -29.9142
3.12, 2, 17.8816, 15.8645, 23.0564, 38.2544, -28.6215, -29.9142
3.124, 2, 17.8816, 15.8645, 23.0564, 38.2544, -28.6215, -29.9142
3.128, 2, 17.8816, 15.8645, 23.0564, 38.2544, -28.6215, -29.9142
3.132, 2, 17.8816, 15.8645, 23.0564, 38.2544, -28.6215, -29.9142
3.136, 2, 17.8816, 15.8645, 23.0564, 38.2544, -28.6215, -29.9142
3.14, 2, 17.8816, 15.8645, 23.0564, 38.2544, -28.6215, -29.9142
3.143, 2, 17.8816, 15.8645, 23.0564, 38.2544, -28.6215, -29.9142
3.148, 2, 17.8816, 15.8645, 23.0564, 38.2544, -28.6215, -29.9142
3.152, 2, 17.8816, 15.8645, 23.0564, 38.2544, -28.6215, -29.9142
3.156, 2, 17.8816, 15.8645, 23.0564, 38.2544, -28.6215, -29.9142
3.16, 2, 17.8816, 15.8645, 23.0564, 38.2544, -28.6215, -29.9142
3.163, 2, 17.8816, 15.8645, 23.0564, 38.2544, -28.6215, -29.9142
3.168, 2, 17.8816, 15.8645, 23.0564, 38.2544, -28.6215, -29.9142
3.172, 2, 17.8816, 15.8645, 23.0564, 38.2544, -28.6215, -29.9142
3.176, 2, 17.8816, 15.8645, 23.0564, 38.2544, -28.6215, -29.9142
3.179, 2, 17.8816, 15.8645, 23.0564, 38.2544, -28.6215, -29.9142
3.184, 2, 17.8816, 15.8645, 23.0564, 38.2544, -28.6215, -29.9142
3.188, 2, 17.8816, 15.8645, 23.0564, 38.2544, -28.6215, -29.9142
3.192, 2, 17.8816, 15.8645, 23.0564, 38.2544, -28.6215, -29.9142
3.196, 2, 17.8816, 15.8645, 23.0564, 38.2544, -28.6215, -29.9142
3.199, 2, 17.8816, 15.8645, 23.0564, 38.2544, -28.6215, -29.9142
3.204, 2, 17.8816, 15.8645, 23.0564, 38.2544, -28.6215, -29.9142
3.208, 2, 17.8816, 15.8645, 23.0564, 38.2544, -28.6215, -29.9142
3.212, 2, 17.8816, 15.8645, 23.0564, 38.2544, -28.6215, -29.9142
3.216, 2, 17.8816, 15.8645, 23.0564, 38.2544, -28.6215, -29.9142
3.22, 2, 17.8816, 15.8645, 23.0564, 38.2544, -28.6215, -29.9142
3.224, 2, 17.8816, 15.8645, 23.0564, 38.2544, -28.6215, -29.9142
3.228, 2, 17.8816, 15.8645, 23.0564, 38.2544, -28.6215, -29.9142
3.232, 2, 17.8816, 15.8645, 23.0564, 38.2544, -28.6215, -29.9142
3.235, 2, 17.8816, 15.8645, 23.0564, 38.2544, -28.6215, -29.9142
3.24, 2, 17.8816, 15.8645, 23.0564, 38.2544, -28.6215, -29.9142
3.244, 2, 17.8816, 15.8645, 23.0564, 38.2544, -28.6215, -29.9142
3.248, 2, 17.8816, 15.8645, 23.0564, 38.2544, -28.6215, -29.9142
3.252, 2, 17.8816, 15.8645, 23.0564, 38.2544, -28.6215, -29.9142
3.255, 2, 17.8816, 15.8645, 23.0564, 38.2544, -28.6215, -29.9142
3.26, 2, 17.8816, 15.8645, 23.0564, 38.2544, -28.6215, -29.9142
3.264, 2, 17.8816, 15.8645, 23.0564, 38.2544, -28.6215, -29.9142
3.268, 2, 17.8816, 15.8645, 23.0564, 38.2544, -28.6215, -29.9142
3.272, 2, 17.8816, 15.8645, 23.0564, 38.2544, -28.6215, -29.9142
3.276, 2, 17.8816, 15.8645, 23.0564, 38.2544, -28.6215, -29.9142
3.28, 2, 17.8816, 15.8645, 23.0564, 38.2544, -28.6215, -29.9142
3.284, 2, 17.8816, 15.8645, 23.0564, 38.2544, -28.6215, -29.9142
3.288, 2, 17.8816, 15.8645, 23.0564, 38.2544, -28.6215, -29.9142
3.291, 2, 17.8816, 15.8645, 23.0564, 38.2544, -28.6215, -29.9142
3.296, 2, 17.8816, 15.8645, 23.0564, 38.2544, -28.6215, -29.9142
3.3, 2, 17.8816, 15.8645, 23.0564, 38.2544, -28.6215, -29.9142
3.304, 2, 17.8816, 15.8645, 23.0564, 38.2544, -28.6215, -29.9142
3.308, 2, 17.8816, 15.8645, 23.0564, 38.2544, -28.6215, -29.9142
3.312, 2, 17.8816, 15.8645, 23.0564, 38.2544, -28.6215, -29.9142
3.316, 2, 17.8816, 15.8645, 23.0564, 38.2544, -28.6215, -29.9142
3.32, 2, 17.8816, 15.8645, 23.0564, 38.2544, -28.6215, -29.9142
3.324, 2, 17.8816, 15.8645, 23.0564, 38.2544, -28.6215, -29.9142
3.328, 2, 17.8816, 15.8645, 23.0564, 38.2544, -28.6215, -29.9142
3.332, 2, 17.8816, 15.8645, 23.0564, 38.2544, -28.6215, -29.9142
3.336, 2, 17.8816, 15.8645, 23.0564, 38.2544, -28.6215, -29.9142
3.34, 2, 17.8816, 15.8645, 23.0564, 38.2544, -28.6215, -29.9142
3.344, 2, 17.8816, 15.8645, 23.0564, 38.2544, -28.6215, -29.9142
3.347, 2, 17.8816, 15.8645, 23.0564, 38.2544, -28.6215, -29.9142
3.352, 4, 17.8816, 15.8645, 23.0564, 38.2544, -28.6215, -29.9142
3.356, 4, 17.8816, 15.8645, 23.0564, 38.2544, -28.6215, -29.9142
3.36, 4, 17.8816, 15.8645, 23.0564, 38.2544, -28.6215, -29.9142
3.364, 4, 17.8816, 15.8645, 23.0564, 38.2544, -28.6215, -29.9142
3.368, 4, 17.8816, 15.8645, 23.0564, 38.2544, -28.6215, -29.9142
3.372, 4, 17.8816, 15.8645, 23.0564, 38.2544, -28.6215, -29.9142
3.376, 4, 17.8816, 15.8645, 23.0564, 38.2544, -28.6215, -29.9142
3.38, 4, 17.8816, 15.8645, 23.0564, 38.2544, -28.6215, -29.9142
3.383, 4, 17.8816, 15.8645, 23.0564, 38.2544, -28.6215, -29.9142
3.388, 4, 17.8816, 15.8645, 23.0564, 38.2544, -28.6215, -29.9142
3.392, 4, 17.8816, 15.8645, 23.0564, 38.2544, -28.6215, -29.9142
3.396, 4, 17.8816, 15.8645, 23.0564, 38.2544, -28.6215, -29.9142
3.4, 4, 17.8816, 15.8645, 23.0564, 38.2544, -28.6215, -29.9142
3.403, 4, 17.8816, 15.8645, 23.0564, 38.2544, -28.6215, -29.9142
3.408, 4, 17.8816, 15.8645, 23.0564, 38.2544, -28.6215, -29.9142
3.412, 4, 17.8816, 15.8645, 23.0564, 38.2544, -28.6215, -29.9142
3.416, 4, 17.8816, 15.8645, 23.0564, 38.2544, -28.6215, -29.9142
3.42, 4, 17.8816, 15.8645, 23.0564, 38.2544, -28.6215, -29.9142
3.424, 4, 17.8816, 15.8645, 23.0564, 38.2544, -28.6215, -29.9142
3.428, 4, 17.8816, 15.8645, 23.0564, 38.2544, -28.6215, -29.9142
3.432, 4, 17.8816, 15.8645, 23.0564, 38.2544, -28.6215, -29.9142
3.436, 4, 17.8816, 15.8645, 23.0564, 38.2544, -28.6215, -29.9142
3.439, 4, 17.8816, 15.8645, 23.0564, 38.2544, -28.6215, -29.9142
3.444, 4, 17.8816, 15.8645, 23.0564, 38.2544, -28.6215, -29.9142
3.448, 4, 17.8816, 15.8645, 23.0564, 38.2544, -28.6215, -29.9142
3.452, 4, 17.8816, 15.8645, 23.0564, 38.2544, -28.6215, -29.9142
3.456, 4, 17.8816, 15.8645, 23.0564, 38.2544, -28.6215, -29.9142
3.46, 4, 17.8816, 15.8645, 23.0564, 38.2544, -28.6215, -29.9142
3.464, 4, 17.8816, 15.8645, 23.0564, 38.2544, -28.6215, -29.9142
3.468, 4, 17.8816, 15.8645, 23.0564, 38.2544, -28.6215, -29.9142
3.472, 4, 17.8816, 15.8645, 23.0564, 38.2544, -28.6215, -29.9142
3.476, 4, 17.8816, 15.8645, 23.0564, 38.2544, -28.6215, -29.9142
3.48, 4, 17.8816, 15.8645, 23.0564, 38.2544, -28.6215, -29.9142
3.484, 4, 17.8816, 15.8645, 23.0564, 38.2544, -28.6215, -29.9142
3.488, 4, 17.8816, 15.8645, 23.0564, 38.2544, -28.6215, -29.9142
3.492, 4, 17.8816, 15.8645, 23.0564, 38.2544, -28.6215, -29.9142
3.495, 4, 17.8816, 15.8645, 23.0564, 38.2544, -28.6215, -29.9142
3.5, 4, 17.8815, 15.8645, 23.0564, 38.2544, -28.6215, -29.9142
3.504, 4, 17.8812, 15.8645, 23.0564, 38.2543, -28.6215, -29.9142
3.508, 4, 17.8806, 15.8645, 23.0565, 38.2542, -28.6216, -29.9141
3.512, 4, 17.8796, 15.8645, 23.0566, 38.254, -28.6217, -29.9139
3.516, 4, 17.8782, 15.8644, 23.0568, 38.2534, -28.6219, -29.9134
3.52, 4, 17.8763, 15.8643, 23.0573, 38.2523, -28.6223, -29.9124
3.524, 4, 17.8742, 15.8642, 23.0579, 38.2504, -28.623, -29.9107
3.528, 4, 17.8719, 15.8639, 23.0589, 38.2474, -28.624, -29.9081
3.531, 4, 17.8695, 15.8636, 23.0603, 38.243, -28.6256, -29.9042
3.536, 4, 17.867, 15.8631, 23.0622, 38.237, -28.6278, -29.8989
3.54, 4, 17.8644, 15.8625, 23.0647, 38.2291, -28.6306, -29.8919
3.544, 5, 17.8617, 15.8618, 23.0677, 38.2193, -28.6341, -29.8832
3.548, 5, 17.8586, 15.8609, 23.0713, 38.2074, -28.6383, -29.8726
3.552, 5, 17.8554, 15.8599, 23.0756, 38.1933, -28.6433, -29.8602
3.556, 5, 17.852, 15.8587, 23.0805, 38.1771, -28.6491, -29.8458
3.56, 5, 17.8485, 15.8574, 23.0861, 38.1589, -28.6556, -29.8296
3.564, 5, 17.845, 15.8559, 23.0922, 38.1387, -28.6628, -29.8117
3.568, 5, 17.8415, 15.8543, 23.0988, 38.1168, -28.6706, -29.7923
3.572, 5, 17.8378, 15.8526, 23.1058, 38.0934, -28.679, -29.7715
3.576, 5, 17.8338, 15.8509, 23.1132, 38.0689, -28.6877, -29.7497
3.58, 5, 17.8294, 15.849, 23.1209, 38.0434, -28.6969, -29.7271
3.584, 5, 17.8246, 15.8471, 23.1289, 38.0172, -28.7062, -29.7039
3.587, 5, 17.8194, 15.8452, 23.137, 37.9907, -28.7158, -29.6804
3.592, 5, 17.8138, 15.8432, 23.1451, 37.9638, -28.7254, -29.6565
3.596, 5, 17.808, 15.8412, 23.1534, 37.9366, -28.7352, -29.6325
3.6, 5, 17.802, 15.8392, 23.1617, 37.9094, -28.745, -29.6083
3.604, 5, 17.7959, 15.8372, 23.1701, 37.8821, -28.7548, -29.5841
3.608, 5, 17.7897, 15.8352, 23.1784, 37.8547, -28.7647, -29.5598
3.612, 5, 17.7835, 15.8332, 23.1868, 37.8273, -28.7746, -29.5355
3.616, 5, 17.7772, 15.8312, 23.1952, 37.7999, -28.7845, -29.5112
3.62, 5, 17.771, 15.8292, 23.2036, 37.7724, -28.7944, -29.4869
3.624, 5, 17.7647, 15.8272, 23.212, 37.745, -28.8043, -29.4626
3.628, 5, 17.7583, 15.8252, 23.2204, 37.7176, -28.8143, -29.4383
3.632, 5, 17.752, 15.8232, 23.2288, 37.6902, -28.8242, -29.414
3.636, 5, 17.7457, 15.8212, 23.2372, 37.6627, -28.8342, -29.3898
3.64, 5, 17.7393, 15.8193, 23.2456, 37.6354, -28.8442, -29.3655
3.644, 5, 17.733, 15.8173, 23.254, 37.608, -28.8541, -29.3413
3.648, 5, 17.7267, 15.8153, 23.2623, 37.5806, -28.8641, -29.317
3.652, 5, 17.7203, 15.8133, 23.2707, 37.5533, -28.8741, -29.2928
3.656, 5, 17.714, 15.8113, 23.2791, 37.5259, -28.8841, -29.2686
3.66, 5, 17.7076, 15.8093, 23.2875, 37.4986, -28.8941, -29.2444
3.664, 5, 17.7013, 15.8074, 23.2959, 37.4713, -28.9041, -29.2202
3.668, 5, 17.695, 15.8054, 23.3043, 37.444, -28.9141, -29.1961
3.672, 5, 17.6886, 15.8034, 23.3126, 37.4167, -28.9241, -29.172
3.676, 5, 17.6823, 15.8015, 23.321, 37.3895, -28.9341, -29.1478
3.679, 5, 17.6759, 15.7995, 23.3294, 37.3622, -28.9441, -29.1237
3.684, 5, 17.6696, 15.7975, 23.3377, 37.335, -28.9541, -29.0996
3.688, 5, 17.6632, 15.7956, 23.3461, 37.3078, -28.9642, -29.0756
3.692, 5, 17.6568, 15.7936, 23.3545, 37.2806, -28.9742, -29.0515
3.696, 5, 17.6505, 15.7917, 23.3628, 37.2534, -28.9842, -29.0274
3.7, 5, 17.6441, 15.7897, 23.3712, 37.2263, -28.9943, -29.0034
3.704, 5, 17.6378, 15.7878, 23.3795, 37.1991, -29.0043, -28.9794
3.708, 5, 17.6314, 15.7858, 23.3879, 37.172, -29.0144, -28.9554
3.712, 5, 17.6251, 15.7839, 23.3962, 37.1449, -29.0245, -28.9314
3.716, 5, 17.6187, 15.7819, 23.4046, 37.1178, -29.0345, -28.9075
3.72, 5, 17.6123, 15.78, 23.4129, 37.0907, -29.0446, -28.8835
3.724, 5, 17.606, 15.778, 23.4212, 37.0636, -29.0547, -28.8596
3.728, 5, 17.5996, 15.7761, 23.4296, 37.0366, -29.0648, -28.8357
3.732, 5, 17.5933, 15.7742, 23.4379, 37.0095, -29.0748, -28.8118
3.735, 5, 17.5869, 15.7723, 23.4462, 36.9825, -29.0849, -28.7879
3.74, 5, 17.5805, 15.7703, 23.4546, 36.9555, -29.095, -28.764
3.744, 5, 17.5742, 15.7684, 23.4629, 36.9285, -29.1051, -28.7402
3.748, 5, 17.5678, 15.7665, 23.4712, 36.9016, -29.1152, -28.7163
3.752, 5, 17.5614, 15.7646, 23.4795, 36.8746, -29.1254, -28.6925
3.756, 5, 17.5551, 15.7627, 23.4879, 36.8477, -29.1355, -28.6687
3.76, 5, 17.5487, 15.7607, 23.4962, 36.8207, -29.1456, -28.6449
3.764, 5, 17.5423, 15.7588, 23.5045, 36.7938, -29.1557, -28.6211
3.768, 5, 17.536, 15.7569, 23.5128, 36.7669, -29.1659, -28.5974
3.772, 5, 17.5296, 15.755, 23.5211, 36.74, -29.176, -28.5736
3.776, 5, 17.5232, 15.7531, 23.5294, 36.7132, -29.1862, -28.5499
3.78, 5, 17.5168, 15.7512, 23.5377, 36.6863, -29.1963, -28.5262
3.784, 5, 17.5105, 15.7493, 23.546, 36.6595, -29.2065, -28.5025
3.788, 5, 17.5041, 15.7474, 23.5543, 36.6327, -29.2166, -28.4788
3.792, 5, 17.4977, 15.7455, 23.5626, 36.6059, -29.2268, -28.4552
3.796, 5, 17.4913, 15.7436, 23.5709, 36.5791, -29.237, -28.4315
3.8, 5, 17.485, 15.7418, 23.5792, 36.5523, -29.2471, -28.4079
3.804, 5, 17.4786, 15.7399, 23.5874, 36.5256, -29.2573, -28.3843
3.808, 5, 17.4722, 15.738, 23.5957, 36.4988, -29.2675, -28.3607
3.812, 5, 17.4658, 15.7361, 23.604, 36.4721, -29.2777, -28.3371
3.816, 5, 17.4594, 15.7342, 23.6123, 36.4454, -29.2879, -28.3135
3.82, 5, 17.4531, 15.7324, 23.6206, 36.4187, -29.2981, -28.29
3.824, 5, 17.4467, 15.7305, 23.6288, 36.392, -29.3083, -28.2664
3.828, 5, 17.4403, 15.7286, 23.6371, 36.3654, -29.3185, -28.2429
3.832, 5, 17.4339, 15.7268, 23.6454, 36.3387, -29.3287, -28.2194
3.836, 5, 17.4275, 15.7249, 23.6536, 36.3121, -29.3389, -28.1959
3.84, 5, 17.4211, 15.723, 23.6619, 36.2855, -29.3492, -28.1724
3.844, 5, 17.4147, 15.7212, 23.6701, 36.2589, -29.3594, -28.149
3.848, 5, 17.4083, 15.7193, 23.6784, 36.2323, -29.3696, -28.1255
3.852, 5, 17.402, 15.7175, 23.6866, 36.2057, -29.3799, -28.1021
3.856, 5, 17.3956, 15.7156, 23.6949, 36.1792, -29.3901, -28.0787
3.86, 5, 17.3892, 15.7138, 23.7031, 36.1526, -29.4004, -28.0553
3.864, 5, 17.3828, 15.7119, 23.7114, 36.1261, -29.4106, -28.0319
3.868, 5, 17.3764, 15.7101, 23.7196, 36.0996, -29.4209, -28.0086
3.872, 5, 17.37, 15.7083, 23.7279, 36.0731, -29.4312, -27.9852
3.876, 5, 17.3636, 15.7064, 23.7361, 36.0467, -29.4414, -27.9619
3.88, 5, 17.3572, 15.7046, 23.7443, 36.0202, -29.4517, -27.9386
3.884, 5, 17.3508, 15.7028, 23.7526, 35.9938, -29.462, -27.9153
3.888, 5, 17.3444, 15.7009, 23.7608, 35.9673, -29.4723, -27.892
3.892, 5, 17.338, 15.6991, 23.769, 35.9409, -29.4826, -27.8687
3.896, 5, 17.3316, 15.6973, 23.7772, 35.9145, -29.4929, -27.8455
3.9, 5, 17.3252, 15.6955, 23.7855, 35.8881, -29.5032, -27.8222
3.904, 5, 17.3188, 15.6936, 23.7937, 35.8618, -29.5135, -27.799
3.908, 5, 17.3124, 15.6918, 23.8019, 35.8354, -29.5238, -27.7758
3.912, 5, 17.306, 15.69, 23.8101, 35.8091, -29.5341, -27.7526
3.916, 5, 17.2996, 15.6882, 23.8183, 35.7828, -29.5445, -27.7294
3.92, 5, 17.2932, 15.6864, 23.8265, 35.7565, -29.5548, -27.7063
3.924, 5, 17.2868, 15.6846, 23.8347, 35.7302, -29.5651, -27.6831
3.928, 5, 17.2803, 15.6828, 23.8429, 35.7039, -29.5755, -27.66
3.932, 5, 17.2739, 15.681, 23.8511, 35.6777, -29.5858, -27.6369
3.936, 5, 17.2675, 15.6792, 23.8593, 35.6514, -29.5962, -27.6138
3.94, 5, 17.2611, 15.6774, 23.8675, 35.6252, -29.6065, -27.5907
3.944, 5, 17.2547, 15.6756, 23.8757, 35.599, -29.6169, -27.5676
3.948, 5, 17.2483, 15.6738, 23.8839, 35.5728, -29.6272, -27.5446
3.952, 5, 17.2419, 15.672, 23.892, 35.5466, -29.6376, -27.5216
3.956, 5, 17.2355, 15.6703, 23.9002, 35.5204, -29.648, -27.4985
3.96, 5, 17.229, 15.6685, 23.9084, 35.4943, -29.6584, -27.4755
3.964, 5, 17.2226, 15.6667, 23.9166, 35.4682, -29.6687, -27.4526
3.968, 5, 17.2162, 15.6649, 23.9248, 35.442, -29.6791, -27.4296
3.972, 5, 17.2098, 15.6632, 23.9329, 35.4159, -29.6895, -27.4066
3.976, 5, 17.2034, 15.6614, 23.9411, 35.3898, -29.6999, -27.3837
3.98, 5, 17.197, 15.6596, 23.9493, 35.3638, -29.7103, -27.3608
3.984, 5, 17.1905, 15.6579, 23.9574, 35.3377, -29.7207, -27.3379
3.988, 5, 17.1841, 15.6561, 23.9656, 35.3117, -29.7312, -27.315
3.992, 5, 17.1777, 15.6543, 23.9737, 35.2857, -29.7416, -27.2921
3.996, 5, 17.1713, 15.6526, 23.9819, 35.2596, -29.752, -27.2692
3.999, 5, 17.1648, 15.6508, 23.99, 35.2337, -29.7624, -27.2464
4.004, 5, 17.1584, 15.6491, 23.9982, 35.2077, -29.7729, -27.2236
4.008, 5, 17.152, 15.6473, 24.0063, 35.1817, -29.7833, -27.2007
4.012, 5, 17.1456, 15.6456, 24.0145, 35.1558, -29.7938, -27.1779
4.016, 5, 17.1391, 15.6439, 24.0226, 35.1298, -29.8042, -27.1552
4.02, 5, 17.1327, 15.6421, 24.0307, 35.1039, -29.8147, -27.1324
4.024, 5, 17.1263, 15.6404, 24.0389, 35.078, -29.8251, -27.1096
4.028, 5, 17.1198, 15.6386, 24.047, 35.0521, -29.8356, -27.0869
4.032, 5, 17.1134, 15.6369, 24.0551, 35.0262, -29.8461, -27.0642
4.036, 5, 17.107, 15.6352, 24.0633, 35.0004, -29.8565, -27.0415
4.04, 5, 17.1005, 15.6335, 24.0714, 34.9746, -29.867, -27.0188
4.044, 5, 17.0941, 15.6317, 24.0795, 34.9487, -29.8775, -26.9961
4.048, 5, 17.0877, 15.63, 24.0876, 34.9229, -29.888, -26.9734
4.052, 5, 17.0812, 15.6283, 24.0957, 34.8971, -29.8985, -26.9508
4.056, 5, 17.0748, 15.6266, 24.1038, 34.8713, -29.909, -26.9282
4.06, 5, 17.0683, 15.6249, 24.112, 34.8456, -29.9195, -26.9055
4.064, 5, 17.0619, 15.6231, 24.1201, 34.8198, -29.93, -26.883
4.068, 5, 17.0555, 15.6214, 24.1282, 34.7941, -29.9405, -26.8604
4.072, 5, 17.049, 15.6197, 24.1363, 34.7684, -29.951, -26.8378
4.076, 5, 17.0426, 15.618, 24.1444, 34.7427, -29.9615, -26.8152
4.08, 5, 17.0361, 15.6163, 24.1525, 34.717, -29.9721, -26.7927
4.084, 5, 17.0297, 15.6146, 24.1606, 34.6913, -29.9826, -26.7702
4.088, 5, 17.0232, 15.6129, 24.1687, 34.6656, -29.9931, -26.7477
4.092, 5, 17.0168, 15.6112, 24.1767, 34.64, -30.0037, -26.7252
4.096, 5, 17.0103, 15.6096, 24.1848, 34.6144, -30.0142, -26.7027
4.1, 5, 17.0039, 15.6079, 24.1929, 34.5888, -30.0248, -26.6803
4.104, 5, 16.9974, 15.6062, 24.201, 34.5632, -30.0353, -26.6578
4.108, 5, 16.991, 15.6045, 24.2091, 34.5376, -30.0459, -26.6354
4.112, 5, 16.9845, 15.6028, 24.2171, 34.512, -30.0565, -26.613
4.116, 5, 16.9781, 15.6011, 24.2252, 34.4865, -30.067, -26.5906
4.12, 5, 16.9716, 15.5995, 24.2333, 34.4609, -30.0776, -26.5682
4.124, 5, 16.9652, 15.5978, 24.2414, 34.4354, -30.0882, -26.5458
4.128, 5, 16.9587, 15.5961, 24.2494, 34.4099, -30.0988, -26.5235
4.132, 5, 16.9523, 15.5945, 24.2575, 34.3844, -30.1094, -26.5011
4.136, 5, 16.9458, 15.5928, 24.2655, 34.3589, -30.12, -26.4788
4.14, 5, 16.9394, 15.5911, 24.2736, 34.3335, -30.1306, -26.4565
4.144, 5, 16.9329, 15.5895, 24.2816, 34.308, -30.1412, -26.4342
4.148, 5, 16.9264, 15.5878, 24.2897, 34.2826, -30.1518, -26.4119
4.152, 5, 16.92, 15.5862, 24.2977, 34.2572, -30.1624, -26.3897
4.156, 5, 16.9135, 15.5845, 24.3058, 34.2318, -30.173, -26.3674
4.16, 5, 16.9071, 15.5829, 24.3138, 34.2064, -30.1837, -26.3452
4.164, 5, 16.9006, 15.5812, 24.3219, 34.181, -30.1943, -26.323
4.168, 5, 16.8941, 15.5796, 24.3299, 34.1556, -30.2049, -26.3008
4.172, 5, 16.8877, 15.5779, 24.3379, 34.1303, -30.2156, -26.2786
4.176, 5, 16.8812, 15.5763, 24.346, 34.105, -30.2262, -26.2564
4.18, 5, 16.8747, 15.5747, 24.354, 34.0797, -30.2369, -26.2342
4.184, 5, 16.8683, 15.573, 24.362, 34.0544, -30.2475, -26.2121
4.188, 5, 16.8618, 15.5714, 24.3701, 34.0291, -30.2582, -26.19
4.192, 5, 16.8553, 15.5698, 24.3781, 34.0038, -30.2688, -26.1679
4.196, 5, 16.8489, 15.5682, 24.3861, 33.9786, -30.2795, -26.1458
4.2, 5, 16.8424, 15.5665, 24.3941, 33.9533, -30.2902, -26.1237
4.204, 5, 16.8359, 15.5649, 24.4021, 33.9281, -30.3008, -26.1016
4.208, 5, 16.8294, 15.5633, 24.4101, 33.9029, -30.3115, -26.0796
4.212, 5, 16.823, 15.5617, 24.4181, 33.8777, -30.3222, -26.0575
4.216, 5, 16.8165, 15.5601, 24.4261, 33.8525, -30.3329, -26.0355
4.22, 5, 16.81, 15.5585, 24.4341, 33.8274, -30.3436, -26.0135
4.224, 5, 16.8035, 15.5569, 24.4422, 33.8022, -30.3543, -25.9915
4.228, 5, 16.7971, 15.5553, 24.4501, 33.7771, -30.365, -25.9695
4.232, 5, 16.7906, 15.5537, 24.4581, 33.7519, -30.3757, -25.9476
4.236, 5, 16.7841, 15.5521, 24.4661, 33.7268, -30.3864, -25.9256
4.24, 5, 16.7776, 15.5505, 24.4741, 33.7018, -30.3972, -25.9037
4.244, 5, 16.7711, 15.5489, 24.4821, 33.6767, -30.4079, -25.8818
4.248, 5, 16.7647, 15.5473, 24.4901, 33.6516, -30.4186, -25.8599
4.252, 5, 16.7582, 15.5457, 24.4981, 33.6266, -30.4293, -25.838
4.256, 5, 16.7517, 15.5441, 24.506, 33.6015, -30.4401, -25.8161
4.26, 5, 16.7452, 15.5425, 24.514, 33.5765, -30.4508, -25.7943
4.264, 5, 16.7387, 15.5409, 24.522, 33.5515, -30.4616, -25.7724
4.268, 5, 16.7322, 15.5394, 24.53, 33.5265, -30.4723, -25.7506
4.272, 5, 16.7257, 15.5378, 24.5379, 33.5016, -30.4831, -25.7288
4.276, 5, 16.7192, 15.5362, 24.5459, 33.4766, -30.4938, -25.707
4.28, 5, 16.7128, 15.5347, 24.5539, 33.4517, -30.5046, -25.6852
4.284, 5, 16.7063, 15.5331, 24.5618, 33.4267, -30.5154, -25.6634
4.288, 5, 16.6998, 15.5315, 24.5698, 33.4018, -30.5262, -25.6417
4.292, 5, 16.6933, 15.53, 24.5777, 33.3769, -30.5369, -25.6199
4.296, 5, 16.6868, 15.5284, 24.5857, 33.352, -30.5477, -25.5982
4.3, 5, 16.6803, 15.5269, 24.5936, 33.3272, -30.5585, -25.5765
4.304, 5, 16.6738, 15.5253, 24.6016, 33.3023, -30.5693, -25.5548
4.308, 5, 16.6673, 15.5238, 24.6095, 33.2775, -30.5801, -25.5331
4.312, 5, 16.6608, 15.5222, 24.6174, 33.2527, -30.5909, -25.5115
4.316, 5, 16.6543, 15.5207, 24.6254, 33.2278, -30.6017, -25.4898
4.32, 5, 16.6478, 15.5191, 24.6333, 33.203, -30.6125, -25.4682
4.324, 5, 16.6413, 15.5176, 24.6413, 33.1783, -30.6233, -25.4466
4.328, 5, 16.6348, 15.516, 24.6492, 33.1535, -30.6342, -25.425
4.332, 5, 16.6283, 15.5145, 24.6571, 33.1287, -30.645, -25.4034
4.336, 5, 16.6218, 15.513, 24.665, 33.104, -30.6558, -25.3818
4.34, 5, 16.6153, 15.5114, 24.6729, 33.0793, -30.6667, -25.3603
4.344, 5, 16.6088, 15.5099, 24.6809, 33.0546, -30.6775, -25.3387
4.348, 5, 16.6023, 15.5084, 24.6888, 33.0299, -30.6883, -25.3172
4.352, 5, 16.5958, 15.5069, 24.6967, 33.0052, -30.6992, -25.2957
4.356, 5, 16.5893, 15.5054, 24.7046, 32.9805, -30.71, -25.2742
4.36, 5, 16.5828, 15.5038, 24.7125, 32.9559, -30.7209, -25.2527
4.364, 5, 16.5763, 15.5023, 24.7204, 32.9312, -30.7318, -25.2312
4.368, 5, 16.5697, 15.5008, 24.7283, 32.9066, -30.7426, -25.2097
4.372, 5, 16.5632, 15.4993, 24.7362, 32.882, -30.7535, -25.1883
4.376, 5, 16.5567, 15.4978, 24.7441, 32.8574, -30.7644, -25.1669
4.38, 5, 16.5502, 15.4963, 24.752, 32.8328, -30.7753, -25.1455
4.384, 5, 16.5437, 15.4948, 24.7599, 32.8083, -30.7862, -25.1241
4.388, 5, 16.5372, 15.4933, 24.7678, 32.7837, -30.797, -25.1027
4.392, 5, 16.5307, 15.4918, 24.7757, 32.7592, -30.8079, -25.0813
4.396, 5, 16.5241, 15.4903, 24.7835, 32.7347, -30.8188, -25.06
4.4, 5, 16.5176, 15.4888, 24.7914, 32.7102, -30.8297, -25.0386
4.404, 5, 16.5111, 15.4874, 24.7993, 32.6857, -30.8406, -25.0173
4.408, 5, 16.5046, 15.4859, 24.8072, 32.6612, -30.8516, -24.996
4.412, 5, 16.4981, 15.4844, 24.815, 32.6367, -30.8625, -24.9747
4.416, 5, 16.4916, 15.4829, 24.8229, 32.6123, -30.8734, -24.9534
4.42, 5, 16.485, 15.4814, 24.8308, 32.5879, -30.8843, -24.9321
4.424, 5, 16.4785, 15.48, 24.8386, 32.5634, -30.8953, -24.9109
4.428, 5, 16.472, 15.4785, 24.8465, 32.539, -30.9062, -24.8896
4.432, 5, 16.4655, 15.477, 24.8544, 32.5146, -30.9171, -24.8684
4.436, 5, 16.4589, 15.4756, 24.8622, 32.4903, -30.9281, -24.8472
4.44, 5, 16.4524, 15.4741, 24.8701, 32.4659, -30.939, -24.826
4.444, 5, 16.4459, 15.4726, 24.8779, 32.4416, -30.95, -24.8048
4.448, 5, 16.4393, 15.4712, 24.8858, 32.4172, -30.9609, -24.7837
4.452, 5, 16.4328, 15.4697, 24.8936, 32.3929, -30.9719, -24.7625
4.456, 5, 16.4263, 15.4683, 24.9014, 32.3686, -30.9829, -24.7414
4.46, 5, 16.4198, 15.4668, 24.9093, 32.3443, -30.9938, -24.7203
4.464, 5, 16.4132, 15.4654, 24.9171, 32.32, -31.0048, -24.6992
4.468, 5, 16.4067, 15.464, 24.9249, 32.2958, -31.0158, -24.6781
4.472, 5, 16.4002, 15.4625, 24.9328, 32.2715, -31.0268, -24.657
4.476, 5, 16.3936, 15.4611, 24.9406, 32.2473, -31.0378, -24.6359
4.48, 5, 16.3871, 15.4596, 24.9484, 32.2231, -31.0488, -24.6149
4.484, 5, 16.3806, 15.4582, 24.9562, 32.1989, -31.0598, -24.5938
4.488, 5, 16.374, 15.4568, 24.9641, 32.1747, -31.0708, -24.5728
4.492, 5, 16.3675, 15.4554, 24.9719, 32.1505, -31.0818, -24.5518
4.496, 5, 16.3609, 15.4539, 24.9797, 32.1263, -31.0928, -24.5308
4.5, 5, 16.3544, 15.4525, 24.9875, 32.1022, -31.1038, -24.5098
4.504, 5, 16.3479, 15.4511, 24.9953, 32.078, -31.1148, -24.4889
4.508, 5, 16.3413, 15.4497, 25.0031, 32.0539, -31.1258, -24.4679
4.512, 5, 16.3348, 15.4483, 25.0109, 32.0298, -31.1369, -24.447
4.516, 5, 16.3282, 15.4469, 25.0187, 32.0057, -31.1479, -24.4261
4.52, 5, 16.3217, 15.4454, 25.0265, 31.9816, -31.1589, -24.4052
4.524, 5, 16.3151, 15.444, 25.0343, 31.9576, -31.17, -24.3843
4.528, 5, 16.3086, 15.4426, 25.0421, 31.9335, -31.181, -24.3634
4.532, 5, 16.302, 15.4412, 25.0499, 31.9095, -31.1921, -24.3425
4.536, 5, 16.2955, 15.4398, 25.0577, 31.8855, -31.2031, -24.3217
4.54, 5, 16.2889, 15.4385, 25.0654, 31.8615, -31.2142, -24.3009
4.544, 5, 16.2824, 15.4371, 25.0732, 31.8375, -31.2253, -24.28
4.548, 5, 16.2758, 15.4357, 25.081, 31.8135, -31.2363, -24.2592
4.552, 5, 16.2693, 15.4343, 25.0888, 31.7895, -31.2474, -24.2384
4.556, 5, 16.2627, 15.4329, 25.0965, 31.7656, -31.2585, -24.2177
4.56, 5, 16.2562, 15.4315, 25.1043, 31.7416, -31.2696, -24.1969
4.564, 5, 16.2496, 15.4302, 25.1121, 31.7177, -31.2806, -24.1761
4.568, 5, 16.2431, 15.4288, 25.1198, 31.6938, -31.2917, -24.1554
4.572, 5, 16.2365, 15.4274, 25.1276, 31.6699, -31.3028, -24.1347
4.576, 5, 16.23, 15.426, 25.1354, 31.646, -31.3139, -24.114
4.58, 5, 16.2234, 15.4247, 25.1431, 31.6222, -31.325, -24.0933
4.584, 5, 16.2168, 15.4233, 25.1509, 31.5983, -31.3361, -24.0726
4.588, 5, 16.2103, 15.4219, 25.1586, 31.5745, -31.3472, -24.052
4.592, 5, 16.2037, 15.4206, 25.1664, 31.5507, -31.3584, -24.0313
4.596, 5, 16.1972, 15.4192, 25.1741, 31.5268, -31.3695, -24.0107
4.6, 5, 16.1906, 15.4179, 25.1818, 31.503, -31.3806, -23.99
4.604, 5, 16.184, 15.4165, 25.1896, 31.4793, -31.3917, -23.9694
4.608, 5, 16.1775, 15.4152, 25.1973, 31.4555, -31.4029, -23.9489
4.612, 5, 16.1709, 15.4138, 25.205, 31.4317, -31.414, -23.9283
4.616, 5, 16.1643, 15.4125, 25.2128, 31.408, -31.4252, -23.9077
4.62, 5, 16.1578, 15.4112, 25.2205, 31.3843, -31.4363, -23.8872
4.624, 5, 16.1512, 15.4098, 25.2282, 31.3606, -31.4474, -23.8666
4.628, 5, 16.1446, 15.4085, 25.2359, 31.3369, -31.4586, -23.8461
4.632, 5, 16.1381, 15.4072, 25.2437, 31.3132, -31.4698, -23.8256
4.636, 5, 16.1315, 15.4058, 25.2514, 31.2895, -31.4809, -23.8051
4.64, 5, 16.1249, 15.4045, 25.2591, 31.2658, -31.4921, -23.7846
4.644, 5, 16.1183, 15.4032, 25.2668, 31.2422, -31.5033, -23.7642
4.648, 5, 16.1118, 15.4019, 25.2745, 31.2186, -31.5144, -23.7437
4.652, 5, 16.1052, 15.4005, 25.2822, 31.1949, -31.5256, -23.7233
4.656, 5, 16.0986, 15.3992, 25.2899, 31.1713, -31.5368, -23.7028
4.66, 5, 16.092, 15.3979, 25.2976, 31.1478, -31.548, -23.6824
4.664, 5, 16.0855, 15.3966, 25.3053, 31.1242, -31.5592, -23.662
4.668, 5, 16.0789, 15.3953, 25.313, 31.1006, -31.5704, -23.6416
4.672, 5, 16.0723, 15.394, 25.3207, 31.0771, -31.5816, -23.6213
4.676, 5, 16.0657, 15.3927, 25.3284, 31.0535, -31.5928, -23.6009
4.68, 5, 16.0591, 15.3914, 25.3361, 31.03, -31.604, -23.5806
4.684, 5, 16.0526, 15.3901, 25.3437, 31.0065, -31.6152, -23.5603
4.688, 5, 16.046, 15.3888, 25.3514, 30.983, -31.6264, -23.5399
4.692, 5, 16.0394, 15.3875, 25.3591, 30.9595, -31.6377, -23.5196
4.696, 5, 16.0328, 15.3862, 25.3668, 30.9361, -31.6489, -23.4994
4.7, 5, 16.0262, 15.385, 25.3744, 30.9126, -31.6601, -23.4791
4.704, 5, 16.0196, 15.3837, 25.3821, 30.8892, -31.6714, -23.4588
4.708, 5, 16.013, 15.3824, 25.3898, 30.8658, -31.6826, -23.4386
4.712, 5, 16.0065, 15.3811, 25.3974, 30.8424, -31.6938, -23.4184
4.716, 5, 15.9999, 15.3798, 25.4051, 30.819, -31.7051, -23.3982
4.72, 5, 15.9933, 15.3786, 25.4127, 30.7956, -31.7163, -23.3779
4.724, 5, 15.9867, 15.3773, 25.4204, 30.7722, -31.7276, -23.3578
4.728, 5, 15.9801, 15.376, 25.4281, 30.7489, -31.7389, -23.3376
4.732, 5, 15.9735, 15.3748, 25.4357, 30.7255, -31.7501, -23.3174
4.736, 5, 15.9669, 15.3735, 25.4433, 30.7022, -31.7614, -23.2973
4.74, 5, 15.9603, 15.3723, 25.451, 30.6789, -31.7727, -23.2772
4.744, 5, 15.9537, 15.371, 25.4586, 30.6556, -31.7839, -23.257
4.748, 5, 15.9471, 15.3698, 25.4663, 30.6323, -31.7952, -23.2369
4.752, 5, 15.9405, 15.3685, 25.4739, 30.609, -31.8065, -23.2168
4.756, 5, 15.9339, 15.3673, 25.4815, 30.5858, -31.8178, -23.1968
4.76, 5, 15.9273, 15.366, 25.4892, 30.5625, -31.8291, -23.1767
4.764, 5, 15.9207, 15.3648, 25.4968, 30.5393, -31.8404, -23.1567
4.768, 5, 15.9141, 15.3635, 25.5044, 30.5161, -31.8517, -23.1366
4.772, 5, 15.9075, 15.3623, 25.512, 30.4929, -31.863, -23.1166
4.776, 5, 15.9009, 15.3611, 25.5196, 30.4697, -31.8743, -23.0966
4.78, 5, 15.8943, 15.3598, 25.5273, 30.4465, -31.8856, -23.0766
4.784, 5, 15.8877, 15.3586, 25.5349, 30.4233, -31.8969, -23.0566
4.788, 5, 15.8811, 15.3574, 25.5425, 30.4002, -31.9083, -23.0366
4.792, 5, 15.8745, 15.3562, 25.5501, 30.377, -31.9196, -23.0167
4.796, 5, 15.8679, 15.355, 25.5577, 30.3539, -31.9309, -22.9968
4.8, 5, 15.8613, 15.3537, 25.5653, 30.3308, -31.9423, -22.9768
4.804, 5, 15.8547, 15.3525, 25.5729, 30.3077, -31.9536, -22.9569
4.808, 5, 15.8481, 15.3513, 25.5805, 30.2846, -31.965, -22.937
4.812, 5, 15.8414, 15.3501, 25.5881, 30.2615, -31.9763, -22.9171
4.816, 5, 15.8348, 15.3489, 25.5957, 30.2385, -31.9876, -22.8973
4.82, 5, 15.8282, 15.3477, 25.6032, 30.2154, -31.999, -22.8774
4.824, 5, 15.8216, 15.3465, 25.6108, 30.1924, -32.0104, -22.8576
4.828, 5, 15.815, 15.3453, 25.6184, 30.1694, -32.0217, -22.8377
4.832, 5, 15.8084, 15.3441, 25.626, 30.1464, -32.0331, -22.8179
4.836, 5, 15.8018, 15.3429, 25.6336, 30.1234, -32.0445, -22.7981
4.84, 5, 15.7951, 15.3417, 25.6411, 30.1004, -32.0558, -22.7783
4.844, 5, 15.7885, 15.3406, 25.6487, 30.0775, -32.0672, -22.7586
4.848, 5, 15.7819, 15.3394, 25.6563, 30.0545, -32.0786, -22.7388
4.852, 5, 15.7753, 15.3382, 25.6638, 30.0316, -32.09, -22.719
4.856, 5, 15.7687, 15.337, 25.6714, 30.0087, -32.1014, -22.6993
4.86, 5, 15.762, 15.3358, 25.6789, 29.9857, -32.1128, -22.6796
4.864, 5, 15.7554, 15.3347, 25.6865, 29.9628, -32.1242, -22.6599
4.868, 5, 15.7488, 15.3335, 25.694, 29.94, -32.1356, -22.6402
4.872, 5, 15.7422, 15.3323, 25.7016, 29.9171, -32.147, -22.6205
4.876, 5, 15.7355, 15.3312, 25.7091, 29.8942, -32.1584, -22.6008
4.88, 5, 15.7289, 15.33, 25.7167, 29.8714, -32.1698, -22.5812
4.884, 5, 15.7223, 15.3289, 25.7242, 29.8486, -32.1813, -22.5615
4.888, 5, 15.7157, 15.3277, 25.7318, 29.8258, -32.1927, -22.5419
4.892, 5, 15.709, 15.3265, 25.7393, 29.8029, -32.2041, -22.5223
4.896, 5, 15.7024, 15.3254, 25.7468, 29.7802, -32.2155, -22.5027
4.9, 5, 15.6958, 15.3243, 25.7544, 29.7574, -32.227, -22.4831
4.904, 5, 15.6891, 15.3231, 25.7619, 29.7346, -32.2384, -22.4635
4.908, 5, 15.6825, 15.322, 25.7694, 29.7119, -32.2499, -22.444
4.912, 5, 15.6759, 15.3208, 25.7769, 29.6891, -32.2613, -22.4244
4.916, 5, 15.6692, 15.3197, 25.7845, 29.6664, -32.2728, -22.4049
4.92, 5, 15.6626, 15.3186, 25.792, 29.6437, -32.2842, -22.3854
4.924, 5, 15.656, 15.3174, 25.7995, 29.621, -32.2957, -22.3659
4.928, 5, 15.6493, 15.3163, 25.807, 29.5983, -32.3072, -22.3464
4.932, 5, 15.6427, 15.3152, 25.8145, 29.5757, -32.3186, -22.3269
4.936, 5, 15.6361, 15.3141, 25.822, 29.553, -32.3301, -22.3074
4.94, 5, 15.6294, 15.3129, 25.8295, 29.5303, -32.3416, -22.288
4.944, 5, 15.6228, 15.3118, 25.837, 29.5077, -32.3531, -22.2686
4.948, 5, 15.6161, 15.3107, 25.8445, 29.4851, -32.3645, -22.2491
4.952, 5, 15.6095, 15.3096, 25.852, 29.4625, -32.376, -22.2297
4.956, 5, 15.6029, 15.3085, 25.8595, 29.4399, -32.3875, -22.2103
4.96, 5, 15.5962, 15.3074, 25.867, 29.4173, -32.399, -22.1909
4.964, 5, 15.5896, 15.3063, 25.8745, 29.3948, -32.4105, -22.1716
4.968, 5, 15.5829, 15.3052, 25.8819, 29.3722, -32.422, -22.1522
4.972, 5, 15.5763, 15.3041, 25.8894, 29.3497, -32.4335, -22.1329
4.976, 5, 15.5696, 15.303, 25.8969, 29.3271, -32.4451, -22.1135
4.98, 5, 15.563, 15.3019, 25.9044, 29.3046, -32.4566, -22.0942
4.984, 5, 15.5563, 15.3008, 25.9118, 29.2821, -32.4681, -22.0749
4.988, 5, 15.5497, 15.2997, 25.9193, 29.2596, -32.4796, -22.0556
4.992, 5, 15.543, 15.2986, 25.9268, 29.2372, -32.4911, -22.0363
4.996, 5, 15.5364, 15.2976, 25.9342, 29.2147, -32.5027, -22.0171
5, 5, 15.5297, 15.2965, 25.9417, 29.1923, -32.5142, -21.9978
5.004, 5, 15.5231, 15.2954, 25.9491, 29.1698, -32.5258, -21.9786
5.008, 5, 15.5164, 15.2943, 25.9566, 29.1474, -32.5373, -21.9594
5.012, 5, 15.5098, 15.2933, 25.9641, 29.125, -32.5489, -21.9401
5.016, 5, 15.5031, 15.2922, 25.9715, 29.1026, -32.5604, -21.9209
5.02, 5, 15.4964, 15.2911, 25.9789, 29.0802, -32.572, -21.9018
5.024, 5, 15.4898, 15.2901, 25.9864, 29.0579, -32.5835, -21.8826
5.028, 5, 15.4831, 15.289, 25.9938, 29.0355, -32.5951, -21.8634
5.032, 5, 15.4765, 15.288, 26.0013, 29.0132, -32.6067, -21.8443
5.036, 5, 15.4698, 15.2869, 26.0087, 28.9908, -32.6182, -21.8251
5.04, 5, 15.4631, 15.2859, 26.0161, 28.9685, -32.6298, -21.806
5.044, 5, 15.4565, 15.2848, 26.0236, 28.9462, -32.6414, -21.7869
5.048, 5, 15.4498, 15.2838, 26.031, 28.9239, -32.653, -21.7678
5.052, 5, 15.4431, 15.2827, 26.0384, 28.9016, -32.6646, -21.7487
5.056, 5, 15.4365, 15.2817, 26.0458, 28.8794, -32.6761, -21.7297
5.06, 5, 15.4298, 15.2806, 26.0532, 28.8571, -32.6877, -21.7106
5.064, 5, 15.4231, 15.2796, 26.0607, 28.8349, -32.6993, -21.6916
5.068, 5, 15.4165, 15.2786, 26.0681, 28.8126, -32.7109, -21.6725
5.072, 5, 15.4098, 15.2775, 26.0755, 28.7904, -32.7226, -21.6535
5.076, 5, 15.4031, 15.2765, 26.0829, 28.7682, -32.7342, -21.6345
5.08, 5, 15.3965, 15.2755, 26.0903, 28.746, -32.7458, -21.6155
5.084, 5, 15.3898, 15.2745, 26.0977, 28.7239, -32.7574, -21.5966
5.088, 5, 15.3831, 15.2735, 26.1051, 28.7017, -32.769, -21.5776
5.092, 5, 15.3765, 15.2724, 26.1125, 28.6796, -32.7806, -21.5586
5.096, 5, 15.3698, 15.2714, 26.1199, 28.6574, -32.7923, -21.5397
5.1, 5, 15.3631, 15.2704, 26.1273, 28.6353, -32.8039, -21.5208
5.104, 5, 15.3564, 15.2694, 26.1346, 28.6132, -32.8155, -21.5019
5.108, 5, 15.3498, 15.2684, 26.142, 28.5911, -32.8272, -21.483
5.112, 5, 15.3431, 15.2674, 26.1494, 28.569, -32.8388, -21.4641
5.116, 5, 15.3364, 15.2664, 26.1568, 28.5469, -32.8505, -21.4452
5.12, 5, 15.3297, 15.2654, 26.1642, 28.5249, -32.8621, -21.4264
5.124, 5, 15.323, 15.2644, 26.1715, 28.5028, -32.8738, -21.4075
5.128, 5, 15.3164, 15.2634, 26.1789, 28.4808, -32.8855, -21.3887
5.132, 5, 15.3097, 15.2625, 26.1863, 28.4588, -32.8971, -21.3699
5.136, 5, 15.303, 15.2615, 26.1936, 28.4368, -32.9088, -21.3511
5.14, 5, 15.2963, 15.2605, 26.201, 28.4148, -32.9205, -21.3323
5.144, 5, 15.2896, 15.2595, 26.2083, 28.3928, -32.9321, -21.3135
5.148, 5, 15.2829, 15.2585, 26.2157, 28.3708, -32.9438, -21.2947
5.152, 5, 15.2762, 15.2576, 26.2231, 28.3488, -32.9555, -21.276
5.156, 5, 15.2696, 15.2566, 26.2304, 28.3269, -32.9672, -21.2572
5.16, 5, 15.2629, 15.2556, 26.2378, 28.305, -32.9789, -21.2385
5.164, 5, 15.2562, 15.2547, 26.2451, 28.283, -32.9906, -21.2198
5.168, 5, 15.2495, 15.2537, 26.2524, 28.2611, -33.0023, -21.2011
5.172, 5, 15.2428, 15.2527, 26.2598, 28.2392, -33.014, -21.1824
5.176, 5, 15.2361, 15.2518, 26.2671, 28.2174, -33.0257, -21.1637
5.18, 5, 15.2294, 15.2508, 26.2744, 28.1955, -33.0374, -21.145
5.184, 5, 15.2227, 15.2499, 26.2818, 28.1736, -33.0491, -21.1264
5.188, 5, 15.216, 15.2489, 26.2891, 28.1518, -33.0608, -21.1077
5.192, 5, 15.2093, 15.248, 26.2964, 28.13, -33.0725, -21.0891
5.196, 5, 15.2026, 15.247, 26.3037, 28.1081, -33.0843, -21.0705
5.2, 5, 15.1959, 15.2461, 26.3111, 28.0863, -33.096, -21.0519
5.204, 5, 15.1892, 15.2452, 26.3184, 28.0645, -33.1077, -21.0333
5.208, 5, 15.1825, 15.2442, 26.3257, 28.0428, -33.1195, -21.0147
5.212, 5, 15.1758, 15.2433, 26.333, 28.021, -33.1312, -20.9962
5.216, 5, 15.1691, 15.2424, 26.3403, 27.9992, -33.143, -20.9776
5.22, 5, 15.1624, 15.2414, 26.3476, 27.9775, -33.1547, -20.9591
5.224, 5, 15.1557, 15.2405, 26.3549, 27.9558, -33.1665, -20.9405
5.228, 5, 15.149, 15.2396, 26.3622, 27.934, -33.1782, -20.922
5.232, 5, 15.1423, 15.2387, 26.3695, 27.9123, -33.19, -20.9035
5.236, 5, 15.1356, 15.2378, 26.3768, 27.8906, -33.2017, -20.885
5.24, 5, 15.1289, 15.2368, 26.3841, 27.869, -33.2135, -20.8666
5.244, 5, 15.1222, 15.2359, 26.3914, 27.8473, -33.2253, -20.8481
5.248, 5, 15.1155, 15.235, 26.3987, 27.8256, -33.237, -20.8297
5.252, 5, 15.1088, 15.2341, 26.406, 27.804, -33.2488, -20.8112
5.256, 5, 15.1021, 15.2332, 26.4132, 27.7824, -33.2606, -20.7928
5.26, 5, 15.0954, 15.2323, 26.4205, 27.7607, -33.2724, -20.7744
5.264, 5, 15.0887, 15.2314, 26.4278, 27.7391, -33.2842, -20.756
5.268, 5, 15.082, 15.2305, 26.4351, 27.7175, -33.296, -20.7376
5.272, 5, 15.0752, 15.2296, 26.4423, 27.696, -33.3078, -20.7192
5.276, 5, 15.0685, 15.2288, 26.4496, 27.6744, -33.3196, -20.7009
5.28, 5, 15.0618, 15.2279, 26.4568, 27.6528, -33.3314, -20.6825
5.284, 5, 15.0551, 15.227, 26.4641, 27.6313, -33.3432, -20.6642
5.288, 5, 15.0484, 15.2261, 26.4714, 27.6098, -33.355, -20.6459
5.292, 5, 15.0417, 15.2252, 26.4786, 27.5882, -33.3668, -20.6276
5.296, 5, 15.035, 15.2244, 26.4859, 27.5667, -33.3786, -20.6093
5.3, 5, 15.0282, 15.2235, 26.4931, 27.5452, -33.3904, -20.591
5.304, 5, 15.0215, 15.2226, 26.5004, 27.5238, -33.4023, -20.5727
5.308, 5, 15.0148, 15.2217, 26.5076, 27.5023, -33.4141, -20.5544
5.312, 5, 15.0081, 15.2209, 26.5148, 27.4808, -33.4259, -20.5362
5.316, 5, 15.0014, 15.22, 26.5221, 27.4594, -33.4378, -20.518
5.32, 5, 14.9946, 15.2192, 26.5293, 27.438, -33.4496, -20.4997
5.324, 5, 14.9879, 15.2183, 26.5366, 27.4165, -33.4615, -20.4815
5.328, 5, 14.9812, 15.2175, 26.5438, 27.3951, -33.4733, -20.4633
5.332, 5, 14.9745, 15.2166, 26.551, 27.3737, -33.4852, -20.4451
5.336, 5, 14.9677, 15.2158, 26.5582, 27.3524, -33.497, -20.427
5.34, 5, 14.961, 15.2149, 26.5654, 27.331, -33.5089, -20.4088
5.344, 5, 14.9543, 15.2141, 26.5727, 27.3096, -33.5207, -20.3907
5.348, 5, 14.9475, 15.2132, 26.5799, 27.2883, -33.5326, -20.3725
5.352, 5, 14.9408, 15.2124, 26.5871, 27.2669, -33.5445, -20.3544
5.356, 5, 14.9341, 15.2116, 26.5943, 27.2456, -33.5563, -20.3363
5.36, 5, 14.9273, 15.2107, 26.6015, 27.2243, -33.5682, -20.3182
5.364, 5, 14.9206, 15.2099, 26.6087, 27.203, -33.5801, -20.3001
5.368, 5, 14.9139, 15.2091, 26.6159, 27.1817, -33.592, -20.282
5.372, 5, 14.9071, 15.2083, 26.6231, 27.1605, -33.6039, -20.264
5.376, 5, 14.9004, 15.2074, 26.6303, 27.1392, -33.6158, -20.2459
5.38, 5, 14.8937, 15.2066, 26.6375, 27.1179, -33.6276, -20.2279
5.384, 5, 14.8869, 15.2058, 26.6447, 27.0967, -33.6395, -20.2099
5.388, 5, 14.8802, 15.205, 26.6519, 27.0755, -33.6515, -20.1919
5.392, 5, 14.8735, 15.2042, 26.6591, 27.0543, -33.6634, -20.1739
5.396, 5, 14.8667, 15.2034, 26.6662, 27.0331, -33.6753, -20.1559
5.4, 5, 14.86, 15.2026, 26.6734, 27.0119, -33.6872, -20.1379
5.404, 5, 14.8532, 15.2018, 26.6806, 26.9907, -33.6991, -20.12
5.408, 5, 14.8465, 15.201, 26.6878, 26.9695, -33.711, -20.102
5.412, 5, 14.8398, 15.2002, 26.6949, 26.9484, -33.7229, -20.0841
5.416, 5, 14.833, 15.1994, 26.7021, 26.9273, -33.7349, -20.0661
5.42, 5, 14.8263, 15.1986, 26.7093, 26.9061, -33.7468, -20.0482
5.424, 5, 14.8195, 15.1978, 26.7164, 26.885, -33.7587, -20.0303
5.428, 5, 14.8128, 15.197, 26.7236, 26.8639, -33.7707, -20.0125
5.432, 5, 14.806, 15.1963, 26.7307, 26.8428, -33.7826, -19.9946
5.436, 5, 14.7993, 15.1955, 26.7379, 26.8217, -33.7946, -19.9767
5.44, 5, 14.7925, 15.1947, 26.7451, 26.8007, -33.8065, -19.9589
5.444, 5, 14.7858, 15.1939, 26.7522, 26.7796, -33.8185, -19.941
5.448, 5, 14.779, 15.1932, 26.7593, 26.7586, -33.8304, -19.9232
5.452, 5, 14.7723, 15.1924, 26.7665, 26.7376, -33.8424, -19.9054
5.456, 5, 14.7655, 15.1916, 26.7736, 26.7165, -33.8543, -19.8876
5.46, 5, 14.7588, 15.1909, 26.7808, 26.6955, -33.8663, -19.8698
5.464, 5, 14.752, 15.1901, 26.7879, 26.6745, -33.8783, -19.852
5.468, 5, 14.7453, 15.1893, 26.795, 26.6536, -33.8902, -19.8343
5.472, 5, 14.7385, 15.1886, 26.8022, 26.6326, -33.9022, -19.8165
5.476, 5, 14.7318, 15.1878, 26.8093, 26.6116, -33.9142, -19.7988
5.48, 5, 14.725, 15.1871, 26.8164, 26.5907, -33.9262, -19.781
5.484, 5, 14.7182, 15.1863, 26.8235, 26.5697, -33.9382, -19.7633
5.488, 5, 14.7115, 15.1856, 26.8306, 26.5488, -33.9502, -19.7456
5.492, 5, 14.7047, 15.1849, 26.8378, 26.5279, -33.9622, -19.7279
5.496, 5, 14.698, 15.1841, 26.8449, 26.507, -33.9742, -19.7103
5.5, 5, 14.6912, 15.1834, 26.852, 26.4861, -33.9862, -19.6926
5.504, 5, 14.6844, 15.1827, 26.8591, 26.4653, -33.9982, -19.6749
5.508, 5, 14.6777, 15.1819, 26.8662, 26.4444, -34.0102, -19.6573
5.512, 5, 14.6709, 15.1812, 26.8733, 26.4235, -34.0222, -19.6397
5.516, 5, 14.6641, 15.1805, 26.8804, 26.4027, -34.0342, -19.622
5.52, 5, 14.6574, 15.1798, 26.8875, 26.3819, -34.0462, -19.6044
5.524, 5, 14.6506, 15.179, 26.8946, 26.3611, -34.0582, -19.5868
5.528, 5, 14.6438, 15.1783, 26.9017, 26.3403, -34.0703, -19.5693
5.532, 5, 14.6371, 15.1776, 26.9088, 26.3195, -34.0823, -19.5517
5.536, 5, 14.6303, 15.1769, 26.9158, 26.2987, -34.0943, -19.5341
5.54, 5, 14.6235, 15.1762, 26.9229, 26.2779, -34.1064, -19.5166
5.544, 5, 14.6168, 15.1755, 26.93, 26.2572, -34.1184, -19.4991
5.548, 5, 14.61, 15.1748, 26.9371, 26.2364, -34.1304, -19.4815
5.552, 5, 14.6032, 15.1741, 26.9441, 26.2157, -34.1425, -19.464
5.556, 5, 14.5964, 15.1734, 26.9512, 26.195, -34.1545, -19.4465
5.56, 5, 14.5897, 15.1727, 26.9583, 26.1743, -34.1666, -19.429
5.564, 5, 14.5829, 15.172, 26.9653, 26.1536, -34.1786, -19.4116
5.568, 5, 14.5761, 15.1713, 26.9724, 26.1329, -34.1907, -19.3941
5.572, 5, 14.5693, 15.1706, 26.9795, 26.1122, -34.2028, -19.3766
5.576, 5, 14.5626, 15.1699, 26.9865, 26.0916, -34.2148, -19.3592
5.58, 5, 14.5558, 15.1693, 26.9936, 26.0709, -34.2269, -19.3418
5.584, 5, 14.549, 15.1686, 27.0006, 26.0503, -34.239, -19.3244
5.588, 5, 14.5422, 15.1679, 27.0077, 26.0297, -34.2511, -19.307
5.592, 5, 14.5354, 15.1672, 27.0147, 26.009, -34.2631, -19.2896
5.596, 5, 14.5287, 15.1666, 27.0218, 25.9884, -34.2752, -19.2722
5.6, 5, 14.5219, 15.1659, 27.0288, 25.9678, -34.2873, -19.2548
5.604, 5, 14.5151, 15.1652, 27.0358, 25.9473, -34.2994, -19.2375
5.608, 5, 14.5083, 15.1646, 27.0429, 25.9267, -34.3115, -19.2201
5.612, 5, 14.5015, 15.1639, 27.0499, 25.9062, -34.3236, -19.2028
5.616, 5, 14.4947, 15.1633, 27.0569, 25.8856, -34.3357, -19.1855
5.62, 5, 14.488, 15.1626, 27.064, 25.8651, -34.3478, -19.1682
5.624, 5, 14.4812, 15.162, 27.071, 25.8446, -34.3599, -19.1509
5.628, 5, 14.4744, 15.1613, 27.078, 25.8241, -34.372, -19.1336
5.632, 5, 14.4676, 15.1607, 27.085, 25.8036, -34.3841, -19.1163
5.636, 5, 14.4608, 15.16, 27.092, 25.7831, -34.3963, -19.0991
5.64, 5, 14.454, 15.1594, 27.099, 25.7626, -34.4084, -19.0818
5.644, 5, 14.4472, 15.1587, 27.1061, 25.7421, -34.4205, -19.0646
5.648, 5, 14.4404, 15.1581, 27.1131, 25.7217, -34.4326, -19.0474
5.652, 5, 14.4336, 15.1575, 27.1201, 25.7013, -34.4448, -19.0302
5.656, 5, 14.4268, 15.1568, 27.1271, 25.6808, -34.4569, -19.013
5.66, 5, 14.42, 15.1562, 27.1341, 25.6604, -34.469, -18.9958
5.664, 5, 14.4132, 15.1556, 27.1411, 25.64, -34.4812, -18.9786
5.668, 5, 14.4064, 15.155, 27.1481, 25.6196, -34.4933, -18.9614
5.672, 5, 14.3996, 15.1544, 27.155, 25.5992, -34.5055, -18.9443
5.676, 5, 14.3928, 15.1537, 27.162, 25.5789, -34.5176, -18.9271
5.68, 5, 14.386, 15.1531, 27.169, 25.5585, -34.5298, -18.91
5.684, 5, 14.3792, 15.1525, 27.176, 25.5382, -34.542, -18.8929
5.688, 5, 14.3724, 15.1519, 27.183, 25.5178, -34.5541, -18.8758
5.692, 5, 14.3656, 15.1513, 27.1899, 25.4975, -34.5663, -18.8587
5.696, 5, 14.3588, 15.1507, 27.1969, 25.4772, -34.5785, -18.8416
5.7, 5, 14.352, 15.1501, 27.2039, 25.4569, -34.5906, -18.8246
5.704, 5, 14.3452, 15.1495, 27.2109, 25.4366, -34.6028, -18.8075
5.708, 5, 14.3384, 15.1489, 27.2178, 25.4163, -34.615, -18.7905
5.712, 5, 14.3316, 15.1483, 27.2248, 25.3961, -34.6272, -18.7734
5.716, 5, 14.3248, 15.1477, 27.2317, 25.3758, -34.6394, -18.7564
5.72, 5, 14.318, 15.1471, 27.2387, 25.3556, -34.6515, -18.7394
5.724, 5, 14.3112, 15.1466, 27.2457, 25.3354, -34.6637, -18.7224
5.728, 5, 14.3044, 15.146, 27.2526, 25.3151, -34.6759, -18.7054
5.732, 5, 14.2976, 15.1454, 27.2596, 25.2949, -34.6881, -18.6884
5.736, 5, 14.2908, 15.1448, 27.2665, 25.2747, -34.7003, -18.6715
5.74, 5, 14.284, 15.1443, 27.2734, 25.2546, -34.7125, -18.6545
5.744, 5, 14.2771, 15.1437, 27.2804, 25.2344, -34.7248, -18.6376
5.748, 5, 14.2703, 15.1431, 27.2873, 25.2142, -34.737, -18.6206
5.752, 5, 14.2635, 15.1426, 27.2943, 25.1941, -34.7492, -18.6037
5.756, 5, 14.2567, 15.142, 27.3012, 25.174, -34.7614, -18.5868
5.76, 5, 14.2499, 15.1414, 27.3081, 25.1538, -34.7736, -18.5699
5.764, 5, 14.2431, 15.1409, 27.315, 25.1337, -34.7859, -18.553
5.768, 5, 14.2362, 15.1403, 27.322, 25.1136, -34.7981, -18.5362
5.772, 5, 14.2294, 15.1398, 27.3289, 25.0935, -34.8103, -18.5193
5.776, 5, 14.2226, 15.1392, 27.3358, 25.0734, -34.8226, -18.5025
5.78, 5, 14.2158, 15.1387, 27.3427, 25.0534, -34.8348, -18.4856
5.784, 5, 14.209, 15.1382, 27.3496, 25.0333, -34.847, -18.4688
5.788, 5, 14.2021, 15.1376, 27.3565, 25.0133, -34.8593, -18.452
5.792, 5, 14.1953, 15.1371, 27.3634, 24.9932, -34.8715, -18.4352
5.796, 5, 14.1885, 15.1365, 27.3704, 24.9732, -34.8838, -18.4184
5.8, 5, 14.1817, 15.136, 27.3773, 24.9532, -34.896, -18.4016
5.804, 5, 14.1748, 15.1355, 27.3842, 24.9332, -34.9083, -18.3849
5.808, 5, 14.168, 15.135, 27.391, 24.9132, -34.9206, -18.3681
5.812, 5, 14.1612, 15.1344, 27.3979, 24.8933, -34.9328, -18.3514
5.816, 5, 14.1544, 15.1339, 27.4048, 24.8733, -34.9451, -18.3347
5.82, 5, 14.1475, 15.1334, 27.4117, 24.8533, -34.9574, -18.3179
5.824, 5, 14.1407, 15.1329, 27.4186, 24.8334, -34.9697, -18.3012
5.828, 5, 14.1339, 15.1324, 27.4255, 24.8135, -34.9819, -18.2845
5.832, 5, 14.127, 15.1319, 27.4324, 24.7935, -34.9942, -18.2678
5.836, 5, 14.1202, 15.1314, 27.4392, 24.7736, -35.0065, -18.2512
5.84, 5, 14.1134, 15.1309, 27.4461, 24.7537, -35.0188, -18.2345
5.844, 5, 14.1065, 15.1304, 27.453, 24.7339, -35.0311, -18.2179
5.848, 5, 14.0997, 15.1299, 27.4598, 24.714, -35.0434, -18.2012
5.852, 5, 14.0929, 15.1294, 27.4667, 24.6941, -35.0557, -18.1846
5.856, 5, 14.086, 15.1289, 27.4736, 24.6743, -35.068, -18.168
5.86, 5, 14.0792, 15.1284, 27.4804, 24.6544, -35.0803, -18.1514
5.864, 5, 14.0724, 15.1279, 27.4873, 24.6346, -35.0926, -18.1348
5.868, 5, 14.0655, 15.1274, 27.4941, 24.6148, -35.1049, -18.1182
5.872, 5, 14.0587, 15.1269, 27.501, 24.595, -35.1172, -18.1016
5.876, 5, 14.0518, 15.1264, 27.5078, 24.5752, -35.1296, -18.0851
5.88, 5, 14.045, 15.126, 27.5147, 24.5554, -35.1419, -18.0685
5.884, 5, 14.0382, 15.1255, 27.5215, 24.5356, -35.1542, -18.052
5.888, 5, 14.0313, 15.125, 27.5284, 24.5159, -35.1665, -18.0355
5.892, 5, 14.0245, 15.1246, 27.5352, 24.4961, -35.1789, -18.019
5.896, 5, 14.0176, 15.1241, 27.542, 24.4764, -35.1912, -18.0025
5.9, 5, 14.0108, 15.1236, 27.5489, 24.4567, -35.2035, -17.986
5.904, 5, 14.0039, 15.1232, 27.5557, 24.4369, -35.2159, -17.9695
5.908, 5, 13.9971, 15.1227, 27.5625, 24.4172, -35.2282, -17.953
5.912, 5, 13.9902, 15.1223, 27.5693, 24.3975, -35.2406, -17.9366
5.916, 5, 13.9834, 15.1218, 27.5762, 24.3779, -35.2529, -17.9201
5.92, 5, 13.9765, 15.1214, 27.583, 24.3582, -35.2653, -17.9037
5.924, 5, 13.9697, 15.1209, 27.5898, 24.3385, -35.2776, -17.8873
5.928, 5, 13.9628, 15.1205, 27.5966, 24.3189, -35.29, -17.8709
5.932, 5, 13.956, 15.12, 27.6034, 24.2992, -35.3024, -17.8545
5.936, 5, 13.9491, 15.1196, 27.6102, 24.2796, -35.3147, -17.8381
5.94, 5, 13.9423, 15.1192, 27.617, 24.26, -35.3271, -17.8217
5.944, 5, 13.9354, 15.1187, 27.6238, 24.2404, -35.3395, -17.8053
5.948, 5, 13.9286, 15.1183, 27.6306, 24.2208, -35.3518, -17.789
5.952, 5, 13.9217, 15.1179, 27.6374, 24.2012, -35.3642, -17.7726
5.956, 5, 13.9149, 15.1174, 27.6442, 24.1816, -35.3766, -17.7563
5.96, 5, 13.908, 15.117, 27.651, 24.1621, -35.389, -17.74
5.964, 5, 13.9011, 15.1166, 27.6578, 24.1425, -35.4014, -17.7237
