hehonglu123/ABB_Primitive_Study/execution/movec_30_ori/curve_exe_v300_z10.csv
timestamp, cmd_num, J1, J2, J3, J4, J5, J6
0, -1, -18.7697, 34.1307, 27.9437, -19.9675, -90.5849, -2.05479
0.002, -1, -18.7697, 34.1307, 27.9437, -19.9675, -90.5849, -2.05479
0.006, -1, -18.7697, 34.1307, 27.9437, -19.9675, -90.5849, -2.05479
0.008, -1, -18.7697, 34.1307, 27.9437, -19.9675, -90.5849, -2.05479
0.011, -1, -18.7697, 34.1307, 27.9437, -19.9675, -90.5849, -2.05479
0.016, -1, -18.7697, 34.1307, 27.9437, -19.9675, -90.5849, -2.05479
0.02, -1, -18.7697, 34.1307, 27.9437, -19.9675, -90.5849, -2.05479
0.024, -1, -18.7697, 34.1307, 27.9437, -19.9675, -90.5849, -2.05479
0.028, -1, -18.7697, 34.1307, 27.9437, -19.9675, -90.5849, -2.05479
0.032, -1, -18.7697, 34.1307, 27.9437, -19.9675, -90.5849, -2.05479
0.036, -1, -18.7697, 34.1306, 27.9437, -19.9675, -90.5849, -2.05479
0.04, -1, -18.7694, 34.1306, 27.9437, -19.9675, -90.5849, -2.05479
0.044, -1, -18.7688, 34.1304, 27.9437, -19.9675, -90.5848, -2.05481
0.048, -1, -18.7677, 34.13, 27.9438, -19.9674, -90.5848, -2.05485
0.052, -1, -18.7659, 34.1293, 27.9439, -19.9672, -90.5846, -2.05494
0.056, -1, -18.7633, 34.1282, 27.9441, -19.9669, -90.5841, -2.05514
0.06, -1, -18.7599, 34.1267, 27.9443, -19.9661, -90.5833, -2.05552
0.064, -1, -18.7555, 34.1248, 27.9446, -19.9648, -90.5819, -2.05618
0.068, -1, -18.7501, 34.1222, 27.9448, -19.9626, -90.5796, -2.05723
0.072, -1, -18.7435, 34.119, 27.945, -19.9593, -90.576, -2.05884
0.076, -1, -18.7354, 34.115, 27.9452, -19.9545, -90.5709, -2.06119
0.08, -1, -18.7256, 34.11, 27.9454, -19.9477, -90.5636, -2.06449
0.084, -1, -18.7137, 34.104, 27.9453, -19.9384, -90.5537, -2.06898
0.088, -1, -18.6996, 34.0968, 27.9451, -19.9261, -90.5406, -2.07492
0.092, -1, -18.6829, 34.0883, 27.9446, -19.9102, -90.5236, -2.08261
0.096, -1, -18.6635, 34.0784, 27.9438, -19.89, -90.502, -2.09234
0.1, -1, -18.6412, 34.0671, 27.9426, -19.8649, -90.4752, -2.10442
0.104, -1, -18.6159, 34.0542, 27.9408, -19.8342, -90.4426, -2.11914
0.108, -1, -18.5871, 34.0396, 27.9385, -19.7974, -90.4034, -2.13679
0.112, -1, -18.5548, 34.0233, 27.9355, -19.754, -90.3571, -2.15761
0.116, -1, -18.519, 34.0053, 27.9318, -19.7034, -90.3033, -2.18184
0.12, -1, -18.4795, 33.9854, 27.9274, -19.6454, -90.2415, -2.20966
0.124, -1, -18.4364, 33.9638, 27.9221, -19.5795, -90.1714, -2.24119
0.128, -1, -18.3897, 33.9405, 27.916, -19.5056, -90.0928, -2.27653
0.131, -1, -18.3395, 33.9154, 27.909, -19.4238, -90.0058, -2.31566
0.136, -1, -18.2858, 33.8886, 27.9012, -19.3341, -89.9103, -2.35855
0.139, -1, -18.2285, 33.8601, 27.8926, -19.2369, -89.8069, -2.40506
0.144, -1, -18.1677, 33.8299, 27.8833, -19.1324, -89.6957, -2.45501
0.148, -1, -18.1034, 33.798, 27.8733, -19.0212, -89.5774, -2.50817
0.152, -1, -18.0358, 33.7644, 27.8627, -18.9038, -89.4525, -2.56429
0.156, -1, -17.9651, 33.7293, 27.8515, -18.7808, -89.3217, -2.62308
0.16, -1, -17.8915, 33.6928, 27.8399, -18.6529, -89.1856, -2.68422
0.164, -1, -17.8153, 33.6549, 27.828, -18.5207, -89.045, -2.74741
0.168, -1, -17.7365, 33.6157, 27.8158, -18.3849, -88.9005, -2.81233
0.172, -1, -17.6553, 33.5753, 27.8034, -18.2462, -88.7528, -2.87868
0.176, -1, -17.572, 33.5337, 27.7909, -18.105, -88.6026, -2.94619
0.18, -1, -17.4867, 33.4912, 27.7784, -17.9619, -88.4503, -3.01463
0.184, -1, -17.3998, 33.4477, 27.7658, -17.8172, -88.2964, -3.0838
0.188, -1, -17.3114, 33.4034, 27.7532, -17.6715, -88.1413, -3.15353
0.192, -1, -17.2218, 33.3586, 27.7406, -17.5248, -87.9852, -3.2237
0.196, -1, -17.1312, 33.3132, 27.728, -17.3774, -87.8284, -3.2942
0.2, -1, -17.0399, 33.2675, 27.7155, -17.2295, -87.671, -3.36496
0.204, -1, -16.9478, 33.2215, 27.7029, -17.0812, -87.5132, -3.43592
0.208, -1, -16.8552, 33.1752, 27.6903, -16.9326, -87.355, -3.50704
0.212, -1, -16.7621, 33.1287, 27.6778, -16.7836, -87.1965, -3.5783
0.216, -1, -16.6687, 33.0821, 27.6652, -16.6345, -87.0378, -3.64966
0.22, -1, -16.5751, 33.0353, 27.6527, -16.4851, -86.8788, -3.72113
0.224, -1, -16.4812, 32.9885, 27.6401, -16.3356, -86.7197, -3.79268
0.228, -1, -16.3872, 32.9416, 27.6275, -16.1859, -86.5604, -3.8643
0.232, -1, -16.2931, 32.8947, 27.6149, -16.0361, -86.4009, -3.936
0.236, -1, -16.1988, 32.8477, 27.6023, -15.8861, -86.2413, -4.00777
0.24, -1, -16.1045, 32.8006, 27.5897, -15.736, -86.0815, -4.0796
0.244, -1, -16.01, 32.7535, 27.5771, -15.5857, -85.9216, -4.15149
0.248, -1, -15.9155, 32.7064, 27.5645, -15.4354, -85.7616, -4.22345
0.252, -1, -15.8209, 32.6592, 27.5518, -15.2849, -85.6014, -4.29546
0.256, -1, -15.7262, 32.6119, 27.5392, -15.1343, -85.4411, -4.36752
0.26, -1, -15.6314, 32.5647, 27.5265, -14.9836, -85.2807, -4.43964
0.264, -1, -15.5366, 32.5174, 27.5139, -14.8327, -85.1202, -4.5118
0.268, -1, -15.4417, 32.4701, 27.5012, -14.6818, -84.9596, -4.58402
0.272, -1, -15.3467, 32.4227, 27.4885, -14.5308, -84.7989, -4.65628
0.276, -1, -15.2517, 32.3753, 27.4758, -14.3797, -84.638, -4.72859
0.28, -1, -15.1566, 32.3279, 27.4631, -14.2285, -84.4771, -4.80094
0.284, -1, -15.0615, 32.2805, 27.4504, -14.0772, -84.3161, -4.87333
0.288, -1, -14.9663, 32.233, 27.4377, -13.9258, -84.155, -4.94576
0.292, -1, -14.8711, 32.1855, 27.425, -13.7744, -83.9938, -5.01823
0.296, -1, -14.7758, 32.138, 27.4123, -13.6229, -83.8326, -5.09074
0.3, -1, -14.6805, 32.0905, 27.3995, -13.4713, -83.6712, -5.16327
0.304, -1, -14.5851, 32.0429, 27.3868, -13.3196, -83.5098, -5.23584
0.308, -1, -14.4897, 31.9953, 27.3741, -13.1679, -83.3484, -5.30844
0.312, -1, -14.3943, 31.9478, 27.3613, -13.0161, -83.1868, -5.38107
0.316, -1, -14.2988, 31.9001, 27.3486, -12.8643, -83.0252, -5.45372
0.32, -1, -14.2033, 31.8525, 27.3358, -12.7124, -82.8636, -5.5264
0.324, -1, -14.1078, 31.8049, 27.3231, -12.5604, -82.7019, -5.5991
0.328, -1, -14.0122, 31.7572, 27.3103, -12.4085, -82.5401, -5.67183
0.332, -1, -13.9167, 31.7096, 27.2975, -12.2564, -82.3784, -5.74457
0.336, -1, -13.8211, 31.6619, 27.2848, -12.1044, -82.2165, -5.81732
0.34, -1, -13.7255, 31.6142, 27.272, -11.9523, -82.0547, -5.89009
0.344, -1, -13.6298, 31.5665, 27.2592, -11.8002, -81.8928, -5.96287
0.348, -1, -13.5342, 31.5188, 27.2464, -11.6481, -81.7309, -6.03567
0.352, -1, -13.4385, 31.4711, 27.2337, -11.4959, -81.569, -6.10847
0.356, -1, -13.3429, 31.4234, 27.2209, -11.3438, -81.4071, -6.18127
0.36, -1, -13.2472, 31.3757, 27.2081, -11.1916, -81.2451, -6.25408
0.364, -1, -13.1516, 31.328, 27.1953, -11.0395, -81.0832, -6.32689
0.368, -1, -13.0559, 31.2803, 27.1825, -10.8873, -80.9212, -6.3997
0.372, -1, -12.9603, 31.2326, 27.1697, -10.7352, -80.7593, -6.47251
0.376, -1, -12.8646, 31.1849, 27.157, -10.583, -80.5974, -6.54531
0.38, -1, -12.769, 31.1372, 27.1442, -10.4309, -80.4355, -6.6181
0.384, -1, -12.6734, 31.0895, 27.1314, -10.2788, -80.2736, -6.69088
0.388, -1, -12.5777, 31.0418, 27.1186, -10.1267, -80.1118, -6.76365
0.392, -1, -12.4822, 30.9941, 27.1059, -9.97466, -79.9499, -6.8364
0.396, -1, -12.3866, 30.9465, 27.0931, -9.82266, -79.7882, -6.90914
0.4, -1, -12.291, 30.8988, 27.0803, -9.67069, -79.6264, -6.98185
0.404, -1, -12.1955, 30.8512, 27.0676, -9.51877, -79.4647, -7.05455
0.408, -1, -12.1, 30.8036, 27.0548, -9.36689, -79.3031, -7.12722
0.412, -1, -12.0046, 30.756, 27.0421, -9.21508, -79.1415, -7.19987
0.416, -1, -11.9092, 30.7084, 27.0293, -9.06332, -78.98, -7.27248
0.42, -1, -11.8138, 30.6608, 27.0166, -8.91163, -78.8186, -7.34507
0.424, -1, -11.7184, 30.6133, 27.0038, -8.76, -78.6572, -7.41762
0.428, -1, -11.6231, 30.5658, 26.9911, -8.60845, -78.4959, -7.49014
0.432, -1, -11.5279, 30.5183, 26.9784, -8.45698, -78.3347, -7.56262
0.436, -1, -11.4326, 30.4708, 26.9657, -8.30559, -78.1736, -7.63506
0.44, -1, -11.3375, 30.4234, 26.953, -8.15429, -78.0126, -7.70745
0.444, -1, -11.2424, 30.376, 26.9403, -8.00308, -77.8517, -7.77981
0.448, -1, -11.1473, 30.3286, 26.9276, -7.85197, -77.6908, -7.85211
0.452, -1, -11.0524, 30.2813, 26.9149, -7.70096, -77.5301, -7.92437
0.456, -1, -10.9574, 30.2339, 26.9022, -7.55005, -77.3695, -7.99658
0.46, -1, -10.8626, 30.1867, 26.8895, -7.39926, -77.209, -8.06874
0.464, -1, -10.7678, 30.1394, 26.8769, -7.24857, -77.0487, -8.14084
0.468, -1, -10.6731, 30.0922, 26.8642, -7.09801, -76.8884, -8.21289
0.472, -1, -10.5785, 30.045, 26.8516, -6.94757, -76.7283, -8.28487
0.476, -1, -10.4839, 29.9979, 26.839, -6.79726, -76.5683, -8.3568
0.48, -1, -10.3895, 29.9508, 26.8264, -6.64708, -76.4085, -8.42866
0.484, -1, -10.2951, 29.9038, 26.8138, -6.49703, -76.2488, -8.50046
0.488, -1, -10.2008, 29.8568, 26.8012, -6.34712, -76.0893, -8.57219
0.492, -1, -10.1066, 29.8098, 26.7886, -6.19736, -75.9299, -8.64385
0.496, -1, -10.0125, 29.7629, 26.776, -6.04775, -75.7707, -8.71544
0.5, -1, -9.91844, 29.716, 26.7635, -5.89829, -75.6116, -8.78695
0.504, -1, -9.82452, 29.6692, 26.7509, -5.74898, -75.4527, -8.8584
0.508, -1, -9.73069, 29.6225, 26.7384, -5.59984, -75.294, -8.92976
0.512, -1, -9.63697, 29.5757, 26.7259, -5.45086, -75.1354, -9.00105
0.516, -1, -9.54335, 29.5291, 26.7134, -5.30204, -74.977, -9.07226
0.52, -1, -9.44984, 29.4825, 26.7009, -5.1534, -74.8188, -9.14339
0.524, -1, -9.35644, 29.4359, 26.6884, -5.00493, -74.6608, -9.21443
0.528, -1, -9.26314, 29.3894, 26.676, -4.85664, -74.503, -9.28539
0.532, -1, -9.16997, 29.343, 26.6635, -4.70853, -74.3454, -9.35626
0.536, -1, -9.0769, 29.2966, 26.6511, -4.56061, -74.188, -9.42704
0.54, -1, -8.98396, 29.2503, 26.6387, -4.41288, -74.0307, -9.49773
0.544, -1, -8.89113, 29.204, 26.6263, -4.26534, -73.8737, -9.56833
0.548, -1, -8.79843, 29.1578, 26.6139, -4.11799, -73.7169, -9.63883
0.552, -1, -8.70584, 29.1116, 26.6016, -3.97084, -73.5603, -9.70924
0.556, -1, -8.61339, 29.0656, 26.5892, -3.82389, -73.4039, -9.77956
0.56, -1, -8.52106, 29.0196, 26.5769, -3.67715, -73.2477, -9.84978
0.564, -1, -8.42886, 28.9736, 26.5646, -3.53062, -73.0918, -9.91989
0.568, -1, -8.3368, 28.9277, 26.5523, -3.38429, -72.936, -9.98991
0.572, -1, -8.24486, 28.8819, 26.54, -3.23818, -72.7805, -10.0598
0.576, -1, -8.15307, 28.8361, 26.5278, -3.09229, -72.6253, -10.1296
0.58, -1, -8.06141, 28.7905, 26.5155, -2.94661, -72.4702, -10.1993
0.584, -1, -7.96988, 28.7448, 26.5033, -2.80116, -72.3154, -10.2689
0.588, -1, -7.8785, 28.6993, 26.4911, -2.65593, -72.1609, -10.3384
0.592, -1, -7.78726, 28.6538, 26.4789, -2.51093, -72.0065, -10.4078
0.596, -1, -7.69617, 28.6084, 26.4668, -2.36616, -71.8525, -10.4771
0.6, -1, -7.60522, 28.5631, 26.4546, -2.22162, -71.6986, -10.5463
0.604, -1, -7.51441, 28.5178, 26.4425, -2.07732, -71.5451, -10.6153
0.608, -1, -7.42376, 28.4727, 26.4304, -1.93325, -71.3917, -10.6842
0.612, -1, -7.33326, 28.4276, 26.4183, -1.78942, -71.2387, -10.7531
0.616, -1, -7.2429, 28.3825, 26.4063, -1.64584, -71.0859, -10.8218
0.62, -1, -7.1527, 28.3376, 26.3942, -1.5025, -70.9333, -10.8904
0.624, -1, -7.06265, 28.2927, 26.3822, -1.3594, -70.781, -10.9588
0.628, -1, -6.97276, 28.2479, 26.3702, -1.21656, -70.629, -11.0272
0.632, -1, -6.88303, 28.2032, 26.3582, -1.07396, -70.4772, -11.0954
0.636, -1, -6.79346, 28.1585, 26.3463, -0.931622, -70.3257, -11.1635
0.64, -1, -6.70404, 28.114, 26.3344, -0.789537, -70.1745, -11.2315
0.644, -1, -6.61479, 28.0695, 26.3224, -0.647708, -70.0236, -11.2994
0.648, -1, -6.5257, 28.0251, 26.3106, -0.506139, -69.8729, -11.3671
0.652, -1, -6.43677, 27.9808, 26.2987, -0.364831, -69.7225, -11.4347
0.656, -1, -6.34801, 27.9366, 26.2868, -0.223785, -69.5724, -11.5022
0.66, -1, -6.25941, 27.8924, 26.275, -0.0830049, -69.4226, -11.5696
0.664, -1, -6.17098, 27.8483, 26.2632, 0.057509, -69.273, -11.6368
0.668, -1, -6.08272, 27.8044, 26.2514, 0.197755, -69.1238, -11.7039
0.672, -1, -5.99463, 27.7605, 26.2397, 0.33773, -68.9748, -11.7709
0.676, -1, -5.9067, 27.7166, 26.2279, 0.477435, -68.8261, -11.8378
0.68, -1, -5.81895, 27.6729, 26.2162, 0.616866, -68.6777, -11.9045
0.684, -1, -5.73137, 27.6293, 26.2045, 0.756022, -68.5296, -11.9711
0.688, -1, -5.64396, 27.5857, 26.1929, 0.894902, -68.3818, -12.0375
0.692, -1, -5.55673, 27.5422, 26.1812, 1.0335, -68.2343, -12.1038
0.696, -1, -5.46968, 27.4988, 26.1696, 1.17183, -68.0871, -12.17
0.7, -1, -5.38279, 27.4556, 26.158, 1.30987, -67.9402, -12.2361
0.704, -1, -5.29609, 27.4123, 26.1465, 1.44763, -67.7936, -12.302
0.708, -1, -5.20956, 27.3692, 26.1349, 1.58511, -67.6473, -12.3678
0.712, -1, -5.12321, 27.3262, 26.1234, 1.72231, -67.5013, -12.4334
0.716, -1, -5.03704, 27.2833, 26.1119, 1.85921, -67.3555, -12.4989
0.72, -1, -4.95105, 27.2404, 26.1004, 1.99584, -67.2101, -12.5643
0.724, -1, -4.86524, 27.1976, 26.089, 2.13217, -67.065, -12.6296
0.728, -1, -4.77961, 27.155, 26.0775, 2.26822, -66.9203, -12.6947
0.732, -1, -4.69416, 27.1124, 26.0661, 2.40397, -66.7758, -12.7596
0.736, -1, -4.6089, 27.0699, 26.0548, 2.53944, -66.6316, -12.8244
0.74, -1, -4.52381, 27.0275, 26.0434, 2.67461, -66.4877, -12.8891
0.744, -1, -4.43891, 26.9852, 26.0321, 2.8095, -66.3442, -12.9537
0.748, -1, -4.3542, 26.943, 26.0208, 2.94408, -66.201, -13.0181
0.752, -1, -4.26966, 26.9009, 26.0095, 3.07838, -66.058, -13.0823
0.756, -1, -4.18531, 26.8588, 25.9983, 3.21238, -65.9154, -13.1464
0.76, -1, -4.10115, 26.8169, 25.987, 3.34609, -65.7731, -13.2104
0.764, -1, -4.01717, 26.775, 25.9758, 3.4795, -65.6311, -13.2743
0.768, -1, -3.93337, 26.7333, 25.9646, 3.61261, -65.4895, -13.338
0.772, -1, -3.84976, 26.6916, 25.9535, 3.74543, -65.3481, -13.4015
0.776, -1, -3.76633, 26.65, 25.9424, 3.87795, -65.2071, -13.4649
0.78, -1, -3.68309, 26.6086, 25.9313, 4.01018, -65.0664, -13.5282
0.784, -1, -3.60003, 26.5672, 25.9202, 4.14211, -64.9259, -13.5913
0.788, -1, -3.51716, 26.5259, 25.9091, 4.27375, -64.7858, -13.6543
0.792, -1, -3.43447, 26.4847, 25.8981, 4.40509, -64.6461, -13.7172
0.796, -1, -3.35197, 26.4436, 25.8871, 4.53613, -64.5066, -13.7799
0.8, -1, -3.26966, 26.4026, 25.8761, 4.66688, -64.3674, -13.8424
0.804, -1, -3.18753, 26.3616, 25.8652, 4.79734, -64.2286, -13.9049
0.808, -1, -3.10558, 26.3208, 25.8542, 4.9275, -64.0901, -13.9671
0.812, -1, -3.02382, 26.2801, 25.8433, 5.05736, -63.9519, -14.0293
0.816, -1, -2.94225, 26.2394, 25.8324, 5.18693, -63.814, -14.0913
0.82, -1, -2.86085, 26.1989, 25.8216, 5.31621, -63.6764, -14.1531
0.824, -1, -2.77965, 26.1584, 25.8108, 5.4452, -63.5391, -14.2149
0.828, -1, -2.69862, 26.118, 25.8, 5.57389, -63.4021, -14.2764
0.832, -1, -2.61778, 26.0777, 25.7892, 5.70229, -63.2655, -14.3379
0.836, -1, -2.53713, 26.0375, 25.7784, 5.8304, -63.1292, -14.3992
0.84, -1, -2.45665, 25.9974, 25.7677, 5.95822, -62.9931, -14.4603
0.844, -1, -2.37636, 25.9574, 25.757, 6.08575, -62.8574, -14.5214
0.848, -1, -2.29625, 25.9175, 25.7463, 6.21298, -62.722, -14.5823
0.852, -1, -2.21633, 25.8777, 25.7356, 6.33993, -62.5869, -14.643
0.856, -1, -2.13658, 25.838, 25.725, 6.46659, -62.4521, -14.7036
0.86, -1, -2.05702, 25.7983, 25.7144, 6.59296, -62.3176, -14.7641
0.864, -1, -1.97764, 25.7588, 25.7038, 6.71904, -62.1834, -14.8244
0.868, -1, -1.89844, 25.7193, 25.6932, 6.84484, -62.0495, -14.8846
0.872, -1, -1.81942, 25.6799, 25.6827, 6.97035, -61.916, -14.9447
0.876, -1, -1.74058, 25.6406, 25.6722, 7.09557, -61.7827, -15.0046
0.88, -1, -1.66192, 25.6014, 25.6617, 7.2205, -61.6497, -15.0644
0.884, -1, -1.58344, 25.5623, 25.6512, 7.34516, -61.5171, -15.124
0.888, -1, -1.50513, 25.5233, 25.6408, 7.46952, -61.3847, -15.1835
0.892, -1, -1.42701, 25.4844, 25.6304, 7.5936, -61.2526, -15.2429
0.896, -1, -1.34906, 25.4456, 25.62, 7.7174, -61.1209, -15.3021
0.9, -1, -1.2713, 25.4068, 25.6096, 7.84092, -60.9894, -15.3612
0.904, -1, -1.19371, 25.3681, 25.5993, 7.96415, -60.8583, -15.4202
0.908, -1, -1.11629, 25.3296, 25.5889, 8.08711, -60.7274, -15.479
0.912, -1, -1.03905, 25.2911, 25.5786, 8.20978, -60.5969, -15.5377
0.916, -1, -0.961994, 25.2527, 25.5684, 8.33217, -60.4666, -15.5963
0.92, -1, -0.885109, 25.2144, 25.5581, 8.45428, -60.3366, -15.6547
0.924, -1, -0.808399, 25.1762, 25.5479, 8.57612, -60.207, -15.713
0.928, -1, -0.731865, 25.138, 25.5377, 8.69767, -60.0776, -15.7712
0.932, -1, -0.655505, 25.1, 25.5275, 8.81895, -59.9485, -15.8292
0.936, -1, -0.579319, 25.062, 25.5173, 8.93995, -59.8198, -15.8871
0.94, -1, -0.503307, 25.0241, 25.5072, 9.06068, -59.6913, -15.9449
0.944, -1, -0.427468, 24.9863, 25.4971, 9.18113, -59.5631, -16.0025
0.948, -1, -0.351802, 24.9486, 25.487, 9.30131, -59.4352, -16.06
0.952, -1, -0.276308, 24.911, 25.4769, 9.42121, -59.3076, -16.1174
0.956, -1, -0.200986, 24.8735, 25.4669, 9.54084, -59.1803, -16.1746
0.96, -1, -0.125835, 24.8361, 25.4569, 9.66019, -59.0532, -16.2318
0.964, -1, -0.0508559, 24.7987, 25.4469, 9.77928, -58.9265, -16.2887
0.968, -1, 0.023953, 24.7614, 25.4369, 9.89809, -58.8001, -16.3456
0.972, -1, 0.0985918, 24.7242, 25.4269, 10.0166, -58.6739, -16.4023
0.976, -1, 0.173061, 24.6871, 25.417, 10.1349, -58.548, -16.4589
0.98, -1, 0.247361, 24.6501, 25.4071, 10.2529, -58.4224, -16.5154
0.984, -1, 0.321492, 24.6132, 25.3972, 10.3706, -58.2971, -16.5717
0.988, -1, 0.395455, 24.5763, 25.3873, 10.4881, -58.1721, -16.6279
0.992, -1, 0.469251, 24.5395, 25.3775, 10.6053, -58.0474, -16.684
0.996, -1, 0.542879, 24.5028, 25.3677, 10.7223, -57.9229, -16.74
1, -1, 0.61634, 24.4662, 25.3579, 10.8389, -57.7988, -16.7958
1.004, -1, 0.689635, 24.4297, 25.3481, 10.9553, -57.6749, -16.8515
1.008, -1, 0.762764, 24.3933, 25.3384, 11.0715, -57.5513, -16.9071
1.012, -1, 0.835728, 24.3569, 25.3286, 11.1874, -57.4279, -16.9625
1.016, -1, 0.908526, 24.3207, 25.3189, 11.303, -57.3049, -17.0178
1.02, -1, 0.981161, 24.2845, 25.3092, 11.4183, -57.1821, -17.073
1.024, -1, 1.05363, 24.2484, 25.2996, 11.5334, -57.0596, -17.1281
1.027, -1, 1.12594, 24.2123, 25.2899, 11.6483, -56.9374, -17.1831
1.032, -1, 1.19808, 24.1764, 25.2803, 11.7629, -56.8155, -17.2379
1.036, -1, 1.27007, 24.1405, 25.2707, 11.8772, -56.6938, -17.2926
1.04, -1, 1.34189, 24.1047, 25.2611, 11.9912, -56.5724, -17.3472
1.044, -1, 1.41355, 24.069, 25.2516, 12.105, -56.4513, -17.4016
1.048, -1, 1.48505, 24.0334, 25.2421, 12.2186, -56.3304, -17.456
1.052, -1, 1.55639, 23.9978, 25.2325, 12.3319, -56.2098, -17.5102
1.055, -1, 1.62757, 23.9624, 25.2231, 12.4449, -56.0895, -17.5643
1.06, -1, 1.69859, 23.927, 25.2136, 12.5577, -55.9695, -17.6182
1.064, -1, 1.76945, 23.8917, 25.2041, 12.6703, -55.8497, -17.6721
1.068, -1, 1.84016, 23.8565, 25.1947, 12.7826, -55.7302, -17.7258
1.072, -1, 1.91071, 23.8213, 25.1853, 12.8946, -55.611, -17.7794
1.076, -1, 1.9811, 23.7862, 25.1759, 13.0064, -55.492, -17.8329
1.08, -1, 2.05134, 23.7512, 25.1666, 13.1179, -55.3733, -17.8863
1.084, -1, 2.12143, 23.7163, 25.1572, 13.2292, -55.2549, -17.9396
1.088, -1, 2.19136, 23.6815, 25.1479, 13.3403, -55.1367, -17.9927
1.091, -1, 2.26113, 23.6467, 25.1386, 13.4511, -55.0187, -18.0457
1.096, -1, 2.33076, 23.612, 25.1293, 13.5616, -54.9011, -18.0986
1.1, -1, 2.40023, 23.5774, 25.12, 13.672, -54.7837, -18.1514
1.104, -1, 2.46955, 23.5429, 25.1108, 13.7821, -54.6665, -18.2041
1.108, -1, 2.53871, 23.5084, 25.1016, 13.8919, -54.5496, -18.2567
1.112, -1, 2.60773, 23.474, 25.0924, 14.0015, -54.4329, -18.3091
1.116, -1, 2.6766, 23.4397, 25.0832, 14.1109, -54.3166, -18.3614
1.119, -1, 2.74532, 23.4055, 25.074, 14.22, -54.2004, -18.4137
1.124, -1, 2.8139, 23.3713, 25.0649, 14.3289, -54.0845, -18.4658
1.128, -1, 2.88232, 23.3372, 25.0558, 14.4376, -53.9689, -18.5178
1.132, -1, 2.9506, 23.3032, 25.0467, 14.546, -53.8535, -18.5696
1.136, -1, 3.01874, 23.2692, 25.0376, 14.6542, -53.7383, -18.6214
1.14, -1, 3.08673, 23.2353, 25.0285, 14.7622, -53.6234, -18.6731
1.144, -1, 3.15457, 23.2015, 25.0195, 14.8699, -53.5087, -18.7246
1.147, -1, 3.22227, 23.1678, 25.0104, 14.9774, -53.3943, -18.7761
1.152, -1, 3.28983, 23.1341, 25.0014, 15.0847, -53.2801, -18.8274
1.156, -1, 3.35725, 23.1006, 24.9925, 15.1918, -53.1662, -18.8786
1.16, -1, 3.42452, 23.067, 24.9835, 15.2986, -53.0525, -18.9298
1.164, -1, 3.49165, 23.0336, 24.9745, 15.4052, -52.939, -18.9808
1.168, -1, 3.55865, 23.0002, 24.9656, 15.5116, -52.8258, -19.0317
1.172, -1, 3.6255, 22.9669, 24.9567, 15.6178, -52.7128, -19.0825
1.175, -1, 3.69221, 22.9337, 24.9478, 15.7237, -52.6001, -19.1332
1.18, -1, 3.75879, 22.9005, 24.9389, 15.8294, -52.4876, -19.1838
1.184, -1, 3.82523, 22.8674, 24.9301, 15.9349, -52.3753, -19.2343
1.188, -1, 3.89153, 22.8343, 24.9212, 16.0402, -52.2632, -19.2846
1.192, -1, 3.95769, 22.8014, 24.9124, 16.1453, -52.1514, -19.3349
1.196, -1, 4.02372, 22.7685, 24.9036, 16.2501, -52.0398, -19.3851
1.2, -1, 4.08961, 22.7356, 24.8948, 16.3548, -51.9284, -19.4352
1.204, -1, 4.15537, 22.7029, 24.886, 16.4592, -51.8173, -19.4851
1.208, -1, 4.221, 22.6702, 24.8773, 16.5634, -51.7064, -19.535
1.212, -1, 4.28649, 22.6376, 24.8686, 16.6674, -51.5957, -19.5848
1.216, -1, 4.35185, 22.605, 24.8599, 16.7712, -51.4852, -19.6344
1.22, -1, 4.41707, 22.5725, 24.8512, 16.8748, -51.375, -19.684
1.224, -1, 4.48217, 22.54, 24.8425, 16.9782, -51.265, -19.7335
1.228, -1, 4.54713, 22.5077, 24.8338, 17.0814, -51.1552, -19.7828
1.232, -1, 4.61196, 22.4754, 24.8252, 17.1843, -51.0456, -19.8321
1.236, -1, 4.67667, 22.4431, 24.8166, 17.2871, -50.9362, -19.8813
1.24, -1, 4.74124, 22.411, 24.8079, 17.3896, -50.8271, -19.9303
1.244, -1, 4.80569, 22.3788, 24.7994, 17.492, -50.7182, -19.9793
1.248, -1, 4.87, 22.3468, 24.7908, 17.5941, -50.6095, -20.0282
1.252, -1, 4.93419, 22.3148, 24.7822, 17.696, -50.501, -20.077
1.256, -1, 4.99826, 22.2829, 24.7737, 17.7978, -50.3927, -20.1256
1.26, -1, 5.06219, 22.251, 24.7652, 17.8993, -50.2846, -20.1742
1.264, -1, 5.126, 22.2192, 24.7566, 18.0007, -50.1768, -20.2227
1.267, -1, 5.18969, 22.1875, 24.7482, 18.1018, -50.0692, -20.2711
1.272, -1, 5.25325, 22.1558, 24.7397, 18.2027, -49.9617, -20.3194
1.276, -1, 5.31669, 22.1242, 24.7312, 18.3035, -49.8545, -20.3676
1.28, -1, 5.38, 22.0927, 24.7228, 18.404, -49.7475, -20.4157
1.284, -1, 5.44319, 22.0612, 24.7144, 18.5044, -49.6407, -20.4638
1.288, -1, 5.50626, 22.0298, 24.706, 18.6045, -49.5341, -20.5117
1.292, -1, 5.56921, 21.9984, 24.6976, 18.7045, -49.4277, -20.5595
1.295, -1, 5.63203, 21.9671, 24.6892, 18.8043, -49.3215, -20.6073
1.3, -1, 5.69473, 21.9359, 24.6808, 18.9038, -49.2156, -20.6549
1.304, -1, 5.75732, 21.9047, 24.6725, 19.0032, -49.1098, -20.7025
1.308, -1, 5.81978, 21.8736, 24.6642, 19.1024, -49.0042, -20.7499
1.312, -1, 5.88212, 21.8425, 24.6558, 19.2014, -48.8988, -20.7973
1.316, -1, 5.94435, 21.8115, 24.6475, 19.3003, -48.7937, -20.8446
1.32, -1, 6.00646, 21.7805, 24.6393, 19.3989, -48.6887, -20.8918
1.324, -1, 6.06845, 21.7497, 24.631, 19.4973, -48.5839, -20.9389
1.328, -1, 6.13032, 21.7188, 24.6228, 19.5956, -48.4794, -20.9859
1.332, -1, 6.19207, 21.6881, 24.6145, 19.6937, -48.375, -21.0328
1.336, -1, 6.25371, 21.6573, 24.6063, 19.7916, -48.2708, -21.0797
1.34, -1, 6.31523, 21.6267, 24.5981, 19.8893, -48.1668, -21.1264
1.344, -1, 6.37664, 21.5961, 24.5899, 19.9868, -48.063, -21.1731
1.348, -1, 6.43793, 21.5655, 24.5817, 20.0841, -47.9594, -21.2197
1.352, -1, 6.49911, 21.5351, 24.5736, 20.1813, -47.856, -21.2662
1.356, -1, 6.56018, 21.5046, 24.5654, 20.2783, -47.7528, -21.3126
1.36, -1, 6.62113, 21.4743, 24.5573, 20.3751, -47.6498, -21.3589
1.364, -1, 6.68197, 21.4439, 24.5492, 20.4717, -47.547, -21.4051
1.368, -1, 6.74269, 21.4137, 24.5411, 20.5681, -47.4443, -21.4513
1.372, -1, 6.80331, 21.3835, 24.533, 20.6644, -47.3419, -21.4973
1.376, -1, 6.86381, 21.3533, 24.525, 20.7605, -47.2396, -21.5433
1.38, -1, 6.9242, 21.3232, 24.5169, 20.8564, -47.1375, -21.5892
1.384, -1, 6.98448, 21.2932, 24.5089, 20.9521, -47.0357, -21.635
1.388, -1, 7.04465, 21.2632, 24.5009, 21.0477, -46.934, -21.6807
1.392, -1, 7.10471, 21.2333, 24.4928, 21.1431, -46.8324, -21.7264
1.396, -1, 7.16467, 21.2034, 24.4849, 21.2383, -46.7311, -21.7719
1.4, -1, 7.22451, 21.1736, 24.4769, 21.3333, -46.63, -21.8174
1.404, -1, 7.28425, 21.1438, 24.4689, 21.4282, -46.529, -21.8628
1.408, -1, 7.34387, 21.1141, 24.461, 21.5229, -46.4282, -21.9081
1.412, -1, 7.4034, 21.0845, 24.453, 21.6174, -46.3276, -21.9534
1.416, -1, 7.46281, 21.0549, 24.4451, 21.7118, -46.2272, -21.9985
1.42, -1, 7.52212, 21.0253, 24.4372, 21.806, -46.1269, -22.0436
1.424, -1, 7.58133, 20.9958, 24.4293, 21.9, -46.0269, -22.0886
1.428, -1, 7.64043, 20.9664, 24.4214, 21.9938, -45.927, -22.1335
1.432, -1, 7.69943, 20.937, 24.4136, 22.0875, -45.8273, -22.1783
1.436, -1, 7.75832, 20.9076, 24.4057, 22.181, -45.7278, -22.2231
1.44, -1, 7.81711, 20.8783, 24.3979, 22.2744, -45.6284, -22.2677
1.444, -1, 7.8758, 20.8491, 24.3901, 22.3676, -45.5292, -22.3123
1.448, -1, 7.93438, 20.8199, 24.3822, 22.4606, -45.4302, -22.3568
1.452, -1, 7.99287, 20.7908, 24.3744, 22.5535, -45.3314, -22.4013
1.456, -1, 8.05125, 20.7617, 24.3667, 22.6462, -45.2327, -22.4456
1.46, -1, 8.10953, 20.7326, 24.3589, 22.7387, -45.1342, -22.4899
1.464, -1, 8.16771, 20.7037, 24.3511, 22.8311, -45.0359, -22.5341
1.468, -1, 8.22578, 20.6747, 24.3434, 22.9234, -44.9378, -22.5783
1.472, -1, 8.28376, 20.6458, 24.3357, 23.0154, -44.8398, -22.6223
1.476, -1, 8.34164, 20.617, 24.328, 23.1073, -44.742, -22.6663
1.48, -1, 8.39942, 20.5882, 24.3203, 23.1991, -44.6443, -22.7102
1.484, -1, 8.4571, 20.5595, 24.3126, 23.2907, -44.5468, -22.754
1.488, -1, 8.51469, 20.5308, 24.3049, 23.3821, -44.4495, -22.7978
1.492, -1, 8.57218, 20.5021, 24.2972, 23.4734, -44.3523, -22.8415
1.496, -1, 8.62957, 20.4735, 24.2896, 23.5645, -44.2554, -22.8851
1.5, -1, 8.68686, 20.445, 24.2819, 23.6555, -44.1585, -22.9286
1.504, -1, 8.74406, 20.4165, 24.2743, 23.7464, -44.0619, -22.9721
1.508, -1, 8.80116, 20.388, 24.2667, 23.837, -43.9654, -23.0155
1.512, -1, 8.85816, 20.3596, 24.2591, 23.9276, -43.869, -23.0588
1.516, -1, 8.91508, 20.3313, 24.2515, 24.0179, -43.7728, -23.102
1.52, -1, 8.97189, 20.303, 24.2439, 24.1082, -43.6768, -23.1452
1.524, -1, 9.02862, 20.2747, 24.2364, 24.1982, -43.5809, -23.1883
1.528, -1, 9.08525, 20.2465, 24.2288, 24.2882, -43.4852, -23.2313
1.532, -1, 9.14179, 20.2183, 24.2213, 24.378, -43.3897, -23.2743
1.536, -1, 9.19823, 20.1902, 24.2138, 24.4676, -43.2943, -23.3172
1.54, -1, 9.25459, 20.1621, 24.2063, 24.5571, -43.199, -23.36
1.544, -1, 9.31085, 20.1341, 24.1988, 24.6464, -43.1039, -23.4028
1.548, -1, 9.36702, 20.1061, 24.1913, 24.7356, -43.009, -23.4454
1.552, -1, 9.4231, 20.0782, 24.1838, 24.8247, -42.9142, -23.4881
1.556, -1, 9.47909, 20.0503, 24.1763, 24.9136, -42.8196, -23.5306
1.56, -1, 9.53499, 20.0224, 24.1689, 25.0024, -42.7251, -23.5731
1.564, -1, 9.5908, 19.9946, 24.1614, 25.091, -42.6308, -23.6155
1.568, -1, 9.64652, 19.9668, 24.154, 25.1795, -42.5366, -23.6578
1.572, -1, 9.70215, 19.9391, 24.1466, 25.2678, -42.4426, -23.7001
1.576, -1, 9.7577, 19.9114, 24.1392, 25.3561, -42.3487, -23.7423
1.58, -1, 9.81316, 19.8838, 24.1318, 25.4441, -42.255, -23.7845
1.584, -1, 9.86852, 19.8562, 24.1244, 25.5321, -42.1614, -23.8265
1.588, -1, 9.92381, 19.8287, 24.117, 25.6198, -42.068, -23.8685
1.592, -1, 9.979, 19.8012, 24.1097, 25.7075, -41.9747, -23.9105
1.596, -1, 10.0341, 19.7737, 24.1023, 25.795, -41.8816, -23.9524
1.6, -1, 10.0891, 19.7463, 24.095, 25.8824, -41.7886, -23.9942
1.604, -1, 10.1441, 19.7189, 24.0877, 25.9696, -41.6957, -24.0359
1.608, -1, 10.1989, 19.6916, 24.0804, 26.0567, -41.603, -24.0776
1.612, -1, 10.2537, 19.6643, 24.0731, 26.1437, -41.5104, -24.1192
1.616, -1, 10.3084, 19.6371, 24.0658, 26.2306, -41.418, -24.1608
1.62, -1, 10.363, 19.6099, 24.0585, 26.3173, -41.3257, -24.2023
1.624, -1, 10.4175, 19.5827, 24.0512, 26.4038, -41.2336, -24.2437
1.628, -1, 10.4719, 19.5556, 24.044, 26.4903, -41.1416, -24.2851
1.632, -1, 10.5263, 19.5285, 24.0367, 26.5766, -41.0497, -24.3264
1.636, -1, 10.5806, 19.5015, 24.0295, 26.6628, -40.958, -24.3676
1.64, -1, 10.6347, 19.4745, 24.0223, 26.7488, -40.8664, -24.4088
1.644, -1, 10.6888, 19.4475, 24.0151, 26.8348, -40.775, -24.4499
1.648, -1, 10.7429, 19.4206, 24.0079, 26.9205, -40.6837, -24.4909
1.652, -1, 10.7968, 19.3937, 24.0007, 27.0062, -40.5925, -24.5319
1.656, -1, 10.8507, 19.3669, 23.9935, 27.0917, -40.5015, -24.5729
1.66, -1, 10.9044, 19.3401, 23.9863, 27.1771, -40.4106, -24.6137
1.664, -1, 10.9581, 19.3133, 23.9792, 27.2624, -40.3198, -24.6545
1.668, -1, 11.0118, 19.2866, 23.972, 27.3476, -40.2292, -24.6953
1.672, -1, 11.0653, 19.2599, 23.9649, 27.4326, -40.1387, -24.736
1.676, -1, 11.1188, 19.2333, 23.9577, 27.5175, -40.0484, -24.7766
1.68, -1, 11.1722, 19.2067, 23.9506, 27.6023, -39.9581, -24.8172
1.684, -1, 11.2255, 19.1801, 23.9435, 27.6869, -39.868, -24.8577
1.688, -1, 11.2787, 19.1536, 23.9364, 27.7715, -39.7781, -24.8981
1.692, -1, 11.3318, 19.1271, 23.9293, 27.8559, -39.6883, -24.9385
1.696, -1, 11.3849, 19.1007, 23.9223, 27.9401, -39.5986, -24.9788
1.7, -1, 11.4379, 19.0743, 23.9152, 28.0243, -39.509, -25.0191
1.704, -1, 11.4908, 19.0479, 23.9081, 28.1083, -39.4196, -25.0593
1.708, -1, 11.5437, 19.0216, 23.9011, 28.1923, -39.3303, -25.0995
1.712, -1, 11.5964, 18.9953, 23.8941, 28.2761, -39.2411, -25.1396
1.716, -1, 11.6491, 18.969, 23.887, 28.3597, -39.152, -25.1796
1.72, -1, 11.7017, 18.9428, 23.88, 28.4433, -39.0631, -25.2196
1.724, -1, 11.7543, 18.9166, 23.873, 28.5267, -38.9743, -25.2595
1.728, -1, 11.8067, 18.8905, 23.866, 28.61, -38.8856, -25.2994
1.732, -1, 11.8591, 18.8644, 23.859, 28.6932, -38.7971, -25.3392
1.736, -1, 11.9114, 18.8383, 23.8521, 28.7763, -38.7087, -25.3789
1.74, -1, 11.9637, 18.8123, 23.8451, 28.8593, -38.6204, -25.4186
1.744, -1, 12.0158, 18.7863, 23.8381, 28.9421, -38.5322, -25.4583
1.748, -1, 12.0679, 18.7604, 23.8312, 29.0248, -38.4442, -25.4979
1.752, -1, 12.1199, 18.7344, 23.8243, 29.1075, -38.3562, -25.5374
1.756, -1, 12.1719, 18.7086, 23.8173, 29.19, -38.2684, -25.5769
1.76, -1, 12.2238, 18.6827, 23.8104, 29.2723, -38.1808, -25.6163
1.764, -1, 12.2756, 18.6569, 23.8035, 29.3546, -38.0932, -25.6556
1.768, -1, 12.3273, 18.6311, 23.7966, 29.4368, -38.0058, -25.695
1.772, -1, 12.379, 18.6054, 23.7897, 29.5188, -37.9185, -25.7342
1.776, -1, 12.4305, 18.5797, 23.7829, 29.6007, -37.8313, -25.7734
1.78, -1, 12.4821, 18.554, 23.776, 29.6825, -37.7442, -25.8126
1.784, -1, 12.5335, 18.5284, 23.7691, 29.7642, -37.6573, -25.8517
1.788, -1, 12.5849, 18.5028, 23.7623, 29.8458, -37.5704, -25.8907
1.792, -1, 12.6362, 18.4772, 23.7554, 29.9273, -37.4837, -25.9297
1.796, -1, 12.6874, 18.4517, 23.7486, 30.0087, -37.3971, -25.9686
1.8, -1, 12.7386, 18.4262, 23.7418, 30.0899, -37.3106, -26.0075
1.804, -1, 12.7897, 18.4007, 23.735, 30.1711, -37.2243, -26.0463
1.808, -1, 12.8407, 18.3753, 23.7282, 30.2521, -37.1381, -26.0851
1.812, -1, 12.8916, 18.3499, 23.7214, 30.333, -37.0519, -26.1238
1.816, -1, 12.9425, 18.3246, 23.7146, 30.4138, -36.9659, -26.1625
1.82, -1, 12.9933, 18.2992, 23.7078, 30.4945, -36.88, -26.2011
1.824, -1, 13.0441, 18.274, 23.7011, 30.5751, -36.7942, -26.2397
1.828, -1, 13.0948, 18.2487, 23.6943, 30.6556, -36.7086, -26.2782
1.832, -1, 13.1454, 18.2235, 23.6876, 30.736, -36.623, -26.3167
1.836, -1, 13.1959, 18.1983, 23.6808, 30.8163, -36.5376, -26.3551
1.84, -1, 13.2464, 18.1731, 23.6741, 30.8965, -36.4523, -26.3934
1.844, -1, 13.2968, 18.148, 23.6674, 30.9765, -36.3671, -26.4317
1.848, -1, 13.3472, 18.1229, 23.6607, 31.0565, -36.282, -26.47
1.852, -1, 13.3975, 18.0979, 23.654, 31.1363, -36.197, -26.5082
1.856, -1, 13.4477, 18.0729, 23.6473, 31.2161, -36.1121, -26.5464
1.86, -1, 13.4978, 18.0479, 23.6406, 31.2957, -36.0273, -26.5845
1.864, -1, 13.5479, 18.0229, 23.6339, 31.3753, -35.9427, -26.6225
1.868, -1, 13.5979, 17.998, 23.6272, 31.4547, -35.8582, -26.6606
1.872, -1, 13.6479, 17.9731, 23.6206, 31.534, -35.7737, -26.6985
1.876, -1, 13.6978, 17.9482, 23.6139, 31.6133, -35.6894, -26.7364
1.88, -1, 13.7476, 17.9234, 23.6073, 31.6924, -35.6052, -26.7743
1.884, -1, 13.7974, 17.8986, 23.6006, 31.7714, -35.5211, -26.8121
1.888, -1, 13.8471, 17.8739, 23.594, 31.8504, -35.4371, -26.8499
1.892, -1, 13.8967, 17.8491, 23.5874, 31.9292, -35.3532, -26.8876
1.896, -1, 13.9463, 17.8244, 23.5808, 32.0079, -35.2694, -26.9253
1.9, -1, 13.9958, 17.7998, 23.5742, 32.0865, -35.1857, -26.9629
1.904, -1, 14.0452, 17.7751, 23.5676, 32.1651, -35.1021, -27.0005
1.908, -1, 14.0946, 17.7505, 23.561, 32.2435, -35.0187, -27.038
1.912, -1, 14.144, 17.7259, 23.5544, 32.3218, -34.9353, -27.0755
1.916, -1, 14.1932, 17.7014, 23.5479, 32.4001, -34.852, -27.1129
1.92, -1, 14.2424, 17.6769, 23.5413, 32.4782, -34.7689, -27.1503
1.924, -1, 14.2916, 17.6524, 23.5348, 32.5563, -34.6858, -27.1877
1.928, -1, 14.3406, 17.6279, 23.5282, 32.6342, -34.6029, -27.2249
1.932, -1, 14.3896, 17.6035, 23.5217, 32.712, -34.52, -27.2622
1.936, -1, 14.4386, 17.5791, 23.5152, 32.7898, -34.4373, -27.2994
1.94, -1, 14.4875, 17.5547, 23.5086, 32.8674, -34.3546, -27.3366
1.944, -1, 14.5363, 17.5304, 23.5021, 32.945, -34.2721, -27.3737
1.948, -1, 14.5851, 17.5061, 23.4956, 33.0225, -34.1896, -27.4107
1.952, -1, 14.6338, 17.4818, 23.4891, 33.0998, -34.1073, -27.4478
1.956, -1, 14.6825, 17.4576, 23.4826, 33.1771, -34.0251, -27.4847
1.96, -1, 14.7311, 17.4334, 23.4762, 33.2543, -33.9429, -27.5217
1.964, -1, 14.7796, 17.4092, 23.4697, 33.3314, -33.8609, -27.5586
1.968, -1, 14.8281, 17.385, 23.4632, 33.4084, -33.7789, -27.5954
1.972, -1, 14.8765, 17.3609, 23.4568, 33.4853, -33.6971, -27.6322
1.976, -1, 14.9249, 17.3368, 23.4503, 33.5621, -33.6153, -27.6689
1.98, -1, 14.9732, 17.3127, 23.4439, 33.6388, -33.5337, -27.7057
1.984, -1, 15.0214, 17.2887, 23.4375, 33.7154, -33.4521, -27.7423
1.988, -1, 15.0696, 17.2647, 23.431, 33.792, -33.3707, -27.7789
1.992, -1, 15.1178, 17.2407, 23.4246, 33.8684, -33.2893, -27.8155
1.996, -1, 15.1658, 17.2167, 23.4182, 33.9448, -33.2081, -27.8521
1.999, -1, 15.2139, 17.1928, 23.4118, 34.021, -33.1269, -27.8886
2.004, -1, 15.2618, 17.1689, 23.4054, 34.0972, -33.0458, -27.925
2.008, -1, 15.3097, 17.145, 23.399, 34.1733, -32.9649, -27.9614
2.012, -1, 15.3576, 17.1212, 23.3926, 34.2493, -32.884, -27.9978
2.015, -1, 15.4054, 17.0974, 23.3863, 34.3252, -32.8032, -28.0341
2.019, -1, 15.4531, 17.0736, 23.3799, 34.401, -32.7225, -28.0704
2.024, -1, 15.5008, 17.0498, 23.3735, 34.4767, -32.6419, -28.1066
2.028, -1, 15.5484, 17.0261, 23.3672, 34.5524, -32.5614, -28.1428
2.031, -1, 15.596, 17.0024, 23.3609, 34.6279, -32.481, -28.179
2.036, -1, 15.6435, 16.9787, 23.3545, 34.7034, -32.4007, -28.2151
2.04, -1, 15.691, 16.9551, 23.3482, 34.7788, -32.3205, -28.2511
2.044, -1, 15.7384, 16.9314, 23.3419, 34.8541, -32.2403, -28.2872
2.048, -1, 15.7857, 16.9079, 23.3356, 34.9293, -32.1603, -28.3232
2.051, -1, 15.833, 16.8843, 23.3293, 35.0044, -32.0803, -28.3591
2.055, -1, 15.8803, 16.8607, 23.323, 35.0794, -32.0005, -28.395
2.06, -1, 15.9275, 16.8372, 23.3167, 35.1544, -31.9207, -28.4309
2.064, -1, 15.9746, 16.8137, 23.3104, 35.2293, -31.841, -28.4667
2.068, -1, 16.0217, 16.7903, 23.3041, 35.304, -31.7615, -28.5025
2.071, -1, 16.0687, 16.7668, 23.2978, 35.3787, -31.682, -28.5382
2.076, -1, 16.1157, 16.7434, 23.2916, 35.4533, -31.6026, -28.5739
2.08, -1, 16.1626, 16.72, 23.2853, 35.5279, -31.5232, -28.6096
2.084, -1, 16.2095, 16.6967, 23.2791, 35.6023, -31.444, -28.6452
2.087, -1, 16.2563, 16.6734, 23.2728, 35.6767, -31.3649, -28.6808
2.092, -1, 16.3031, 16.6501, 23.2666, 35.751, -31.2858, -28.7163
2.096, -1, 16.3498, 16.6268, 23.2604, 35.8252, -31.2068, -28.7518
2.1, -1, 16.3965, 16.6035, 23.2541, 35.8993, -31.128, -28.7873
2.104, -1, 16.4431, 16.5803, 23.2479, 35.9733, -31.0492, -28.8227
2.107, -1, 16.4896, 16.5571, 23.2417, 36.0473, -30.9705, -28.8581
2.111, -1, 16.5361, 16.5339, 23.2355, 36.1211, -30.8919, -28.8935
2.116, -1, 16.5826, 16.5108, 23.2293, 36.1949, -30.8133, -28.9288
2.12, -1, 16.629, 16.4876, 23.2231, 36.2686, -30.7349, -28.964
2.124, -1, 16.6754, 16.4645, 23.2169, 36.3422, -30.6565, -28.9993
2.127, -1, 16.7217, 16.4415, 23.2108, 36.4158, -30.5783, -29.0345
2.132, -1, 16.7679, 16.4184, 23.2046, 36.4893, -30.5001, -29.0696
2.136, -1, 16.8141, 16.3954, 23.1984, 36.5626, -30.422, -29.1047
2.14, -1, 16.8603, 16.3724, 23.1923, 36.636, -30.3439, -29.1398
2.143, -1, 16.9064, 16.3494, 23.1861, 36.7092, -30.266, -29.1749
2.148, -1, 16.9525, 16.3265, 23.18, 36.7823, -30.1882, -29.2099
2.152, -1, 16.9985, 16.3035, 23.1739, 36.8554, -30.1104, -29.2448
2.156, -1, 17.0444, 16.2806, 23.1677, 36.9284, -30.0327, -29.2798
2.16, -1, 17.0903, 16.2578, 23.1616, 37.0013, -29.9551, -29.3146
2.163, -1, 17.136, 16.235, 23.1555, 37.0742, -29.8776, -29.3495
2.168, -1, 17.1814, 16.2123, 23.1494, 37.1469, -29.8002, -29.3843
2.172, -1, 17.2261, 16.1899, 23.1432, 37.2195, -29.7229, -29.4191
2.176, -1, 17.2699, 16.168, 23.1369, 37.2919, -29.6459, -29.4537
2.179, -1, 17.3126, 16.1465, 23.1306, 37.364, -29.5692, -29.4882
2.184, -1, 17.3541, 16.1257, 23.1243, 37.4355, -29.4931, -29.5224
2.188, -1, 17.3942, 16.1056, 23.1179, 37.5062, -29.4179, -29.5563
2.192, -1, 17.4331, 16.0862, 23.1116, 37.5758, -29.344, -29.5895
2.196, -1, 17.4706, 16.0676, 23.1053, 37.6437, -29.2717, -29.6221
2.199, -1, 17.5068, 16.0498, 23.0992, 37.7096, -29.2017, -29.6536
2.204, -1, 17.5414, 16.0329, 23.0933, 37.7731, -29.1342, -29.684
2.208, -1, 17.5743, 16.017, 23.0876, 37.8335, -29.07, -29.7129
2.212, -1, 17.6054, 16.0022, 23.0823, 37.8904, -29.0095, -29.7402
2.216, -1, 17.6346, 15.9882, 23.0774, 37.9435, -28.9531, -29.7656
2.219, -1, 17.662, 15.9751, 23.0729, 37.9922, -28.9013, -29.7889
2.224, -1, 17.6877, 15.9626, 23.0689, 38.0363, -28.8544, -29.81
2.228, -1, 17.7118, 15.9507, 23.0656, 38.0756, -28.8126, -29.8288
2.232, -1, 17.7344, 15.9393, 23.0628, 38.11, -28.7759, -29.8453
2.235, -1, 17.7552, 15.9285, 23.0605, 38.1397, -28.7443, -29.8594
2.24, -1, 17.7743, 15.9185, 23.0588, 38.1648, -28.7176, -29.8714
2.244, -1, 17.7915, 15.9094, 23.0575, 38.1856, -28.6954, -29.8814
2.248, -1, 17.8067, 15.9013, 23.0566, 38.2025, -28.6773, -29.8895
2.252, -1, 17.8202, 15.8942, 23.056, 38.216, -28.6629, -29.8959
2.255, -1, 17.832, 15.8881, 23.0557, 38.2265, -28.6516, -29.9009
2.259, -1, 17.8423, 15.8828, 23.0556, 38.2345, -28.643, -29.9048
2.264, -1, 17.8512, 15.8784, 23.0556, 38.2404, -28.6366, -29.9076
2.268, -1, 17.8587, 15.8748, 23.0557, 38.2447, -28.632, -29.9096
2.272, -1, 17.8648, 15.8719, 23.0559, 38.2477, -28.6287, -29.9111
2.275, 2, 17.8697, 15.8697, 23.056, 38.2499, -28.6264, -29.9121
2.28, 2, 17.8733, 15.8681, 23.0561, 38.2513, -28.6248, -29.9128
2.284, 2, 17.876, 15.867, 23.0562, 38.2523, -28.6238, -29.9132
2.288, 2, 17.8778, 15.8662, 23.0563, 38.253, -28.623, -29.9136
2.291, 2, 17.879, 15.8657, 23.0563, 38.2534, -28.6226, -29.9138
2.296, 2, 17.8798, 15.8653, 23.0563, 38.2537, -28.6222, -29.9139
2.3, 2, 17.8804, 15.8651, 23.0563, 38.2539, -28.622, -29.914
2.304, 2, 17.8808, 15.8649, 23.0564, 38.2541, -28.6218, -29.9141
2.308, 2, 17.881, 15.8648, 23.0564, 38.2542, -28.6217, -29.9141
2.311, 2, 17.8812, 15.8647, 23.0564, 38.2542, -28.6217, -29.9142
2.316, 2, 17.8813, 15.8647, 23.0564, 38.2543, -28.6216, -29.9142
2.32, 2, 17.8814, 15.8646, 23.0564, 38.2543, -28.6216, -29.9142
2.324, 2, 17.8815, 15.8646, 23.0564, 38.2543, -28.6216, -29.9142
2.328, 2, 17.8815, 15.8646, 23.0564, 38.2543, -28.6215, -29.9142
2.331, 2, 17.8815, 15.8646, 23.0564, 38.2543, -28.6215, -29.9142
2.336, 2, 17.8815, 15.8646, 23.0564, 38.2544, -28.6215, -29.9142
2.34, 2, 17.8815, 15.8646, 23.0564, 38.2544, -28.6215, -29.9142
2.344, 2, 17.8816, 15.8646, 23.0564, 38.2544, -28.6215, -29.9142
2.347, 2, 17.8816, 15.8646, 23.0564, 38.2544, -28.6215, -29.9142
2.352, 2, 17.8816, 15.8646, 23.0564, 38.2544, -28.6215, -29.9142
2.356, 2, 17.8816, 15.8646, 23.0564, 38.2544, -28.6215, -29.9142
2.36, 2, 17.8816, 15.8645, 23.0564, 38.2544, -28.6215, -29.9142
2.364, 2, 17.8816, 15.8645, 23.0564, 38.2544, -28.6215, -29.9142
2.367, 2, 17.8816, 15.8645, 23.0564, 38.2544, -28.6215, -29.9142
2.372, 2, 17.8816, 15.8645, 23.0564, 38.2544, -28.6215, -29.9142
2.376, 2, 17.8816, 15.8645, 23.0564, 38.2544, -28.6215, -29.9142
2.38, 2, 17.8816, 15.8645, 23.0564, 38.2544, -28.6215, -29.9142
2.383, 2, 17.8816, 15.8645, 23.0564, 38.2544, -28.6215, -29.9142
2.388, 2, 17.8816, 15.8645, 23.0564, 38.2544, -28.6215, -29.9142
2.392, 2, 17.8816, 15.8645, 23.0564, 38.2544, -28.6215, -29.9142
2.396, 2, 17.8816, 15.8645, 23.0564, 38.2544, -28.6215, -29.9142
2.4, 2, 17.8816, 15.8645, 23.0564, 38.2544, -28.6215, -29.9142
2.403, 2, 17.8816, 15.8645, 23.0564, 38.2544, -28.6215, -29.9142
2.408, 2, 17.8816, 15.8645, 23.0564, 38.2544, -28.6215, -29.9142
2.412, 2, 17.8816, 15.8645, 23.0564, 38.2544, -28.6215, -29.9142
2.416, 2, 17.8816, 15.8645, 23.0564, 38.2544, -28.6215, -29.9142
2.42, 2, 17.8816, 15.8645, 23.0564, 38.2544, -28.6215, -29.9142
2.423, 2, 17.8816, 15.8645, 23.0564, 38.2544, -28.6215, -29.9142
2.428, 2, 17.8816, 15.8645, 23.0564, 38.2544, -28.6215, -29.9142
2.432, 2, 17.8816, 15.8645, 23.0564, 38.2544, -28.6215, -29.9142
2.436, 2, 17.8816, 15.8645, 23.0564, 38.2544, -28.6215, -29.9142
2.439, 2, 17.8816, 15.8645, 23.0564, 38.2544, -28.6215, -29.9142
2.444, 2, 17.8816, 15.8645, 23.0564, 38.2544, -28.6215, -29.9142
2.448, 2, 17.8816, 15.8645, 23.0564, 38.2544, -28.6215, -29.9142
2.452, 2, 17.8816, 15.8645, 23.0564, 38.2544, -28.6215, -29.9142
2.456, 2, 17.8816, 15.8645, 23.0564, 38.2544, -28.6215, -29.9142
2.459, 2, 17.8816, 15.8645, 23.0564, 38.2544, -28.6215, -29.9142
2.464, 2, 17.8816, 15.8645, 23.0564, 38.2544, -28.6215, -29.9142
2.468, 2, 17.8816, 15.8645, 23.0564, 38.2544, -28.6215, -29.9142
2.472, 2, 17.8816, 15.8645, 23.0564, 38.2544, -28.6215, -29.9142
2.476, 2, 17.8816, 15.8645, 23.0564, 38.2544, -28.6215, -29.9142
2.479, 2, 17.8816, 15.8645, 23.0564, 38.2544, -28.6215, -29.9142
2.484, 2, 17.8816, 15.8645, 23.0564, 38.2544, -28.6215, -29.9142
2.488, 2, 17.8816, 15.8645, 23.0564, 38.2544, -28.6215, -29.9142
2.492, 2, 17.8816, 15.8645, 23.0564, 38.2544, -28.6215, -29.9142
2.495, 2, 17.8816, 15.8645, 23.0564, 38.2544, -28.6215, -29.9142
2.5, 2, 17.8816, 15.8645, 23.0564, 38.2544, -28.6215, -29.9142
2.504, 2, 17.8816, 15.8645, 23.0564, 38.2544, -28.6215, -29.9142
2.508, 2, 17.8816, 15.8645, 23.0564, 38.2544, -28.6215, -29.9142
2.512, 2, 17.8816, 15.8645, 23.0564, 38.2544, -28.6215, -29.9142
2.515, 2, 17.8816, 15.8645, 23.0564, 38.2544, -28.6215, -29.9142
2.52, 2, 17.8816, 15.8645, 23.0564, 38.2544, -28.6215, -29.9142
2.524, 2, 17.8816, 15.8645, 23.0564, 38.2544, -28.6215, -29.9142
2.528, 2, 17.8816, 15.8645, 23.0564, 38.2544, -28.6215, -29.9142
2.531, 2, 17.8816, 15.8645, 23.0564, 38.2544, -28.6215, -29.9142
2.536, 2, 17.8816, 15.8645, 23.0564, 38.2544, -28.6215, -29.9142
2.54, 2, 17.8816, 15.8645, 23.0564, 38.2544, -28.6215, -29.9142
2.544, 2, 17.8816, 15.8645, 23.0564, 38.2544, -28.6215, -29.9142
2.548, 2, 17.8816, 15.8645, 23.0564, 38.2544, -28.6215, -29.9142
2.551, 2, 17.8816, 15.8645, 23.0564, 38.2544, -28.6215, -29.9142
2.556, 2, 17.8816, 15.8645, 23.0564, 38.2544, -28.6215, -29.9142
2.56, 2, 17.8816, 15.8645, 23.0564, 38.2544, -28.6215, -29.9142
2.564, 2, 17.8816, 15.8645, 23.0564, 38.2544, -28.6215, -29.9142
2.568, 2, 17.8816, 15.8645, 23.0564, 38.2544, -28.6215, -29.9142
2.571, 2, 17.8816, 15.8645, 23.0564, 38.2544, -28.6215, -29.9142
2.576, 2, 17.8816, 15.8645, 23.0564, 38.2544, -28.6215, -29.9142
2.58, 2, 17.8816, 15.8645, 23.0564, 38.2544, -28.6215, -29.9142
2.584, 2, 17.8816, 15.8645, 23.0564, 38.2544, -28.6215, -29.9142
2.587, 2, 17.8816, 15.8645, 23.0564, 38.2544, -28.6215, -29.9142
2.592, 2, 17.8816, 15.8645, 23.0564, 38.2544, -28.6215, -29.9142
2.596, 2, 17.8816, 15.8645, 23.0564, 38.2544, -28.6215, -29.9142
2.6, 2, 17.8816, 15.8645, 23.0564, 38.2544, -28.6215, -29.9142
2.604, 2, 17.8816, 15.8645, 23.0564, 38.2544, -28.6215, -29.9142
2.607, 2, 17.8816, 15.8645, 23.0564, 38.2544, -28.6215, -29.9142
2.612, 2, 17.8816, 15.8645, 23.0564, 38.2544, -28.6215, -29.9142
2.616, 2, 17.8816, 15.8645, 23.0564, 38.2544, -28.6215, -29.9142
2.62, 2, 17.8816, 15.8645, 23.0564, 38.2544, -28.6215, -29.9142
2.624, 2, 17.8816, 15.8645, 23.0564, 38.2544, -28.6215, -29.9142
2.627, 2, 17.8816, 15.8645, 23.0564, 38.2544, -28.6215, -29.9142
2.632, 2, 17.8816, 15.8645, 23.0564, 38.2544, -28.6215, -29.9142
2.636, 2, 17.8816, 15.8645, 23.0564, 38.2544, -28.6215, -29.9142
2.64, 2, 17.8816, 15.8645, 23.0564, 38.2544, -28.6215, -29.9142
2.643, 2, 17.8816, 15.8645, 23.0564, 38.2544, -28.6215, -29.9142
2.648, 2, 17.8816, 15.8645, 23.0564, 38.2544, -28.6215, -29.9142
2.652, 2, 17.8816, 15.8645, 23.0564, 38.2544, -28.6215, -29.9142
2.656, 2, 17.8816, 15.8645, 23.0564, 38.2544, -28.6215, -29.9142
2.66, 2, 17.8816, 15.8645, 23.0564, 38.2544, -28.6215, -29.9142
2.663, 2, 17.8816, 15.8645, 23.0564, 38.2544, -28.6215, -29.9142
2.668, 2, 17.8816, 15.8645, 23.0564, 38.2544, -28.6215, -29.9142
2.672, 2, 17.8816, 15.8645, 23.0564, 38.2544, -28.6215, -29.9142
2.676, 2, 17.8816, 15.8645, 23.0564, 38.2544, -28.6215, -29.9142
2.679, 2, 17.8816, 15.8645, 23.0564, 38.2544, -28.6215, -29.9142
2.684, 2, 17.8816, 15.8645, 23.0564, 38.2544, -28.6215, -29.9142
2.688, 2, 17.8816, 15.8645, 23.0564, 38.2544, -28.6215, -29.9142
2.692, 2, 17.8816, 15.8645, 23.0564, 38.2544, -28.6215, -29.9142
2.696, 2, 17.8816, 15.8645, 23.0564, 38.2544, -28.6215, -29.9142
2.699, 2, 17.8816, 15.8645, 23.0564, 38.2544, -28.6215, -29.9142
2.704, 2, 17.8816, 15.8645, 23.0564, 38.2544, -28.6215, -29.9142
2.708, 2, 17.8816, 15.8645, 23.0564, 38.2544, -28.6215, -29.9142
2.712, 2, 17.8816, 15.8645, 23.0564, 38.2544, -28.6215, -29.9142
2.716, 2, 17.8816, 15.8645, 23.0564, 38.2544, -28.6215, -29.9142
2.719, 2, 17.8816, 15.8645, 23.0564, 38.2544, -28.6215, -29.9142
2.724, 2, 17.8816, 15.8645, 23.0564, 38.2544, -28.6215, -29.9142
2.728, 2, 17.8816, 15.8645, 23.0564, 38.2544, -28.6215, -29.9142
2.732, 2, 17.8816, 15.8645, 23.0564, 38.2544, -28.6215, -29.9142
2.735, 2, 17.8816, 15.8645, 23.0564, 38.2544, -28.6215, -29.9142
2.74, 2, 17.8816, 15.8645, 23.0564, 38.2544, -28.6215, -29.9142
2.744, 2, 17.8816, 15.8645, 23.0564, 38.2544, -28.6215, -29.9142
2.748, 2, 17.8816, 15.8645, 23.0564, 38.2544, -28.6215, -29.9142
2.752, 2, 17.8816, 15.8645, 23.0564, 38.2544, -28.6215, -29.9142
2.755, 2, 17.8816, 15.8645, 23.0564, 38.2544, -28.6215, -29.9142
2.76, 2, 17.8816, 15.8645, 23.0564, 38.2544, -28.6215, -29.9142
2.764, 2, 17.8816, 15.8645, 23.0564, 38.2544, -28.6215, -29.9142
2.768, 2, 17.8816, 15.8645, 23.0564, 38.2544, -28.6215, -29.9142
2.772, 2, 17.8816, 15.8645, 23.0564, 38.2544, -28.6215, -29.9142
2.775, 2, 17.8816, 15.8645, 23.0564, 38.2544, -28.6215, -29.9142
2.78, 2, 17.8816, 15.8645, 23.0564, 38.2544, -28.6215, -29.9142
2.784, 2, 17.8816, 15.8645, 23.0564, 38.2544, -28.6215, -29.9142
2.788, 2, 17.8816, 15.8645, 23.0564, 38.2544, -28.6215, -29.9142
2.791, 2, 17.8816, 15.8645, 23.0564, 38.2544, -28.6215, -29.9142
2.796, 2, 17.8816, 15.8645, 23.0564, 38.2544, -28.6215, -29.9142
2.8, 2, 17.8816, 15.8645, 23.0564, 38.2544, -28.6215, -29.9142
2.804, 2, 17.8816, 15.8645, 23.0564, 38.2544, -28.6215, -29.9142
2.808, 2, 17.8816, 15.8645, 23.0564, 38.2544, -28.6215, -29.9142
2.811, 2, 17.8816, 15.8645, 23.0564, 38.2544, -28.6215, -29.9142
2.816, 2, 17.8816, 15.8645, 23.0564, 38.2544, -28.6215, -29.9142
2.82, 2, 17.8816, 15.8645, 23.0564, 38.2544, -28.6215, -29.9142
2.824, 2, 17.8816, 15.8645, 23.0564, 38.2544, -28.6215, -29.9142
2.828, 2, 17.8816, 15.8645, 23.0564, 38.2544, -28.6215, -29.9142
2.831, 2, 17.8816, 15.8645, 23.0564, 38.2544, -28.6215, -29.9142
2.836, 2, 17.8816, 15.8645, 23.0564, 38.2544, -28.6215, -29.9142
2.84, 2, 17.8816, 15.8645, 23.0564, 38.2544, -28.6215, -29.9142
2.844, 2, 17.8816, 15.8645, 23.0564, 38.2544, -28.6215, -29.9142
2.847, 2, 17.8816, 15.8645, 23.0564, 38.2544, -28.6215, -29.9142
2.852, 2, 17.8816, 15.8645, 23.0564, 38.2544, -28.6215, -29.9142
2.856, 2, 17.8816, 15.8645, 23.0564, 38.2544, -28.6215, -29.9142
2.86, 2, 17.8816, 15.8645, 23.0564, 38.2544, -28.6215, -29.9142
2.864, 2, 17.8816, 15.8645, 23.0564, 38.2544, -28.6215, -29.9142
2.867, 2, 17.8816, 15.8645, 23.0564, 38.2544, -28.6215, -29.9142
2.872, 2, 17.8816, 15.8645, 23.0564, 38.2544, -28.6215, -29.9142
2.876, 2, 17.8816, 15.8645, 23.0564, 38.2544, -28.6215, -29.9142
2.88, 2, 17.8816, 15.8645, 23.0564, 38.2544, -28.6215, -29.9142
2.883, 2, 17.8816, 15.8645, 23.0564, 38.2544, -28.6215, -29.9142
2.888, 2, 17.8816, 15.8645, 23.0564, 38.2544, -28.6215, -29.9142
2.892, 2, 17.8816, 15.8645, 23.0564, 38.2544, -28.6215, -29.9142
2.896, 2, 17.8816, 15.8645, 23.0564, 38.2544, -28.6215, -29.9142
2.9, 2, 17.8816, 15.8645, 23.0564, 38.2544, -28.6215, -29.9142
2.903, 2, 17.8816, 15.8645, 23.0564, 38.2544, -28.6215, -29.9142
2.908, 2, 17.8816, 15.8645, 23.0564, 38.2544, -28.6215, -29.9142
2.912, 2, 17.8816, 15.8645, 23.0564, 38.2544, -28.6215, -29.9142
2.916, 2, 17.8816, 15.8645, 23.0564, 38.2544, -28.6215, -29.9142
2.92, 2, 17.8816, 15.8645, 23.0564, 38.2544, -28.6215, -29.9142
2.923, 2, 17.8816, 15.8645, 23.0564, 38.2544, -28.6215, -29.9142
2.928, 2, 17.8816, 15.8645, 23.0564, 38.2544, -28.6215, -29.9142
2.932, 2, 17.8816, 15.8645, 23.0564, 38.2544, -28.6215, -29.9142
2.936, 2, 17.8816, 15.8645, 23.0564, 38.2544, -28.6215, -29.9142
2.939, 2, 17.8816, 15.8645, 23.0564, 38.2544, -28.6215, -29.9142
2.944, 2, 17.8816, 15.8645, 23.0564, 38.2544, -28.6215, -29.9142
2.948, 2, 17.8816, 15.8645, 23.0564, 38.2544, -28.6215, -29.9142
2.952, 2, 17.8816, 15.8645, 23.0564, 38.2544, -28.6215, -29.9142
2.956, 2, 17.8816, 15.8645, 23.0564, 38.2544, -28.6215, -29.9142
2.959, 2, 17.8816, 15.8645, 23.0564, 38.2544, -28.6215, -29.9142
2.964, 2, 17.8816, 15.8645, 23.0564, 38.2544, -28.6215, -29.9142
2.968, 2, 17.8816, 15.8645, 23.0564, 38.2544, -28.6215, -29.9142
2.972, 2, 17.8816, 15.8645, 23.0564, 38.2544, -28.6215, -29.9142
2.976, 2, 17.8816, 15.8645, 23.0564, 38.2544, -28.6215, -29.9142
2.98, 2, 17.8816, 15.8645, 23.0564, 38.2544, -28.6215, -29.9142
2.984, 2, 17.8816, 15.8645, 23.0564, 38.2544, -28.6215, -29.9142
2.988, 2, 17.8816, 15.8645, 23.0564, 38.2544, -28.6215, -29.9142
2.992, 2, 17.8816, 15.8645, 23.0564, 38.2544, -28.6215, -29.9142
2.995, 2, 17.8816, 15.8645, 23.0564, 38.2544, -28.6215, -29.9142
3, 2, 17.8816, 15.8645, 23.0564, 38.2544, -28.6215, -29.9142
3.004, 2, 17.8816, 15.8645, 23.0564, 38.2544, -28.6215, -29.9142
3.008, 2, 17.8816, 15.8645, 23.0564, 38.2544, -28.6215, -29.9142
3.012, 2, 17.8816, 15.8645, 23.0564, 38.2544, -28.6215, -29.9142
3.015, 2, 17.8816, 15.8645, 23.0564, 38.2544, -28.6215, -29.9142
3.02, 2, 17.8816, 15.8645, 23.0564, 38.2544, -28.6215, -29.9142
3.024, 2, 17.8816, 15.8645, 23.0564, 38.2544, -28.6215, -29.9142
3.028, 2, 17.8816, 15.8645, 23.0564, 38.2544, -28.6215, -29.9142
3.031, 2, 17.8816, 15.8645, 23.0564, 38.2544, -28.6215, -29.9142
3.036, 2, 17.8816, 15.8645, 23.0564, 38.2544, -28.6215, -29.9142
3.04, 2, 17.8816, 15.8645, 23.0564, 38.2544, -28.6215, -29.9142
3.044, 2, 17.8816, 15.8645, 23.0564, 38.2544, -28.6215, -29.9142
3.048, 2, 17.8816, 15.8645, 23.0564, 38.2544, -28.6215, -29.9142
3.051, 2, 17.8816, 15.8645, 23.0564, 38.2544, -28.6215, -29.9142
3.056, 2, 17.8816, 15.8645, 23.0564, 38.2544, -28.6215, -29.9142
3.06, 2, 17.8816, 15.8645, 23.0564, 38.2544, -28.6215, -29.9142
3.064, 2, 17.8816, 15.8645, 23.0564, 38.2544, -28.6215, -29.9142
3.068, 2, 17.8816, 15.8645, 23.0564, 38.2544, -28.6215, -29.9142
3.071, 2, 17.8816, 15.8645, 23.0564, 38.2544, -28.6215, -29.9142
3.076, 2, 17.8816, 15.8645, 23.0564, 38.2544, -28.6215, -29.9142
3.08, 2, 17.8816, 15.8645, 23.0564, 38.2544, -28.6215, -29.9142
3.084, 2, 17.8816, 15.8645, 23.0564, 38.2544, -28.6215, -29.9142
3.087, 2, 17.8816, 15.8645, 23.0564, 38.2544, -28.6215, -29.9142
3.092, 2, 17.8816, 15.8645, 23.0564, 38.2544, -28.6215, -29.9142
3.096, 2, 17.8816, 15.8645, 23.0564, 38.2544, -28.6215, -29.9142
3.1, 2, 17.8816, 15.8645, 23.0564, 38.2544, -28.6215, -29.9142
3.104, 2, 17.8816, 15.8645, 23.0564, 38.2544, -28.6215, -29.9142
3.107, 2, 17.8816, 15.8645, 23.0564, 38.2544, -28.6215, -29.9142
3.112, 2, 17.8816, 15.8645, 23.0564, 38.2544, -28.6215, -29.9142
3.116, 2, 17.8816, 15.8645, 23.0564, 38.2544, -28.6215, -29.9142
3.12, 2, 17.8816, 15.8645, 23.0564, 38.2544, -28.6215, -29.9142
3.124, 2, 17.8816, 15.8645, 23.0564, 38.2544, -28.6215, -29.9142
3.128, 2, 17.8816, 15.8645, 23.0564, 38.2544, -28.6215, -29.9142
3.132, 2, 17.8816, 15.8645, 23.0564, 38.2544, -28.6215, -29.9142
3.136, 2, 17.8816, 15.8645, 23.0564, 38.2544, -28.6215, -29.9142
3.14, 2, 17.8816, 15.8645, 23.0564, 38.2544, -28.6215, -29.9142
3.143, 2, 17.8816, 15.8645, 23.0564, 38.2544, -28.6215, -29.9142
3.148, 2, 17.8816, 15.8645, 23.0564, 38.2544, -28.6215, -29.9142
3.152, 2, 17.8816, 15.8645, 23.0564, 38.2544, -28.6215, -29.9142
3.156, 2, 17.8816, 15.8645, 23.0564, 38.2544, -28.6215, -29.9142
3.16, 2, 17.8816, 15.8645, 23.0564, 38.2544, -28.6215, -29.9142
3.163, 2, 17.8816, 15.8645, 23.0564, 38.2544, -28.6215, -29.9142
3.168, 2, 17.8816, 15.8645, 23.0564, 38.2544, -28.6215, -29.9142
3.172, 2, 17.8816, 15.8645, 23.0564, 38.2544, -28.6215, -29.9142
3.176, 2, 17.8816, 15.8645, 23.0564, 38.2544, -28.6215, -29.9142
3.179, 2, 17.8816, 15.8645, 23.0564, 38.2544, -28.6215, -29.9142
3.184, 2, 17.8816, 15.8645, 23.0564, 38.2544, -28.6215, -29.9142
3.188, 2, 17.8816, 15.8645, 23.0564, 38.2544, -28.6215, -29.9142
3.192, 2, 17.8816, 15.8645, 23.0564, 38.2544, -28.6215, -29.9142
3.196, 2, 17.8816, 15.8645, 23.0564, 38.2544, -28.6215, -29.9142
3.199, 2, 17.8816, 15.8645, 23.0564, 38.2544, -28.6215, -29.9142
3.204, 2, 17.8816, 15.8645, 23.0564, 38.2544, -28.6215, -29.9142
3.208, 2, 17.8816, 15.8645, 23.0564, 38.2544, -28.6215, -29.9142
3.212, 2, 17.8816, 15.8645, 23.0564, 38.2544, -28.6215, -29.9142
3.216, 2, 17.8816, 15.8645, 23.0564, 38.2544, -28.6215, -29.9142
3.22, 2, 17.8816, 15.8645, 23.0564, 38.2544, -28.6215, -29.9142
3.224, 2, 17.8816, 15.8645, 23.0564, 38.2544, -28.6215, -29.9142
3.228, 2, 17.8816, 15.8645, 23.0564, 38.2544, -28.6215, -29.9142
3.232, 2, 17.8816, 15.8645, 23.0564, 38.2544, -28.6215, -29.9142
3.235, 2, 17.8816, 15.8645, 23.0564, 38.2544, -28.6215, -29.9142
3.24, 2, 17.8816, 15.8645, 23.0564, 38.2544, -28.6215, -29.9142
3.244, 2, 17.8816, 15.8645, 23.0564, 38.2544, -28.6215, -29.9142
3.248, 2, 17.8816, 15.8645, 23.0564, 38.2544, -28.6215, -29.9142
3.252, 2, 17.8816, 15.8645, 23.0564, 38.2544, -28.6215, -29.9142
3.255, 2, 17.8816, 15.8645, 23.0564, 38.2544, -28.6215, -29.9142
3.26, 2, 17.8816, 15.8645, 23.0564, 38.2544, -28.6215, -29.9142
3.264, 2, 17.8816, 15.8645, 23.0564, 38.2544, -28.6215, -29.9142
3.268, 2, 17.8816, 15.8645, 23.0564, 38.2544, -28.6215, -29.9142
3.272, 2, 17.8816, 15.8645, 23.0564, 38.2544, -28.6215, -29.9142
3.276, 2, 17.8816, 15.8645, 23.0564, 38.2544, -28.6215, -29.9142
3.28, 2, 17.8816, 15.8645, 23.0564, 38.2544, -28.6215, -29.9142
3.284, 2, 17.8816, 15.8645, 23.0564, 38.2544, -28.6215, -29.9142
3.288, 2, 17.8816, 15.8645, 23.0564, 38.2544, -28.6215, -29.9142
3.291, 2, 17.8816, 15.8645, 23.0564, 38.2544, -28.6215, -29.9142
3.296, 2, 17.8816, 15.8645, 23.0564, 38.2544, -28.6215, -29.9142
3.3, 2, 17.8816, 15.8645, 23.0564, 38.2544, -28.6215, -29.9142
3.304, 2, 17.8816, 15.8645, 23.0564, 38.2544, -28.6215, -29.9142
3.308, 2, 17.8816, 15.8645, 23.0564, 38.2544, -28.6215, -29.9142
3.312, 2, 17.8816, 15.8645, 23.0564, 38.2544, -28.6215, -29.9142
3.316, 2, 17.8816, 15.8645, 23.0564, 38.2544, -28.6215, -29.9142
3.32, 2, 17.8816, 15.8645, 23.0564, 38.2544, -28.6215, -29.9142
3.324, 2, 17.8816, 15.8645, 23.0564, 38.2544, -28.6215, -29.9142
3.328, 2, 17.8816, 15.8645, 23.0564, 38.2544, -28.6215, -29.9142
3.332, 2, 17.8816, 15.8645, 23.0564, 38.2544, -28.6215, -29.9142
3.336, 2, 17.8816, 15.8645, 23.0564, 38.2544, -28.6215, -29.9142
3.34, 2, 17.8816, 15.8645, 23.0564, 38.2544, -28.6215, -29.9142
3.344, 2, 17.8816, 15.8645, 23.0564, 38.2544, -28.6215, -29.9142
3.347, 2, 17.8816, 15.8645, 23.0564, 38.2544, -28.6215, -29.9142
3.352, 4, 17.8816, 15.8645, 23.0564, 38.2544, -28.6215, -29.9142
3.356, 4, 17.8816, 15.8645, 23.0564, 38.2544, -28.6215, -29.9142
3.36, 4, 17.8816, 15.8645, 23.0564, 38.2544, -28.6215, -29.9142
3.364, 4, 17.8816, 15.8645, 23.0564, 38.2544, -28.6215, -29.9142
3.368, 4, 17.8816, 15.8645, 23.0564, 38.2544, -28.6215, -29.9142
3.372, 4, 17.8816, 15.8645, 23.0564, 38.2544, -28.6215, -29.9142
3.376, 4, 17.8816, 15.8645, 23.0564, 38.2544, -28.6215, -29.9142
3.38, 4, 17.8816, 15.8645, 23.0564, 38.2544, -28.6215, -29.9142
3.383, 4, 17.8816, 15.8645, 23.0564, 38.2544, -28.6215, -29.9142
3.388, 4, 17.8816, 15.8645, 23.0564, 38.2544, -28.6215, -29.9142
3.392, 4, 17.8816, 15.8645, 23.0564, 38.2544, -28.6215, -29.9142
3.396, 4, 17.8816, 15.8645, 23.0564, 38.2544, -28.6215, -29.9142
3.4, 4, 17.8816, 15.8645, 23.0564, 38.2544, -28.6215, -29.9142
3.403, 4, 17.8816, 15.8645, 23.0564, 38.2544, -28.6215, -29.9142
3.408, 4, 17.8816, 15.8645, 23.0564, 38.2544, -28.6215, -29.9142
3.412, 4, 17.8816, 15.8645, 23.0564, 38.2544, -28.6215, -29.9142
3.416, 4, 17.8816, 15.8645, 23.0564, 38.2544, -28.6215, -29.9142
3.42, 4, 17.8816, 15.8645, 23.0564, 38.2544, -28.6215, -29.9142
3.424, 4, 17.8816, 15.8645, 23.0564, 38.2544, -28.6215, -29.9142
3.428, 4, 17.8816, 15.8645, 23.0564, 38.2544, -28.6215, -29.9142
3.432, 4, 17.8816, 15.8645, 23.0564, 38.2544, -28.6215, -29.9142
3.436, 4, 17.8816, 15.8645, 23.0564, 38.2544, -28.6215, -29.9142
3.439, 4, 17.8816, 15.8645, 23.0564, 38.2544, -28.6215, -29.9142
3.444, 4, 17.8816, 15.8645, 23.0564, 38.2544, -28.6215, -29.9142
3.448, 4, 17.8816, 15.8645, 23.0564, 38.2544, -28.6215, -29.9142
3.452, 4, 17.8816, 15.8645, 23.0564, 38.2544, -28.6215, -29.9142
3.458, 4, 17.8816, 15.8645, 23.0564, 38.2544, -28.6215, -29.9142
3.46, 4, 17.8816, 15.8645, 23.0564, 38.2544, -28.6215, -29.9142
3.464, 4, 17.8816, 15.8645, 23.0564, 38.2544, -28.6215, -29.9142
3.468, 4, 17.8816, 15.8645, 23.0564, 38.2544, -28.6215, -29.9142
3.472, 4, 17.8816, 15.8645, 23.0564, 38.2544, -28.6215, -29.9142
3.476, 4, 17.8816, 15.8645, 23.0564, 38.2544, -28.6215, -29.9142
3.48, 4, 17.8816, 15.8645, 23.0564, 38.2544, -28.6215, -29.9142
3.484, 4, 17.8816, 15.8646, 23.0564, 38.2544, -28.6215, -29.9142
3.488, 4, 17.8815, 15.8646, 23.0564, 38.2544, -28.6215, -29.9142
3.492, 4, 17.8813, 15.8647, 23.0563, 38.2543, -28.6215, -29.9142
3.495, 4, 17.8808, 15.8651, 23.0563, 38.2543, -28.6215, -29.9142
3.5, 4, 17.8799, 15.8658, 23.0561, 38.2541, -28.6216, -29.914
3.504, 4, 17.8784, 15.867, 23.0557, 38.2537, -28.6217, -29.9137
3.508, 4, 17.8763, 15.869, 23.0552, 38.2529, -28.622, -29.913
3.512, 4, 17.8734, 15.8717, 23.0543, 38.2514, -28.6225, -29.9118
3.516, 4, 17.8698, 15.8756, 23.053, 38.2488, -28.6234, -29.9096
3.52, 4, 17.8654, 15.8807, 23.0513, 38.2446, -28.6248, -29.9061
3.524, 5, 17.8602, 15.8872, 23.0489, 38.2383, -28.6268, -29.9008
3.528, 5, 17.8541, 15.8955, 23.0457, 38.2292, -28.6298, -29.8931
3.531, 5, 17.8471, 15.9056, 23.0416, 38.2168, -28.6339, -29.8825
3.536, 5, 17.8389, 15.9177, 23.0363, 38.2002, -28.6393, -29.8684
3.54, 5, 17.8297, 15.9317, 23.0298, 38.1786, -28.6464, -29.8502
3.544, 5, 17.8194, 15.9475, 23.022, 38.1515, -28.6553, -29.8271
3.548, 5, 17.808, 15.9649, 23.0127, 38.118, -28.6663, -29.7986
3.552, 5, 17.7958, 15.9837, 23.0018, 38.0778, -28.6795, -29.7643
3.556, 5, 17.7827, 16.004, 22.9893, 38.0302, -28.6952, -29.7238
3.56, 5, 17.7686, 16.0256, 22.9752, 37.9753, -28.7133, -29.677
3.564, 5, 17.7536, 16.0486, 22.9594, 37.913, -28.7339, -29.6239
3.568, 5, 17.7376, 16.0731, 22.942, 37.8435, -28.7568, -29.5647
3.572, 5, 17.7205, 16.0994, 22.923, 37.7673, -28.7821, -29.4997
3.576, 5, 17.7023, 16.1274, 22.9025, 37.6847, -28.8095, -29.4293
3.58, 5, 17.683, 16.1572, 22.8806, 37.5964, -28.8389, -29.3541
3.584, 5, 17.6627, 16.1888, 22.8575, 37.5031, -28.87, -29.2747
3.587, 5, 17.6415, 16.2222, 22.8333, 37.4055, -28.9026, -29.1916
3.592, 5, 17.6194, 16.2573, 22.8082, 37.3045, -28.9364, -29.1056
3.596, 5, 17.5963, 16.2941, 22.7822, 37.2006, -28.9713, -29.0172
3.6, 5, 17.5722, 16.3324, 22.7556, 37.0946, -29.007, -28.927
3.604, 5, 17.547, 16.372, 22.7285, 36.9871, -29.0434, -28.8356
3.608, 5, 17.5209, 16.4128, 22.7009, 36.8785, -29.0802, -28.7434
3.612, 5, 17.494, 16.4546, 22.6731, 36.7692, -29.1174, -28.6505
3.616, 5, 17.4664, 16.497, 22.645, 36.6595, -29.1548, -28.5574
3.62, 5, 17.4382, 16.5398, 22.6168, 36.5495, -29.1924, -28.4641
3.624, 5, 17.4097, 16.583, 22.5885, 36.4395, -29.2302, -28.3708
3.628, 5, 17.381, 16.6264, 22.5601, 36.3295, -29.2681, -28.2776
3.632, 5, 17.352, 16.6699, 22.5318, 36.2195, -29.3061, -28.1844
3.636, 5, 17.3229, 16.7134, 22.5035, 36.1097, -29.3442, -28.0913
3.64, 5, 17.2938, 16.757, 22.4751, 35.9999, -29.3824, -27.9984
3.644, 5, 17.2645, 16.8005, 22.4468, 35.8904, -29.4207, -27.9057
3.648, 5, 17.2351, 16.8441, 22.4186, 35.7809, -29.459, -27.8131
3.652, 5, 17.2057, 16.8876, 22.3903, 35.6717, -29.4974, -27.7207
3.656, 5, 17.1763, 16.9311, 22.3622, 35.5626, -29.5359, -27.6285
3.66, 5, 17.1467, 16.9745, 22.334, 35.4537, -29.5744, -27.5365
3.664, 5, 17.1172, 17.0179, 22.3059, 35.345, -29.6131, -27.4447
3.668, 5, 17.0875, 17.0612, 22.2778, 35.2365, -29.6517, -27.3531
3.672, 5, 17.0579, 17.1045, 22.2498, 35.1281, -29.6905, -27.2616
3.676, 5, 17.0282, 17.1478, 22.2218, 35.02, -29.7293, -27.1704
3.679, 5, 16.9985, 17.191, 22.1939, 34.912, -29.7681, -27.0793
3.684, 5, 16.9687, 17.2341, 22.166, 34.8042, -29.8071, -26.9884
3.688, 5, 16.9388, 17.2772, 22.1382, 34.6966, -29.8461, -26.8978
3.692, 5, 16.909, 17.3203, 22.1104, 34.5891, -29.8851, -26.8073
3.696, 5, 16.8791, 17.3633, 22.0826, 34.4819, -29.9243, -26.717
3.7, 5, 16.8491, 17.4062, 22.0549, 34.3748, -29.9634, -26.6269
3.704, 5, 16.8191, 17.4491, 22.0272, 34.268, -30.0027, -26.537
3.708, 5, 16.7891, 17.492, 21.9996, 34.1613, -30.042, -26.4472
3.712, 5, 16.759, 17.5348, 21.9721, 34.0547, -30.0814, -26.3577
3.716, 5, 16.7289, 17.5775, 21.9445, 33.9484, -30.1208, -26.2684
3.72, 5, 16.6988, 17.6202, 21.9171, 33.8422, -30.1603, -26.1792
3.724, 5, 16.6686, 17.6628, 21.8896, 33.7363, -30.1999, -26.0902
3.728, 5, 16.6384, 17.7054, 21.8622, 33.6305, -30.2395, -26.0014
3.732, 5, 16.6081, 17.748, 21.8349, 33.5249, -30.2792, -25.9129
3.735, 5, 16.5778, 17.7904, 21.8076, 33.4194, -30.319, -25.8244
3.74, 5, 16.5474, 17.8329, 21.7804, 33.3142, -30.3588, -25.7362
3.744, 5, 16.517, 17.8752, 21.7532, 33.2091, -30.3987, -25.6482
3.748, 5, 16.4866, 17.9176, 21.726, 33.1042, -30.4386, -25.5603
3.752, 5, 16.4562, 17.9598, 21.6989, 32.9995, -30.4786, -25.4727
3.756, 5, 16.4257, 18.0021, 21.6719, 32.895, -30.5187, -25.3852
3.76, 5, 16.3951, 18.0442, 21.6449, 32.7906, -30.5589, -25.2979
3.764, 5, 16.3645, 18.0863, 21.6179, 32.6865, -30.5991, -25.2108
3.768, 5, 16.3339, 18.1284, 21.591, 32.5825, -30.6393, -25.1239
3.772, 5, 16.3033, 18.1704, 21.5641, 32.4786, -30.6796, -25.0371
3.776, 5, 16.2726, 18.2124, 21.5373, 32.375, -30.72, -24.9506
3.78, 5, 16.2418, 18.2543, 21.5106, 32.2715, -30.7605, -24.8642
3.784, 5, 16.2111, 18.2961, 21.4839, 32.1683, -30.801, -24.778
3.788, 5, 16.1803, 18.3379, 21.4572, 32.0652, -30.8416, -24.692
3.792, 5, 16.1494, 18.3797, 21.4306, 31.9622, -30.8822, -24.6061
3.796, 5, 16.1185, 18.4214, 21.404, 31.8595, -30.923, -24.5205
3.8, 5, 16.0876, 18.463, 21.3775, 31.7569, -30.9637, -24.435
3.804, 5, 16.0567, 18.5046, 21.351, 31.6545, -31.0046, -24.3497
3.808, 5, 16.0257, 18.5461, 21.3246, 31.5523, -31.0455, -24.2646
3.812, 5, 15.9946, 18.5876, 21.2983, 31.4502, -31.0864, -24.1797
3.816, 5, 15.9636, 18.6291, 21.272, 31.3483, -31.1275, -24.095
3.82, 5, 15.9325, 18.6704, 21.2457, 31.2466, -31.1685, -24.0104
3.824, 5, 15.9013, 18.7118, 21.2195, 31.1451, -31.2097, -23.926
3.828, 5, 15.8702, 18.753, 21.1933, 31.0438, -31.2509, -23.8418
3.832, 5, 15.8389, 18.7942, 21.1672, 30.9426, -31.2922, -23.7578
3.836, 5, 15.8077, 18.8354, 21.1412, 30.8416, -31.3335, -23.6739
3.84, 5, 15.7764, 18.8765, 21.1152, 30.7408, -31.3749, -23.5902
3.844, 5, 15.7451, 18.9176, 21.0892, 30.6401, -31.4164, -23.5067
3.848, 5, 15.7137, 18.9586, 21.0633, 30.5396, -31.4579, -23.4234
3.852, 5, 15.6823, 18.9995, 21.0374, 30.4393, -31.4995, -23.3403
3.856, 5, 15.6509, 19.0405, 21.0116, 30.3392, -31.5412, -23.2573
3.86, 5, 15.6194, 19.0813, 20.9859, 30.2392, -31.5829, -23.1745
3.864, 5, 15.5879, 19.1221, 20.9602, 30.1394, -31.6247, -23.0919
3.868, 5, 15.5564, 19.1628, 20.9346, 30.0398, -31.6665, -23.0094
3.872, 5, 15.5248, 19.2035, 20.909, 29.9403, -31.7084, -22.9272
3.876, 5, 15.4932, 19.2442, 20.8834, 29.8411, -31.7504, -22.8451
3.88, 5, 15.4616, 19.2847, 20.8579, 29.7419, -31.7925, -22.7632
3.884, 5, 15.4299, 19.3253, 20.8325, 29.643, -31.8346, -22.6814
3.888, 5, 15.3982, 19.3658, 20.8071, 29.5442, -31.8767, -22.5998
3.892, 5, 15.3664, 19.4062, 20.7818, 29.4456, -31.9189, -22.5184
3.896, 5, 15.3347, 19.4465, 20.7565, 29.3472, -31.9612, -22.4372
3.9, 5, 15.3029, 19.4869, 20.7313, 29.2489, -32.0036, -22.3561
3.904, 5, 15.271, 19.5271, 20.7061, 29.1509, -32.046, -22.2752
3.908, 5, 15.2391, 19.5673, 20.681, 29.0529, -32.0885, -22.1945
3.912, 5, 15.2072, 19.6075, 20.6559, 28.9552, -32.131, -22.114
3.916, 5, 15.1753, 19.6476, 20.6309, 28.8576, -32.1736, -22.0336
3.92, 5, 15.1433, 19.6877, 20.606, 28.7602, -32.2163, -21.9534
3.924, 5, 15.1112, 19.7276, 20.5811, 28.6629, -32.259, -21.8734
3.928, 5, 15.0792, 19.7676, 20.5562, 28.5658, -32.3018, -21.7935
3.932, 5, 15.0471, 19.8075, 20.5314, 28.4689, -32.3446, -21.7138
3.936, 5, 15.015, 19.8473, 20.5067, 28.3722, -32.3875, -21.6343
3.94, 5, 14.9828, 19.8871, 20.482, 28.2756, -32.4305, -21.5549
3.944, 5, 14.9506, 19.9268, 20.4574, 28.1792, -32.4735, -21.4757
3.948, 5, 14.9184, 19.9665, 20.4328, 28.0829, -32.5166, -21.3967
3.952, 5, 14.8862, 20.0061, 20.4083, 27.9868, -32.5598, -21.3179
3.956, 5, 14.8539, 20.0457, 20.3838, 27.8909, -32.603, -21.2392
3.96, 5, 14.8216, 20.0852, 20.3594, 27.7952, -32.6463, -21.1607
3.964, 5, 14.7892, 20.1247, 20.335, 27.6996, -32.6896, -21.0823
3.968, 5, 14.7568, 20.1641, 20.3107, 27.6041, -32.7331, -21.0041
3.972, 5, 14.7244, 20.2035, 20.2865, 27.5089, -32.7765, -20.9261
3.976, 5, 14.692, 20.2428, 20.2623, 27.4138, -32.8201, -20.8482
3.98, 5, 14.6595, 20.282, 20.2381, 27.3188, -32.8637, -20.7705
3.984, 5, 14.627, 20.3212, 20.214, 27.2241, -32.9073, -20.693
3.988, 5, 14.5944, 20.3604, 20.19, 27.1295, -32.951, -20.6156
3.992, 5, 14.5619, 20.3995, 20.166, 27.035, -32.9948, -20.5384
3.996, 5, 14.5293, 20.4385, 20.1421, 26.9407, -33.0386, -20.4614
3.999, 5, 14.4966, 20.4775, 20.1182, 26.8466, -33.0825, -20.3845
4.004, 5, 14.4639, 20.5164, 20.0944, 26.7526, -33.1265, -20.3078
4.008, 5, 14.4312, 20.5553, 20.0707, 26.6588, -33.1705, -20.2313
4.012, 5, 14.3985, 20.5942, 20.047, 26.5652, -33.2146, -20.1549
4.016, 5, 14.3657, 20.6329, 20.0233, 26.4717, -33.2588, -20.0786
4.02, 5, 14.3329, 20.6716, 19.9997, 26.3784, -33.303, -20.0026
4.024, 5, 14.3001, 20.7103, 19.9762, 26.2853, -33.3472, -19.9267
4.028, 5, 14.2672, 20.7489, 19.9527, 26.1923, -33.3916, -19.8509
4.032, 5, 14.2343, 20.7875, 19.9293, 26.0994, -33.436, -19.7753
4.036, 5, 14.2014, 20.826, 19.9059, 26.0067, -33.4804, -19.6999
4.04, 5, 14.1685, 20.8645, 19.8826, 25.9142, -33.5249, -19.6246
4.044, 5, 14.1355, 20.9029, 19.8593, 25.8219, -33.5695, -19.5495
4.048, 5, 14.1025, 20.9412, 19.8361, 25.7297, -33.6142, -19.4746
4.052, 5, 14.0694, 20.9795, 19.813, 25.6376, -33.6589, -19.3998
4.056, 5, 14.0363, 21.0178, 19.7899, 25.5457, -33.7036, -19.3252
4.06, 5, 14.0032, 21.056, 19.7669, 25.454, -33.7484, -19.2507
4.064, 5, 13.9701, 21.0941, 19.7439, 25.3624, -33.7933, -19.1764
4.068, 5, 13.9369, 21.1322, 19.721, 25.271, -33.8383, -19.1022
4.072, 5, 13.9037, 21.1702, 19.6981, 25.1797, -33.8833, -19.0282
4.076, 5, 13.8705, 21.2082, 19.6753, 25.0886, -33.9283, -18.9544
4.08, 5, 13.8372, 21.2462, 19.6525, 24.9977, -33.9735, -18.8807
4.084, 5, 13.8039, 21.284, 19.6298, 24.9069, -34.0187, -18.8071
4.088, 5, 13.7706, 21.3219, 19.6072, 24.8163, -34.0639, -18.7338
4.092, 5, 13.7373, 21.3596, 19.5846, 24.7258, -34.1092, -18.6605
4.096, 5, 13.7039, 21.3973, 19.5621, 24.6355, -34.1546, -18.5875
4.1, 5, 13.6705, 21.435, 19.5396, 24.5453, -34.2001, -18.5145
4.104, 5, 13.637, 21.4726, 19.5172, 24.4553, -34.2456, -18.4418
4.108, 5, 13.6036, 21.5102, 19.4949, 24.3654, -34.2911, -18.3692
4.112, 5, 13.5701, 21.5477, 19.4726, 24.2757, -34.3368, -18.2967
4.116, 5, 13.5366, 21.5852, 19.4504, 24.1861, -34.3824, -18.2244
4.12, 5, 13.503, 21.6226, 19.4282, 24.0967, -34.4282, -18.1522
4.124, 5, 13.4694, 21.6599, 19.4061, 24.0075, -34.474, -18.0802
4.128, 5, 13.4358, 21.6972, 19.384, 23.9184, -34.5199, -18.0084
4.132, 5, 13.4022, 21.7344, 19.362, 23.8295, -34.5658, -17.9367
4.136, 5, 13.3685, 21.7716, 19.3401, 23.7407, -34.6118, -17.8652
4.14, 5, 13.3348, 21.8088, 19.3182, 23.652, -34.6579, -17.7938
4.144, 5, 13.3011, 21.8458, 19.2964, 23.5636, -34.704, -17.7225
4.148, 5, 13.2673, 21.8829, 19.2746, 23.4752, -34.7502, -17.6514
4.152, 5, 13.2335, 21.9198, 19.2529, 23.387, -34.7964, -17.5805
4.156, 5, 13.1997, 21.9568, 19.2313, 23.299, -34.8427, -17.5097
4.16, 5, 13.1659, 21.9936, 19.2097, 23.2111, -34.8891, -17.4391
4.164, 5, 13.132, 22.0305, 19.1882, 23.1234, -34.9355, -17.3686
4.168, 5, 13.0981, 22.0672, 19.1667, 23.0358, -34.982, -17.2982
4.172, 5, 13.0642, 22.1039, 19.1453, 22.9484, -35.0286, -17.2281
4.176, 5, 13.0302, 22.1406, 19.1239, 22.8611, -35.0752, -17.158
4.18, 5, 12.9962, 22.1772, 19.1027, 22.774, -35.1218, -17.0881
4.184, 5, 12.9622, 22.2137, 19.0814, 22.6871, -35.1686, -17.0184
4.188, 5, 12.9282, 22.2502, 19.0603, 22.6002, -35.2154, -16.9488
4.192, 5, 12.8941, 22.2867, 19.0392, 22.5136, -35.2622, -16.8793
4.196, 5, 12.8601, 22.3231, 19.0181, 22.427, -35.3092, -16.81
4.2, 5, 12.8259, 22.3594, 18.9972, 22.3407, -35.3562, -16.7409
4.204, 5, 12.7918, 22.3957, 18.9762, 22.2544, -35.4032, -16.6719
4.208, 5, 12.7576, 22.4319, 18.9554, 22.1684, -35.4503, -16.603
4.212, 5, 12.7234, 22.4681, 18.9346, 22.0824, -35.4975, -16.5343
4.216, 5, 12.6892, 22.5042, 18.9139, 21.9967, -35.5447, -16.4657
4.22, 5, 12.655, 22.5403, 18.8932, 21.911, -35.592, -16.3973
4.224, 5, 12.6207, 22.5763, 18.8726, 21.8256, -35.6394, -16.329
4.228, 5, 12.5864, 22.6122, 18.852, 21.7402, -35.6868, -16.2609
4.232, 5, 12.5521, 22.6481, 18.8316, 21.655, -35.7343, -16.1929
4.236, 5, 12.5177, 22.684, 18.8111, 21.57, -35.7818, -16.125
4.24, 5, 12.4833, 22.7198, 18.7908, 21.4851, -35.8294, -16.0573
4.244, 5, 12.4489, 22.7555, 18.7705, 21.4003, -35.8771, -15.9898
4.248, 5, 12.4145, 22.7912, 18.7503, 21.3158, -35.9248, -15.9224
4.252, 5, 12.3801, 22.8269, 18.7301, 21.2313, -35.9726, -15.8551
4.256, 5, 12.3456, 22.8624, 18.71, 21.147, -36.0204, -15.788
4.26, 5, 12.3111, 22.898, 18.6899, 21.0628, -36.0683, -15.721
4.264, 5, 12.2765, 22.9334, 18.6699, 20.9788, -36.1163, -15.6542
4.268, 5, 12.242, 22.9689, 18.65, 20.8949, -36.1643, -15.5875
4.272, 5, 12.2074, 23.0042, 18.6302, 20.8112, -36.2124, -15.5209
4.276, 5, 12.1728, 23.0395, 18.6104, 20.7276, -36.2606, -15.4545
4.28, 5, 12.1382, 23.0748, 18.5906, 20.6442, -36.3088, -15.3882
4.284, 5, 12.1035, 23.11, 18.571, 20.5609, -36.3571, -15.3221
4.288, 5, 12.0688, 23.1452, 18.5514, 20.4778, -36.4054, -15.2561
4.292, 5, 12.0341, 23.1803, 18.5318, 20.3948, -36.4538, -15.1903
4.296, 5, 11.9994, 23.2153, 18.5124, 20.3119, -36.5023, -15.1246
4.3, 5, 11.9646, 23.2503, 18.4929, 20.2292, -36.5508, -15.059
4.304, 5, 11.9299, 23.2852, 18.4736, 20.1466, -36.5994, -14.9936
4.308, 5, 11.8951, 23.3201, 18.4543, 20.0642, -36.648, -14.9283
4.312, 5, 11.8602, 23.3549, 18.4351, 19.9819, -36.6967, -14.8631
4.316, 5, 11.8254, 23.3897, 18.4159, 19.8998, -36.7455, -14.7981
4.32, 5, 11.7905, 23.4244, 18.3968, 19.8178, -36.7943, -14.7333
4.324, 5, 11.7556, 23.4591, 18.3778, 19.7359, -36.8432, -14.6685
4.328, 5, 11.7207, 23.4937, 18.3588, 19.6542, -36.8921, -14.6039
4.332, 5, 11.6858, 23.5283, 18.3399, 19.5727, -36.9412, -14.5395
4.336, 5, 11.6508, 23.5628, 18.3211, 19.4912, -36.9902, -14.4752
4.34, 5, 11.6158, 23.5972, 18.3023, 19.41, -37.0394, -14.411
4.344, 5, 11.5808, 23.6316, 18.2836, 19.3288, -37.0886, -14.3469
4.348, 5, 11.5457, 23.666, 18.265, 19.2478, -37.1378, -14.283
4.352, 5, 11.5107, 23.7003, 18.2464, 19.1669, -37.1871, -14.2193
4.356, 5, 11.4756, 23.7345, 18.2279, 19.0862, -37.2365, -14.1556
4.36, 5, 11.4405, 23.7687, 18.2095, 19.0056, -37.2859, -14.0922
4.364, 5, 11.4053, 23.8028, 18.1911, 18.9252, -37.3354, -14.0288
4.368, 5, 11.3702, 23.8369, 18.1728, 18.8449, -37.385, -13.9656
4.372, 5, 11.335, 23.8709, 18.1545, 18.7647, -37.4346, -13.9025
4.376, 5, 11.2998, 23.9049, 18.1363, 18.6847, -37.4843, -13.8395
4.38, 5, 11.2646, 23.9388, 18.1182, 18.6048, -37.534, -13.7767
4.384, 5, 11.2293, 23.9727, 18.1001, 18.5251, -37.5838, -13.714
4.388, 5, 11.1941, 24.0065, 18.0821, 18.4455, -37.6337, -13.6515
4.392, 5, 11.1588, 24.0402, 18.0642, 18.366, -37.6836, -13.5891
4.396, 5, 11.1235, 24.0739, 18.0464, 18.2867, -37.7336, -13.5268
4.4, 5, 11.0881, 24.1076, 18.0286, 18.2075, -37.7837, -13.4647
4.404, 5, 11.0528, 24.1412, 18.0108, 18.1285, -37.8338, -13.4027
4.408, 5, 11.0174, 24.1747, 17.9932, 18.0496, -37.8839, -13.3408
4.412, 5, 10.982, 24.2082, 17.9756, 17.9708, -37.9342, -13.279
4.416, 5, 10.9466, 24.2416, 17.958, 17.8922, -37.9844, -13.2174
4.42, 5, 10.9111, 24.275, 17.9406, 17.8137, -38.0348, -13.156
4.424, 5, 10.8757, 24.3084, 17.9232, 17.7353, -38.0852, -13.0946
4.428, 5, 10.8402, 24.3416, 17.9058, 17.6571, -38.1357, -13.0334
4.432, 5, 10.8047, 24.3748, 17.8886, 17.579, -38.1862, -12.9723
4.436, 5, 10.7691, 24.408, 17.8714, 17.5011, -38.2368, -12.9114
4.44, 5, 10.7336, 24.4411, 17.8542, 17.4233, -38.2874, -12.8505
4.444, 5, 10.698, 24.4742, 17.8372, 17.3456, -38.3381, -12.7899
4.448, 5, 10.6624, 24.5072, 17.8202, 17.268, -38.3889, -12.7293
4.452, 5, 10.6268, 24.5401, 17.8032, 17.1906, -38.4397, -12.6689
4.456, 5, 10.5912, 24.573, 17.7863, 17.1134, -38.4906, -12.6086
4.46, 5, 10.5555, 24.6059, 17.7695, 17.0362, -38.5416, -12.5484
4.464, 5, 10.5198, 24.6387, 17.7528, 16.9592, -38.5926, -12.4884
4.468, 5, 10.4841, 24.6714, 17.7361, 16.8824, -38.6436, -12.4285
4.472, 5, 10.4484, 24.7041, 17.7195, 16.8056, -38.6948, -12.3687
4.476, 5, 10.4127, 24.7367, 17.703, 16.7291, -38.7459, -12.309
4.48, 5, 10.3769, 24.7693, 17.6865, 16.6526, -38.7972, -12.2495
4.484, 5, 10.3411, 24.8018, 17.6701, 16.5763, -38.8485, -12.1901
4.488, 5, 10.3053, 24.8343, 17.6538, 16.5001, -38.8999, -12.1309
4.492, 5, 10.2695, 24.8667, 17.6375, 16.424, -38.9513, -12.0717
4.496, 5, 10.2336, 24.8991, 17.6213, 16.3481, -39.0028, -12.0127
4.5, 5, 10.1978, 24.9314, 17.6051, 16.2723, -39.0543, -11.9539
4.504, 5, 10.1619, 24.9636, 17.5891, 16.1967, -39.1059, -11.8951
4.508, 5, 10.126, 24.9958, 17.5731, 16.1211, -39.1576, -11.8365
4.512, 5, 10.0901, 25.028, 17.5571, 16.0457, -39.2093, -11.778
4.516, 5, 10.0541, 25.0601, 17.5413, 15.9705, -39.2611, -11.7196
4.52, 5, 10.0181, 25.0921, 17.5254, 15.8953, -39.313, -11.6614
4.524, 5, 9.98215, 25.1241, 17.5097, 15.8204, -39.3649, -11.6033
4.528, 5, 9.94615, 25.156, 17.494, 15.7455, -39.4169, -11.5453
4.532, 5, 9.91012, 25.1879, 17.4784, 15.6708, -39.4689, -11.4874
4.536, 5, 9.87407, 25.2198, 17.4629, 15.5962, -39.521, -11.4297
4.54, 5, 9.83801, 25.2515, 17.4475, 15.5217, -39.5732, -11.3721
4.544, 5, 9.80192, 25.2833, 17.4321, 15.4473, -39.6254, -11.3146
4.548, 5, 9.76581, 25.3149, 17.4167, 15.3731, -39.6777, -11.2572
4.552, 5, 9.72969, 25.3466, 17.4015, 15.2991, -39.73, -11.2
4.556, 5, 9.69354, 25.3781, 17.3863, 15.2251, -39.7824, -11.1429
4.56, 5, 9.65738, 25.4096, 17.3712, 15.1513, -39.8349, -11.0859
4.564, 5, 9.62119, 25.4411, 17.3561, 15.0776, -39.8874, -11.029
4.568, 5, 9.58499, 25.4725, 17.3411, 15.004, -39.94, -10.9723
4.572, 5, 9.54877, 25.5038, 17.3262, 14.9306, -39.9926, -10.9156
4.576, 5, 9.51253, 25.5351, 17.3114, 14.8573, -40.0453, -10.8591
4.58, 5, 9.47627, 25.5664, 17.2966, 14.7841, -40.0981, -10.8028
4.584, 5, 9.43999, 25.5976, 17.2819, 14.7111, -40.1509, -10.7465
4.588, 5, 9.40369, 25.6287, 17.2672, 14.6382, -40.2038, -10.6904
4.592, 5, 9.36738, 25.6598, 17.2527, 14.5654, -40.2567, -10.6344
4.596, 5, 9.33104, 25.6908, 17.2382, 14.4927, -40.3097, -10.5785
4.6, 5, 9.29469, 25.7218, 17.2237, 14.4202, -40.3628, -10.5227
4.604, 5, 9.25832, 25.7527, 17.2094, 14.3478, -40.4159, -10.4671
4.608, 5, 9.22193, 25.7836, 17.1951, 14.2755, -40.4691, -10.4115
4.612, 5, 9.18553, 25.8144, 17.1809, 14.2034, -40.5224, -10.3561
4.616, 5, 9.1491, 25.8452, 17.1667, 14.1313, -40.5757, -10.3009
4.62, 5, 9.11266, 25.8759, 17.1526, 14.0594, -40.629, -10.2457
4.624, 5, 9.0762, 25.9065, 17.1386, 13.9877, -40.6824, -10.1906
4.628, 5, 9.03972, 25.9372, 17.1247, 13.916, -40.7359, -10.1357
4.632, 5, 9.00323, 25.9677, 17.1108, 13.8445, -40.7895, -10.0809
4.636, 5, 8.96672, 25.9982, 17.097, 13.7731, -40.8431, -10.0262
4.64, 5, 8.93019, 26.0286, 17.0833, 13.7018, -40.8967, -9.97167
4.644, 5, 8.89364, 26.059, 17.0696, 13.6307, -40.9505, -9.91722
4.648, 5, 8.85708, 26.0894, 17.056, 13.5597, -41.0043, -9.86289
4.652, 5, 8.8205, 26.1197, 17.0425, 13.4888, -41.0581, -9.80868
4.656, 5, 8.7839, 26.1499, 17.0291, 13.418, -41.112, -9.75458
4.66, 5, 8.74729, 26.1801, 17.0157, 13.3474, -41.166, -9.70061
4.664, 5, 8.71066, 26.2102, 17.0024, 13.2769, -41.22, -9.64675
4.668, 5, 8.67401, 26.2403, 16.9891, 13.2065, -41.2741, -9.59301
4.672, 5, 8.63735, 26.2703, 16.976, 13.1362, -41.3282, -9.53939
4.676, 5, 8.60067, 26.3003, 16.9629, 13.066, -41.3824, -9.48588
4.68, 5, 8.56397, 26.3302, 16.9498, 12.996, -41.4367, -9.43249
4.684, 5, 8.52726, 26.36, 16.9369, 12.9261, -41.491, -9.37922
4.688, 5, 8.49053, 26.3898, 16.924, 12.8563, -41.5454, -9.32606
4.692, 5, 8.45378, 26.4196, 16.9112, 12.7867, -41.5998, -9.27302
4.696, 5, 8.41702, 26.4493, 16.8985, 12.7172, -41.6543, -9.2201
4.7, 5, 8.38025, 26.479, 16.8858, 12.6477, -41.7089, -9.16729
4.704, 5, 8.34345, 26.5085, 16.8732, 12.5785, -41.7635, -9.1146
4.708, 5, 8.30664, 26.5381, 16.8607, 12.5093, -41.8182, -9.06202
4.712, 5, 8.26982, 26.5676, 16.8482, 12.4402, -41.8729, -9.00956
4.716, 5, 8.23298, 26.597, 16.8358, 12.3713, -41.9277, -8.95721
4.72, 5, 8.19613, 26.6264, 16.8235, 12.3025, -41.9826, -8.90497
4.724, 5, 8.15926, 26.6557, 16.8113, 12.2338, -42.0375, -8.85286
4.728, 5, 8.12237, 26.685, 16.7991, 12.1653, -42.0924, -8.80085
4.732, 5, 8.08547, 26.7142, 16.787, 12.0969, -42.1475, -8.74896
4.736, 5, 8.04856, 26.7434, 16.775, 12.0285, -42.2026, -8.69718
4.74, 5, 8.01163, 26.7725, 16.763, 11.9603, -42.2577, -8.64552
4.744, 5, 7.97468, 26.8016, 16.7512, 11.8923, -42.3129, -8.59397
4.748, 5, 7.93773, 26.8306, 16.7393, 11.8243, -42.3682, -8.54253
4.752, 5, 7.90075, 26.8596, 16.7276, 11.7565, -42.4235, -8.49121
4.756, 5, 7.86376, 26.8885, 16.7159, 11.6888, -42.4789, -8.44
4.76, 5, 7.82676, 26.9173, 16.7044, 11.6212, -42.5343, -8.3889
4.764, 5, 7.78974, 26.9461, 16.6928, 11.5537, -42.5899, -8.33791
4.768, 5, 7.75271, 26.9749, 16.6814, 11.4864, -42.6454, -8.28704
4.772, 5, 7.71566, 27.0036, 16.67, 11.4191, -42.701, -8.23628
4.776, 5, 7.6786, 27.0322, 16.6587, 11.352, -42.7567, -8.18563
4.78, 5, 7.64153, 27.0608, 16.6475, 11.285, -42.8124, -8.13509
4.784, 5, 7.60444, 27.0893, 16.6363, 11.2181, -42.8682, -8.08467
4.788, 5, 7.56733, 27.1178, 16.6252, 11.1514, -42.9241, -8.03435
4.792, 5, 7.53022, 27.1462, 16.6142, 11.0847, -42.98, -7.98415
4.796, 5, 7.49309, 27.1746, 16.6033, 11.0182, -43.036, -7.93405
4.8, 5, 7.45594, 27.2029, 16.5924, 10.9518, -43.092, -7.88407
4.804, 5, 7.41878, 27.2312, 16.5816, 10.8855, -43.1481, -7.8342
4.808, 5, 7.38161, 27.2594, 16.5709, 10.8194, -43.2043, -7.78444
4.812, 5, 7.34443, 27.2876, 16.5603, 10.7533, -43.2605, -7.73479
4.816, 5, 7.30723, 27.3157, 16.5497, 10.6874, -43.3167, -7.68525
4.82, 5, 7.27002, 27.3438, 16.5392, 10.6216, -43.3731, -7.63582
4.824, 5, 7.23279, 27.3718, 16.5288, 10.5559, -43.4294, -7.58649
4.828, 5, 7.19555, 27.3997, 16.5184, 10.4903, -43.4859, -7.53728
4.832, 5, 7.1583, 27.4276, 16.5081, 10.4248, -43.5424, -7.48818
4.836, 5, 7.12104, 27.4555, 16.4979, 10.3595, -43.5989, -7.43919
4.84, 5, 7.08376, 27.4832, 16.4878, 10.2942, -43.6555, -7.3903
4.844, 5, 7.04647, 27.511, 16.4777, 10.2291, -43.7122, -7.34153
4.848, 5, 7.00916, 27.5387, 16.4678, 10.1641, -43.7689, -7.29286
4.852, 5, 6.97185, 27.5663, 16.4578, 10.0992, -43.8257, -7.2443
4.856, 5, 6.93452, 27.5939, 16.448, 10.0345, -43.8826, -7.19585
4.86, 5, 6.89718, 27.6214, 16.4382, 9.96982, -43.9395, -7.14751
4.864, 5, 6.85982, 27.6489, 16.4285, 9.90529, -43.9965, -7.09927
4.868, 5, 6.82246, 27.6763, 16.4189, 9.84087, -44.0535, -7.05115
4.872, 5, 6.78508, 27.7037, 16.4094, 9.77657, -44.1106, -7.00313
4.876, 5, 6.74769, 27.731, 16.3999, 9.71238, -44.1677, -6.95521
4.88, 5, 6.71029, 27.7583, 16.3905, 9.64831, -44.2249, -6.90741
4.884, 5, 6.67287, 27.7855, 16.3812, 9.58435, -44.2821, -6.85971
4.888, 5, 6.63544, 27.8127, 16.372, 9.5205, -44.3395, -6.81212
4.892, 5, 6.598, 27.8398, 16.3628, 9.45677, -44.3968, -6.76464
4.896, 5, 6.56055, 27.8668, 16.3537, 9.39316, -44.4542, -6.71726
4.9, 5, 6.52309, 27.8938, 16.3447, 9.32966, -44.5117, -6.66999
4.904, 5, 6.48561, 27.9208, 16.3357, 9.26627, -44.5693, -6.62283
4.908, 5, 6.44812, 27.9477, 16.3268, 9.203, -44.6269, -6.57577
4.912, 5, 6.41063, 27.9745, 16.318, 9.13984, -44.6845, -6.52882
4.916, 5, 6.37311, 28.0013, 16.3093, 9.0768, -44.7423, -6.48197
4.92, 5, 6.33559, 28.028, 16.3006, 9.01387, -44.8, -6.43523
4.924, 5, 6.29806, 28.0547, 16.2921, 8.95105, -44.8579, -6.38859
4.928, 5, 6.26051, 28.0814, 16.2836, 8.88835, -44.9157, -6.34206
4.932, 5, 6.22296, 28.1079, 16.2751, 8.82576, -44.9737, -6.29564
4.936, 5, 6.18539, 28.1345, 16.2668, 8.76328, -45.0317, -6.24932
4.94, 5, 6.14781, 28.1609, 16.2585, 8.70091, -45.0898, -6.2031
4.944, 5, 6.11022, 28.1874, 16.2503, 8.63866, -45.1479, -6.15699
4.95, 5, 6.03501, 28.24, 16.2341, 8.51449, -45.2643, -6.06509
4.952, 5, 6.03501, 28.24, 16.2341, 8.51449, -45.2643, -6.06509
4.956, 5, 5.99738, 28.2663, 16.2261, 8.45258, -45.3226, -6.01929
4.96, 5, 5.95975, 28.2925, 16.2182, 8.39078, -45.3809, -5.9736
4.964, 5, 5.9221, 28.3187, 16.2104, 8.32909, -45.4393, -5.92801
4.968, 5, 5.88445, 28.3448, 16.2026, 8.26751, -45.4978, -5.88252
4.972, 5, 5.84678, 28.3708, 16.195, 8.20604, -45.5563, -5.83714
4.976, 5, 5.8091, 28.3968, 16.1874, 8.14469, -45.6149, -5.79186
4.98, 5, 5.77141, 28.4228, 16.1798, 8.08344, -45.6735, -5.74669
4.984, 5, 5.73371, 28.4487, 16.1724, 8.02231, -45.7322, -5.70162
4.988, 5, 5.696, 28.4745, 16.165, 7.96129, -45.791, -5.65665
4.992, 5, 5.65828, 28.5003, 16.1577, 7.90038, -45.8498, -5.61178
4.996, 5, 5.62055, 28.526, 16.1505, 7.83958, -45.9087, -5.56702
5, 5, 5.58281, 28.5517, 16.1433, 7.77889, -45.9676, -5.52236
5.004, 5, 5.54505, 28.5774, 16.1362, 7.71832, -46.0266, -5.4778
5.008, 5, 5.50729, 28.6029, 16.1292, 7.65785, -46.0856, -5.43335
5.012, 5, 5.46951, 28.6285, 16.1223, 7.59749, -46.1447, -5.38899
5.016, 5, 5.43173, 28.6539, 16.1155, 7.53725, -46.2039, -5.34474
5.02, 5, 5.39394, 28.6794, 16.1087, 7.47711, -46.2631, -5.30059
5.024, 5, 5.35613, 28.7047, 16.102, 7.41708, -46.3224, -5.25654
5.028, 5, 5.31832, 28.73, 16.0954, 7.35716, -46.3817, -5.21259
5.032, 5, 5.2805, 28.7553, 16.0888, 7.29736, -46.4411, -5.16874
5.036, 5, 5.24266, 28.7805, 16.0824, 7.23766, -46.5005, -5.125
5.04, 5, 5.20482, 28.8057, 16.076, 7.17806, -46.56, -5.08135
5.044, 5, 5.16697, 28.8308, 16.0697, 7.11858, -46.6196, -5.03781
5.048, 5, 5.12911, 28.8558, 16.0634, 7.05921, -46.6792, -4.99436
5.052, 5, 5.09124, 28.8808, 16.0573, 6.99994, -46.7389, -4.95101
5.056, 5, 5.05336, 28.9058, 16.0512, 6.94078, -46.7986, -4.90777
5.06, 5, 5.01547, 28.9307, 16.0452, 6.88173, -46.8584, -4.86462
5.064, 5, 4.97757, 28.9555, 16.0393, 6.82278, -46.9183, -4.82157
5.068, 5, 4.93966, 28.9803, 16.0334, 6.76394, -46.9782, -4.77862
5.072, 5, 4.90174, 29.005, 16.0276, 6.70521, -47.0382, -4.73577
5.076, 5, 4.86381, 29.0297, 16.0219, 6.64659, -47.0982, -4.69302
5.08, 5, 4.82587, 29.0544, 16.0163, 6.58807, -47.1583, -4.65036
5.084, 5, 4.78793, 29.079, 16.0108, 6.52966, -47.2184, -4.6078
5.088, 5, 4.74997, 29.1035, 16.0053, 6.47135, -47.2786, -4.56534
5.092, 5, 4.71201, 29.128, 15.9999, 6.41315, -47.3389, -4.52298
5.096, 5, 4.67404, 29.1524, 15.9946, 6.35505, -47.3992, -4.48072
5.1, 5, 4.63606, 29.1768, 15.9893, 6.29706, -47.4595, -4.43855
5.104, 5, 4.59807, 29.2011, 15.9842, 6.23917, -47.52, -4.39648
5.108, 5, 4.56007, 29.2254, 15.9791, 6.18139, -47.5805, -4.35451
5.112, 5, 4.52206, 29.2496, 15.9741, 6.12372, -47.641, -4.31263
5.116, 5, 4.48405, 29.2738, 15.9691, 6.06614, -47.7016, -4.27085
5.12, 5, 4.44603, 29.2979, 15.9643, 6.00867, -47.7622, -4.22917
5.124, 5, 4.408, 29.3219, 15.9595, 5.95131, -47.823, -4.18758
5.128, 5, 4.36996, 29.3459, 15.9548, 5.89405, -47.8837, -4.14608
5.132, 5, 4.33191, 29.3699, 15.9502, 5.83689, -47.9445, -4.10469
5.136, 5, 4.29386, 29.3938, 15.9456, 5.77984, -48.0054, -4.06338
5.14, 5, 4.25579, 29.4177, 15.9412, 5.72289, -48.0664, -4.02218
5.144, 5, 4.21772, 29.4415, 15.9368, 5.66604, -48.1274, -3.98106
5.148, 5, 4.17965, 29.4653, 15.9324, 5.60929, -48.1884, -3.94005
5.152, 5, 4.14156, 29.489, 15.9282, 5.55265, -48.2495, -3.89912
5.156, 5, 4.10347, 29.5126, 15.924, 5.49611, -48.3107, -3.85829
5.16, 5, 4.06537, 29.5362, 15.9199, 5.43967, -48.3719, -3.81756
5.164, 5, 4.02727, 29.5598, 15.9159, 5.38333, -48.4332, -3.77692
5.168, 5, 3.98915, 29.5833, 15.912, 5.32709, -48.4945, -3.73637
5.172, 5, 3.95103, 29.6067, 15.9081, 5.27096, -48.5559, -3.69592
5.176, 5, 3.91291, 29.6301, 15.9044, 5.21493, -48.6173, -3.65556
5.18, 5, 3.87477, 29.6535, 15.9007, 5.15899, -48.6788, -3.61529
5.184, 5, 3.83663, 29.6768, 15.897, 5.10316, -48.7404, -3.57511
5.188, 5, 3.79848, 29.7, 15.8935, 5.04743, -48.802, -3.53503
5.192, 5, 3.76033, 29.7232, 15.89, 4.9918, -48.8636, -3.49505
5.196, 5, 3.72217, 29.7463, 15.8866, 4.93627, -48.9253, -3.45515
5.2, 5, 3.684, 29.7694, 15.8833, 4.88084, -48.9871, -3.41535
5.204, 5, 3.64583, 29.7925, 15.88, 4.82551, -49.0489, -3.37563
5.208, 5, 3.60765, 29.8155, 15.8769, 4.77028, -49.1108, -3.33602
5.212, 5, 3.56946, 29.8384, 15.8738, 4.71515, -49.1728, -3.29649
5.216, 5, 3.53127, 29.8613, 15.8708, 4.66012, -49.2348, -3.25705
5.22, 5, 3.49308, 29.8841, 15.8678, 4.60519, -49.2968, -3.21771
5.224, 5, 3.45487, 29.9069, 15.865, 4.55036, -49.3589, -3.17846
5.228, 5, 3.41666, 29.9297, 15.8622, 4.49563, -49.4211, -3.13929
5.232, 5, 3.37845, 29.9523, 15.8595, 4.44099, -49.4833, -3.10022
5.236, 5, 3.34023, 29.975, 15.8569, 4.38646, -49.5456, -3.06124
5.24, 5, 3.302, 29.9976, 15.8543, 4.33202, -49.6079, -3.02235
5.244, 5, 3.26377, 30.0201, 15.8518, 4.27768, -49.6703, -2.98356
5.248, 5, 3.22553, 30.0426, 15.8494, 4.22344, -49.7327, -2.94485
5.252, 5, 3.18729, 30.065, 15.8471, 4.1693, -49.7952, -2.90623
5.256, 5, 3.14904, 30.0874, 15.8449, 4.11525, -49.8577, -2.8677
5.26, 5, 3.11079, 30.1097, 15.8427, 4.06131, -49.9203, -2.82926
5.264, 5, 3.07253, 30.132, 15.8406, 4.00746, -49.983, -2.79092
5.268, 5, 3.03427, 30.1542, 15.8386, 3.9537, -50.0457, -2.75266
5.272, 5, 2.996, 30.1764, 15.8367, 3.90005, -50.1084, -2.71449
5.276, 5, 2.95773, 30.1986, 15.8348, 3.84649, -50.1713, -2.67641
5.28, 5, 2.91945, 30.2206, 15.833, 3.79303, -50.2341, -2.63842
5.284, 5, 2.88117, 30.2427, 15.8313, 3.73966, -50.297, -2.60052
5.288, 5, 2.84288, 30.2646, 15.8297, 3.6864, -50.36, -2.56271
5.292, 5, 2.80459, 30.2866, 15.8282, 3.63322, -50.4231, -2.52498
5.296, 5, 2.76629, 30.3084, 15.8267, 3.58015, -50.4861, -2.48735
5.3, 5, 2.72799, 30.3303, 15.8253, 3.52717, -50.5493, -2.4498
5.304, 5, 2.68969, 30.3521, 15.824, 3.47429, -50.6125, -2.41234
5.308, 5, 2.65138, 30.3738, 15.8228, 3.4215, -50.6757, -2.37497
5.312, 5, 2.61307, 30.3955, 15.8216, 3.36881, -50.739, -2.33769
5.316, 5, 2.57475, 30.4171, 15.8205, 3.31621, -50.8024, -2.3005
5.32, 5, 2.53643, 30.4387, 15.8195, 3.26371, -50.8658, -2.26339
5.324, 5, 2.4981, 30.4602, 15.8186, 3.21131, -50.9293, -2.22637
5.328, 5, 2.45977, 30.4817, 15.8178, 3.159, -50.9928, -2.18944
5.332, 5, 2.42144, 30.5031, 15.817, 3.10678, -51.0563, -2.1526
5.336, 5, 2.3831, 30.5245, 15.8163, 3.05466, -51.12, -2.11585
5.34, 5, 2.34476, 30.5458, 15.8157, 3.00264, -51.1836, -2.07918
5.344, 5, 2.30642, 30.5671, 15.8151, 2.95071, -51.2474, -2.04259
5.348, 5, 2.26807, 30.5883, 15.8147, 2.89887, -51.3112, -2.0061
5.352, 5, 2.22972, 30.6095, 15.8143, 2.84713, -51.375, -1.96969
5.356, 5, 2.19137, 30.6306, 15.814, 2.79548, -51.4389, -1.93337
5.36, 5, 2.15301, 30.6517, 15.8138, 2.74393, -51.5028, -1.89714
5.364, 5, 2.11465, 30.6727, 15.8136, 2.69247, -51.5668, -1.86099
5.368, 5, 2.07628, 30.6937, 15.8136, 2.64111, -51.6309, -1.82493
5.372, 5, 2.03791, 30.7146, 15.8136, 2.58983, -51.695, -1.78895
5.376, 5, 1.99954, 30.7354, 15.8137, 2.53866, -51.7592, -1.75306
5.38, 5, 1.96117, 30.7563, 15.8138, 2.48757, -51.8234, -1.71726
5.384, 5, 1.92279, 30.777, 15.8141, 2.43658, -51.8876, -1.68154
5.388, 5, 1.88442, 30.7978, 15.8144, 2.38568, -51.952, -1.64591
5.392, 5, 1.84603, 30.8184, 15.8148, 2.33488, -52.0163, -1.61036
5.396, 5, 1.80765, 30.8391, 15.8153, 2.28417, -52.0808, -1.5749
5.4, 5, 1.76926, 30.8596, 15.8158, 2.23355, -52.1452, -1.53952
5.404, 5, 1.73087, 30.8802, 15.8165, 2.18302, -52.2098, -1.50423
5.408, 5, 1.69248, 30.9006, 15.8172, 2.13259, -52.2744, -1.46903
5.412, 5, 1.65409, 30.9211, 15.818, 2.08225, -52.339, -1.43391
5.416, 5, 1.61569, 30.9414, 15.8188, 2.032, -52.4037, -1.39887
5.42, 5, 1.57729, 30.9618, 15.8198, 1.98185, -52.4684, -1.36392
5.424, 5, 1.53889, 30.982, 15.8208, 1.93179, -52.5332, -1.32906
5.428, 5, 1.50048, 31.0023, 15.8219, 1.88181, -52.5981, -1.29428
5.432, 5, 1.46208, 31.0224, 15.8231, 1.83194, -52.663, -1.25958
5.436, 5, 1.42367, 31.0425, 15.8244, 1.78215, -52.7279, -1.22497
5.44, 5, 1.38526, 31.0626, 15.8257, 1.73245, -52.7929, -1.19044
5.444, 5, 1.34685, 31.0826, 15.8272, 1.68285, -52.858, -1.156
5.448, 5, 1.30843, 31.1026, 15.8287, 1.63334, -52.9231, -1.12164
5.452, 5, 1.27002, 31.1225, 15.8302, 1.58392, -52.9883, -1.08736
5.456, 5, 1.2316, 31.1424, 15.8319, 1.53459, -53.0535, -1.05317
5.46, 5, 1.19318, 31.1622, 15.8336, 1.48535, -53.1188, -1.01906
5.464, 5, 1.15476, 31.182, 15.8355, 1.4362, -53.1841, -0.985038
5.468, 5, 1.11634, 31.2017, 15.8373, 1.38715, -53.2495, -0.951098
5.472, 5, 1.07792, 31.2214, 15.8393, 1.33819, -53.3149, -0.917241
5.476, 5, 1.03949, 31.241, 15.8414, 1.28931, -53.3804, -0.883468
5.48, 5, 1.00107, 31.2606, 15.8435, 1.24053, -53.4459, -0.849778
5.484, 5, 0.962641, 31.2801, 15.8457, 1.19184, -53.5115, -0.816171
5.488, 5, 0.924213, 31.2996, 15.848, 1.14324, -53.5772, -0.782648
5.492, 5, 0.885783, 31.319, 15.8504, 1.09473, -53.6429, -0.749208
5.496, 5, 0.84735, 31.3384, 15.8529, 1.04631, -53.7086, -0.715854
5.5, 5, 0.808914, 31.3577, 15.8554, 0.997973, -53.7744, -0.682591
5.504, 5, 0.770474, 31.3769, 15.858, 0.949727, -53.8402, -0.649429
5.508, 5, 0.73203, 31.3961, 15.8607, 0.901564, -53.9061, -0.616384
5.512, 5, 0.693581, 31.4152, 15.8634, 0.85348, -53.972, -0.58348
5.516, 5, 0.655126, 31.4342, 15.8663, 0.805466, -54.0379, -0.55075
5.52, 5, 0.616666, 31.4531, 15.8692, 0.757517, -54.1039, -0.518237
5.524, 5, 0.578201, 31.4719, 15.8722, 0.709621, -54.1697, -0.485987
5.528, 5, 0.539731, 31.4907, 15.8752, 0.661768, -54.2356, -0.454054
5.532, 5, 0.501257, 31.5094, 15.8783, 0.613948, -54.3013, -0.422498
5.536, 5, 0.462779, 31.5279, 15.8815, 0.566147, -54.367, -0.391377
5.54, 5, 0.424296, 31.5464, 15.8848, 0.518353, -54.4325, -0.360754
5.544, 5, 0.385809, 31.5648, 15.8881, 0.470555, -54.4978, -0.330691
5.548, 5, 0.347317, 31.583, 15.8915, 0.422739, -54.563, -0.301246
5.552, 5, 0.308819, 31.6012, 15.895, 0.374894, -54.6279, -0.272475
5.556, 6, 0.270316, 31.6192, 15.8985, 0.327011, -54.6926, -0.244426
5.56, 6, 0.231807, 31.6371, 15.9021, 0.27908, -54.7571, -0.217141
5.564, 6, 0.193293, 31.6549, 15.9057, 0.231094, -54.8213, -0.190651
5.568, 6, 0.154774, 31.6726, 15.9094, 0.183047, -54.8852, -0.164981
5.572, 6, 0.116247, 31.6901, 15.9132, 0.134933, -54.9488, -0.140148
5.576, 6, 0.0777112, 31.7076, 15.917, 0.0867499, -55.0121, -0.116163
5.58, 6, 0.0391632, 31.7248, 15.9209, 0.0384937, -55.0751, -0.0930351
5.584, 6, 0.000602762, 31.7419, 15.9249, -0.00983811, -55.1379, -0.0707678
5.588, 6, -0.0379697, 31.7589, 15.9289, -0.0582481, -55.2003, -0.049364
5.592, 6, -0.0765529, 31.7757, 15.933, -0.106738, -55.2624, -0.0288246
5.596, 6, -0.115146, 31.7924, 15.9371, -0.155311, -55.3242, -0.00914746
5.6, 6, -0.153747, 31.809, 15.9413, -0.203966, -55.3857, 0.00967314
5.604, 6, -0.192357, 31.8254, 15.9456, -0.252704, -55.4469, 0.0276487
5.608, 6, -0.230973, 31.8417, 15.9499, -0.301523, -55.5079, 0.0447979
5.612, 6, -0.269597, 31.8579, 15.9543, -0.350421, -55.5685, 0.0611476
5.616, 6, -0.308229, 31.8739, 15.9588, -0.399392, -55.6289, 0.0767333
5.62, 6, -0.34687, 31.8898, 15.9634, -0.448429, -55.6891, 0.0915985
5.624, 6, -0.385518, 31.9057, 15.968, -0.497524, -55.749, 0.105794
5.628, 6, -0.424172, 31.9214, 15.9727, -0.546668, -55.8088, 0.119374
5.632, 6, -0.462833, 31.9369, 15.9774, -0.59585, -55.8684, 0.132399
5.636, 6, -0.5015, 31.9524, 15.9823, -0.64506, -55.9278, 0.14493
5.64, 6, -0.540174, 31.9678, 15.9872, -0.694286, -55.9871, 0.15703
5.644, 6, -0.578855, 31.9831, 15.9922, -0.743516, -56.0464, 0.16876
5.648, 6, -0.617544, 31.9983, 15.9973, -0.792741, -56.1056, 0.180179
5.652, 6, -0.656242, 32.0134, 16.0025, -0.841948, -56.1648, 0.191342
5.656, 6, -0.694948, 32.0284, 16.0077, -0.89113, -56.2239, 0.202296
5.66, 6, -0.733662, 32.0433, 16.0131, -0.940279, -56.2831, 0.213081
5.664, 6, -0.772384, 32.0581, 16.0185, -0.989388, -56.3423, 0.223729
5.668, 6, -0.811111, 32.0729, 16.024, -1.03845, -56.4015, 0.234262
5.672, 6, -0.849845, 32.0876, 16.0296, -1.08747, -56.4608, 0.244698
5.676, 6, -0.888583, 32.1022, 16.0353, -1.13644, -56.5201, 0.255048
5.68, 6, -0.927326, 32.1168, 16.0411, -1.18536, -56.5795, 0.26532
5.684, 6, -0.966074, 32.1313, 16.0469, -1.23422, -56.639, 0.27552
5.688, 6, -1.00483, 32.1457, 16.0529, -1.28304, -56.6984, 0.28565
5.692, 6, -1.04358, 32.1601, 16.0589, -1.3318, -56.758, 0.295713
5.696, 6, -1.08234, 32.1744, 16.0651, -1.3805, -56.8176, 0.305711
5.7, 6, -1.12111, 32.1887, 16.0713, -1.42916, -56.8772, 0.315646
5.704, 6, -1.15987, 32.2029, 16.0776, -1.47776, -56.9369, 0.325517
5.708, 6, -1.19865, 32.2171, 16.084, -1.5263, -56.9967, 0.335326
5.712, 6, -1.23742, 32.2312, 16.0905, -1.5748, -57.0565, 0.345072
5.716, 6, -1.2762, 32.2453, 16.0971, -1.62324, -57.1164, 0.354756
5.72, 6, -1.31498, 32.2593, 16.1037, -1.67162, -57.1763, 0.364379
5.724, 6, -1.35377, 32.2732, 16.1105, -1.71996, -57.2363, 0.37394
5.728, 6, -1.39256, 32.2871, 16.1174, -1.76824, -57.2964, 0.383439
5.732, 6, -1.43135, 32.301, 16.1243, -1.81646, -57.3565, 0.392877
5.736, 6, -1.47015, 32.3148, 16.1313, -1.86464, -57.4167, 0.402253
5.74, 6, -1.50895, 32.3285, 16.1384, -1.91276, -57.4769, 0.411568
5.744, 6, -1.54775, 32.3422, 16.1456, -1.96083, -57.5372, 0.420822
5.748, 6, -1.58655, 32.3558, 16.1529, -2.00884, -57.5975, 0.430014
5.752, 6, -1.62536, 32.3694, 16.1603, -2.05681, -57.6579, 0.439145
5.756, 6, -1.66417, 32.3829, 16.1678, -2.10472, -57.7184, 0.448215
5.76, 6, -1.70299, 32.3964, 16.1753, -2.15257, -57.7789, 0.457223
5.764, 6, -1.7418, 32.4098, 16.183, -2.20038, -57.8395, 0.46617
5.768, 6, -1.78062, 32.4232, 16.1907, -2.24813, -57.9001, 0.475056
5.772, 6, -1.81945, 32.4365, 16.1985, -2.29583, -57.9608, 0.483881
5.776, 6, -1.85827, 32.4498, 16.2064, -2.34348, -58.0215, 0.492644
5.78, 6, -1.8971, 32.463, 16.2144, -2.39107, -58.0823, 0.501346
5.784, 6, -1.93593, 32.4762, 16.2225, -2.43862, -58.1431, 0.509987
5.788, 6, -1.97476, 32.4893, 16.2307, -2.48611, -58.204, 0.518567
5.792, 6, -2.01359, 32.5023, 16.2389, -2.53355, -58.265, 0.527086
5.796, 6, -2.05243, 32.5153, 16.2473, -2.58094, -58.326, 0.535543
5.8, 6, -2.09127, 32.5283, 16.2557, -2.62827, -58.3871, 0.54394
5.804, 6, -2.13011, 32.5412, 16.2642, -2.67556, -58.4482, 0.552275
5.808, 6, -2.16895, 32.554, 16.2728, -2.72279, -58.5094, 0.560549
5.812, 6, -2.20779, 32.5668, 16.2815, -2.76997, -58.5706, 0.568762
5.816, 6, -2.24664, 32.5796, 16.2903, -2.8171, -58.6319, 0.576915
5.82, 6, -2.28549, 32.5923, 16.2992, -2.86418, -58.6933, 0.585006
5.824, 6, -2.32434, 32.6049, 16.3081, -2.9112, -58.7547, 0.593036
5.828, 6, -2.36319, 32.6175, 16.3172, -2.95818, -58.8161, 0.601004
5.832, 6, -2.40204, 32.63, 16.3263, -3.0051, -58.8776, 0.608912
5.836, 6, -2.4409, 32.6425, 16.3355, -3.05198, -58.9392, 0.616759
5.84, 6, -2.47975, 32.655, 16.3448, -3.0988, -59.0008, 0.624545
5.844, 6, -2.51861, 32.6674, 16.3542, -3.14557, -59.0625, 0.63227
5.848, 6, -2.55747, 32.6797, 16.3637, -3.19229, -59.1243, 0.639934
5.852, 6, -2.59633, 32.692, 16.3732, -3.23896, -59.186, 0.647537
5.856, 6, -2.63519, 32.7042, 16.3829, -3.28557, -59.2479, 0.655079
5.86, 6, -2.67405, 32.7164, 16.3926, -3.33214, -59.3098, 0.662559
5.864, 6, -2.71292, 32.7285, 16.4024, -3.37866, -59.3717, 0.669979
5.868, 6, -2.75178, 32.7406, 16.4123, -3.42513, -59.4337, 0.677338
5.872, 6, -2.79065, 32.7526, 16.4223, -3.47154, -59.4958, 0.684637
5.876, 6, -2.82951, 32.7646, 16.4324, -3.51791, -59.5579, 0.691874
5.88, 6, -2.86838, 32.7765, 16.4426, -3.56422, -59.6201, 0.69905
5.884, 6, -2.90725, 32.7884, 16.4528, -3.61049, -59.6823, 0.706165
5.888, 6, -2.94612, 32.8002, 16.4631, -3.6567, -59.7446, 0.713219
5.892, 6, -2.98498, 32.812, 16.4736, -3.70287, -59.8069, 0.720213
5.896, 6, -3.02385, 32.8237, 16.4841, -3.74898, -59.8693, 0.727145
5.9, 6, -3.06272, 32.8354, 16.4946, -3.79504, -59.9317, 0.734017
5.904, 6, -3.10159, 32.847, 16.5053, -3.84106, -59.9942, 0.740827
5.908, 6, -3.14046, 32.8586, 16.5161, -3.88702, -60.0568, 0.747577
5.912, 6, -3.17933, 32.8701, 16.5269, -3.93294, -60.1194, 0.754266
5.916, 6, -3.2182, 32.8816, 16.5379, -3.9788, -60.182, 0.760894
5.92, 6, -3.25707, 32.893, 16.5489, -4.02462, -60.2448, 0.76746
5.924, 6, -3.29594, 32.9044, 16.56, -4.07038, -60.3075, 0.773967
5.928, 6, -3.33482, 32.9157, 16.5712, -4.1161, -60.3703, 0.780412
5.932, 6, -3.37369, 32.927, 16.5824, -4.16177, -60.4332, 0.786796
5.936, 6, -3.41256, 32.9382, 16.5938, -4.20738, -60.4961, 0.793119
5.94, 6, -3.45143, 32.9494, 16.6052, -4.25295, -60.5591, 0.799381
5.944, 6, -3.4903, 32.9606, 16.6168, -4.29847, -60.6221, 0.805583
