hehonglu123/ABB_Primitive_Study/execution/movec_30_ori/curve_exe_v500_z10.csv
timestamp, cmd_num, J1, J2, J3, J4, J5, J6
0, -1, -18.7697, 34.1307, 27.9437, -19.9675, -90.5849, -2.05479
0.002, -1, -18.7697, 34.1307, 27.9437, -19.9675, -90.5849, -2.05479
0.006, -1, -18.7697, 34.1307, 27.9437, -19.9675, -90.5849, -2.05479
0.008, -1, -18.7697, 34.1307, 27.9437, -19.9675, -90.5849, -2.05479
0.011, -1, -18.7697, 34.1307, 27.9437, -19.9675, -90.5849, -2.05479
0.016, -1, -18.7697, 34.1307, 27.9437, -19.9675, -90.5849, -2.05479
0.02, -1, -18.7697, 34.1307, 27.9437, -19.9675, -90.5849, -2.05479
0.024, -1, -18.7697, 34.1307, 27.9437, -19.9675, -90.5849, -2.05479
0.028, -1, -18.7697, 34.1307, 27.9437, -19.9675, -90.5849, -2.05479
0.032, -1, -18.7697, 34.1307, 27.9437, -19.9675, -90.5849, -2.05479
0.036, -1, -18.7697, 34.1306, 27.9437, -19.9675, -90.5849, -2.05479
0.04, -1, -18.7694, 34.1306, 27.9437, -19.9675, -90.5849, -2.05479
0.044, -1, -18.7688, 34.1304, 27.9437, -19.9675, -90.5848, -2.05481
0.048, -1, -18.7677, 34.13, 27.9438, -19.9674, -90.5848, -2.05485
0.052, -1, -18.7659, 34.1293, 27.9439, -19.9672, -90.5846, -2.05494
0.056, -1, -18.7633, 34.1282, 27.9441, -19.9669, -90.5841, -2.05514
0.06, -1, -18.7599, 34.1267, 27.9443, -19.9661, -90.5833, -2.05552
0.064, -1, -18.7555, 34.1248, 27.9446, -19.9648, -90.5819, -2.05618
0.068, -1, -18.7501, 34.1222, 27.9448, -19.9626, -90.5796, -2.05723
0.072, -1, -18.7435, 34.119, 27.945, -19.9593, -90.576, -2.05884
0.076, -1, -18.7354, 34.115, 27.9452, -19.9545, -90.5709, -2.06119
0.08, -1, -18.7256, 34.11, 27.9454, -19.9477, -90.5636, -2.06449
0.084, -1, -18.7137, 34.104, 27.9453, -19.9384, -90.5537, -2.06898
0.088, -1, -18.6996, 34.0968, 27.9451, -19.9261, -90.5406, -2.07492
0.092, -1, -18.6829, 34.0883, 27.9446, -19.9102, -90.5236, -2.08261
0.096, -1, -18.6635, 34.0784, 27.9438, -19.89, -90.502, -2.09234
0.1, -1, -18.6412, 34.0671, 27.9426, -19.8649, -90.4752, -2.10442
0.104, -1, -18.6159, 34.0542, 27.9408, -19.8342, -90.4426, -2.11914
0.108, -1, -18.5871, 34.0396, 27.9385, -19.7974, -90.4034, -2.13679
0.112, -1, -18.5548, 34.0233, 27.9355, -19.754, -90.3571, -2.15761
0.116, -1, -18.519, 34.0053, 27.9318, -19.7034, -90.3033, -2.18184
0.12, -1, -18.4795, 33.9854, 27.9274, -19.6454, -90.2415, -2.20966
0.124, -1, -18.4364, 33.9638, 27.9221, -19.5795, -90.1714, -2.24119
0.128, -1, -18.3897, 33.9405, 27.916, -19.5056, -90.0928, -2.27653
0.131, -1, -18.3395, 33.9154, 27.909, -19.4238, -90.0058, -2.31566
0.136, -1, -18.2858, 33.8886, 27.9012, -19.3341, -89.9103, -2.35855
0.139, -1, -18.2285, 33.8601, 27.8926, -19.2369, -89.8069, -2.40506
0.144, -1, -18.1677, 33.8299, 27.8833, -19.1324, -89.6957, -2.45501
0.148, -1, -18.1034, 33.798, 27.8733, -19.0212, -89.5774, -2.50817
0.152, -1, -18.0358, 33.7644, 27.8627, -18.9038, -89.4525, -2.56429
0.156, -1, -17.9651, 33.7293, 27.8515, -18.7808, -89.3217, -2.62308
0.16, -1, -17.8915, 33.6928, 27.8399, -18.6529, -89.1856, -2.68422
0.164, -1, -17.8153, 33.6549, 27.828, -18.5207, -89.045, -2.74741
0.168, -1, -17.7365, 33.6157, 27.8158, -18.3849, -88.9005, -2.81233
0.172, -1, -17.6553, 33.5753, 27.8034, -18.2462, -88.7528, -2.87868
0.176, -1, -17.572, 33.5337, 27.7909, -18.105, -88.6026, -2.94619
0.18, -1, -17.4867, 33.4912, 27.7784, -17.9619, -88.4503, -3.01463
0.184, -1, -17.3998, 33.4477, 27.7658, -17.8172, -88.2964, -3.0838
0.188, -1, -17.3114, 33.4034, 27.7532, -17.6715, -88.1413, -3.15353
0.192, -1, -17.2218, 33.3586, 27.7406, -17.5248, -87.9852, -3.2237
0.196, -1, -17.1312, 33.3132, 27.728, -17.3774, -87.8284, -3.2942
0.2, -1, -17.0399, 33.2675, 27.7155, -17.2295, -87.671, -3.36496
0.204, -1, -16.9478, 33.2215, 27.7029, -17.0812, -87.5132, -3.43592
0.208, -1, -16.8552, 33.1752, 27.6903, -16.9326, -87.355, -3.50704
0.212, -1, -16.7621, 33.1287, 27.6778, -16.7836, -87.1965, -3.5783
0.216, -1, -16.6687, 33.0821, 27.6652, -16.6345, -87.0378, -3.64966
0.22, -1, -16.5751, 33.0353, 27.6527, -16.4851, -86.8788, -3.72113
0.224, -1, -16.4812, 32.9885, 27.6401, -16.3356, -86.7197, -3.79268
0.228, -1, -16.3872, 32.9416, 27.6275, -16.1859, -86.5604, -3.8643
0.232, -1, -16.2931, 32.8947, 27.6149, -16.0361, -86.4009, -3.936
0.236, -1, -16.1988, 32.8477, 27.6023, -15.8861, -86.2413, -4.00777
0.24, -1, -16.1045, 32.8006, 27.5897, -15.736, -86.0815, -4.0796
0.244, -1, -16.01, 32.7535, 27.5771, -15.5857, -85.9216, -4.15149
0.248, -1, -15.9155, 32.7064, 27.5645, -15.4354, -85.7616, -4.22345
0.252, -1, -15.8209, 32.6592, 27.5518, -15.2849, -85.6014, -4.29546
0.256, -1, -15.7262, 32.6119, 27.5392, -15.1343, -85.4411, -4.36752
0.26, -1, -15.6314, 32.5647, 27.5265, -14.9836, -85.2807, -4.43964
0.264, -1, -15.5366, 32.5174, 27.5139, -14.8327, -85.1202, -4.5118
0.268, -1, -15.4417, 32.4701, 27.5012, -14.6818, -84.9596, -4.58402
0.272, -1, -15.3467, 32.4227, 27.4885, -14.5308, -84.7989, -4.65628
0.276, -1, -15.2517, 32.3753, 27.4758, -14.3797, -84.638, -4.72859
0.28, -1, -15.1566, 32.3279, 27.4631, -14.2285, -84.4771, -4.80094
0.284, -1, -15.0615, 32.2805, 27.4504, -14.0772, -84.3161, -4.87333
0.288, -1, -14.9663, 32.233, 27.4377, -13.9258, -84.155, -4.94576
0.292, -1, -14.8711, 32.1855, 27.425, -13.7744, -83.9938, -5.01823
0.296, -1, -14.7758, 32.138, 27.4123, -13.6229, -83.8326, -5.09074
0.3, -1, -14.6805, 32.0905, 27.3995, -13.4713, -83.6712, -5.16327
0.304, -1, -14.5851, 32.0429, 27.3868, -13.3196, -83.5098, -5.23584
0.308, -1, -14.4897, 31.9953, 27.3741, -13.1679, -83.3484, -5.30844
0.312, -1, -14.3943, 31.9478, 27.3613, -13.0161, -83.1868, -5.38107
0.316, -1, -14.2988, 31.9001, 27.3486, -12.8643, -83.0252, -5.45372
0.32, -1, -14.2033, 31.8525, 27.3358, -12.7124, -82.8636, -5.5264
0.324, -1, -14.1078, 31.8049, 27.3231, -12.5604, -82.7019, -5.5991
0.328, -1, -14.0122, 31.7572, 27.3103, -12.4085, -82.5401, -5.67183
0.332, -1, -13.9167, 31.7096, 27.2975, -12.2564, -82.3784, -5.74457
0.336, -1, -13.8211, 31.6619, 27.2848, -12.1044, -82.2165, -5.81732
0.34, -1, -13.7255, 31.6142, 27.272, -11.9523, -82.0547, -5.89009
0.344, -1, -13.6298, 31.5665, 27.2592, -11.8002, -81.8928, -5.96287
0.348, -1, -13.5342, 31.5188, 27.2464, -11.6481, -81.7309, -6.03567
0.352, -1, -13.4385, 31.4711, 27.2337, -11.4959, -81.569, -6.10847
0.356, -1, -13.3429, 31.4234, 27.2209, -11.3438, -81.4071, -6.18127
0.36, -1, -13.2472, 31.3757, 27.2081, -11.1916, -81.2451, -6.25408
0.364, -1, -13.1516, 31.328, 27.1953, -11.0395, -81.0832, -6.32689
0.368, -1, -13.0559, 31.2803, 27.1825, -10.8873, -80.9212, -6.3997
0.372, -1, -12.9603, 31.2326, 27.1697, -10.7352, -80.7593, -6.47251
0.376, -1, -12.8646, 31.1849, 27.157, -10.583, -80.5974, -6.54531
0.38, -1, -12.769, 31.1372, 27.1442, -10.4309, -80.4355, -6.6181
0.384, -1, -12.6734, 31.0895, 27.1314, -10.2788, -80.2736, -6.69088
0.388, -1, -12.5777, 31.0418, 27.1186, -10.1267, -80.1118, -6.76365
0.392, -1, -12.4822, 30.9941, 27.1059, -9.97466, -79.9499, -6.8364
0.396, -1, -12.3866, 30.9465, 27.0931, -9.82266, -79.7882, -6.90914
0.4, -1, -12.291, 30.8988, 27.0803, -9.67069, -79.6264, -6.98185
0.404, -1, -12.1955, 30.8512, 27.0676, -9.51877, -79.4647, -7.05455
0.408, -1, -12.1, 30.8036, 27.0548, -9.36689, -79.3031, -7.12722
0.412, -1, -12.0046, 30.756, 27.0421, -9.21508, -79.1415, -7.19987
0.416, -1, -11.9092, 30.7084, 27.0293, -9.06332, -78.98, -7.27248
0.42, -1, -11.8138, 30.6608, 27.0166, -8.91163, -78.8186, -7.34507
0.424, -1, -11.7184, 30.6133, 27.0038, -8.76, -78.6572, -7.41762
0.428, -1, -11.6231, 30.5658, 26.9911, -8.60845, -78.4959, -7.49014
0.432, -1, -11.5279, 30.5183, 26.9784, -8.45698, -78.3347, -7.56262
0.436, -1, -11.4326, 30.4708, 26.9657, -8.30559, -78.1736, -7.63506
0.44, -1, -11.3375, 30.4234, 26.953, -8.15429, -78.0126, -7.70745
0.444, -1, -11.2424, 30.376, 26.9403, -8.00308, -77.8517, -7.77981
0.448, -1, -11.1473, 30.3286, 26.9276, -7.85197, -77.6908, -7.85211
0.452, -1, -11.0524, 30.2813, 26.9149, -7.70096, -77.5301, -7.92437
0.456, -1, -10.9574, 30.2339, 26.9022, -7.55005, -77.3695, -7.99658
0.46, -1, -10.8626, 30.1867, 26.8895, -7.39926, -77.209, -8.06874
0.464, -1, -10.7678, 30.1394, 26.8769, -7.24857, -77.0487, -8.14084
0.468, -1, -10.6731, 30.0922, 26.8642, -7.09801, -76.8884, -8.21289
0.472, -1, -10.5785, 30.045, 26.8516, -6.94757, -76.7283, -8.28487
0.476, -1, -10.4839, 29.9979, 26.839, -6.79726, -76.5683, -8.3568
0.48, -1, -10.3895, 29.9508, 26.8264, -6.64708, -76.4085, -8.42866
0.484, -1, -10.2951, 29.9038, 26.8138, -6.49703, -76.2488, -8.50046
0.488, -1, -10.2008, 29.8568, 26.8012, -6.34712, -76.0893, -8.57219
0.492, -1, -10.1066, 29.8098, 26.7886, -6.19736, -75.9299, -8.64385
0.496, -1, -10.0125, 29.7629, 26.776, -6.04775, -75.7707, -8.71544
0.5, -1, -9.91844, 29.716, 26.7635, -5.89829, -75.6116, -8.78695
0.504, -1, -9.82452, 29.6692, 26.7509, -5.74898, -75.4527, -8.8584
0.508, -1, -9.73069, 29.6225, 26.7384, -5.59984, -75.294, -8.92976
0.512, -1, -9.63697, 29.5757, 26.7259, -5.45086, -75.1354, -9.00105
0.516, -1, -9.54335, 29.5291, 26.7134, -5.30204, -74.977, -9.07226
0.52, -1, -9.44984, 29.4825, 26.7009, -5.1534, -74.8188, -9.14339
0.524, -1, -9.35644, 29.4359, 26.6884, -5.00493, -74.6608, -9.21443
0.528, -1, -9.26314, 29.3894, 26.676, -4.85664, -74.503, -9.28539
0.532, -1, -9.16997, 29.343, 26.6635, -4.70853, -74.3454, -9.35626
0.536, -1, -9.0769, 29.2966, 26.6511, -4.56061, -74.188, -9.42704
0.54, -1, -8.98396, 29.2503, 26.6387, -4.41288, -74.0307, -9.49773
0.544, -1, -8.89113, 29.204, 26.6263, -4.26534, -73.8737, -9.56833
0.548, -1, -8.79843, 29.1578, 26.6139, -4.11799, -73.7169, -9.63883
0.552, -1, -8.70584, 29.1116, 26.6016, -3.97084, -73.5603, -9.70924
0.556, -1, -8.61339, 29.0656, 26.5892, -3.82389, -73.4039, -9.77956
0.56, -1, -8.52106, 29.0196, 26.5769, -3.67715, -73.2477, -9.84978
0.564, -1, -8.42886, 28.9736, 26.5646, -3.53062, -73.0918, -9.91989
0.568, -1, -8.3368, 28.9277, 26.5523, -3.38429, -72.936, -9.98991
0.572, -1, -8.24486, 28.8819, 26.54, -3.23818, -72.7805, -10.0598
0.576, -1, -8.15307, 28.8361, 26.5278, -3.09229, -72.6253, -10.1296
0.58, -1, -8.06141, 28.7905, 26.5155, -2.94661, -72.4702, -10.1993
0.584, -1, -7.96988, 28.7448, 26.5033, -2.80116, -72.3154, -10.2689
0.588, -1, -7.8785, 28.6993, 26.4911, -2.65593, -72.1609, -10.3384
0.592, -1, -7.78726, 28.6538, 26.4789, -2.51093, -72.0065, -10.4078
0.596, -1, -7.69617, 28.6084, 26.4668, -2.36616, -71.8525, -10.4771
0.6, -1, -7.60522, 28.5631, 26.4546, -2.22162, -71.6986, -10.5463
0.604, -1, -7.51441, 28.5178, 26.4425, -2.07732, -71.5451, -10.6153
0.608, -1, -7.42376, 28.4727, 26.4304, -1.93325, -71.3917, -10.6842
0.612, -1, -7.33326, 28.4276, 26.4183, -1.78942, -71.2387, -10.7531
0.616, -1, -7.2429, 28.3825, 26.4063, -1.64584, -71.0859, -10.8218
0.62, -1, -7.1527, 28.3376, 26.3942, -1.5025, -70.9333, -10.8904
0.624, -1, -7.06265, 28.2927, 26.3822, -1.3594, -70.781, -10.9588
0.628, -1, -6.97276, 28.2479, 26.3702, -1.21656, -70.629, -11.0272
0.632, -1, -6.88303, 28.2032, 26.3582, -1.07396, -70.4772, -11.0954
0.636, -1, -6.79346, 28.1585, 26.3463, -0.931622, -70.3257, -11.1635
0.64, -1, -6.70404, 28.114, 26.3344, -0.789537, -70.1745, -11.2315
0.644, -1, -6.61479, 28.0695, 26.3224, -0.647708, -70.0236, -11.2994
0.648, -1, -6.5257, 28.0251, 26.3106, -0.506139, -69.8729, -11.3671
0.652, -1, -6.43677, 27.9808, 26.2987, -0.364831, -69.7225, -11.4347
0.656, -1, -6.34801, 27.9366, 26.2868, -0.223785, -69.5724, -11.5022
0.66, -1, -6.25941, 27.8924, 26.275, -0.0830049, -69.4226, -11.5696
0.664, -1, -6.17098, 27.8483, 26.2632, 0.057509, -69.273, -11.6368
0.668, -1, -6.08272, 27.8044, 26.2514, 0.197755, -69.1238, -11.7039
0.672, -1, -5.99463, 27.7605, 26.2397, 0.33773, -68.9748, -11.7709
0.676, -1, -5.9067, 27.7166, 26.2279, 0.477435, -68.8261, -11.8378
0.68, -1, -5.81895, 27.6729, 26.2162, 0.616866, -68.6777, -11.9045
0.684, -1, -5.73137, 27.6293, 26.2045, 0.756022, -68.5296, -11.9711
0.688, -1, -5.64396, 27.5857, 26.1929, 0.894902, -68.3818, -12.0375
0.692, -1, -5.55673, 27.5422, 26.1812, 1.0335, -68.2343, -12.1038
0.696, -1, -5.46968, 27.4988, 26.1696, 1.17183, -68.0871, -12.17
0.7, -1, -5.38279, 27.4556, 26.158, 1.30987, -67.9402, -12.2361
0.704, -1, -5.29609, 27.4123, 26.1465, 1.44763, -67.7936, -12.302
0.708, -1, -5.20956, 27.3692, 26.1349, 1.58511, -67.6473, -12.3678
0.712, -1, -5.12321, 27.3262, 26.1234, 1.72231, -67.5013, -12.4334
0.716, -1, -5.03704, 27.2833, 26.1119, 1.85921, -67.3555, -12.4989
0.72, -1, -4.95105, 27.2404, 26.1004, 1.99584, -67.2101, -12.5643
0.724, -1, -4.86524, 27.1976, 26.089, 2.13217, -67.065, -12.6296
0.728, -1, -4.77961, 27.155, 26.0775, 2.26822, -66.9203, -12.6947
0.732, -1, -4.69416, 27.1124, 26.0661, 2.40397, -66.7758, -12.7596
0.736, -1, -4.6089, 27.0699, 26.0548, 2.53944, -66.6316, -12.8244
0.74, -1, -4.52381, 27.0275, 26.0434, 2.67461, -66.4877, -12.8891
0.744, -1, -4.43891, 26.9852, 26.0321, 2.8095, -66.3442, -12.9537
0.748, -1, -4.3542, 26.943, 26.0208, 2.94408, -66.201, -13.0181
0.752, -1, -4.26966, 26.9009, 26.0095, 3.07838, -66.058, -13.0823
0.756, -1, -4.18531, 26.8588, 25.9983, 3.21238, -65.9154, -13.1464
0.76, -1, -4.10115, 26.8169, 25.987, 3.34609, -65.7731, -13.2104
0.764, -1, -4.01717, 26.775, 25.9758, 3.4795, -65.6311, -13.2743
0.768, -1, -3.93337, 26.7333, 25.9646, 3.61261, -65.4895, -13.338
0.772, -1, -3.84976, 26.6916, 25.9535, 3.74543, -65.3481, -13.4015
0.776, -1, -3.76633, 26.65, 25.9424, 3.87795, -65.2071, -13.4649
0.78, -1, -3.68309, 26.6086, 25.9313, 4.01018, -65.0664, -13.5282
0.784, -1, -3.60003, 26.5672, 25.9202, 4.14211, -64.9259, -13.5913
0.788, -1, -3.51716, 26.5259, 25.9091, 4.27375, -64.7858, -13.6543
0.792, -1, -3.43447, 26.4847, 25.8981, 4.40509, -64.6461, -13.7172
0.796, -1, -3.35197, 26.4436, 25.8871, 4.53613, -64.5066, -13.7799
0.8, -1, -3.26966, 26.4026, 25.8761, 4.66688, -64.3674, -13.8424
0.804, -1, -3.18753, 26.3616, 25.8652, 4.79734, -64.2286, -13.9049
0.808, -1, -3.10558, 26.3208, 25.8542, 4.9275, -64.0901, -13.9671
0.812, -1, -3.02382, 26.2801, 25.8433, 5.05736, -63.9519, -14.0293
0.816, -1, -2.94225, 26.2394, 25.8324, 5.18693, -63.814, -14.0913
0.82, -1, -2.86085, 26.1989, 25.8216, 5.31621, -63.6764, -14.1531
0.824, -1, -2.77965, 26.1584, 25.8108, 5.4452, -63.5391, -14.2149
0.828, -1, -2.69862, 26.118, 25.8, 5.57389, -63.4021, -14.2764
0.832, -1, -2.61778, 26.0777, 25.7892, 5.70229, -63.2655, -14.3379
0.836, -1, -2.53713, 26.0375, 25.7784, 5.8304, -63.1292, -14.3992
0.84, -1, -2.45665, 25.9974, 25.7677, 5.95822, -62.9931, -14.4603
0.844, -1, -2.37636, 25.9574, 25.757, 6.08575, -62.8574, -14.5214
0.848, -1, -2.29625, 25.9175, 25.7463, 6.21298, -62.722, -14.5823
0.852, -1, -2.21633, 25.8777, 25.7356, 6.33993, -62.5869, -14.643
0.856, -1, -2.13658, 25.838, 25.725, 6.46659, -62.4521, -14.7036
0.86, -1, -2.05702, 25.7983, 25.7144, 6.59296, -62.3176, -14.7641
0.864, -1, -1.97764, 25.7588, 25.7038, 6.71904, -62.1834, -14.8244
0.868, -1, -1.89844, 25.7193, 25.6932, 6.84484, -62.0495, -14.8846
0.872, -1, -1.81942, 25.6799, 25.6827, 6.97035, -61.916, -14.9447
0.876, -1, -1.74058, 25.6406, 25.6722, 7.09557, -61.7827, -15.0046
0.88, -1, -1.66192, 25.6014, 25.6617, 7.2205, -61.6497, -15.0644
0.884, -1, -1.58344, 25.5623, 25.6512, 7.34516, -61.5171, -15.124
0.888, -1, -1.50513, 25.5233, 25.6408, 7.46952, -61.3847, -15.1835
0.892, -1, -1.42701, 25.4844, 25.6304, 7.5936, -61.2526, -15.2429
0.896, -1, -1.34906, 25.4456, 25.62, 7.7174, -61.1209, -15.3021
0.9, -1, -1.2713, 25.4068, 25.6096, 7.84092, -60.9894, -15.3612
0.904, -1, -1.19371, 25.3681, 25.5993, 7.96415, -60.8583, -15.4202
0.908, -1, -1.11629, 25.3296, 25.5889, 8.08711, -60.7274, -15.479
0.912, -1, -1.03905, 25.2911, 25.5786, 8.20978, -60.5969, -15.5377
0.916, -1, -0.961994, 25.2527, 25.5684, 8.33217, -60.4666, -15.5963
0.92, -1, -0.885109, 25.2144, 25.5581, 8.45428, -60.3366, -15.6547
0.924, -1, -0.808399, 25.1762, 25.5479, 8.57612, -60.207, -15.713
0.928, -1, -0.731865, 25.138, 25.5377, 8.69767, -60.0776, -15.7712
0.932, -1, -0.655505, 25.1, 25.5275, 8.81895, -59.9485, -15.8292
0.936, -1, -0.579319, 25.062, 25.5173, 8.93995, -59.8198, -15.8871
0.94, -1, -0.503307, 25.0241, 25.5072, 9.06068, -59.6913, -15.9449
0.944, -1, -0.427468, 24.9863, 25.4971, 9.18113, -59.5631, -16.0025
0.948, -1, -0.351802, 24.9486, 25.487, 9.30131, -59.4352, -16.06
0.952, -1, -0.276308, 24.911, 25.4769, 9.42121, -59.3076, -16.1174
0.956, -1, -0.200986, 24.8735, 25.4669, 9.54084, -59.1803, -16.1746
0.96, -1, -0.125835, 24.8361, 25.4569, 9.66019, -59.0532, -16.2318
0.964, -1, -0.0508559, 24.7987, 25.4469, 9.77928, -58.9265, -16.2887
0.968, -1, 0.023953, 24.7614, 25.4369, 9.89809, -58.8001, -16.3456
0.972, -1, 0.0985918, 24.7242, 25.4269, 10.0166, -58.6739, -16.4023
0.976, -1, 0.173061, 24.6871, 25.417, 10.1349, -58.548, -16.4589
0.98, -1, 0.247361, 24.6501, 25.4071, 10.2529, -58.4224, -16.5154
0.984, -1, 0.321492, 24.6132, 25.3972, 10.3706, -58.2971, -16.5717
0.988, -1, 0.395455, 24.5763, 25.3873, 10.4881, -58.1721, -16.6279
0.992, -1, 0.469251, 24.5395, 25.3775, 10.6053, -58.0474, -16.684
0.996, -1, 0.542879, 24.5028, 25.3677, 10.7223, -57.9229, -16.74
1, -1, 0.61634, 24.4662, 25.3579, 10.8389, -57.7988, -16.7958
1.004, -1, 0.689635, 24.4297, 25.3481, 10.9553, -57.6749, -16.8515
1.008, -1, 0.762764, 24.3933, 25.3384, 11.0715, -57.5513, -16.9071
1.012, -1, 0.835728, 24.3569, 25.3286, 11.1874, -57.4279, -16.9625
1.016, -1, 0.908526, 24.3207, 25.3189, 11.303, -57.3049, -17.0178
1.02, -1, 0.981161, 24.2845, 25.3092, 11.4183, -57.1821, -17.073
1.024, -1, 1.05363, 24.2484, 25.2996, 11.5334, -57.0596, -17.1281
1.027, -1, 1.12594, 24.2123, 25.2899, 11.6483, -56.9374, -17.1831
1.032, -1, 1.19808, 24.1764, 25.2803, 11.7629, -56.8155, -17.2379
1.036, -1, 1.27007, 24.1405, 25.2707, 11.8772, -56.6938, -17.2926
1.04, -1, 1.34189, 24.1047, 25.2611, 11.9912, -56.5724, -17.3472
1.044, -1, 1.41355, 24.069, 25.2516, 12.105, -56.4513, -17.4016
1.048, -1, 1.48505, 24.0334, 25.2421, 12.2186, -56.3304, -17.456
1.052, -1, 1.55639, 23.9978, 25.2325, 12.3319, -56.2098, -17.5102
1.055, -1, 1.62757, 23.9624, 25.2231, 12.4449, -56.0895, -17.5643
1.06, -1, 1.69859, 23.927, 25.2136, 12.5577, -55.9695, -17.6182
1.064, -1, 1.76945, 23.8917, 25.2041, 12.6703, -55.8497, -17.6721
1.068, -1, 1.84016, 23.8565, 25.1947, 12.7826, -55.7302, -17.7258
1.072, -1, 1.91071, 23.8213, 25.1853, 12.8946, -55.611, -17.7794
1.076, -1, 1.9811, 23.7862, 25.1759, 13.0064, -55.492, -17.8329
1.08, -1, 2.05134, 23.7512, 25.1666, 13.1179, -55.3733, -17.8863
1.084, -1, 2.12143, 23.7163, 25.1572, 13.2292, -55.2549, -17.9396
1.088, -1, 2.19136, 23.6815, 25.1479, 13.3403, -55.1367, -17.9927
1.091, -1, 2.26113, 23.6467, 25.1386, 13.4511, -55.0187, -18.0457
1.096, -1, 2.33076, 23.612, 25.1293, 13.5616, -54.9011, -18.0986
1.1, -1, 2.40023, 23.5774, 25.12, 13.672, -54.7837, -18.1514
1.104, -1, 2.46955, 23.5429, 25.1108, 13.7821, -54.6665, -18.2041
1.108, -1, 2.53871, 23.5084, 25.1016, 13.8919, -54.5496, -18.2567
1.112, -1, 2.60773, 23.474, 25.0924, 14.0015, -54.4329, -18.3091
1.116, -1, 2.6766, 23.4397, 25.0832, 14.1109, -54.3166, -18.3614
1.119, -1, 2.74532, 23.4055, 25.074, 14.22, -54.2004, -18.4137
1.124, -1, 2.8139, 23.3713, 25.0649, 14.3289, -54.0845, -18.4658
1.128, -1, 2.88232, 23.3372, 25.0558, 14.4376, -53.9689, -18.5178
1.132, -1, 2.9506, 23.3032, 25.0467, 14.546, -53.8535, -18.5696
1.136, -1, 3.01874, 23.2692, 25.0376, 14.6542, -53.7383, -18.6214
1.14, -1, 3.08673, 23.2353, 25.0285, 14.7622, -53.6234, -18.6731
1.144, -1, 3.15457, 23.2015, 25.0195, 14.8699, -53.5087, -18.7246
1.147, -1, 3.22227, 23.1678, 25.0104, 14.9774, -53.3943, -18.7761
1.152, -1, 3.28983, 23.1341, 25.0014, 15.0847, -53.2801, -18.8274
1.156, -1, 3.35725, 23.1006, 24.9925, 15.1918, -53.1662, -18.8786
1.16, -1, 3.42452, 23.067, 24.9835, 15.2986, -53.0525, -18.9298
1.164, -1, 3.49165, 23.0336, 24.9745, 15.4052, -52.939, -18.9808
1.168, -1, 3.55865, 23.0002, 24.9656, 15.5116, -52.8258, -19.0317
1.172, -1, 3.6255, 22.9669, 24.9567, 15.6178, -52.7128, -19.0825
1.175, -1, 3.69221, 22.9337, 24.9478, 15.7237, -52.6001, -19.1332
1.18, -1, 3.75879, 22.9005, 24.9389, 15.8294, -52.4876, -19.1838
1.184, -1, 3.82523, 22.8674, 24.9301, 15.9349, -52.3753, -19.2343
1.188, -1, 3.89153, 22.8343, 24.9212, 16.0402, -52.2632, -19.2846
1.192, -1, 3.95769, 22.8014, 24.9124, 16.1453, -52.1514, -19.3349
1.196, -1, 4.02372, 22.7685, 24.9036, 16.2501, -52.0398, -19.3851
1.2, -1, 4.08961, 22.7356, 24.8948, 16.3548, -51.9284, -19.4352
1.204, -1, 4.15537, 22.7029, 24.886, 16.4592, -51.8173, -19.4851
1.208, -1, 4.221, 22.6702, 24.8773, 16.5634, -51.7064, -19.535
1.212, -1, 4.28649, 22.6376, 24.8686, 16.6674, -51.5957, -19.5848
1.216, -1, 4.35185, 22.605, 24.8599, 16.7712, -51.4852, -19.6344
1.22, -1, 4.41707, 22.5725, 24.8512, 16.8748, -51.375, -19.684
1.224, -1, 4.48217, 22.54, 24.8425, 16.9782, -51.265, -19.7335
1.228, -1, 4.54713, 22.5077, 24.8338, 17.0814, -51.1552, -19.7828
1.232, -1, 4.61196, 22.4754, 24.8252, 17.1843, -51.0456, -19.8321
1.236, -1, 4.67667, 22.4431, 24.8166, 17.2871, -50.9362, -19.8813
1.24, -1, 4.74124, 22.411, 24.8079, 17.3896, -50.8271, -19.9303
1.244, -1, 4.80569, 22.3788, 24.7994, 17.492, -50.7182, -19.9793
1.248, -1, 4.87, 22.3468, 24.7908, 17.5941, -50.6095, -20.0282
1.252, -1, 4.93419, 22.3148, 24.7822, 17.696, -50.501, -20.077
1.256, -1, 4.99826, 22.2829, 24.7737, 17.7978, -50.3927, -20.1256
1.26, -1, 5.06219, 22.251, 24.7652, 17.8993, -50.2846, -20.1742
1.264, -1, 5.126, 22.2192, 24.7566, 18.0007, -50.1768, -20.2227
1.267, -1, 5.18969, 22.1875, 24.7482, 18.1018, -50.0692, -20.2711
1.272, -1, 5.25325, 22.1558, 24.7397, 18.2027, -49.9617, -20.3194
1.276, -1, 5.31669, 22.1242, 24.7312, 18.3035, -49.8545, -20.3676
1.28, -1, 5.38, 22.0927, 24.7228, 18.404, -49.7475, -20.4157
1.284, -1, 5.44319, 22.0612, 24.7144, 18.5044, -49.6407, -20.4638
1.288, -1, 5.50626, 22.0298, 24.706, 18.6045, -49.5341, -20.5117
1.292, -1, 5.56921, 21.9984, 24.6976, 18.7045, -49.4277, -20.5595
1.295, -1, 5.63203, 21.9671, 24.6892, 18.8043, -49.3215, -20.6073
1.3, -1, 5.69473, 21.9359, 24.6808, 18.9038, -49.2156, -20.6549
1.304, -1, 5.75732, 21.9047, 24.6725, 19.0032, -49.1098, -20.7025
1.308, -1, 5.81978, 21.8736, 24.6642, 19.1024, -49.0042, -20.7499
1.312, -1, 5.88212, 21.8425, 24.6558, 19.2014, -48.8988, -20.7973
1.316, -1, 5.94435, 21.8115, 24.6475, 19.3003, -48.7937, -20.8446
1.32, -1, 6.00646, 21.7805, 24.6393, 19.3989, -48.6887, -20.8918
1.324, -1, 6.06845, 21.7497, 24.631, 19.4973, -48.5839, -20.9389
1.328, -1, 6.13032, 21.7188, 24.6228, 19.5956, -48.4794, -20.9859
1.332, -1, 6.19207, 21.6881, 24.6145, 19.6937, -48.375, -21.0328
1.336, -1, 6.25371, 21.6573, 24.6063, 19.7916, -48.2708, -21.0797
1.34, -1, 6.31523, 21.6267, 24.5981, 19.8893, -48.1668, -21.1264
1.344, -1, 6.37664, 21.5961, 24.5899, 19.9868, -48.063, -21.1731
1.348, -1, 6.43793, 21.5655, 24.5817, 20.0841, -47.9594, -21.2197
1.352, -1, 6.49911, 21.5351, 24.5736, 20.1813, -47.856, -21.2662
1.356, -1, 6.56018, 21.5046, 24.5654, 20.2783, -47.7528, -21.3126
1.36, -1, 6.62113, 21.4743, 24.5573, 20.3751, -47.6498, -21.3589
1.364, -1, 6.68197, 21.4439, 24.5492, 20.4717, -47.547, -21.4051
1.368, -1, 6.74269, 21.4137, 24.5411, 20.5681, -47.4443, -21.4513
1.372, -1, 6.80331, 21.3835, 24.533, 20.6644, -47.3419, -21.4973
1.376, -1, 6.86381, 21.3533, 24.525, 20.7605, -47.2396, -21.5433
1.38, -1, 6.9242, 21.3232, 24.5169, 20.8564, -47.1375, -21.5892
1.384, -1, 6.98448, 21.2932, 24.5089, 20.9521, -47.0357, -21.635
1.388, -1, 7.04465, 21.2632, 24.5009, 21.0477, -46.934, -21.6807
1.392, -1, 7.10471, 21.2333, 24.4928, 21.1431, -46.8324, -21.7264
1.396, -1, 7.16467, 21.2034, 24.4849, 21.2383, -46.7311, -21.7719
1.4, -1, 7.22451, 21.1736, 24.4769, 21.3333, -46.63, -21.8174
1.404, -1, 7.28425, 21.1438, 24.4689, 21.4282, -46.529, -21.8628
1.408, -1, 7.34387, 21.1141, 24.461, 21.5229, -46.4282, -21.9081
1.412, -1, 7.4034, 21.0845, 24.453, 21.6174, -46.3276, -21.9534
1.416, -1, 7.46281, 21.0549, 24.4451, 21.7118, -46.2272, -21.9985
1.42, -1, 7.52212, 21.0253, 24.4372, 21.806, -46.1269, -22.0436
1.424, -1, 7.58133, 20.9958, 24.4293, 21.9, -46.0269, -22.0886
1.428, -1, 7.64043, 20.9664, 24.4214, 21.9938, -45.927, -22.1335
1.432, -1, 7.69943, 20.937, 24.4136, 22.0875, -45.8273, -22.1783
1.436, -1, 7.75832, 20.9076, 24.4057, 22.181, -45.7278, -22.2231
1.44, -1, 7.81711, 20.8783, 24.3979, 22.2744, -45.6284, -22.2677
1.444, -1, 7.8758, 20.8491, 24.3901, 22.3676, -45.5292, -22.3123
1.448, -1, 7.93438, 20.8199, 24.3822, 22.4606, -45.4302, -22.3568
1.452, -1, 7.99287, 20.7908, 24.3744, 22.5535, -45.3314, -22.4013
1.456, -1, 8.05125, 20.7617, 24.3667, 22.6462, -45.2327, -22.4456
1.46, -1, 8.10953, 20.7326, 24.3589, 22.7387, -45.1342, -22.4899
1.464, -1, 8.16771, 20.7037, 24.3511, 22.8311, -45.0359, -22.5341
1.468, -1, 8.22578, 20.6747, 24.3434, 22.9234, -44.9378, -22.5783
1.472, -1, 8.28376, 20.6458, 24.3357, 23.0154, -44.8398, -22.6223
1.476, -1, 8.34164, 20.617, 24.328, 23.1073, -44.742, -22.6663
1.48, -1, 8.39942, 20.5882, 24.3203, 23.1991, -44.6443, -22.7102
1.484, -1, 8.4571, 20.5595, 24.3126, 23.2907, -44.5468, -22.754
1.488, -1, 8.51469, 20.5308, 24.3049, 23.3821, -44.4495, -22.7978
1.492, -1, 8.57218, 20.5021, 24.2972, 23.4734, -44.3523, -22.8415
1.496, -1, 8.62957, 20.4735, 24.2896, 23.5645, -44.2554, -22.8851
1.5, -1, 8.68686, 20.445, 24.2819, 23.6555, -44.1585, -22.9286
1.504, -1, 8.74406, 20.4165, 24.2743, 23.7464, -44.0619, -22.9721
1.508, -1, 8.80116, 20.388, 24.2667, 23.837, -43.9654, -23.0155
1.512, -1, 8.85816, 20.3596, 24.2591, 23.9276, -43.869, -23.0588
1.516, -1, 8.91508, 20.3313, 24.2515, 24.0179, -43.7728, -23.102
1.52, -1, 8.97189, 20.303, 24.2439, 24.1082, -43.6768, -23.1452
1.524, -1, 9.02862, 20.2747, 24.2364, 24.1982, -43.5809, -23.1883
1.528, -1, 9.08525, 20.2465, 24.2288, 24.2882, -43.4852, -23.2313
1.532, -1, 9.14179, 20.2183, 24.2213, 24.378, -43.3897, -23.2743
1.536, -1, 9.19823, 20.1902, 24.2138, 24.4676, -43.2943, -23.3172
1.54, -1, 9.25459, 20.1621, 24.2063, 24.5571, -43.199, -23.36
1.544, -1, 9.31085, 20.1341, 24.1988, 24.6464, -43.1039, -23.4028
1.548, -1, 9.36702, 20.1061, 24.1913, 24.7356, -43.009, -23.4454
1.552, -1, 9.4231, 20.0782, 24.1838, 24.8247, -42.9142, -23.4881
1.556, -1, 9.47909, 20.0503, 24.1763, 24.9136, -42.8196, -23.5306
1.56, -1, 9.53499, 20.0224, 24.1689, 25.0024, -42.7251, -23.5731
1.564, -1, 9.5908, 19.9946, 24.1614, 25.091, -42.6308, -23.6155
1.568, -1, 9.64652, 19.9668, 24.154, 25.1795, -42.5366, -23.6578
1.572, -1, 9.70215, 19.9391, 24.1466, 25.2678, -42.4426, -23.7001
1.576, -1, 9.7577, 19.9114, 24.1392, 25.3561, -42.3487, -23.7423
1.58, -1, 9.81316, 19.8838, 24.1318, 25.4441, -42.255, -23.7845
1.584, -1, 9.86852, 19.8562, 24.1244, 25.5321, -42.1614, -23.8265
1.588, -1, 9.92381, 19.8287, 24.117, 25.6198, -42.068, -23.8685
1.592, -1, 9.979, 19.8012, 24.1097, 25.7075, -41.9747, -23.9105
1.596, -1, 10.0341, 19.7737, 24.1023, 25.795, -41.8816, -23.9524
1.6, -1, 10.0891, 19.7463, 24.095, 25.8824, -41.7886, -23.9942
1.604, -1, 10.1441, 19.7189, 24.0877, 25.9696, -41.6957, -24.0359
1.608, -1, 10.1989, 19.6916, 24.0804, 26.0567, -41.603, -24.0776
1.612, -1, 10.2537, 19.6643, 24.0731, 26.1437, -41.5104, -24.1192
1.616, -1, 10.3084, 19.6371, 24.0658, 26.2306, -41.418, -24.1608
1.62, -1, 10.363, 19.6099, 24.0585, 26.3173, -41.3257, -24.2023
1.624, -1, 10.4175, 19.5827, 24.0512, 26.4038, -41.2336, -24.2437
1.628, -1, 10.4719, 19.5556, 24.044, 26.4903, -41.1416, -24.2851
1.632, -1, 10.5263, 19.5285, 24.0367, 26.5766, -41.0497, -24.3264
1.636, -1, 10.5806, 19.5015, 24.0295, 26.6628, -40.958, -24.3676
1.64, -1, 10.6347, 19.4745, 24.0223, 26.7488, -40.8664, -24.4088
1.644, -1, 10.6888, 19.4475, 24.0151, 26.8348, -40.775, -24.4499
1.648, -1, 10.7429, 19.4206, 24.0079, 26.9205, -40.6837, -24.4909
1.652, -1, 10.7968, 19.3937, 24.0007, 27.0062, -40.5925, -24.5319
1.656, -1, 10.8507, 19.3669, 23.9935, 27.0917, -40.5015, -24.5729
1.66, -1, 10.9044, 19.3401, 23.9863, 27.1771, -40.4106, -24.6137
1.664, -1, 10.9581, 19.3133, 23.9792, 27.2624, -40.3198, -24.6545
1.668, -1, 11.0118, 19.2866, 23.972, 27.3476, -40.2292, -24.6953
1.672, -1, 11.0653, 19.2599, 23.9649, 27.4326, -40.1387, -24.736
1.676, -1, 11.1188, 19.2333, 23.9577, 27.5175, -40.0484, -24.7766
1.68, -1, 11.1722, 19.2067, 23.9506, 27.6023, -39.9581, -24.8172
1.684, -1, 11.2255, 19.1801, 23.9435, 27.6869, -39.868, -24.8577
1.688, -1, 11.2787, 19.1536, 23.9364, 27.7715, -39.7781, -24.8981
1.692, -1, 11.3318, 19.1271, 23.9293, 27.8559, -39.6883, -24.9385
1.696, -1, 11.3849, 19.1007, 23.9223, 27.9401, -39.5986, -24.9788
1.7, -1, 11.4379, 19.0743, 23.9152, 28.0243, -39.509, -25.0191
1.704, -1, 11.4908, 19.0479, 23.9081, 28.1083, -39.4196, -25.0593
1.708, -1, 11.5437, 19.0216, 23.9011, 28.1923, -39.3303, -25.0995
1.712, -1, 11.5964, 18.9953, 23.8941, 28.2761, -39.2411, -25.1396
1.716, -1, 11.6491, 18.969, 23.887, 28.3597, -39.152, -25.1796
1.72, -1, 11.7017, 18.9428, 23.88, 28.4433, -39.0631, -25.2196
1.724, -1, 11.7543, 18.9166, 23.873, 28.5267, -38.9743, -25.2595
1.728, -1, 11.8067, 18.8905, 23.866, 28.61, -38.8856, -25.2994
1.732, -1, 11.8591, 18.8644, 23.859, 28.6932, -38.7971, -25.3392
1.736, -1, 11.9114, 18.8383, 23.8521, 28.7763, -38.7087, -25.3789
1.74, -1, 11.9637, 18.8123, 23.8451, 28.8593, -38.6204, -25.4186
1.744, -1, 12.0158, 18.7863, 23.8381, 28.9421, -38.5322, -25.4583
1.748, -1, 12.0679, 18.7604, 23.8312, 29.0248, -38.4442, -25.4979
1.752, -1, 12.1199, 18.7344, 23.8243, 29.1075, -38.3562, -25.5374
1.756, -1, 12.1719, 18.7086, 23.8173, 29.19, -38.2684, -25.5769
1.76, -1, 12.2238, 18.6827, 23.8104, 29.2723, -38.1808, -25.6163
1.764, -1, 12.2756, 18.6569, 23.8035, 29.3546, -38.0932, -25.6556
1.768, -1, 12.3273, 18.6311, 23.7966, 29.4368, -38.0058, -25.695
1.772, -1, 12.379, 18.6054, 23.7897, 29.5188, -37.9185, -25.7342
1.776, -1, 12.4305, 18.5797, 23.7829, 29.6007, -37.8313, -25.7734
1.78, -1, 12.4821, 18.554, 23.776, 29.6825, -37.7442, -25.8126
1.784, -1, 12.5335, 18.5284, 23.7691, 29.7642, -37.6573, -25.8517
1.788, -1, 12.5849, 18.5028, 23.7623, 29.8458, -37.5704, -25.8907
1.792, -1, 12.6362, 18.4772, 23.7554, 29.9273, -37.4837, -25.9297
1.796, -1, 12.6874, 18.4517, 23.7486, 30.0087, -37.3971, -25.9686
1.8, -1, 12.7386, 18.4262, 23.7418, 30.0899, -37.3106, -26.0075
1.804, -1, 12.7897, 18.4007, 23.735, 30.1711, -37.2243, -26.0463
1.808, -1, 12.8407, 18.3753, 23.7282, 30.2521, -37.1381, -26.0851
1.812, -1, 12.8916, 18.3499, 23.7214, 30.333, -37.0519, -26.1238
1.816, -1, 12.9425, 18.3246, 23.7146, 30.4138, -36.9659, -26.1625
1.82, -1, 12.9933, 18.2992, 23.7078, 30.4945, -36.88, -26.2011
1.824, -1, 13.0441, 18.274, 23.7011, 30.5751, -36.7942, -26.2397
1.828, -1, 13.0948, 18.2487, 23.6943, 30.6556, -36.7086, -26.2782
1.832, -1, 13.1454, 18.2235, 23.6876, 30.736, -36.623, -26.3167
1.836, -1, 13.1959, 18.1983, 23.6808, 30.8163, -36.5376, -26.3551
1.84, -1, 13.2464, 18.1731, 23.6741, 30.8965, -36.4523, -26.3934
1.844, -1, 13.2968, 18.148, 23.6674, 30.9765, -36.3671, -26.4317
1.848, -1, 13.3472, 18.1229, 23.6607, 31.0565, -36.282, -26.47
1.852, -1, 13.3975, 18.0979, 23.654, 31.1363, -36.197, -26.5082
1.856, -1, 13.4477, 18.0729, 23.6473, 31.2161, -36.1121, -26.5464
1.86, -1, 13.4978, 18.0479, 23.6406, 31.2957, -36.0273, -26.5845
1.864, -1, 13.5479, 18.0229, 23.6339, 31.3753, -35.9427, -26.6225
1.868, -1, 13.5979, 17.998, 23.6272, 31.4547, -35.8582, -26.6606
1.872, -1, 13.6479, 17.9731, 23.6206, 31.534, -35.7737, -26.6985
1.876, -1, 13.6978, 17.9482, 23.6139, 31.6133, -35.6894, -26.7364
1.88, -1, 13.7476, 17.9234, 23.6073, 31.6924, -35.6052, -26.7743
1.884, -1, 13.7974, 17.8986, 23.6006, 31.7714, -35.5211, -26.8121
1.888, -1, 13.8471, 17.8739, 23.594, 31.8504, -35.4371, -26.8499
1.892, -1, 13.8967, 17.8491, 23.5874, 31.9292, -35.3532, -26.8876
1.896, -1, 13.9463, 17.8244, 23.5808, 32.0079, -35.2694, -26.9253
1.9, -1, 13.9958, 17.7998, 23.5742, 32.0865, -35.1857, -26.9629
1.904, -1, 14.0452, 17.7751, 23.5676, 32.1651, -35.1021, -27.0005
1.908, -1, 14.0946, 17.7505, 23.561, 32.2435, -35.0187, -27.038
1.912, -1, 14.144, 17.7259, 23.5544, 32.3218, -34.9353, -27.0755
1.916, -1, 14.1932, 17.7014, 23.5479, 32.4001, -34.852, -27.1129
1.92, -1, 14.2424, 17.6769, 23.5413, 32.4782, -34.7689, -27.1503
1.924, -1, 14.2916, 17.6524, 23.5348, 32.5563, -34.6858, -27.1877
1.928, -1, 14.3406, 17.6279, 23.5282, 32.6342, -34.6029, -27.2249
1.932, -1, 14.3896, 17.6035, 23.5217, 32.712, -34.52, -27.2622
1.936, -1, 14.4386, 17.5791, 23.5152, 32.7898, -34.4373, -27.2994
1.94, -1, 14.4875, 17.5547, 23.5086, 32.8674, -34.3546, -27.3366
1.944, -1, 14.5363, 17.5304, 23.5021, 32.945, -34.2721, -27.3737
1.948, -1, 14.5851, 17.5061, 23.4956, 33.0225, -34.1896, -27.4107
1.952, -1, 14.6338, 17.4818, 23.4891, 33.0998, -34.1073, -27.4478
1.956, -1, 14.6825, 17.4576, 23.4826, 33.1771, -34.0251, -27.4847
1.96, -1, 14.7311, 17.4334, 23.4762, 33.2543, -33.9429, -27.5217
1.964, -1, 14.7796, 17.4092, 23.4697, 33.3314, -33.8609, -27.5586
1.968, -1, 14.8281, 17.385, 23.4632, 33.4084, -33.7789, -27.5954
1.972, -1, 14.8765, 17.3609, 23.4568, 33.4853, -33.6971, -27.6322
1.976, -1, 14.9249, 17.3368, 23.4503, 33.5621, -33.6153, -27.6689
1.98, -1, 14.9732, 17.3127, 23.4439, 33.6388, -33.5337, -27.7057
1.984, -1, 15.0214, 17.2887, 23.4375, 33.7154, -33.4521, -27.7423
1.988, -1, 15.0696, 17.2647, 23.431, 33.792, -33.3707, -27.7789
1.992, -1, 15.1178, 17.2407, 23.4246, 33.8684, -33.2893, -27.8155
1.996, -1, 15.1658, 17.2167, 23.4182, 33.9448, -33.2081, -27.8521
1.999, -1, 15.2139, 17.1928, 23.4118, 34.021, -33.1269, -27.8886
2.004, -1, 15.2618, 17.1689, 23.4054, 34.0972, -33.0458, -27.925
2.008, -1, 15.3097, 17.145, 23.399, 34.1733, -32.9649, -27.9614
2.012, -1, 15.3576, 17.1212, 23.3926, 34.2493, -32.884, -27.9978
2.015, -1, 15.4054, 17.0974, 23.3863, 34.3252, -32.8032, -28.0341
2.019, -1, 15.4531, 17.0736, 23.3799, 34.401, -32.7225, -28.0704
2.024, -1, 15.5008, 17.0498, 23.3735, 34.4767, -32.6419, -28.1066
2.028, -1, 15.5484, 17.0261, 23.3672, 34.5524, -32.5614, -28.1428
2.031, -1, 15.596, 17.0024, 23.3609, 34.6279, -32.481, -28.179
2.036, -1, 15.6435, 16.9787, 23.3545, 34.7034, -32.4007, -28.2151
2.04, -1, 15.691, 16.9551, 23.3482, 34.7788, -32.3205, -28.2511
2.044, -1, 15.7384, 16.9314, 23.3419, 34.8541, -32.2403, -28.2872
2.048, -1, 15.7857, 16.9079, 23.3356, 34.9293, -32.1603, -28.3232
2.051, -1, 15.833, 16.8843, 23.3293, 35.0044, -32.0803, -28.3591
2.055, -1, 15.8803, 16.8607, 23.323, 35.0794, -32.0005, -28.395
2.06, -1, 15.9275, 16.8372, 23.3167, 35.1544, -31.9207, -28.4309
2.064, -1, 15.9746, 16.8137, 23.3104, 35.2293, -31.841, -28.4667
2.068, -1, 16.0217, 16.7903, 23.3041, 35.304, -31.7615, -28.5025
2.071, -1, 16.0687, 16.7668, 23.2978, 35.3787, -31.682, -28.5382
2.076, -1, 16.1157, 16.7434, 23.2916, 35.4533, -31.6026, -28.5739
2.08, -1, 16.1626, 16.72, 23.2853, 35.5279, -31.5232, -28.6096
2.084, -1, 16.2095, 16.6967, 23.2791, 35.6023, -31.444, -28.6452
2.087, -1, 16.2563, 16.6734, 23.2728, 35.6767, -31.3649, -28.6808
2.092, -1, 16.3031, 16.6501, 23.2666, 35.751, -31.2858, -28.7163
2.096, -1, 16.3498, 16.6268, 23.2604, 35.8252, -31.2068, -28.7518
2.1, -1, 16.3965, 16.6035, 23.2541, 35.8993, -31.128, -28.7873
2.104, -1, 16.4431, 16.5803, 23.2479, 35.9733, -31.0492, -28.8227
2.107, -1, 16.4896, 16.5571, 23.2417, 36.0473, -30.9705, -28.8581
2.111, -1, 16.5361, 16.5339, 23.2355, 36.1211, -30.8919, -28.8935
2.116, -1, 16.5826, 16.5108, 23.2293, 36.1949, -30.8133, -28.9288
2.12, -1, 16.629, 16.4876, 23.2231, 36.2686, -30.7349, -28.964
2.124, -1, 16.6754, 16.4645, 23.2169, 36.3422, -30.6565, -28.9993
2.127, -1, 16.7217, 16.4415, 23.2108, 36.4158, -30.5783, -29.0345
2.132, -1, 16.7679, 16.4184, 23.2046, 36.4893, -30.5001, -29.0696
2.136, -1, 16.8141, 16.3954, 23.1984, 36.5626, -30.422, -29.1047
2.14, -1, 16.8603, 16.3724, 23.1923, 36.636, -30.3439, -29.1398
2.143, -1, 16.9064, 16.3494, 23.1861, 36.7092, -30.266, -29.1749
2.148, -1, 16.9525, 16.3265, 23.18, 36.7823, -30.1882, -29.2099
2.152, -1, 16.9985, 16.3035, 23.1739, 36.8554, -30.1104, -29.2448
2.156, -1, 17.0444, 16.2806, 23.1677, 36.9284, -30.0327, -29.2798
2.16, -1, 17.0903, 16.2578, 23.1616, 37.0013, -29.9551, -29.3146
2.163, -1, 17.136, 16.235, 23.1555, 37.0742, -29.8776, -29.3495
2.168, -1, 17.1814, 16.2123, 23.1494, 37.1469, -29.8002, -29.3843
2.172, -1, 17.2261, 16.1899, 23.1432, 37.2195, -29.7229, -29.4191
2.176, -1, 17.2699, 16.168, 23.1369, 37.2919, -29.6459, -29.4537
2.179, -1, 17.3126, 16.1465, 23.1306, 37.364, -29.5692, -29.4882
2.184, -1, 17.3541, 16.1257, 23.1243, 37.4355, -29.4931, -29.5224
2.188, -1, 17.3942, 16.1056, 23.1179, 37.5062, -29.4179, -29.5563
2.192, -1, 17.4331, 16.0862, 23.1116, 37.5758, -29.344, -29.5895
2.196, -1, 17.4706, 16.0676, 23.1053, 37.6437, -29.2717, -29.6221
2.199, -1, 17.5068, 16.0498, 23.0992, 37.7096, -29.2017, -29.6536
2.204, -1, 17.5414, 16.0329, 23.0933, 37.7731, -29.1342, -29.684
2.208, -1, 17.5743, 16.017, 23.0876, 37.8335, -29.07, -29.7129
2.212, -1, 17.6054, 16.0022, 23.0823, 37.8904, -29.0095, -29.7402
2.216, -1, 17.6346, 15.9882, 23.0774, 37.9435, -28.9531, -29.7656
2.219, -1, 17.662, 15.9751, 23.0729, 37.9922, -28.9013, -29.7889
2.224, -1, 17.6877, 15.9626, 23.0689, 38.0363, -28.8544, -29.81
2.228, -1, 17.7118, 15.9507, 23.0656, 38.0756, -28.8126, -29.8288
2.232, -1, 17.7344, 15.9393, 23.0628, 38.11, -28.7759, -29.8453
2.235, -1, 17.7552, 15.9285, 23.0605, 38.1397, -28.7443, -29.8594
2.24, -1, 17.7743, 15.9185, 23.0588, 38.1648, -28.7176, -29.8714
2.244, -1, 17.7915, 15.9094, 23.0575, 38.1856, -28.6954, -29.8814
2.248, -1, 17.8067, 15.9013, 23.0566, 38.2025, -28.6773, -29.8895
2.252, -1, 17.8202, 15.8942, 23.056, 38.216, -28.6629, -29.8959
2.255, -1, 17.832, 15.8881, 23.0557, 38.2265, -28.6516, -29.9009
2.259, -1, 17.8423, 15.8828, 23.0556, 38.2345, -28.643, -29.9048
2.264, -1, 17.8512, 15.8784, 23.0556, 38.2404, -28.6366, -29.9076
2.268, -1, 17.8587, 15.8748, 23.0557, 38.2447, -28.632, -29.9096
2.272, -1, 17.8648, 15.8719, 23.0559, 38.2477, -28.6287, -29.9111
2.275, 2, 17.8697, 15.8697, 23.056, 38.2499, -28.6264, -29.9121
2.28, 2, 17.8733, 15.8681, 23.0561, 38.2513, -28.6248, -29.9128
2.284, 2, 17.876, 15.867, 23.0562, 38.2523, -28.6238, -29.9132
2.288, 2, 17.8778, 15.8662, 23.0563, 38.253, -28.623, -29.9136
2.291, 2, 17.879, 15.8657, 23.0563, 38.2534, -28.6226, -29.9138
2.296, 2, 17.8798, 15.8653, 23.0563, 38.2537, -28.6222, -29.9139
2.3, 2, 17.8804, 15.8651, 23.0563, 38.2539, -28.622, -29.914
2.304, 2, 17.8808, 15.8649, 23.0564, 38.2541, -28.6218, -29.9141
2.308, 2, 17.881, 15.8648, 23.0564, 38.2542, -28.6217, -29.9141
2.311, 2, 17.8812, 15.8647, 23.0564, 38.2542, -28.6217, -29.9142
2.316, 2, 17.8813, 15.8647, 23.0564, 38.2543, -28.6216, -29.9142
2.32, 2, 17.8814, 15.8646, 23.0564, 38.2543, -28.6216, -29.9142
2.324, 2, 17.8815, 15.8646, 23.0564, 38.2543, -28.6216, -29.9142
2.328, 2, 17.8815, 15.8646, 23.0564, 38.2543, -28.6215, -29.9142
2.331, 2, 17.8815, 15.8646, 23.0564, 38.2543, -28.6215, -29.9142
2.336, 2, 17.8815, 15.8646, 23.0564, 38.2544, -28.6215, -29.9142
2.34, 2, 17.8815, 15.8646, 23.0564, 38.2544, -28.6215, -29.9142
2.344, 2, 17.8816, 15.8646, 23.0564, 38.2544, -28.6215, -29.9142
2.347, 2, 17.8816, 15.8646, 23.0564, 38.2544, -28.6215, -29.9142
2.352, 2, 17.8816, 15.8646, 23.0564, 38.2544, -28.6215, -29.9142
2.356, 2, 17.8816, 15.8646, 23.0564, 38.2544, -28.6215, -29.9142
2.36, 2, 17.8816, 15.8645, 23.0564, 38.2544, -28.6215, -29.9142
2.364, 2, 17.8816, 15.8645, 23.0564, 38.2544, -28.6215, -29.9142
2.367, 2, 17.8816, 15.8645, 23.0564, 38.2544, -28.6215, -29.9142
2.372, 2, 17.8816, 15.8645, 23.0564, 38.2544, -28.6215, -29.9142
2.376, 2, 17.8816, 15.8645, 23.0564, 38.2544, -28.6215, -29.9142
2.38, 2, 17.8816, 15.8645, 23.0564, 38.2544, -28.6215, -29.9142
2.383, 2, 17.8816, 15.8645, 23.0564, 38.2544, -28.6215, -29.9142
2.388, 2, 17.8816, 15.8645, 23.0564, 38.2544, -28.6215, -29.9142
2.392, 2, 17.8816, 15.8645, 23.0564, 38.2544, -28.6215, -29.9142
2.396, 2, 17.8816, 15.8645, 23.0564, 38.2544, -28.6215, -29.9142
2.4, 2, 17.8816, 15.8645, 23.0564, 38.2544, -28.6215, -29.9142
2.403, 2, 17.8816, 15.8645, 23.0564, 38.2544, -28.6215, -29.9142
2.408, 2, 17.8816, 15.8645, 23.0564, 38.2544, -28.6215, -29.9142
2.412, 2, 17.8816, 15.8645, 23.0564, 38.2544, -28.6215, -29.9142
2.416, 2, 17.8816, 15.8645, 23.0564, 38.2544, -28.6215, -29.9142
2.42, 2, 17.8816, 15.8645, 23.0564, 38.2544, -28.6215, -29.9142
2.423, 2, 17.8816, 15.8645, 23.0564, 38.2544, -28.6215, -29.9142
2.428, 2, 17.8816, 15.8645, 23.0564, 38.2544, -28.6215, -29.9142
2.432, 2, 17.8816, 15.8645, 23.0564, 38.2544, -28.6215, -29.9142
2.436, 2, 17.8816, 15.8645, 23.0564, 38.2544, -28.6215, -29.9142
2.439, 2, 17.8816, 15.8645, 23.0564, 38.2544, -28.6215, -29.9142
2.444, 2, 17.8816, 15.8645, 23.0564, 38.2544, -28.6215, -29.9142
2.448, 2, 17.8816, 15.8645, 23.0564, 38.2544, -28.6215, -29.9142
2.452, 2, 17.8816, 15.8645, 23.0564, 38.2544, -28.6215, -29.9142
2.456, 2, 17.8816, 15.8645, 23.0564, 38.2544, -28.6215, -29.9142
2.459, 2, 17.8816, 15.8645, 23.0564, 38.2544, -28.6215, -29.9142
2.464, 2, 17.8816, 15.8645, 23.0564, 38.2544, -28.6215, -29.9142
2.468, 2, 17.8816, 15.8645, 23.0564, 38.2544, -28.6215, -29.9142
2.472, 2, 17.8816, 15.8645, 23.0564, 38.2544, -28.6215, -29.9142
2.476, 2, 17.8816, 15.8645, 23.0564, 38.2544, -28.6215, -29.9142
2.479, 2, 17.8816, 15.8645, 23.0564, 38.2544, -28.6215, -29.9142
2.484, 2, 17.8816, 15.8645, 23.0564, 38.2544, -28.6215, -29.9142
2.488, 2, 17.8816, 15.8645, 23.0564, 38.2544, -28.6215, -29.9142
2.492, 2, 17.8816, 15.8645, 23.0564, 38.2544, -28.6215, -29.9142
2.495, 2, 17.8816, 15.8645, 23.0564, 38.2544, -28.6215, -29.9142
2.5, 2, 17.8816, 15.8645, 23.0564, 38.2544, -28.6215, -29.9142
2.504, 2, 17.8816, 15.8645, 23.0564, 38.2544, -28.6215, -29.9142
2.508, 2, 17.8816, 15.8645, 23.0564, 38.2544, -28.6215, -29.9142
2.512, 2, 17.8816, 15.8645, 23.0564, 38.2544, -28.6215, -29.9142
2.515, 2, 17.8816, 15.8645, 23.0564, 38.2544, -28.6215, -29.9142
2.52, 2, 17.8816, 15.8645, 23.0564, 38.2544, -28.6215, -29.9142
2.524, 2, 17.8816, 15.8645, 23.0564, 38.2544, -28.6215, -29.9142
2.528, 2, 17.8816, 15.8645, 23.0564, 38.2544, -28.6215, -29.9142
2.531, 2, 17.8816, 15.8645, 23.0564, 38.2544, -28.6215, -29.9142
2.536, 2, 17.8816, 15.8645, 23.0564, 38.2544, -28.6215, -29.9142
2.54, 2, 17.8816, 15.8645, 23.0564, 38.2544, -28.6215, -29.9142
2.544, 2, 17.8816, 15.8645, 23.0564, 38.2544, -28.6215, -29.9142
2.548, 2, 17.8816, 15.8645, 23.0564, 38.2544, -28.6215, -29.9142
2.551, 2, 17.8816, 15.8645, 23.0564, 38.2544, -28.6215, -29.9142
2.556, 2, 17.8816, 15.8645, 23.0564, 38.2544, -28.6215, -29.9142
2.56, 2, 17.8816, 15.8645, 23.0564, 38.2544, -28.6215, -29.9142
2.564, 2, 17.8816, 15.8645, 23.0564, 38.2544, -28.6215, -29.9142
2.568, 2, 17.8816, 15.8645, 23.0564, 38.2544, -28.6215, -29.9142
2.571, 2, 17.8816, 15.8645, 23.0564, 38.2544, -28.6215, -29.9142
2.576, 2, 17.8816, 15.8645, 23.0564, 38.2544, -28.6215, -29.9142
2.58, 2, 17.8816, 15.8645, 23.0564, 38.2544, -28.6215, -29.9142
2.584, 2, 17.8816, 15.8645, 23.0564, 38.2544, -28.6215, -29.9142
2.587, 2, 17.8816, 15.8645, 23.0564, 38.2544, -28.6215, -29.9142
2.592, 2, 17.8816, 15.8645, 23.0564, 38.2544, -28.6215, -29.9142
2.596, 2, 17.8816, 15.8645, 23.0564, 38.2544, -28.6215, -29.9142
2.6, 2, 17.8816, 15.8645, 23.0564, 38.2544, -28.6215, -29.9142
2.604, 2, 17.8816, 15.8645, 23.0564, 38.2544, -28.6215, -29.9142
2.607, 2, 17.8816, 15.8645, 23.0564, 38.2544, -28.6215, -29.9142
2.612, 2, 17.8816, 15.8645, 23.0564, 38.2544, -28.6215, -29.9142
2.616, 2, 17.8816, 15.8645, 23.0564, 38.2544, -28.6215, -29.9142
2.62, 2, 17.8816, 15.8645, 23.0564, 38.2544, -28.6215, -29.9142
2.624, 2, 17.8816, 15.8645, 23.0564, 38.2544, -28.6215, -29.9142
2.627, 2, 17.8816, 15.8645, 23.0564, 38.2544, -28.6215, -29.9142
2.632, 2, 17.8816, 15.8645, 23.0564, 38.2544, -28.6215, -29.9142
2.636, 2, 17.8816, 15.8645, 23.0564, 38.2544, -28.6215, -29.9142
2.64, 2, 17.8816, 15.8645, 23.0564, 38.2544, -28.6215, -29.9142
2.643, 2, 17.8816, 15.8645, 23.0564, 38.2544, -28.6215, -29.9142
2.648, 2, 17.8816, 15.8645, 23.0564, 38.2544, -28.6215, -29.9142
2.652, 2, 17.8816, 15.8645, 23.0564, 38.2544, -28.6215, -29.9142
2.656, 2, 17.8816, 15.8645, 23.0564, 38.2544, -28.6215, -29.9142
2.66, 2, 17.8816, 15.8645, 23.0564, 38.2544, -28.6215, -29.9142
2.663, 2, 17.8816, 15.8645, 23.0564, 38.2544, -28.6215, -29.9142
2.668, 2, 17.8816, 15.8645, 23.0564, 38.2544, -28.6215, -29.9142
2.672, 2, 17.8816, 15.8645, 23.0564, 38.2544, -28.6215, -29.9142
2.676, 2, 17.8816, 15.8645, 23.0564, 38.2544, -28.6215, -29.9142
2.679, 2, 17.8816, 15.8645, 23.0564, 38.2544, -28.6215, -29.9142
2.684, 2, 17.8816, 15.8645, 23.0564, 38.2544, -28.6215, -29.9142
2.688, 2, 17.8816, 15.8645, 23.0564, 38.2544, -28.6215, -29.9142
2.692, 2, 17.8816, 15.8645, 23.0564, 38.2544, -28.6215, -29.9142
2.696, 2, 17.8816, 15.8645, 23.0564, 38.2544, -28.6215, -29.9142
2.699, 2, 17.8816, 15.8645, 23.0564, 38.2544, -28.6215, -29.9142
2.704, 2, 17.8816, 15.8645, 23.0564, 38.2544, -28.6215, -29.9142
2.708, 2, 17.8816, 15.8645, 23.0564, 38.2544, -28.6215, -29.9142
2.712, 2, 17.8816, 15.8645, 23.0564, 38.2544, -28.6215, -29.9142
2.716, 2, 17.8816, 15.8645, 23.0564, 38.2544, -28.6215, -29.9142
2.719, 2, 17.8816, 15.8645, 23.0564, 38.2544, -28.6215, -29.9142
2.724, 2, 17.8816, 15.8645, 23.0564, 38.2544, -28.6215, -29.9142
2.728, 2, 17.8816, 15.8645, 23.0564, 38.2544, -28.6215, -29.9142
2.732, 2, 17.8816, 15.8645, 23.0564, 38.2544, -28.6215, -29.9142
2.735, 2, 17.8816, 15.8645, 23.0564, 38.2544, -28.6215, -29.9142
2.74, 2, 17.8816, 15.8645, 23.0564, 38.2544, -28.6215, -29.9142
2.744, 2, 17.8816, 15.8645, 23.0564, 38.2544, -28.6215, -29.9142
2.748, 2, 17.8816, 15.8645, 23.0564, 38.2544, -28.6215, -29.9142
2.752, 2, 17.8816, 15.8645, 23.0564, 38.2544, -28.6215, -29.9142
2.755, 2, 17.8816, 15.8645, 23.0564, 38.2544, -28.6215, -29.9142
2.76, 2, 17.8816, 15.8645, 23.0564, 38.2544, -28.6215, -29.9142
2.764, 2, 17.8816, 15.8645, 23.0564, 38.2544, -28.6215, -29.9142
2.768, 2, 17.8816, 15.8645, 23.0564, 38.2544, -28.6215, -29.9142
2.772, 2, 17.8816, 15.8645, 23.0564, 38.2544, -28.6215, -29.9142
2.775, 2, 17.8816, 15.8645, 23.0564, 38.2544, -28.6215, -29.9142
2.78, 2, 17.8816, 15.8645, 23.0564, 38.2544, -28.6215, -29.9142
2.784, 2, 17.8816, 15.8645, 23.0564, 38.2544, -28.6215, -29.9142
2.788, 2, 17.8816, 15.8645, 23.0564, 38.2544, -28.6215, -29.9142
2.791, 2, 17.8816, 15.8645, 23.0564, 38.2544, -28.6215, -29.9142
2.796, 2, 17.8816, 15.8645, 23.0564, 38.2544, -28.6215, -29.9142
2.8, 2, 17.8816, 15.8645, 23.0564, 38.2544, -28.6215, -29.9142
2.804, 2, 17.8816, 15.8645, 23.0564, 38.2544, -28.6215, -29.9142
2.808, 2, 17.8816, 15.8645, 23.0564, 38.2544, -28.6215, -29.9142
2.811, 2, 17.8816, 15.8645, 23.0564, 38.2544, -28.6215, -29.9142
2.816, 2, 17.8816, 15.8645, 23.0564, 38.2544, -28.6215, -29.9142
2.82, 2, 17.8816, 15.8645, 23.0564, 38.2544, -28.6215, -29.9142
2.824, 2, 17.8816, 15.8645, 23.0564, 38.2544, -28.6215, -29.9142
2.828, 2, 17.8816, 15.8645, 23.0564, 38.2544, -28.6215, -29.9142
2.831, 2, 17.8816, 15.8645, 23.0564, 38.2544, -28.6215, -29.9142
2.836, 2, 17.8816, 15.8645, 23.0564, 38.2544, -28.6215, -29.9142
2.84, 2, 17.8816, 15.8645, 23.0564, 38.2544, -28.6215, -29.9142
2.844, 2, 17.8816, 15.8645, 23.0564, 38.2544, -28.6215, -29.9142
2.847, 2, 17.8816, 15.8645, 23.0564, 38.2544, -28.6215, -29.9142
2.852, 2, 17.8816, 15.8645, 23.0564, 38.2544, -28.6215, -29.9142
2.856, 2, 17.8816, 15.8645, 23.0564, 38.2544, -28.6215, -29.9142
2.86, 2, 17.8816, 15.8645, 23.0564, 38.2544, -28.6215, -29.9142
2.864, 2, 17.8816, 15.8645, 23.0564, 38.2544, -28.6215, -29.9142
2.867, 2, 17.8816, 15.8645, 23.0564, 38.2544, -28.6215, -29.9142
2.872, 2, 17.8816, 15.8645, 23.0564, 38.2544, -28.6215, -29.9142
2.876, 2, 17.8816, 15.8645, 23.0564, 38.2544, -28.6215, -29.9142
2.88, 2, 17.8816, 15.8645, 23.0564, 38.2544, -28.6215, -29.9142
2.883, 2, 17.8816, 15.8645, 23.0564, 38.2544, -28.6215, -29.9142
2.888, 2, 17.8816, 15.8645, 23.0564, 38.2544, -28.6215, -29.9142
2.892, 2, 17.8816, 15.8645, 23.0564, 38.2544, -28.6215, -29.9142
2.896, 2, 17.8816, 15.8645, 23.0564, 38.2544, -28.6215, -29.9142
2.9, 2, 17.8816, 15.8645, 23.0564, 38.2544, -28.6215, -29.9142
2.903, 2, 17.8816, 15.8645, 23.0564, 38.2544, -28.6215, -29.9142
2.908, 2, 17.8816, 15.8645, 23.0564, 38.2544, -28.6215, -29.9142
2.912, 2, 17.8816, 15.8645, 23.0564, 38.2544, -28.6215, -29.9142
2.916, 2, 17.8816, 15.8645, 23.0564, 38.2544, -28.6215, -29.9142
2.92, 2, 17.8816, 15.8645, 23.0564, 38.2544, -28.6215, -29.9142
2.923, 2, 17.8816, 15.8645, 23.0564, 38.2544, -28.6215, -29.9142
2.928, 2, 17.8816, 15.8645, 23.0564, 38.2544, -28.6215, -29.9142
2.932, 2, 17.8816, 15.8645, 23.0564, 38.2544, -28.6215, -29.9142
2.936, 2, 17.8816, 15.8645, 23.0564, 38.2544, -28.6215, -29.9142
2.939, 2, 17.8816, 15.8645, 23.0564, 38.2544, -28.6215, -29.9142
2.944, 2, 17.8816, 15.8645, 23.0564, 38.2544, -28.6215, -29.9142
2.948, 2, 17.8816, 15.8645, 23.0564, 38.2544, -28.6215, -29.9142
2.952, 2, 17.8816, 15.8645, 23.0564, 38.2544, -28.6215, -29.9142
2.956, 2, 17.8816, 15.8645, 23.0564, 38.2544, -28.6215, -29.9142
2.959, 2, 17.8816, 15.8645, 23.0564, 38.2544, -28.6215, -29.9142
2.964, 2, 17.8816, 15.8645, 23.0564, 38.2544, -28.6215, -29.9142
2.968, 2, 17.8816, 15.8645, 23.0564, 38.2544, -28.6215, -29.9142
2.972, 2, 17.8816, 15.8645, 23.0564, 38.2544, -28.6215, -29.9142
2.976, 2, 17.8816, 15.8645, 23.0564, 38.2544, -28.6215, -29.9142
2.98, 2, 17.8816, 15.8645, 23.0564, 38.2544, -28.6215, -29.9142
2.984, 2, 17.8816, 15.8645, 23.0564, 38.2544, -28.6215, -29.9142
2.988, 2, 17.8816, 15.8645, 23.0564, 38.2544, -28.6215, -29.9142
2.992, 2, 17.8816, 15.8645, 23.0564, 38.2544, -28.6215, -29.9142
2.995, 2, 17.8816, 15.8645, 23.0564, 38.2544, -28.6215, -29.9142
3, 2, 17.8816, 15.8645, 23.0564, 38.2544, -28.6215, -29.9142
3.004, 2, 17.8816, 15.8645, 23.0564, 38.2544, -28.6215, -29.9142
3.008, 2, 17.8816, 15.8645, 23.0564, 38.2544, -28.6215, -29.9142
3.012, 2, 17.8816, 15.8645, 23.0564, 38.2544, -28.6215, -29.9142
3.015, 2, 17.8816, 15.8645, 23.0564, 38.2544, -28.6215, -29.9142
3.02, 2, 17.8816, 15.8645, 23.0564, 38.2544, -28.6215, -29.9142
3.024, 2, 17.8816, 15.8645, 23.0564, 38.2544, -28.6215, -29.9142
3.028, 2, 17.8816, 15.8645, 23.0564, 38.2544, -28.6215, -29.9142
3.031, 2, 17.8816, 15.8645, 23.0564, 38.2544, -28.6215, -29.9142
3.036, 2, 17.8816, 15.8645, 23.0564, 38.2544, -28.6215, -29.9142
3.04, 2, 17.8816, 15.8645, 23.0564, 38.2544, -28.6215, -29.9142
3.044, 2, 17.8816, 15.8645, 23.0564, 38.2544, -28.6215, -29.9142
3.048, 2, 17.8816, 15.8645, 23.0564, 38.2544, -28.6215, -29.9142
3.051, 2, 17.8816, 15.8645, 23.0564, 38.2544, -28.6215, -29.9142
3.056, 2, 17.8816, 15.8645, 23.0564, 38.2544, -28.6215, -29.9142
3.06, 2, 17.8816, 15.8645, 23.0564, 38.2544, -28.6215, -29.9142
3.064, 2, 17.8816, 15.8645, 23.0564, 38.2544, -28.6215, -29.9142
3.068, 2, 17.8816, 15.8645, 23.0564, 38.2544, -28.6215, -29.9142
3.071, 2, 17.8816, 15.8645, 23.0564, 38.2544, -28.6215, -29.9142
3.076, 2, 17.8816, 15.8645, 23.0564, 38.2544, -28.6215, -29.9142
3.08, 2, 17.8816, 15.8645, 23.0564, 38.2544, -28.6215, -29.9142
3.084, 2, 17.8816, 15.8645, 23.0564, 38.2544, -28.6215, -29.9142
3.087, 2, 17.8816, 15.8645, 23.0564, 38.2544, -28.6215, -29.9142
3.092, 2, 17.8816, 15.8645, 23.0564, 38.2544, -28.6215, -29.9142
3.096, 2, 17.8816, 15.8645, 23.0564, 38.2544, -28.6215, -29.9142
3.1, 2, 17.8816, 15.8645, 23.0564, 38.2544, -28.6215, -29.9142
3.104, 2, 17.8816, 15.8645, 23.0564, 38.2544, -28.6215, -29.9142
3.107, 2, 17.8816, 15.8645, 23.0564, 38.2544, -28.6215, -29.9142
3.112, 2, 17.8816, 15.8645, 23.0564, 38.2544, -28.6215, -29.9142
3.116, 2, 17.8816, 15.8645, 23.0564, 38.2544, -28.6215, -29.9142
3.12, 2, 17.8816, 15.8645, 23.0564, 38.2544, -28.6215, -29.9142
3.124, 2, 17.8816, 15.8645, 23.0564, 38.2544, -28.6215, -29.9142
3.128, 2, 17.8816, 15.8645, 23.0564, 38.2544, -28.6215, -29.9142
3.132, 2, 17.8816, 15.8645, 23.0564, 38.2544, -28.6215, -29.9142
3.136, 2, 17.8816, 15.8645, 23.0564, 38.2544, -28.6215, -29.9142
3.14, 2, 17.8816, 15.8645, 23.0564, 38.2544, -28.6215, -29.9142
3.143, 2, 17.8816, 15.8645, 23.0564, 38.2544, -28.6215, -29.9142
3.148, 2, 17.8816, 15.8645, 23.0564, 38.2544, -28.6215, -29.9142
3.152, 2, 17.8816, 15.8645, 23.0564, 38.2544, -28.6215, -29.9142
3.156, 2, 17.8816, 15.8645, 23.0564, 38.2544, -28.6215, -29.9142
3.16, 2, 17.8816, 15.8645, 23.0564, 38.2544, -28.6215, -29.9142
3.163, 2, 17.8816, 15.8645, 23.0564, 38.2544, -28.6215, -29.9142
3.168, 2, 17.8816, 15.8645, 23.0564, 38.2544, -28.6215, -29.9142
3.172, 2, 17.8816, 15.8645, 23.0564, 38.2544, -28.6215, -29.9142
3.176, 2, 17.8816, 15.8645, 23.0564, 38.2544, -28.6215, -29.9142
3.179, 2, 17.8816, 15.8645, 23.0564, 38.2544, -28.6215, -29.9142
3.184, 2, 17.8816, 15.8645, 23.0564, 38.2544, -28.6215, -29.9142
3.188, 2, 17.8816, 15.8645, 23.0564, 38.2544, -28.6215, -29.9142
3.192, 2, 17.8816, 15.8645, 23.0564, 38.2544, -28.6215, -29.9142
3.196, 2, 17.8816, 15.8645, 23.0564, 38.2544, -28.6215, -29.9142
3.199, 2, 17.8816, 15.8645, 23.0564, 38.2544, -28.6215, -29.9142
3.204, 2, 17.8816, 15.8645, 23.0564, 38.2544, -28.6215, -29.9142
3.208, 2, 17.8816, 15.8645, 23.0564, 38.2544, -28.6215, -29.9142
3.212, 2, 17.8816, 15.8645, 23.0564, 38.2544, -28.6215, -29.9142
3.216, 2, 17.8816, 15.8645, 23.0564, 38.2544, -28.6215, -29.9142
3.22, 2, 17.8816, 15.8645, 23.0564, 38.2544, -28.6215, -29.9142
3.224, 2, 17.8816, 15.8645, 23.0564, 38.2544, -28.6215, -29.9142
3.228, 2, 17.8816, 15.8645, 23.0564, 38.2544, -28.6215, -29.9142
3.232, 2, 17.8816, 15.8645, 23.0564, 38.2544, -28.6215, -29.9142
3.235, 2, 17.8816, 15.8645, 23.0564, 38.2544, -28.6215, -29.9142
3.24, 2, 17.8816, 15.8645, 23.0564, 38.2544, -28.6215, -29.9142
3.244, 2, 17.8816, 15.8645, 23.0564, 38.2544, -28.6215, -29.9142
3.248, 2, 17.8816, 15.8645, 23.0564, 38.2544, -28.6215, -29.9142
3.252, 2, 17.8816, 15.8645, 23.0564, 38.2544, -28.6215, -29.9142
3.255, 2, 17.8816, 15.8645, 23.0564, 38.2544, -28.6215, -29.9142
3.26, 2, 17.8816, 15.8645, 23.0564, 38.2544, -28.6215, -29.9142
3.264, 2, 17.8816, 15.8645, 23.0564, 38.2544, -28.6215, -29.9142
3.268, 2, 17.8816, 15.8645, 23.0564, 38.2544, -28.6215, -29.9142
3.272, 2, 17.8816, 15.8645, 23.0564, 38.2544, -28.6215, -29.9142
3.276, 2, 17.8816, 15.8645, 23.0564, 38.2544, -28.6215, -29.9142
3.28, 2, 17.8816, 15.8645, 23.0564, 38.2544, -28.6215, -29.9142
3.284, 2, 17.8816, 15.8645, 23.0564, 38.2544, -28.6215, -29.9142
3.288, 2, 17.8816, 15.8645, 23.0564, 38.2544, -28.6215, -29.9142
3.291, 2, 17.8816, 15.8645, 23.0564, 38.2544, -28.6215, -29.9142
3.296, 2, 17.8816, 15.8645, 23.0564, 38.2544, -28.6215, -29.9142
3.3, 2, 17.8816, 15.8645, 23.0564, 38.2544, -28.6215, -29.9142
3.304, 2, 17.8816, 15.8645, 23.0564, 38.2544, -28.6215, -29.9142
3.308, 2, 17.8816, 15.8645, 23.0564, 38.2544, -28.6215, -29.9142
3.312, 2, 17.8816, 15.8645, 23.0564, 38.2544, -28.6215, -29.9142
3.316, 2, 17.8816, 15.8645, 23.0564, 38.2544, -28.6215, -29.9142
3.32, 2, 17.8816, 15.8645, 23.0564, 38.2544, -28.6215, -29.9142
3.324, 2, 17.8816, 15.8645, 23.0564, 38.2544, -28.6215, -29.9142
3.328, 2, 17.8816, 15.8645, 23.0564, 38.2544, -28.6215, -29.9142
3.332, 2, 17.8816, 15.8645, 23.0564, 38.2544, -28.6215, -29.9142
3.336, 2, 17.8816, 15.8645, 23.0564, 38.2544, -28.6215, -29.9142
3.34, 2, 17.8816, 15.8645, 23.0564, 38.2544, -28.6215, -29.9142
3.344, 2, 17.8816, 15.8645, 23.0564, 38.2544, -28.6215, -29.9142
3.347, 2, 17.8816, 15.8645, 23.0564, 38.2544, -28.6215, -29.9142
3.352, 4, 17.8816, 15.8645, 23.0564, 38.2544, -28.6215, -29.9142
3.356, 4, 17.8816, 15.8645, 23.0564, 38.2544, -28.6215, -29.9142
3.36, 4, 17.8816, 15.8645, 23.0564, 38.2544, -28.6215, -29.9142
3.364, 4, 17.8816, 15.8645, 23.0564, 38.2544, -28.6215, -29.9142
3.368, 4, 17.8816, 15.8645, 23.0564, 38.2544, -28.6215, -29.9142
3.372, 4, 17.8816, 15.8645, 23.0564, 38.2544, -28.6215, -29.9142
3.376, 4, 17.8816, 15.8645, 23.0564, 38.2544, -28.6215, -29.9142
3.38, 4, 17.8816, 15.8645, 23.0564, 38.2544, -28.6215, -29.9142
3.383, 4, 17.8816, 15.8645, 23.0564, 38.2544, -28.6215, -29.9142
3.388, 4, 17.8816, 15.8645, 23.0564, 38.2544, -28.6215, -29.9142
3.392, 4, 17.8816, 15.8645, 23.0564, 38.2544, -28.6215, -29.9142
3.396, 4, 17.8816, 15.8645, 23.0564, 38.2544, -28.6215, -29.9142
3.4, 4, 17.8816, 15.8645, 23.0564, 38.2544, -28.6215, -29.9142
3.403, 4, 17.8816, 15.8645, 23.0564, 38.2544, -28.6215, -29.9142
3.408, 4, 17.8816, 15.8645, 23.0564, 38.2544, -28.6215, -29.9142
3.412, 4, 17.8816, 15.8645, 23.0564, 38.2544, -28.6215, -29.9142
3.416, 4, 17.8816, 15.8645, 23.0564, 38.2544, -28.6215, -29.9142
3.42, 4, 17.8816, 15.8645, 23.0564, 38.2544, -28.6215, -29.9142
3.424, 4, 17.8816, 15.8645, 23.0564, 38.2544, -28.6215, -29.9142
3.428, 4, 17.8816, 15.8645, 23.0564, 38.2544, -28.6215, -29.9142
3.432, 4, 17.8816, 15.8645, 23.0564, 38.2544, -28.6215, -29.9142
3.436, 4, 17.8816, 15.8645, 23.0564, 38.2544, -28.6215, -29.9142
3.439, 4, 17.8816, 15.8645, 23.0564, 38.2544, -28.6215, -29.9142
3.444, 4, 17.8816, 15.8645, 23.0564, 38.2544, -28.6215, -29.9142
3.448, 4, 17.8816, 15.8645, 23.0564, 38.2544, -28.6215, -29.9142
3.452, 4, 17.8816, 15.8645, 23.0564, 38.2544, -28.6215, -29.9142
3.458, 4, 17.8816, 15.8645, 23.0564, 38.2544, -28.6215, -29.9142
3.46, 4, 17.8816, 15.8645, 23.0564, 38.2544, -28.6215, -29.9142
3.464, 4, 17.8816, 15.8645, 23.0564, 38.2544, -28.6215, -29.9142
3.468, 4, 17.8816, 15.8645, 23.0564, 38.2544, -28.6215, -29.9142
3.472, 4, 17.8816, 15.8645, 23.0564, 38.2544, -28.6215, -29.9142
3.476, 4, 17.8816, 15.8645, 23.0564, 38.2544, -28.6215, -29.9142
3.48, 4, 17.8816, 15.8645, 23.0564, 38.2544, -28.6215, -29.9142
3.484, 4, 17.8816, 15.8646, 23.0564, 38.2544, -28.6215, -29.9142
3.488, 4, 17.8815, 15.8646, 23.0564, 38.2544, -28.6215, -29.9142
3.492, 4, 17.8813, 15.8647, 23.0563, 38.2543, -28.6215, -29.9142
3.495, 4, 17.8808, 15.8651, 23.0563, 38.2543, -28.6215, -29.9142
3.5, 4, 17.8799, 15.8658, 23.0561, 38.2541, -28.6216, -29.914
3.504, 4, 17.8784, 15.867, 23.0557, 38.2537, -28.6217, -29.9137
3.508, 4, 17.8763, 15.869, 23.0552, 38.2529, -28.622, -29.913
3.512, 4, 17.8734, 15.8718, 23.0543, 38.2514, -28.6225, -29.9118
3.516, 4, 17.8697, 15.8758, 23.053, 38.2487, -28.6234, -29.9096
3.52, 4, 17.8651, 15.8812, 23.0512, 38.2445, -28.6248, -29.906
3.524, 5, 17.8594, 15.8885, 23.0486, 38.2381, -28.6269, -29.9006
3.528, 5, 17.8526, 15.8978, 23.0452, 38.2288, -28.6299, -29.8927
3.531, 5, 17.8445, 15.9094, 23.0407, 38.2157, -28.6342, -29.8817
3.536, 5, 17.8347, 15.9237, 23.0348, 38.198, -28.6401, -29.8667
3.54, 5, 17.8233, 15.9405, 23.0274, 38.1745, -28.6478, -29.8468
3.544, 5, 17.8102, 15.9598, 23.0182, 38.1443, -28.6577, -29.8211
3.548, 5, 17.7955, 15.9816, 23.0071, 38.1062, -28.6703, -29.7887
3.552, 5, 17.7792, 16.0059, 22.9939, 38.0593, -28.6857, -29.7488
3.556, 5, 17.7612, 16.0327, 22.9784, 38.0026, -28.7045, -29.7006
3.56, 5, 17.7416, 16.0622, 22.9605, 37.9355, -28.7267, -29.6435
3.564, 5, 17.7202, 16.0947, 22.9401, 37.8576, -28.7525, -29.5771
3.568, 5, 17.697, 16.1301, 22.9171, 37.7685, -28.7821, -29.5013
3.572, 5, 17.6719, 16.1686, 22.8916, 37.6683, -28.8155, -29.416
3.576, 5, 17.6449, 16.21, 22.8635, 37.5572, -28.8526, -29.3215
3.58, 5, 17.6162, 16.2541, 22.8329, 37.4357, -28.8934, -29.218
3.584, 5, 17.5857, 16.3008, 22.8, 37.3043, -28.9376, -29.1063
3.587, 5, 17.5535, 16.3499, 22.7651, 37.164, -28.9849, -28.9869
3.592, 5, 17.5196, 16.4015, 22.7281, 37.0156, -29.0352, -28.8608
3.596, 5, 17.484, 16.4557, 22.6893, 36.8602, -29.0881, -28.7287
3.6, 5, 17.4466, 16.5124, 22.649, 36.6988, -29.1432, -28.5918
3.604, 5, 17.4074, 16.5718, 22.6073, 36.5327, -29.2002, -28.4507
3.608, 5, 17.3666, 16.6336, 22.5645, 36.3626, -29.2589, -28.3065
3.612, 5, 17.3243, 16.6976, 22.5207, 36.1894, -29.3189, -28.1597
3.616, 5, 17.2806, 16.7634, 22.4762, 36.014, -29.3799, -28.0111
3.62, 5, 17.2359, 16.8307, 22.4311, 35.8369, -29.4419, -27.8613
3.624, 5, 17.1901, 16.8991, 22.3856, 35.6587, -29.5046, -27.7105
3.628, 5, 17.1435, 16.9684, 22.3398, 35.4798, -29.5678, -27.5593
3.632, 5, 17.0961, 17.0385, 22.2938, 35.3005, -29.6316, -27.4079
3.636, 5, 17.0481, 17.109, 22.2476, 35.1212, -29.6957, -27.2565
3.64, 5, 16.9995, 17.18, 22.2014, 34.9419, -29.7601, -27.1052
3.644, 5, 16.9505, 17.2511, 22.1552, 34.7628, -29.8248, -26.9543
3.648, 5, 16.9012, 17.3224, 22.109, 34.5841, -29.8897, -26.8037
3.652, 5, 16.8517, 17.3936, 22.0629, 34.4057, -29.9549, -26.6536
3.656, 5, 16.8019, 17.4649, 22.0169, 34.2278, -30.0202, -26.5039
3.66, 5, 16.7519, 17.5361, 21.971, 34.0503, -30.0858, -26.3547
3.664, 5, 16.7018, 17.6071, 21.9252, 33.8733, -30.1515, -26.206
3.668, 5, 16.6516, 17.6781, 21.8795, 33.6967, -30.2175, -26.0577
3.672, 5, 16.6012, 17.749, 21.834, 33.5206, -30.2836, -25.91
3.676, 5, 16.5507, 17.8197, 21.7886, 33.3451, -30.3499, -25.7628
3.679, 5, 16.5001, 17.8903, 21.7432, 33.17, -30.4164, -25.6161
3.684, 5, 16.4494, 17.9607, 21.6981, 32.9954, -30.483, -25.4699
3.688, 5, 16.3985, 18.0311, 21.653, 32.8213, -30.5499, -25.3242
3.692, 5, 16.3476, 18.1012, 21.6081, 32.6477, -30.6169, -25.179
3.696, 5, 16.2965, 18.1713, 21.5633, 32.4746, -30.684, -25.0344
3.7, 5, 16.2453, 18.2412, 21.5187, 32.3019, -30.7514, -24.8902
3.704, 5, 16.1941, 18.3109, 21.4742, 32.1298, -30.819, -24.7466
3.708, 5, 16.1427, 18.3805, 21.4298, 31.9582, -30.8867, -24.6034
3.712, 5, 16.0912, 18.4499, 21.3856, 31.787, -30.9546, -24.4608
3.716, 5, 16.0396, 18.5193, 21.3415, 31.6164, -31.0226, -24.3187
3.72, 5, 15.9879, 18.5884, 21.2976, 31.4462, -31.0909, -24.177
3.724, 5, 15.9361, 18.6574, 21.2537, 31.2765, -31.1593, -24.0359
3.728, 5, 15.8842, 18.7263, 21.2101, 31.1073, -31.2279, -23.8952
3.732, 5, 15.8322, 18.795, 21.1665, 30.9386, -31.2967, -23.7551
3.735, 5, 15.7801, 18.8636, 21.1231, 30.7704, -31.3656, -23.6154
3.74, 5, 15.7279, 18.932, 21.0799, 30.6026, -31.4347, -23.4763
3.744, 5, 15.6756, 19.0003, 21.0368, 30.4353, -31.504, -23.3376
3.748, 5, 15.6232, 19.0684, 20.9938, 30.2686, -31.5735, -23.1994
3.752, 5, 15.5707, 19.1364, 20.951, 30.1022, -31.6431, -23.0618
3.756, 5, 15.5181, 19.2042, 20.9084, 29.9364, -31.713, -22.9245
3.76, 5, 15.4654, 19.2719, 20.8658, 29.771, -31.783, -22.7878
3.764, 5, 15.4126, 19.3395, 20.8235, 29.6061, -31.8531, -22.6516
3.768, 5, 15.3598, 19.4069, 20.7812, 29.4417, -31.9235, -22.5158
3.772, 5, 15.3068, 19.4741, 20.7391, 29.2778, -31.994, -22.3805
3.776, 5, 15.2537, 19.5412, 20.6972, 29.1143, -32.0647, -22.2457
3.78, 5, 15.2005, 19.6082, 20.6554, 28.9513, -32.1356, -22.1114
3.784, 5, 15.1473, 19.675, 20.6138, 28.7887, -32.2066, -21.9776
3.788, 5, 15.0939, 19.7416, 20.5723, 28.6267, -32.2778, -21.8442
3.792, 5, 15.0404, 19.8081, 20.5309, 28.4651, -32.3492, -21.7113
3.796, 5, 14.9869, 19.8745, 20.4897, 28.3039, -32.4208, -21.5788
3.8, 5, 14.9333, 19.9407, 20.4487, 28.1432, -32.4925, -21.4468
3.804, 5, 14.8795, 20.0068, 20.4078, 27.983, -32.5644, -21.3153
3.808, 5, 14.8257, 20.0727, 20.3671, 27.8232, -32.6365, -21.1843
3.812, 5, 14.7718, 20.1385, 20.3265, 27.6639, -32.7087, -21.0537
3.816, 5, 14.7178, 20.2041, 20.286, 27.5051, -32.7812, -20.9236
3.82, 5, 14.6637, 20.2696, 20.2457, 27.3467, -32.8537, -20.7939
3.824, 5, 14.6095, 20.3349, 20.2056, 27.1887, -32.9265, -20.6647
3.828, 5, 14.5552, 20.4001, 20.1656, 27.0312, -32.9995, -20.5359
3.832, 5, 14.5009, 20.4651, 20.1258, 26.8742, -33.0726, -20.4076
3.836, 5, 14.4464, 20.53, 20.0861, 26.7176, -33.1458, -20.2798
3.84, 5, 14.3919, 20.5947, 20.0466, 26.5614, -33.2193, -20.1524
3.844, 5, 14.3372, 20.6593, 20.0072, 26.4057, -33.2929, -20.0254
3.848, 5, 14.2825, 20.7238, 19.968, 26.2505, -33.3667, -19.8989
3.852, 5, 14.2277, 20.7881, 19.9289, 26.0957, -33.4407, -19.7729
3.856, 5, 14.1728, 20.8522, 19.89, 25.9413, -33.5148, -19.6473
3.86, 5, 14.1179, 20.9162, 19.8513, 25.7874, -33.5891, -19.5221
3.864, 5, 14.0628, 20.9801, 19.8127, 25.6339, -33.6636, -19.3974
3.868, 5, 14.0077, 21.0438, 19.7742, 25.4808, -33.7382, -19.2731
3.872, 5, 13.9524, 21.1073, 19.7359, 25.3282, -33.813, -19.1492
3.876, 5, 13.8971, 21.1708, 19.6978, 25.1761, -33.888, -19.0258
3.88, 5, 13.8417, 21.234, 19.6598, 25.0243, -33.9632, -18.9028
3.884, 5, 13.7862, 21.2971, 19.622, 24.873, -34.0385, -18.7802
3.888, 5, 13.7307, 21.3601, 19.5844, 24.7221, -34.114, -18.6581
3.892, 5, 13.675, 21.4229, 19.5469, 24.5717, -34.1897, -18.5364
3.896, 5, 13.6193, 21.4856, 19.5096, 24.4217, -34.2655, -18.4152
3.9, 5, 13.5635, 21.5482, 19.4724, 24.2721, -34.3416, -18.2943
3.904, 5, 13.5076, 21.6105, 19.4354, 24.1229, -34.4178, -18.1739
3.908, 5, 13.4516, 21.6728, 19.3985, 23.9742, -34.4941, -18.0539
3.912, 5, 13.3956, 21.7349, 19.3618, 23.8259, -34.5706, -17.9343
3.916, 5, 13.3395, 21.7968, 19.3253, 23.678, -34.6473, -17.8152
3.92, 5, 13.2833, 21.8586, 19.289, 23.5305, -34.7242, -17.6965
3.924, 5, 13.227, 21.9203, 19.2528, 23.3835, -34.8013, -17.5782
3.928, 5, 13.1706, 21.9818, 19.2168, 23.2368, -34.8785, -17.4603
3.932, 5, 13.1142, 22.0431, 19.1809, 23.0906, -34.9559, -17.3428
3.936, 5, 13.0577, 22.1043, 19.1452, 22.9449, -35.0334, -17.2257
3.94, 5, 13.0011, 22.1654, 19.1097, 22.7995, -35.1112, -17.1091
3.944, 5, 12.9444, 22.2263, 19.0743, 22.6546, -35.1891, -16.9929
3.948, 5, 12.8876, 22.287, 19.0391, 22.51, -35.2672, -16.877
3.952, 5, 12.8308, 22.3476, 19.0041, 22.3659, -35.3454, -16.7616
3.956, 5, 12.7739, 22.4081, 18.9693, 22.2222, -35.4238, -16.6466
3.96, 5, 12.717, 22.4684, 18.9346, 22.0789, -35.5024, -16.532
3.964, 5, 12.6599, 22.5286, 18.9001, 21.9361, -35.5812, -16.4178
3.968, 5, 12.6028, 22.5886, 18.8658, 21.7936, -35.6601, -16.304
3.972, 5, 12.5456, 22.6484, 18.8316, 21.6516, -35.7392, -16.1906
3.976, 5, 12.4884, 22.7082, 18.7976, 21.5099, -35.8185, -16.0776
3.98, 5, 12.431, 22.7677, 18.7638, 21.3687, -35.8979, -15.9651
3.984, 5, 12.3736, 22.8271, 18.7302, 21.2278, -35.9776, -15.8529
3.988, 5, 12.3161, 22.8864, 18.6967, 21.0874, -36.0574, -15.7411
3.992, 5, 12.2586, 22.9455, 18.6634, 20.9474, -36.1373, -15.6297
3.996, 5, 12.201, 23.0045, 18.6303, 20.8078, -36.2174, -15.5187
3.999, 5, 12.1433, 23.0633, 18.5974, 20.6686, -36.2977, -15.4081
4.004, 5, 12.0856, 23.122, 18.5646, 20.5298, -36.3782, -15.2979
4.008, 5, 12.0277, 23.1805, 18.532, 20.3914, -36.4588, -15.1881
4.012, 5, 11.9698, 23.2389, 18.4996, 20.2534, -36.5397, -15.0786
4.016, 5, 11.9119, 23.2971, 18.4673, 20.1158, -36.6206, -14.9696
4.02, 5, 11.8539, 23.3552, 18.4353, 19.9786, -36.7018, -14.861
4.024, 5, 11.7958, 23.4131, 18.4034, 19.8418, -36.7831, -14.7527
4.028, 5, 11.7376, 23.4709, 18.3717, 19.7053, -36.8646, -14.6448
4.032, 5, 11.6794, 23.5285, 18.3402, 19.5693, -36.9463, -14.5373
4.036, 5, 11.6211, 23.586, 18.3088, 19.4337, -37.0281, -14.4302
4.04, 5, 11.5628, 23.6433, 18.2777, 19.2985, -37.1101, -14.3235
4.044, 5, 11.5043, 23.7005, 18.2467, 19.1636, -37.1923, -14.2171
4.048, 5, 11.4459, 23.7575, 18.2159, 19.0292, -37.2746, -14.1112
4.052, 5, 11.3873, 23.8144, 18.1853, 18.8951, -37.3571, -14.0056
4.056, 5, 11.3287, 23.8711, 18.1548, 18.7615, -37.4398, -13.9004
4.06, 5, 11.27, 23.9277, 18.1245, 18.6282, -37.5226, -13.7955
4.064, 5, 11.2113, 23.9841, 18.0945, 18.4953, -37.6056, -13.6911
4.068, 5, 11.1525, 24.0404, 18.0646, 18.3628, -37.6888, -13.587
4.072, 5, 11.0936, 24.0965, 18.0348, 18.2307, -37.7722, -13.4833
4.076, 5, 11.0347, 24.1525, 18.0053, 18.0989, -37.8557, -13.3799
4.08, 5, 10.9757, 24.2083, 17.9759, 17.9676, -37.9394, -13.277
4.084, 5, 10.9167, 24.264, 17.9468, 17.8366, -38.0232, -13.1744
4.088, 5, 10.8576, 24.3195, 17.9178, 17.706, -38.1072, -13.0721
4.092, 5, 10.7984, 24.3749, 17.889, 17.5758, -38.1914, -12.9703
4.096, 5, 10.7392, 24.4302, 17.8604, 17.446, -38.2758, -12.8688
4.1, 5, 10.6799, 24.4853, 17.8319, 17.3165, -38.3603, -12.7676
4.104, 5, 10.6206, 24.5402, 17.8037, 17.1874, -38.445, -12.6668
4.108, 5, 10.5612, 24.595, 17.7756, 17.0587, -38.5298, -12.5664
4.112, 5, 10.5017, 24.6496, 17.7477, 16.9304, -38.6148, -12.4664
4.116, 5, 10.4422, 24.7041, 17.72, 16.8025, -38.7, -12.3667
4.12, 5, 10.3826, 24.7585, 17.6925, 16.6749, -38.7854, -12.2674
4.124, 5, 10.323, 24.8127, 17.6651, 16.5477, -38.8709, -12.1684
4.128, 5, 10.2633, 24.8667, 17.638, 16.4209, -38.9566, -12.0698
4.132, 5, 10.2035, 24.9206, 17.611, 16.2944, -39.0425, -11.9715
4.136, 5, 10.1437, 24.9744, 17.5843, 16.1683, -39.1285, -11.8736
4.14, 5, 10.0838, 25.028, 17.5577, 16.0426, -39.2147, -11.776
4.144, 5, 10.0239, 25.0815, 17.5313, 15.9173, -39.3011, -11.6788
4.148, 5, 9.96395, 25.1348, 17.5051, 15.7923, -39.3876, -11.582
4.152, 5, 9.90392, 25.1879, 17.479, 15.6676, -39.4743, -11.4855
4.158, 5, 9.7837, 25.2938, 17.4276, 15.4195, -39.6482, -11.2935
4.16, 5, 9.7837, 25.2938, 17.4276, 15.4195, -39.6482, -11.2935
4.164, 5, 9.72351, 25.3465, 17.4021, 15.296, -39.7354, -11.198
4.168, 5, 9.66327, 25.3991, 17.3769, 15.1728, -39.8228, -11.1029
4.172, 5, 9.60297, 25.4515, 17.3518, 15.05, -39.9103, -11.0081
4.176, 5, 9.54262, 25.5038, 17.3269, 14.9275, -39.998, -10.9137
4.18, 5, 9.48222, 25.5559, 17.3022, 14.8054, -40.0859, -10.8196
4.184, 5, 9.42176, 25.6079, 17.2777, 14.6837, -40.174, -10.7259
4.188, 5, 9.36126, 25.6597, 17.2534, 14.5623, -40.2622, -10.6325
4.192, 5, 9.3007, 25.7114, 17.2293, 14.4413, -40.3506, -10.5394
4.196, 5, 9.24009, 25.763, 17.2054, 14.3206, -40.4391, -10.4466
4.2, 5, 9.17943, 25.8143, 17.1816, 14.2003, -40.5278, -10.3542
4.204, 5, 9.11873, 25.8656, 17.1581, 14.0804, -40.6167, -10.2622
4.208, 5, 9.05797, 25.9167, 17.1348, 13.9608, -40.7058, -10.1704
4.212, 5, 8.99717, 25.9676, 17.1116, 13.8415, -40.795, -10.079
4.216, 5, 8.93631, 26.0184, 17.0887, 13.7226, -40.8844, -9.98797
4.22, 5, 8.87541, 26.0691, 17.0659, 13.604, -40.9739, -9.89723
4.224, 5, 8.81446, 26.1196, 17.0434, 13.4858, -41.0636, -9.80682
4.228, 5, 8.75347, 26.1699, 17.021, 13.3679, -41.1535, -9.71673
4.232, 5, 8.69242, 26.2201, 16.9988, 13.2504, -41.2436, -9.62698
4.236, 5, 8.63134, 26.2702, 16.9769, 13.1332, -41.3338, -9.53755
4.24, 5, 8.57021, 26.3201, 16.9551, 13.0164, -41.4242, -9.44844
4.244, 5, 8.50903, 26.3699, 16.9335, 12.8999, -41.5147, -9.35966
4.248, 5, 8.44781, 26.4195, 16.9121, 12.7837, -41.6054, -9.2712
4.252, 5, 8.38655, 26.4689, 16.8909, 12.6679, -41.6963, -9.18306
4.256, 5, 8.32524, 26.5183, 16.87, 12.5525, -41.7873, -9.09525
4.26, 5, 8.26389, 26.5674, 16.8492, 12.4373, -41.8785, -9.00775
4.264, 5, 8.20249, 26.6165, 16.8286, 12.3225, -41.9699, -8.92058
4.268, 5, 8.14106, 26.6653, 16.8082, 12.2081, -42.0614, -8.83372
4.272, 5, 8.07958, 26.7141, 16.788, 12.094, -42.1531, -8.74718
4.276, 5, 8.01806, 26.7626, 16.768, 11.9802, -42.245, -8.66095
4.28, 5, 7.9565, 26.8111, 16.7482, 11.8667, -42.337, -8.57504
4.284, 5, 7.8949, 26.8594, 16.7286, 11.7536, -42.4292, -8.48945
4.288, 5, 7.83325, 26.9075, 16.7093, 11.6408, -42.5215, -8.40416
4.292, 5, 7.77157, 26.9555, 16.6901, 11.5284, -42.614, -8.31919
4.296, 5, 7.70985, 27.0033, 16.6711, 11.4163, -42.7067, -8.23454
4.3, 5, 7.64808, 27.051, 16.6523, 11.3045, -42.7996, -8.15019
4.304, 5, 7.58628, 27.0986, 16.6337, 11.193, -42.8926, -8.06615
4.308, 5, 7.52444, 27.146, 16.6154, 11.0819, -42.9857, -7.98242
4.312, 5, 7.46256, 27.1933, 16.5972, 10.9711, -43.0791, -7.899
4.316, 5, 7.40064, 27.2404, 16.5792, 10.8606, -43.1725, -7.81589
4.32, 5, 7.33869, 27.2873, 16.5614, 10.7505, -43.2662, -7.73309
4.324, 5, 7.2767, 27.3341, 16.5439, 10.6407, -43.36, -7.65059
4.328, 5, 7.21467, 27.3808, 16.5265, 10.5312, -43.454, -7.56839
4.332, 5, 7.1526, 27.4273, 16.5093, 10.422, -43.5481, -7.4865
4.336, 5, 7.0905, 27.4737, 16.4924, 10.3132, -43.6424, -7.40491
4.34, 5, 7.02836, 27.5199, 16.4756, 10.2047, -43.7369, -7.32362
4.344, 5, 6.96619, 27.566, 16.4591, 10.0965, -43.8315, -7.24264
4.348, 5, 6.90398, 27.6119, 16.4427, 9.98861, -43.9263, -7.16196
4.352, 5, 6.84173, 27.6577, 16.4266, 9.88107, -44.0213, -7.08157
4.356, 5, 6.77946, 27.7034, 16.4107, 9.77384, -44.1164, -7.00149
4.36, 5, 6.71714, 27.7489, 16.3949, 9.66693, -44.2116, -6.9217
4.364, 5, 6.6548, 27.7942, 16.3794, 9.56034, -44.3071, -6.84222
4.368, 5, 6.59241, 27.8394, 16.3641, 9.45407, -44.4027, -6.76302
4.372, 5, 6.53, 27.8845, 16.349, 9.34812, -44.4984, -6.68413
4.376, 5, 6.46755, 27.9294, 16.3341, 9.24248, -44.5943, -6.60553
4.38, 5, 6.40508, 27.9741, 16.3194, 9.13716, -44.6904, -6.52722
4.384, 5, 6.34256, 28.0188, 16.3049, 9.03216, -44.7866, -6.44921
4.388, 5, 6.28002, 28.0632, 16.2906, 8.92747, -44.883, -6.3715
4.392, 5, 6.21744, 28.1075, 16.2765, 8.8231, -44.9796, -6.29407
4.396, 5, 6.15484, 28.1517, 16.2627, 8.71904, -45.0763, -6.21694
4.4, 5, 6.0922, 28.1957, 16.249, 8.6153, -45.1732, -6.14009
4.404, 5, 6.02952, 28.2396, 16.2355, 8.51187, -45.2702, -6.06354
4.408, 5, 5.96682, 28.2834, 16.2223, 8.40875, -45.3674, -5.98728
4.412, 5, 5.90409, 28.327, 16.2093, 8.30594, -45.4648, -5.9113
4.416, 5, 5.84133, 28.3704, 16.1964, 8.20344, -45.5623, -5.83562
4.42, 5, 5.77853, 28.4137, 16.1838, 8.10126, -45.6599, -5.76022
4.424, 5, 5.71571, 28.4568, 16.1714, 7.99938, -45.7578, -5.68511
4.428, 5, 5.65286, 28.4998, 16.1592, 7.89781, -45.8558, -5.61028
4.432, 5, 5.58998, 28.5427, 16.1472, 7.79655, -45.9539, -5.53574
4.436, 5, 5.52707, 28.5854, 16.1354, 7.69559, -46.0522, -5.46148
4.44, 5, 5.46413, 28.628, 16.1239, 7.59494, -46.1507, -5.38751
4.444, 5, 5.40117, 28.6704, 16.1125, 7.4946, -46.2494, -5.31382
4.448, 5, 5.33817, 28.7127, 16.1014, 7.39456, -46.3481, -5.24041
4.452, 5, 5.27516, 28.7548, 16.0904, 7.29482, -46.4471, -5.16728
4.456, 5, 5.21211, 28.7968, 16.0797, 7.19538, -46.5462, -5.09443
4.46, 5, 5.14904, 28.8386, 16.0692, 7.09625, -46.6455, -5.02186
4.464, 5, 5.08595, 28.8803, 16.0589, 6.99742, -46.745, -4.94956
4.468, 5, 5.02282, 28.9219, 16.0488, 6.89888, -46.8446, -4.87754
4.472, 5, 4.95968, 28.9633, 16.039, 6.80064, -46.9443, -4.8058
4.476, 5, 4.8965, 29.0045, 16.0293, 6.7027, -47.0442, -4.73433
4.48, 5, 4.83331, 29.0456, 16.0199, 6.60506, -47.1443, -4.66313
4.484, 5, 4.77008, 29.0866, 16.0106, 6.50771, -47.2446, -4.59221
4.488, 5, 4.70683, 29.1274, 16.0016, 6.41065, -47.345, -4.52156
4.492, 5, 4.64356, 29.1681, 15.9928, 6.31389, -47.4455, -4.45117
4.496, 5, 4.58027, 29.2086, 15.9842, 6.21741, -47.5462, -4.38106
4.5, 5, 4.51695, 29.249, 15.9758, 6.12123, -47.6471, -4.31122
4.504, 5, 4.4536, 29.2893, 15.9677, 6.02534, -47.7482, -4.24164
4.508, 5, 4.39024, 29.3294, 15.9597, 5.92974, -47.8493, -4.17233
4.512, 5, 4.32685, 29.3694, 15.952, 5.83442, -47.9507, -4.10329
4.516, 5, 4.26344, 29.4092, 15.9444, 5.73939, -48.0522, -4.03451
4.52, 5, 4.20002, 29.4488, 15.9371, 5.64465, -48.1539, -3.96599
4.524, 5, 4.13656, 29.4884, 15.93, 5.55019, -48.2557, -3.89774
4.528, 5, 4.07309, 29.5278, 15.9231, 5.45602, -48.3577, -3.82975
4.532, 5, 4.0096, 29.567, 15.9165, 5.36213, -48.4598, -3.76202
4.536, 5, 3.94609, 29.6061, 15.91, 5.26852, -48.5621, -3.69455
4.54, 5, 3.88256, 29.6451, 15.9038, 5.17519, -48.6645, -3.62734
4.544, 5, 3.81901, 29.6839, 15.8977, 5.08215, -48.7671, -3.56038
4.548, 5, 3.75545, 29.7226, 15.8919, 4.98938, -48.8699, -3.49369
4.552, 5, 3.69186, 29.7611, 15.8863, 4.89689, -48.9727, -3.42726
4.556, 5, 3.62826, 29.7995, 15.8809, 4.80468, -49.0758, -3.36107
4.56, 5, 3.56464, 29.8378, 15.8757, 4.71275, -49.179, -3.29515
4.564, 5, 3.501, 29.8759, 15.8707, 4.62109, -49.2824, -3.22948
4.568, 5, 3.43735, 29.9139, 15.866, 4.52971, -49.3859, -3.16406
4.572, 5, 3.37368, 29.9517, 15.8615, 4.4386, -49.4896, -3.0989
4.576, 5, 3.30999, 29.9894, 15.8571, 4.34777, -49.5934, -3.03399
4.58, 5, 3.24629, 30.0269, 15.853, 4.25721, -49.6974, -2.96933
4.584, 5, 3.18257, 30.0644, 15.8491, 4.16693, -49.8015, -2.90493
4.588, 5, 3.11884, 30.1016, 15.8454, 4.07691, -49.9058, -2.84077
4.592, 5, 3.0551, 30.1388, 15.842, 3.98717, -50.0102, -2.77686
4.596, 5, 2.99134, 30.1757, 15.8387, 3.8977, -50.1148, -2.7132
4.6, 5, 2.92757, 30.2126, 15.8357, 3.80849, -50.2195, -2.64979
4.604, 5, 2.86378, 30.2493, 15.8329, 3.71956, -50.3244, -2.58663
4.608, 5, 2.79998, 30.2859, 15.8303, 3.63089, -50.4294, -2.52372
4.612, 5, 2.73617, 30.3223, 15.8279, 3.54249, -50.5346, -2.46105
4.616, 5, 2.67235, 30.3586, 15.8257, 3.45436, -50.6399, -2.39862
4.62, 5, 2.60851, 30.3947, 15.8237, 3.3665, -50.7454, -2.33644
4.624, 5, 2.54467, 30.4307, 15.822, 3.2789, -50.851, -2.27451
4.628, 5, 2.48081, 30.4666, 15.8205, 3.19156, -50.9568, -2.21282
4.632, 5, 2.41694, 30.5024, 15.8192, 3.10449, -51.0627, -2.15137
4.636, 5, 2.35306, 30.5379, 15.8181, 3.01768, -51.1688, -2.09017
4.64, 5, 2.28917, 30.5734, 15.8172, 2.93114, -51.275, -2.0292
4.644, 5, 2.22527, 30.6087, 15.8165, 2.84486, -51.3814, -1.96848
4.648, 5, 2.16137, 30.6439, 15.8161, 2.75884, -51.4879, -1.908
4.652, 5, 2.09745, 30.6789, 15.8158, 2.67308, -51.5946, -1.84776
4.656, 5, 2.03352, 30.7138, 15.8158, 2.58759, -51.7014, -1.78776
4.66, 5, 1.96959, 30.7486, 15.816, 2.50235, -51.8084, -1.728
4.664, 5, 1.90564, 30.7832, 15.8164, 2.41737, -51.9155, -1.66848
4.668, 5, 1.84169, 30.8177, 15.8171, 2.33265, -52.0228, -1.60919
4.672, 5, 1.77774, 30.852, 15.8179, 2.24819, -52.1302, -1.55015
4.676, 5, 1.71377, 30.8862, 15.819, 2.16399, -52.2378, -1.49134
4.68, 5, 1.6498, 30.9202, 15.8203, 2.08005, -52.3455, -1.43276
4.684, 5, 1.58582, 30.9542, 15.8218, 1.99636, -52.4533, -1.37442
4.688, 5, 1.52183, 30.9879, 15.8235, 1.91293, -52.5613, -1.31632
4.692, 5, 1.45784, 31.0216, 15.8255, 1.82975, -52.6695, -1.25845
4.696, 5, 1.39384, 31.0551, 15.8277, 1.74683, -52.7778, -1.20082
4.7, 5, 1.32984, 31.0885, 15.83, 1.66417, -52.8862, -1.14342
4.704, 5, 1.26583, 31.1217, 15.8327, 1.58176, -52.9948, -1.08626
4.708, 5, 1.20182, 31.1548, 15.8355, 1.4996, -53.1036, -1.02933
4.712, 5, 1.1378, 31.1877, 15.8385, 1.4177, -53.2124, -0.972632
4.716, 5, 1.07377, 31.2205, 15.8418, 1.33604, -53.3215, -0.916182
4.72, 5, 1.00973, 31.2531, 15.8453, 1.25463, -53.4306, -0.859993
4.724, 5, 0.945673, 31.2855, 15.849, 1.17347, -53.5399, -0.804102
4.728, 5, 0.881595, 31.3177, 15.8529, 1.09252, -53.6493, -0.748561
4.732, 5, 0.817495, 31.3497, 15.857, 1.01179, -53.7587, -0.693447
4.736, 5, 0.753375, 31.3814, 15.8613, 0.931249, -53.8682, -0.63886
4.74, 5, 0.689241, 31.413, 15.8658, 0.850873, -53.9776, -0.584923
4.744, 5, 0.625098, 31.4443, 15.8705, 0.770632, -54.0869, -0.531775
4.748, 5, 0.560948, 31.4753, 15.8755, 0.690496, -54.196, -0.479572
4.752, 5, 0.496791, 31.5061, 15.8806, 0.610429, -54.3049, -0.428474
4.756, 6, 0.432626, 31.5366, 15.8859, 0.530398, -54.4135, -0.378652
4.76, 6, 0.368448, 31.5669, 15.8914, 0.450365, -54.5216, -0.330277
4.764, 6, 0.304252, 31.5968, 15.8971, 0.370296, -54.6293, -0.283516
4.768, 6, 0.240038, 31.6265, 15.903, 0.290156, -54.7365, -0.238528
4.772, 6, 0.175806, 31.6558, 15.909, 0.209913, -54.843, -0.195454
4.776, 6, 0.111564, 31.6849, 15.9153, 0.129539, -54.9489, -0.154412
4.78, 6, 0.0473117, 31.7136, 15.9217, 0.0490125, -55.054, -0.115482
4.784, 6, -0.0169519, 31.7421, 15.9283, -0.0316805, -55.1584, -0.0787087
4.788, 6, -0.0812323, 31.7703, 15.9351, -0.112547, -55.2621, -0.0440916
4.792, 6, -0.145535, 31.7981, 15.9421, -0.193585, -55.3651, -0.0115903
4.796, 6, -0.209863, 31.8257, 15.9493, -0.274787, -55.4673, 0.0188733
4.8, 6, -0.274219, 31.853, 15.9567, -0.356139, -55.569, 0.0474079
4.804, 6, -0.338602, 31.8799, 15.9642, -0.437622, -55.6701, 0.0741465
4.808, 6, -0.403009, 31.9066, 15.972, -0.519212, -55.7706, 0.0992391
4.812, 6, -0.467435, 31.933, 15.98, -0.600884, -55.8708, 0.122848
4.816, 6, -0.531874, 31.959, 15.9882, -0.682612, -55.9705, 0.145141
4.82, 6, -0.596325, 31.9848, 15.9966, -0.764365, -56.07, 0.166292
4.824, 6, -0.660791, 32.0104, 16.0053, -0.846115, -56.1693, 0.186468
4.828, 6, -0.725273, 32.0357, 16.0141, -0.927833, -56.2685, 0.20583
4.832, 6, -0.789772, 32.0607, 16.0232, -1.00949, -56.3676, 0.224524
4.836, 6, -0.854288, 32.0855, 16.0326, -1.09107, -56.4667, 0.242676
4.84, 6, -0.918821, 32.11, 16.0421, -1.17256, -56.5658, 0.260388
4.844, 6, -0.983371, 32.1343, 16.052, -1.25392, -56.665, 0.277742
4.848, 6, -1.04794, 32.1585, 16.062, -1.33517, -56.7644, 0.294794
4.852, 6, -1.11252, 32.1824, 16.0723, -1.41628, -56.8638, 0.311588
4.856, 6, -1.17711, 32.2061, 16.0828, -1.49725, -56.9634, 0.328151
4.86, 6, -1.24171, 32.2297, 16.0936, -1.57808, -57.0631, 0.344503
4.864, 6, -1.30632, 32.2532, 16.1047, -1.65877, -57.163, 0.360657
4.868, 6, -1.37095, 32.2764, 16.1159, -1.73931, -57.263, 0.376622
4.872, 6, -1.43558, 32.2995, 16.1275, -1.81971, -57.3632, 0.392403
4.876, 6, -1.50022, 32.3225, 16.1392, -1.89997, -57.4635, 0.408005
4.88, 6, -1.56487, 32.3453, 16.1513, -1.98007, -57.564, 0.423431
4.884, 6, -1.62953, 32.368, 16.1635, -2.06003, -57.6646, 0.438683
4.888, 6, -1.6942, 32.3905, 16.176, -2.13985, -57.7654, 0.453762
4.892, 6, -1.75888, 32.4129, 16.1888, -2.21952, -57.8663, 0.468669
4.896, 6, -1.82356, 32.4351, 16.2018, -2.29904, -57.9675, 0.483405
4.9, 6, -1.88825, 32.4572, 16.215, -2.37842, -58.0687, 0.49797
4.904, 6, -1.95295, 32.4791, 16.2285, -2.45766, -58.1701, 0.512364
4.908, 6, -2.01765, 32.5009, 16.2422, -2.53675, -58.2717, 0.526588
4.912, 6, -2.08236, 32.5225, 16.2562, -2.61569, -58.3734, 0.540642
4.916, 6, -2.14708, 32.544, 16.2704, -2.6945, -58.4753, 0.554525
4.92, 6, -2.2118, 32.5654, 16.2848, -2.77316, -58.5774, 0.56824
4.924, 6, -2.27653, 32.5866, 16.2995, -2.85167, -58.6796, 0.581784
4.928, 6, -2.34126, 32.6076, 16.3145, -2.93004, -58.7819, 0.595158
4.932, 6, -2.40599, 32.6286, 16.3296, -3.00828, -58.8844, 0.608363
4.936, 6, -2.47073, 32.6493, 16.3451, -3.08636, -58.9871, 0.621399
4.94, 6, -2.53548, 32.67, 16.3607, -3.16431, -59.0899, 0.634265
4.944, 6, -2.60022, 32.6905, 16.3766, -3.24212, -59.1928, 0.646961
4.948, 6, -2.66497, 32.7108, 16.3928, -3.31978, -59.2959, 0.659488
4.952, 6, -2.72973, 32.7311, 16.4091, -3.39731, -59.3992, 0.671846
4.956, 6, -2.79448, 32.7511, 16.4257, -3.47469, -59.5026, 0.684035
4.96, 6, -2.85924, 32.7711, 16.4426, -3.55193, -59.6062, 0.696054
4.964, 6, -2.924, 32.7908, 16.4597, -3.62904, -59.7099, 0.707903
4.968, 6, -2.98876, 32.8105, 16.477, -3.706, -59.8138, 0.719584
4.972, 6, -3.05353, 32.83, 16.4946, -3.78282, -59.9178, 0.731095
4.976, 6, -3.11829, 32.8494, 16.5124, -3.85951, -60.0219, 0.742437
4.98, 6, -3.18306, 32.8686, 16.5304, -3.93606, -60.1262, 0.75361
4.984, 6, -3.24782, 32.8877, 16.5487, -4.01247, -60.2307, 0.764613
4.988, 6, -3.31259, 32.9067, 16.5672, -4.08874, -60.3353, 0.775447
4.992, 6, -3.37735, 32.9255, 16.586, -4.16487, -60.4401, 0.786112
4.996, 6, -3.44212, 32.9442, 16.6049, -4.24087, -60.545, 0.796608
5, 6, -3.50688, 32.9627, 16.6242, -4.31673, -60.65, 0.806935
5.004, 6, -3.57165, 32.9811, 16.6436, -4.39245, -60.7552, 0.817092
5.008, 6, -3.63641, 32.9994, 16.6633, -4.46804, -60.8606, 0.82708
5.012, 6, -3.70117, 33.0175, 16.6832, -4.54349, -60.9661, 0.836899
5.016, 6, -3.76592, 33.0355, 16.7034, -4.61881, -61.0717, 0.846548
5.02, 6, -3.83068, 33.0534, 16.7238, -4.69398, -61.1775, 0.856028
5.024, 6, -3.89543, 33.0711, 16.7444, -4.76903, -61.2834, 0.865339
5.028, 6, -3.96018, 33.0887, 16.7653, -4.84394, -61.3895, 0.87448
5.032, 6, -4.02492, 33.1061, 16.7864, -4.91871, -61.4957, 0.883452
5.036, 6, -4.08967, 33.1234, 16.8077, -4.99335, -61.6021, 0.892255
5.04, 6, -4.1544, 33.1406, 16.8293, -5.06786, -61.7086, 0.900888
5.044, 6, -4.21913, 33.1577, 16.8511, -5.14223, -61.8152, 0.909351
5.048, 6, -4.28386, 33.1746, 16.8731, -5.21647, -61.922, 0.917645
5.052, 6, -4.34858, 33.1914, 16.8954, -5.29058, -62.029, 0.92577
5.056, 6, -4.4133, 33.208, 16.9178, -5.36455, -62.1361, 0.933724
5.06, 6, -4.47801, 33.2245, 16.9406, -5.43839, -62.2433, 0.941509
5.064, 6, -4.54272, 33.2409, 16.9635, -5.5121, -62.3507, 0.949124
5.068, 6, -4.60742, 33.2571, 16.9867, -5.58567, -62.4582, 0.956569
5.072, 6, -4.67211, 33.2733, 17.0101, -5.65912, -62.5658, 0.963845
5.076, 6, -4.73679, 33.2892, 17.0338, -5.73243, -62.6736, 0.97095
5.08, 6, -4.80147, 33.3051, 17.0576, -5.80561, -62.7816, 0.977885
5.084, 6, -4.86614, 33.3208, 17.0818, -5.87866, -62.8896, 0.98465
5.088, 6, -4.9308, 33.3364, 17.1061, -5.95158, -62.9978, 0.991245
5.092, 6, -4.99545, 33.3518, 17.1307, -6.02437, -63.1062, 0.99767
5.096, 6, -5.0601, 33.3672, 17.1555, -6.09702, -63.2147, 1.00392
5.1, 6, -5.12473, 33.3824, 17.1805, -6.16955, -63.3233, 1.01001
5.104, 6, -5.18936, 33.3974, 17.2057, -6.24195, -63.4321, 1.01592
5.108, 6, -5.25397, 33.4124, 17.2312, -6.31422, -63.541, 1.02166
5.112, 6, -5.31858, 33.4272, 17.257, -6.38635, -63.6501, 1.02724
5.116, 6, -5.38317, 33.4418, 17.2829, -6.45836, -63.7593, 1.03264
5.12, 6, -5.44775, 33.4564, 17.3091, -6.53024, -63.8686, 1.03787
5.124, 6, -5.51233, 33.4708, 17.3355, -6.602, -63.9781, 1.04292
5.128, 6, -5.57689, 33.4851, 17.3621, -6.67362, -64.0877, 1.04781
5.132, 6, -5.64144, 33.4992, 17.389, -6.74512, -64.1974, 1.05253
5.136, 6, -5.70597, 33.5132, 17.4161, -6.81648, -64.3073, 1.05707
5.14, 6, -5.7705, 33.5271, 17.4434, -6.88772, -64.4174, 1.06145
5.144, 6, -5.83501, 33.5409, 17.4709, -6.95883, -64.5275, 1.06565
5.148, 6, -5.89951, 33.5545, 17.4987, -7.02982, -64.6378, 1.06968
5.152, 6, -5.96399, 33.5681, 17.5267, -7.10068, -64.7483, 1.07354
5.156, 6, -6.02846, 33.5814, 17.5549, -7.17141, -64.8588, 1.07722
5.16, 6, -6.09291, 33.5947, 17.5834, -7.24201, -64.9695, 1.08073
5.164, 6, -6.15735, 33.6078, 17.6121, -7.31249, -65.0804, 1.08407
5.168, 6, -6.22178, 33.6208, 17.641, -7.38284, -65.1914, 1.08724
5.172, 6, -6.28619, 33.6337, 17.6701, -7.45307, -65.3025, 1.09024
5.176, 6, -6.35058, 33.6464, 17.6995, -7.52317, -65.4137, 1.09306
5.18, 6, -6.41496, 33.6591, 17.7291, -7.59314, -65.5251, 1.09571
5.184, 6, -6.47932, 33.6716, 17.7589, -7.66299, -65.6366, 1.09819
5.188, 6, -6.54367, 33.6839, 17.7889, -7.73271, -65.7483, 1.10049
5.192, 6, -6.608, 33.6962, 17.8192, -7.80231, -65.8601, 1.10262
5.196, 6, -6.6723, 33.7083, 17.8497, -7.87179, -65.972, 1.10458
5.2, 6, -6.7366, 33.7203, 17.8804, -7.94114, -66.084, 1.10636
5.204, 6, -6.80087, 33.7322, 17.9114, -8.01036, -66.1962, 1.10797
5.208, 6, -6.86513, 33.7439, 17.9426, -8.07946, -66.3086, 1.1094
5.212, 6, -6.92937, 33.7555, 17.974, -8.14844, -66.421, 1.11066
5.216, 6, -6.9936, 33.767, 18.0056, -8.2173, -66.5336, 1.11174
5.22, 6, -7.0578, 33.7784, 18.0375, -8.28603, -66.6463, 1.11266
5.224, 6, -7.12199, 33.7896, 18.0695, -8.35464, -66.7592, 1.11339
5.228, 6, -7.18616, 33.8008, 18.1018, -8.42313, -66.8722, 1.11396
5.232, 6, -7.25031, 33.8118, 18.1344, -8.4915, -66.9853, 1.11435
5.236, 6, -7.31443, 33.8227, 18.1671, -8.55976, -67.0985, 1.11456
5.24, 6, -7.37854, 33.8334, 18.2001, -8.62789, -67.2119, 1.11461
5.244, 6, -7.44263, 33.8441, 18.2333, -8.69591, -67.3254, 1.11448
5.248, 6, -7.5067, 33.8546, 18.2667, -8.7638, -67.4391, 1.11418
5.252, 6, -7.57075, 33.865, 18.3003, -8.83159, -67.5528, 1.1137
5.256, 6, -7.63477, 33.8753, 18.3342, -8.89926, -67.6667, 1.11306
5.26, 6, -7.69877, 33.8854, 18.3683, -8.96681, -67.7808, 1.11224
5.264, 6, -7.76275, 33.8955, 18.4026, -9.03425, -67.8949, 1.11125
5.268, 6, -7.82671, 33.9054, 18.4371, -9.10158, -68.0092, 1.11008
5.272, 6, -7.89064, 33.9152, 18.4718, -9.1688, -68.1236, 1.10875
5.276, 6, -7.95455, 33.9249, 18.5068, -9.2359, -68.2382, 1.10724
5.28, 6, -8.01844, 33.9345, 18.5419, -9.30289, -68.3529, 1.10556
5.284, 6, -8.08231, 33.9439, 18.5773, -9.36977, -68.4677, 1.10371
5.288, 6, -8.14615, 33.9533, 18.6129, -9.43654, -68.5826, 1.10168
5.292, 6, -8.20997, 33.9625, 18.6488, -9.5032, -68.6977, 1.09949
5.296, 6, -8.27376, 33.9716, 18.6848, -9.56975, -68.8129, 1.09712
5.3, 6, -8.33753, 33.9806, 18.721, -9.63619, -68.9282, 1.09458
5.304, 6, -8.40128, 33.9895, 18.7575, -9.70253, -69.0436, 1.09187
5.308, 6, -8.465, 33.9982, 18.7942, -9.76875, -69.1592, 1.08898
5.312, 6, -8.5287, 34.0069, 18.8311, -9.83486, -69.2749, 1.08593
5.316, 6, -8.59237, 34.0154, 18.8682, -9.90087, -69.3907, 1.0827
5.32, 6, -8.65602, 34.0238, 18.9055, -9.96677, -69.5066, 1.07929
5.324, 6, -8.71964, 34.0321, 18.9431, -10.0326, -69.6227, 1.07572
5.328, 6, -8.78323, 34.0403, 18.9808, -10.0982, -69.7389, 1.07197
5.332, 6, -8.8468, 34.0484, 19.0188, -10.1638, -69.8552, 1.06805
5.336, 6, -8.91034, 34.0564, 19.0569, -10.2293, -69.9716, 1.06396
5.34, 6, -8.97385, 34.0643, 19.0953, -10.2947, -70.0881, 1.0597
5.344, 6, -9.03734, 34.072, 19.1339, -10.3599, -70.2048, 1.05526
5.348, 6, -9.10079, 34.0797, 19.1727, -10.4251, -70.3216, 1.05065
5.352, 6, -9.16422, 34.0872, 19.2117, -10.4901, -70.4385, 1.04586
5.356, 6, -9.22762, 34.0946, 19.251, -10.5551, -70.5555, 1.04091
5.36, 6, -9.29099, 34.1019, 19.2904, -10.6199, -70.6727, 1.03578
5.364, 6, -9.35433, 34.1091, 19.3301, -10.6847, -70.79, 1.03047
5.368, 6, -9.41764, 34.1162, 19.3699, -10.7493, -70.9074, 1.025
5.372, 6, -9.48092, 34.1232, 19.41, -10.8139, -71.0249, 1.01935
5.376, 6, -9.54417, 34.13, 19.4502, -10.8783, -71.1425, 1.01353
5.38, 6, -9.60739, 34.1368, 19.4907, -10.9427, -71.2603, 1.00753
5.384, 6, -9.67058, 34.1435, 19.5314, -11.0069, -71.3781, 1.00136
5.388, 6, -9.73374, 34.15, 19.5723, -11.071, -71.4961, 0.99502
5.392, 6, -9.79686, 34.1565, 19.6134, -11.1351, -71.6142, 0.988505
5.396, 6, -9.85996, 34.1628, 19.6547, -11.199, -71.7324, 0.981816
5.4, 6, -9.92302, 34.169, 19.6962, -11.2628, -71.8507, 0.974953
5.404, 6, -9.98604, 34.1751, 19.7379, -11.3266, -71.9692, 0.967917
5.408, 6, -10.049, 34.1812, 19.7799, -11.3902, -72.0877, 0.960707
5.412, 6, -10.112, 34.1871, 19.822, -11.4538, -72.2064, 0.953324
5.416, 6, -10.1749, 34.1929, 19.8643, -11.5172, -72.3252, 0.945766
5.42, 6, -10.2378, 34.1986, 19.9068, -11.5806, -72.4441, 0.938035
5.424, 6, -10.3007, 34.2042, 19.9496, -11.6438, -72.5631, 0.93013
5.428, 6, -10.3635, 34.2097, 19.9925, -11.707, -72.6822, 0.922051
5.432, 6, -10.4263, 34.215, 20.0356, -11.77, -72.8015, 0.913798
5.436, 6, -10.489, 34.2203, 20.079, -11.833, -72.9208, 0.905371
5.44, 6, -10.5517, 34.2255, 20.1225, -11.8959, -73.0403, 0.89677
5.444, 6, -10.6144, 34.2306, 20.1663, -11.9586, -73.1599, 0.887995
5.448, 6, -10.6771, 34.2356, 20.2102, -12.0213, -73.2795, 0.879046
5.452, 6, -10.7397, 34.2405, 20.2543, -12.0839, -73.3993, 0.869922
5.456, 6, -10.8022, 34.2452, 20.2987, -12.1464, -73.5192, 0.860624
5.46, 6, -10.8647, 34.2499, 20.3432, -12.2088, -73.6392, 0.851151
5.464, 6, -10.9272, 34.2545, 20.3879, -12.2711, -73.7594, 0.841505
5.468, 6, -10.9897, 34.2589, 20.4329, -12.3333, -73.8796, 0.831683
5.472, 6, -11.0521, 34.2633, 20.478, -12.3955, -73.9999, 0.821687
5.476, 6, -11.1145, 34.2676, 20.5233, -12.4575, -74.1204, 0.811517
5.48, 6, -11.1768, 34.2718, 20.5689, -12.5195, -74.2409, 0.801171
5.484, 6, -11.2391, 34.2758, 20.6146, -12.5813, -74.3616, 0.790651
5.488, 6, -11.3013, 34.2798, 20.6605, -12.6431, -74.4823, 0.779957
5.492, 6, -11.3635, 34.2837, 20.7066, -12.7048, -74.6032, 0.769087
5.496, 6, -11.4257, 34.2875, 20.7529, -12.7664, -74.7242, 0.758042
5.5, 6, -11.4878, 34.2912, 20.7994, -12.8279, -74.8452, 0.746823
5.504, 6, -11.5499, 34.2948, 20.8461, -12.8893, -74.9664, 0.735428
5.508, 6, -11.6119, 34.2983, 20.893, -12.9506, -75.0877, 0.723858
5.512, 6, -11.6739, 34.3017, 20.9401, -13.0119, -75.2091, 0.712114
5.516, 6, -11.7359, 34.305, 20.9874, -13.073, -75.3306, 0.700194
5.52, 6, -11.7978, 34.3082, 21.0348, -13.1341, -75.4521, 0.688098
5.524, 6, -11.8596, 34.3113, 21.0825, -13.1951, -75.5738, 0.675827
5.528, 6, -11.9215, 34.3143, 21.1303, -13.256, -75.6956, 0.663381
5.532, 6, -11.9832, 34.3172, 21.1784, -13.3168, -75.8175, 0.65076
5.536, 6, -12.045, 34.32, 21.2266, -13.3775, -75.9395, 0.637963
5.54, 6, -12.1066, 34.3228, 21.275, -13.4382, -76.0616, 0.62499
5.544, 6, -12.1683, 34.3254, 21.3236, -13.4988, -76.1838, 0.611842
5.548, 6, -12.2299, 34.328, 21.3724, -13.5592, -76.3061, 0.598518
5.552, 6, -12.2914, 34.3304, 21.4214, -13.6196, -76.4284, 0.585018
5.556, 6, -12.3529, 34.3328, 21.4706, -13.68, -76.5509, 0.571342
5.56, 6, -12.4143, 34.3351, 21.5199, -13.7402, -76.6735, 0.557491
5.564, 6, -12.4757, 34.3373, 21.5695, -13.8004, -76.7962, 0.543463
5.568, 6, -12.5371, 34.3394, 21.6192, -13.8605, -76.9189, 0.52926
5.572, 6, -12.5984, 34.3414, 21.6691, -13.9205, -77.0418, 0.51488
5.576, 6, -12.6596, 34.3433, 21.7192, -13.9804, -77.1648, 0.500324
5.58, 6, -12.7208, 34.3451, 21.7695, -14.0402, -77.2878, 0.485592
5.584, 6, -12.7819, 34.3469, 21.82, -14.1, -77.411, 0.470684
5.588, 6, -12.843, 34.3485, 21.8706, -14.1597, -77.5342, 0.4556
5.592, 6, -12.9041, 34.3501, 21.9214, -14.2193, -77.6575, 0.440339
5.596, 6, -12.9651, 34.3516, 21.9725, -14.2789, -77.781, 0.424901
5.6, 6, -13.026, 34.3529, 22.0237, -14.3383, -77.9045, 0.409287
5.604, 6, -13.0869, 34.3543, 22.075, -14.3977, -78.0281, 0.393496
5.608, 6, -13.1477, 34.3555, 22.1266, -14.4571, -78.1518, 0.377529
5.612, 6, -13.2085, 34.3566, 22.1784, -14.5163, -78.2756, 0.361385
5.616, 6, -13.2692, 34.3577, 22.2303, -14.5755, -78.3995, 0.345064
5.62, 6, -13.3299, 34.3586, 22.2824, -14.6346, -78.5234, 0.328567
5.624, 6, -13.3905, 34.3595, 22.3347, -14.6936, -78.6475, 0.311892
5.628, 6, -13.4511, 34.3603, 22.3871, -14.7525, -78.7716, 0.29504
5.632, 6, -13.5116, 34.361, 22.4398, -14.8114, -78.8959, 0.278011
5.636, 6, -13.5721, 34.3616, 22.4926, -14.8702, -79.0202, 0.260804
5.64, 6, -13.6325, 34.3622, 22.5456, -14.929, -79.1446, 0.24342
5.644, 6, -13.6928, 34.3626, 22.5987, -14.9877, -79.2691, 0.225859
5.648, 6, -13.7531, 34.363, 22.6521, -15.0463, -79.3937, 0.208119
5.652, 6, -13.8133, 34.3633, 22.7056, -15.1048, -79.5183, 0.190202
5.656, 6, -13.8735, 34.3635, 22.7593, -15.1633, -79.6431, 0.172106
5.66, 6, -13.9336, 34.3637, 22.8132, -15.2217, -79.7679, 0.153832
5.664, 6, -13.9937, 34.3637, 22.8672, -15.28, -79.8929, 0.135379
5.668, 6, -14.0537, 34.3637, 22.9214, -15.3383, -80.0179, 0.116747
5.672, 6, -14.1136, 34.3636, 22.9758, -15.3965, -80.143, 0.0979367
5.676, 6, -14.1735, 34.3634, 23.0304, -15.4546, -80.2682, 0.0789467
5.68, 6, -14.2333, 34.3632, 23.0852, -15.5127, -80.3935, 0.0597772
5.684, 6, -14.2931, 34.3628, 23.1401, -15.5707, -80.5188, 0.0404279
5.688, 6, -14.3528, 34.3624, 23.1952, -15.6287, -80.6443, 0.0208987
5.692, 6, -14.4124, 34.3619, 23.2504, -15.6866, -80.7698, 0.00118934
5.696, 6, -14.472, 34.3614, 23.3059, -15.7444, -80.8954, -0.0187004
5.7, 6, -14.5315, 34.3607, 23.3615, -15.8022, -81.0211, -0.0387708
5.704, 6, -14.591, 34.36, 23.4172, -15.8599, -81.1469, -0.0590219
5.708, 6, -14.6504, 34.3592, 23.4732, -15.9175, -81.2728, -0.0794541
5.712, 6, -14.7097, 34.3583, 23.5293, -15.9751, -81.3987, -0.100068
5.716, 6, -14.769, 34.3574, 23.5856, -16.0326, -81.5247, -0.120862
5.72, 6, -14.8282, 34.3564, 23.642, -16.0901, -81.6509, -0.141839
5.724, 6, -14.8874, 34.3553, 23.6986, -16.1475, -81.777, -0.162997
5.728, 6, -14.9465, 34.3541, 23.7554, -16.2048, -81.9033, -0.184338
5.732, 6, -15.0055, 34.3529, 23.8124, -16.2621, -82.0297, -0.205861
5.736, 6, -15.0644, 34.3516, 23.8695, -16.3193, -82.1561, -0.227566
5.74, 6, -15.1233, 34.3502, 23.9268, -16.3765, -82.2826, -0.249454
5.744, 6, -15.1822, 34.3487, 23.9842, -16.4336, -82.4092, -0.271525
5.748, 6, -15.2409, 34.3472, 24.0419, -16.4907, -82.5359, -0.293779
5.752, 6, -15.2996, 34.3456, 24.0996, -16.5477, -82.6626, -0.316216
5.756, 6, -15.3582, 34.3439, 24.1576, -16.6046, -82.7894, -0.338837
5.76, 6, -15.4168, 34.3422, 24.2157, -16.6615, -82.9163, -0.361641
5.764, 6, -15.4753, 34.3403, 24.274, -16.7184, -83.0433, -0.38463
5.768, 6, -15.5337, 34.3385, 24.3324, -16.7752, -83.1703, -0.407802
5.772, 6, -15.5921, 34.3365, 24.391, -16.8319, -83.2975, -0.431159
5.776, 6, -15.6504, 34.3345, 24.4497, -16.8886, -83.4247, -0.454701
5.78, 6, -15.7086, 34.3324, 24.5087, -16.9452, -83.5519, -0.478427
5.784, 6, -15.7667, 34.3302, 24.5677, -17.0018, -83.6793, -0.502338
5.788, 6, -15.8248, 34.328, 24.627, -17.0583, -83.8067, -0.526435
5.792, 6, -15.8828, 34.3257, 24.6864, -17.1148, -83.9342, -0.550716
5.796, 6, -15.9407, 34.3234, 24.7459, -17.1712, -84.0617, -0.575183
5.8, 6, -15.9986, 34.321, 24.8056, -17.2276, -84.1894, -0.599836
5.804, 6, -16.0564, 34.3185, 24.8655, -17.2839, -84.3171, -0.624675
5.808, 6, -16.1141, 34.3159, 24.9255, -17.3402, -84.4448, -0.6497
5.812, 6, -16.1718, 34.3133, 24.9857, -17.3964, -84.5727, -0.674911
5.816, 6, -16.2293, 34.3106, 25.046, -17.4526, -84.7006, -0.700309
5.82, 6, -16.2868, 34.3079, 25.1065, -17.5087, -84.8286, -0.725893
5.824, 6, -16.3442, 34.3051, 25.1672, -17.5648, -84.9566, -0.751664
5.828, 6, -16.4016, 34.3022, 25.228, -17.6209, -85.0847, -0.777622
5.832, 6, -16.4589, 34.2993, 25.2889, -17.6768, -85.2129, -0.803768
5.836, 6, -16.5161, 34.2963, 25.35, -17.7328, -85.3412, -0.830101
5.84, 6, -16.5732, 34.2932, 25.4113, -17.7887, -85.4695, -0.856621
5.844, 6, -16.6302, 34.2901, 25.4727, -17.8446, -85.5979, -0.883329
5.848, 6, -16.6872, 34.2869, 25.5343, -17.9004, -85.7263, -0.910226
5.852, 6, -16.7441, 34.2837, 25.596, -17.9562, -85.8548, -0.93731
5.856, 6, -16.8009, 34.2804, 25.6578, -18.0119, -85.9834, -0.964583
5.86, 6, -16.8576, 34.2771, 25.7198, -18.0676, -86.1121, -0.992044
5.864, 6, -16.9143, 34.2736, 25.782, -18.1232, -86.2407, -1.01969
5.868, 6, -16.9708, 34.2702, 25.8443, -18.1788, -86.3695, -1.04753
5.872, 6, -17.0273, 34.2666, 25.9068, -18.2344, -86.4983, -1.07556
5.876, 6, -17.0837, 34.2631, 25.9694, -18.2899, -86.6272, -1.10378
5.88, 6, -17.1401, 34.2594, 26.0321, -18.3454, -86.7562, -1.13219
5.884, 6, -17.1963, 34.2557, 26.095, -18.4009, -86.8852, -1.16079
5.888, 6, -17.2525, 34.252, 26.158, -18.4563, -87.0142, -1.18958
5.892, 6, -17.3086, 34.2482, 26.2212, -18.5117, -87.1434, -1.21856
5.896, 6, -17.3646, 34.2443, 26.2845, -18.567, -87.2726, -1.24773
5.9, 6, -17.4205, 34.2404, 26.348, -18.6223, -87.4018, -1.2771
5.904, 6, -17.4763, 34.2364, 26.4116, -18.6776, -87.5311, -1.30665
5.908, 6, -17.5321, 34.2324, 26.4754, -18.7328, -87.6605, -1.3364
5.912, 6, -17.5877, 34.2283, 26.5393, -18.788, -87.7899, -1.36635
5.916, 6, -17.6433, 34.2242, 26.6033, -18.8432, -87.9194, -1.39648
5.92, 6, -17.6987, 34.22, 26.6675, -18.8983, -88.0489, -1.42681
5.924, 6, -17.7538, 34.2157, 26.7318, -18.9534, -88.1785, -1.45733
