hehonglu123/ABB_Primitive_Study/execution/movec_30_ori/curve_exe_v1000_z1.csv
timestamp, cmd_num, J1, J2, J3, J4, J5, J6
0, -1, -18.7697, 34.1307, 27.9437, -19.9675, -90.5849, -2.05479
0.003, -1, -18.7697, 34.1307, 27.9437, -19.9675, -90.5849, -2.05479
0.006, -1, -18.7697, 34.1307, 27.9437, -19.9675, -90.5849, -2.05479
0.008, -1, -18.7697, 34.1307, 27.9437, -19.9675, -90.5849, -2.05479
0.011, -1, -18.7697, 34.1307, 27.9437, -19.9675, -90.5849, -2.05479
0.016, -1, -18.7697, 34.1307, 27.9437, -19.9675, -90.5849, -2.05479
0.02, -1, -18.7697, 34.1307, 27.9437, -19.9675, -90.5849, -2.05479
0.024, -1, -18.7697, 34.1307, 27.9437, -19.9675, -90.5849, -2.05479
0.028, -1, -18.7697, 34.1307, 27.9437, -19.9675, -90.5849, -2.05479
0.032, -1, -18.7697, 34.1307, 27.9437, -19.9675, -90.5849, -2.05479
0.036, -1, -18.7697, 34.1306, 27.9437, -19.9675, -90.5849, -2.05479
0.04, -1, -18.7694, 34.1306, 27.9437, -19.9675, -90.5849, -2.05479
0.044, -1, -18.7688, 34.1304, 27.9437, -19.9675, -90.5848, -2.05481
0.048, -1, -18.7677, 34.13, 27.9438, -19.9674, -90.5848, -2.05485
0.052, -1, -18.7659, 34.1293, 27.9439, -19.9672, -90.5846, -2.05494
0.056, -1, -18.7633, 34.1282, 27.9441, -19.9669, -90.5841, -2.05514
0.06, -1, -18.7599, 34.1267, 27.9443, -19.9661, -90.5833, -2.05552
0.064, -1, -18.7555, 34.1248, 27.9446, -19.9648, -90.5819, -2.05618
0.068, -1, -18.7501, 34.1222, 27.9448, -19.9626, -90.5796, -2.05723
0.072, -1, -18.7435, 34.119, 27.945, -19.9593, -90.576, -2.05884
0.076, -1, -18.7354, 34.115, 27.9452, -19.9545, -90.5709, -2.06119
0.08, -1, -18.7256, 34.11, 27.9454, -19.9477, -90.5636, -2.06449
0.084, -1, -18.7137, 34.104, 27.9453, -19.9384, -90.5537, -2.06898
0.088, -1, -18.6996, 34.0968, 27.9451, -19.9261, -90.5406, -2.07492
0.092, -1, -18.6829, 34.0883, 27.9446, -19.9102, -90.5236, -2.08261
0.096, -1, -18.6635, 34.0784, 27.9438, -19.89, -90.502, -2.09234
0.1, -1, -18.6412, 34.0671, 27.9426, -19.8649, -90.4752, -2.10442
0.104, -1, -18.6159, 34.0542, 27.9408, -19.8342, -90.4426, -2.11914
0.108, -1, -18.5871, 34.0396, 27.9385, -19.7974, -90.4034, -2.13679
0.112, -1, -18.5548, 34.0233, 27.9355, -19.754, -90.3571, -2.15761
0.116, -1, -18.519, 34.0053, 27.9318, -19.7034, -90.3033, -2.18184
0.12, -1, -18.4795, 33.9854, 27.9274, -19.6454, -90.2415, -2.20966
0.124, -1, -18.4364, 33.9638, 27.9221, -19.5795, -90.1714, -2.24119
0.128, -1, -18.3897, 33.9405, 27.916, -19.5056, -90.0928, -2.27653
0.131, -1, -18.3395, 33.9154, 27.909, -19.4238, -90.0058, -2.31566
0.136, -1, -18.2858, 33.8886, 27.9012, -19.3341, -89.9103, -2.35855
0.139, -1, -18.2285, 33.8601, 27.8926, -19.2369, -89.8069, -2.40506
0.144, -1, -18.1677, 33.8299, 27.8833, -19.1324, -89.6957, -2.45501
0.148, -1, -18.1034, 33.798, 27.8733, -19.0212, -89.5774, -2.50817
0.152, -1, -18.0358, 33.7644, 27.8627, -18.9038, -89.4525, -2.56429
0.156, -1, -17.9651, 33.7293, 27.8515, -18.7808, -89.3217, -2.62308
0.16, -1, -17.8915, 33.6928, 27.8399, -18.6529, -89.1856, -2.68422
0.164, -1, -17.8152, 33.6549, 27.828, -18.5207, -89.045, -2.74741
0.168, -1, -17.7365, 33.6157, 27.8158, -18.3849, -88.9005, -2.81233
0.172, -1, -17.6553, 33.5753, 27.8034, -18.2462, -88.7528, -2.87868
0.176, -1, -17.572, 33.5337, 27.7909, -18.105, -88.6026, -2.94619
0.18, -1, -17.4867, 33.4912, 27.7784, -17.9619, -88.4503, -3.01463
0.184, -1, -17.3998, 33.4477, 27.7658, -17.8172, -88.2964, -3.0838
0.188, -1, -17.3114, 33.4034, 27.7532, -17.6715, -88.1413, -3.15353
0.192, -1, -17.2218, 33.3586, 27.7406, -17.5248, -87.9852, -3.2237
0.196, -1, -17.1312, 33.3132, 27.728, -17.3774, -87.8284, -3.2942
0.2, -1, -17.0399, 33.2675, 27.7155, -17.2295, -87.671, -3.36496
0.204, -1, -16.9478, 33.2215, 27.7029, -17.0812, -87.5132, -3.43592
0.208, -1, -16.8552, 33.1752, 27.6903, -16.9326, -87.355, -3.50704
0.212, -1, -16.7621, 33.1287, 27.6778, -16.7836, -87.1965, -3.5783
0.216, -1, -16.6687, 33.0821, 27.6652, -16.6345, -87.0378, -3.64966
0.22, -1, -16.5751, 33.0353, 27.6527, -16.4851, -86.8788, -3.72113
0.224, -1, -16.4812, 32.9885, 27.6401, -16.3356, -86.7197, -3.79268
0.228, -1, -16.3872, 32.9416, 27.6275, -16.1859, -86.5604, -3.8643
0.232, -1, -16.2931, 32.8947, 27.6149, -16.0361, -86.4009, -3.936
0.236, -1, -16.1988, 32.8477, 27.6023, -15.8861, -86.2413, -4.00777
0.24, -1, -16.1045, 32.8006, 27.5897, -15.736, -86.0815, -4.0796
0.244, -1, -16.01, 32.7535, 27.5771, -15.5857, -85.9216, -4.15149
0.248, -1, -15.9155, 32.7064, 27.5645, -15.4354, -85.7616, -4.22345
0.252, -1, -15.8209, 32.6592, 27.5518, -15.2849, -85.6014, -4.29546
0.256, -1, -15.7262, 32.6119, 27.5392, -15.1343, -85.4411, -4.36752
0.26, -1, -15.6314, 32.5647, 27.5265, -14.9836, -85.2807, -4.43964
0.264, -1, -15.5366, 32.5174, 27.5139, -14.8327, -85.1202, -4.5118
0.268, -1, -15.4417, 32.4701, 27.5012, -14.6818, -84.9596, -4.58402
0.272, -1, -15.3467, 32.4227, 27.4885, -14.5308, -84.7989, -4.65628
0.276, -1, -15.2517, 32.3753, 27.4758, -14.3797, -84.638, -4.72859
0.28, -1, -15.1566, 32.3279, 27.4631, -14.2285, -84.4771, -4.80094
0.284, -1, -15.0615, 32.2805, 27.4504, -14.0772, -84.3161, -4.87333
0.288, -1, -14.9663, 32.233, 27.4377, -13.9258, -84.155, -4.94576
0.292, -1, -14.8711, 32.1855, 27.425, -13.7744, -83.9938, -5.01823
0.296, -1, -14.7758, 32.138, 27.4123, -13.6229, -83.8326, -5.09074
0.3, -1, -14.6805, 32.0905, 27.3995, -13.4713, -83.6712, -5.16327
0.304, -1, -14.5851, 32.0429, 27.3868, -13.3196, -83.5098, -5.23584
0.308, -1, -14.4897, 31.9953, 27.3741, -13.1679, -83.3484, -5.30844
0.312, -1, -14.3943, 31.9478, 27.3613, -13.0161, -83.1868, -5.38107
0.316, -1, -14.2988, 31.9001, 27.3486, -12.8643, -83.0252, -5.45372
0.32, -1, -14.2033, 31.8525, 27.3358, -12.7124, -82.8636, -5.5264
0.324, -1, -14.1078, 31.8049, 27.3231, -12.5604, -82.7019, -5.5991
0.328, -1, -14.0122, 31.7572, 27.3103, -12.4085, -82.5401, -5.67183
0.332, -1, -13.9167, 31.7096, 27.2975, -12.2564, -82.3784, -5.74457
0.336, -1, -13.8211, 31.6619, 27.2848, -12.1044, -82.2165, -5.81732
0.34, -1, -13.7255, 31.6142, 27.272, -11.9523, -82.0547, -5.89009
0.344, -1, -13.6298, 31.5665, 27.2592, -11.8002, -81.8928, -5.96287
0.348, -1, -13.5342, 31.5188, 27.2464, -11.6481, -81.7309, -6.03567
0.352, -1, -13.4385, 31.4711, 27.2337, -11.4959, -81.569, -6.10847
0.356, -1, -13.3429, 31.4234, 27.2209, -11.3438, -81.4071, -6.18127
0.36, -1, -13.2472, 31.3757, 27.2081, -11.1916, -81.2451, -6.25408
0.364, -1, -13.1516, 31.328, 27.1953, -11.0395, -81.0832, -6.32689
0.368, -1, -13.0559, 31.2803, 27.1825, -10.8873, -80.9212, -6.3997
0.372, -1, -12.9603, 31.2326, 27.1697, -10.7352, -80.7593, -6.47251
0.376, -1, -12.8646, 31.1849, 27.157, -10.583, -80.5974, -6.54531
0.38, -1, -12.769, 31.1372, 27.1442, -10.4309, -80.4355, -6.6181
0.384, -1, -12.6734, 31.0895, 27.1314, -10.2788, -80.2736, -6.69088
0.388, -1, -12.5777, 31.0418, 27.1186, -10.1267, -80.1118, -6.76365
0.392, -1, -12.4822, 30.9941, 27.1059, -9.97466, -79.9499, -6.8364
0.396, -1, -12.3866, 30.9465, 27.0931, -9.82266, -79.7882, -6.90914
0.4, -1, -12.291, 30.8988, 27.0803, -9.67069, -79.6264, -6.98185
0.404, -1, -12.1955, 30.8512, 27.0676, -9.51877, -79.4647, -7.05455
0.408, -1, -12.1, 30.8036, 27.0548, -9.36689, -79.3031, -7.12722
0.412, -1, -12.0046, 30.756, 27.0421, -9.21508, -79.1415, -7.19987
0.416, -1, -11.9092, 30.7084, 27.0293, -9.06332, -78.98, -7.27248
0.42, -1, -11.8138, 30.6608, 27.0166, -8.91163, -78.8186, -7.34507
0.424, -1, -11.7184, 30.6133, 27.0038, -8.76, -78.6572, -7.41762
0.428, -1, -11.6231, 30.5658, 26.9911, -8.60845, -78.4959, -7.49014
0.432, -1, -11.5279, 30.5183, 26.9784, -8.45698, -78.3347, -7.56262
0.436, -1, -11.4326, 30.4708, 26.9657, -8.30559, -78.1736, -7.63506
0.44, -1, -11.3375, 30.4234, 26.953, -8.15429, -78.0126, -7.70745
0.444, -1, -11.2424, 30.376, 26.9403, -8.00308, -77.8517, -7.77981
0.448, -1, -11.1473, 30.3286, 26.9276, -7.85197, -77.6908, -7.85211
0.452, -1, -11.0524, 30.2813, 26.9149, -7.70096, -77.5301, -7.92437
0.456, -1, -10.9574, 30.2339, 26.9022, -7.55005, -77.3695, -7.99658
0.46, -1, -10.8626, 30.1867, 26.8895, -7.39926, -77.209, -8.06874
0.464, -1, -10.7678, 30.1394, 26.8769, -7.24857, -77.0487, -8.14084
0.468, -1, -10.6731, 30.0922, 26.8642, -7.09801, -76.8884, -8.21289
0.472, -1, -10.5785, 30.045, 26.8516, -6.94757, -76.7283, -8.28487
0.476, -1, -10.4839, 29.9979, 26.839, -6.79726, -76.5683, -8.3568
0.48, -1, -10.3895, 29.9508, 26.8264, -6.64708, -76.4085, -8.42866
0.484, -1, -10.2951, 29.9038, 26.8138, -6.49703, -76.2488, -8.50046
0.488, -1, -10.2008, 29.8568, 26.8012, -6.34712, -76.0893, -8.57219
0.492, -1, -10.1066, 29.8098, 26.7886, -6.19736, -75.9299, -8.64385
0.496, -1, -10.0125, 29.7629, 26.776, -6.04775, -75.7707, -8.71544
0.5, -1, -9.91844, 29.716, 26.7635, -5.89829, -75.6116, -8.78695
0.504, -1, -9.82452, 29.6692, 26.7509, -5.74898, -75.4527, -8.8584
0.508, -1, -9.73069, 29.6225, 26.7384, -5.59984, -75.294, -8.92976
0.512, -1, -9.63697, 29.5757, 26.7259, -5.45086, -75.1354, -9.00105
0.516, -1, -9.54335, 29.5291, 26.7134, -5.30204, -74.977, -9.07226
0.52, -1, -9.44984, 29.4825, 26.7009, -5.1534, -74.8188, -9.14339
0.524, -1, -9.35644, 29.4359, 26.6884, -5.00493, -74.6608, -9.21443
0.528, -1, -9.26314, 29.3894, 26.676, -4.85664, -74.503, -9.28539
0.532, -1, -9.16997, 29.343, 26.6635, -4.70853, -74.3454, -9.35626
0.536, -1, -9.0769, 29.2966, 26.6511, -4.56061, -74.188, -9.42704
0.54, -1, -8.98396, 29.2503, 26.6387, -4.41288, -74.0307, -9.49773
0.544, -1, -8.89113, 29.204, 26.6263, -4.26534, -73.8737, -9.56833
0.548, -1, -8.79843, 29.1578, 26.6139, -4.11799, -73.7169, -9.63883
0.552, -1, -8.70584, 29.1116, 26.6016, -3.97084, -73.5603, -9.70924
0.556, -1, -8.61339, 29.0656, 26.5892, -3.82389, -73.4039, -9.77956
0.56, -1, -8.52106, 29.0196, 26.5769, -3.67715, -73.2477, -9.84978
0.564, -1, -8.42886, 28.9736, 26.5646, -3.53062, -73.0918, -9.91989
0.568, -1, -8.3368, 28.9277, 26.5523, -3.38429, -72.936, -9.98991
0.572, -1, -8.24486, 28.8819, 26.54, -3.23818, -72.7805, -10.0598
0.576, -1, -8.15307, 28.8361, 26.5278, -3.09229, -72.6253, -10.1296
0.58, -1, -8.06141, 28.7905, 26.5155, -2.94661, -72.4702, -10.1993
0.584, -1, -7.96988, 28.7448, 26.5033, -2.80116, -72.3154, -10.2689
0.588, -1, -7.8785, 28.6993, 26.4911, -2.65593, -72.1609, -10.3384
0.592, -1, -7.78726, 28.6538, 26.4789, -2.51093, -72.0065, -10.4078
0.596, -1, -7.69617, 28.6084, 26.4668, -2.36616, -71.8525, -10.4771
0.6, -1, -7.60522, 28.5631, 26.4546, -2.22162, -71.6986, -10.5463
0.604, -1, -7.51441, 28.5178, 26.4425, -2.07732, -71.5451, -10.6153
0.608, -1, -7.42376, 28.4727, 26.4304, -1.93325, -71.3917, -10.6842
0.612, -1, -7.33326, 28.4276, 26.4183, -1.78942, -71.2387, -10.7531
0.616, -1, -7.2429, 28.3825, 26.4063, -1.64584, -71.0859, -10.8218
0.62, -1, -7.1527, 28.3376, 26.3942, -1.5025, -70.9333, -10.8904
0.624, -1, -7.06265, 28.2927, 26.3822, -1.3594, -70.781, -10.9588
0.628, -1, -6.97276, 28.2479, 26.3702, -1.21656, -70.629, -11.0272
0.632, -1, -6.88303, 28.2032, 26.3582, -1.07396, -70.4772, -11.0954
0.636, -1, -6.79346, 28.1585, 26.3463, -0.931622, -70.3257, -11.1635
0.64, -1, -6.70404, 28.114, 26.3344, -0.789537, -70.1745, -11.2315
0.644, -1, -6.61479, 28.0695, 26.3224, -0.647708, -70.0236, -11.2994
0.648, -1, -6.5257, 28.0251, 26.3106, -0.506139, -69.8729, -11.3671
0.652, -1, -6.43677, 27.9808, 26.2987, -0.364831, -69.7225, -11.4347
0.656, -1, -6.34801, 27.9366, 26.2868, -0.223785, -69.5724, -11.5022
0.66, -1, -6.25941, 27.8924, 26.275, -0.0830049, -69.4226, -11.5696
0.664, -1, -6.17098, 27.8483, 26.2632, 0.057509, -69.273, -11.6368
0.668, -1, -6.08272, 27.8044, 26.2514, 0.197755, -69.1238, -11.7039
0.672, -1, -5.99463, 27.7605, 26.2397, 0.33773, -68.9748, -11.7709
0.676, -1, -5.9067, 27.7166, 26.2279, 0.477435, -68.8261, -11.8378
0.68, -1, -5.81895, 27.6729, 26.2162, 0.616866, -68.6777, -11.9045
0.684, -1, -5.73137, 27.6293, 26.2045, 0.756022, -68.5296, -11.9711
0.688, -1, -5.64396, 27.5857, 26.1929, 0.894902, -68.3818, -12.0375
0.692, -1, -5.55673, 27.5422, 26.1812, 1.0335, -68.2343, -12.1038
0.696, -1, -5.46968, 27.4988, 26.1696, 1.17183, -68.0871, -12.17
0.7, -1, -5.38279, 27.4556, 26.158, 1.30987, -67.9402, -12.2361
0.704, -1, -5.29609, 27.4123, 26.1465, 1.44763, -67.7936, -12.302
0.708, -1, -5.20956, 27.3692, 26.1349, 1.58511, -67.6473, -12.3678
0.712, -1, -5.12321, 27.3262, 26.1234, 1.72231, -67.5013, -12.4334
0.716, -1, -5.03704, 27.2833, 26.1119, 1.85921, -67.3555, -12.4989
0.72, -1, -4.95105, 27.2404, 26.1004, 1.99584, -67.2101, -12.5643
0.724, -1, -4.86524, 27.1976, 26.089, 2.13217, -67.065, -12.6296
0.728, -1, -4.77961, 27.155, 26.0775, 2.26822, -66.9203, -12.6947
0.732, -1, -4.69416, 27.1124, 26.0661, 2.40397, -66.7758, -12.7596
0.736, -1, -4.6089, 27.0699, 26.0548, 2.53944, -66.6316, -12.8244
0.74, -1, -4.52381, 27.0275, 26.0434, 2.67461, -66.4877, -12.8891
0.744, -1, -4.43891, 26.9852, 26.0321, 2.8095, -66.3442, -12.9537
0.748, -1, -4.3542, 26.943, 26.0208, 2.94408, -66.201, -13.0181
0.752, -1, -4.26966, 26.9009, 26.0095, 3.07838, -66.058, -13.0823
0.756, -1, -4.18531, 26.8588, 25.9983, 3.21238, -65.9154, -13.1464
0.76, -1, -4.10115, 26.8169, 25.987, 3.34609, -65.7731, -13.2104
0.764, -1, -4.01717, 26.775, 25.9758, 3.4795, -65.6311, -13.2743
0.768, -1, -3.93337, 26.7333, 25.9646, 3.61261, -65.4895, -13.338
0.772, -1, -3.84976, 26.6916, 25.9535, 3.74543, -65.3481, -13.4015
0.776, -1, -3.76633, 26.65, 25.9424, 3.87795, -65.2071, -13.4649
0.78, -1, -3.68309, 26.6086, 25.9313, 4.01018, -65.0664, -13.5282
0.784, -1, -3.60003, 26.5672, 25.9202, 4.14211, -64.9259, -13.5913
0.788, -1, -3.51716, 26.5259, 25.9091, 4.27375, -64.7858, -13.6543
0.792, -1, -3.43447, 26.4847, 25.8981, 4.40509, -64.6461, -13.7172
0.796, -1, -3.35197, 26.4436, 25.8871, 4.53613, -64.5066, -13.7799
0.8, -1, -3.26966, 26.4026, 25.8761, 4.66688, -64.3674, -13.8424
0.804, -1, -3.18753, 26.3616, 25.8652, 4.79734, -64.2286, -13.9049
0.808, -1, -3.10558, 26.3208, 25.8542, 4.9275, -64.0901, -13.9671
0.812, -1, -3.02382, 26.2801, 25.8433, 5.05736, -63.9519, -14.0293
0.816, -1, -2.94225, 26.2394, 25.8324, 5.18693, -63.814, -14.0913
0.82, -1, -2.86085, 26.1989, 25.8216, 5.31621, -63.6764, -14.1531
0.824, -1, -2.77965, 26.1584, 25.8108, 5.4452, -63.5391, -14.2149
0.828, -1, -2.69862, 26.118, 25.8, 5.57389, -63.4021, -14.2764
0.832, -1, -2.61778, 26.0777, 25.7892, 5.70229, -63.2655, -14.3379
0.836, -1, -2.53713, 26.0375, 25.7784, 5.8304, -63.1292, -14.3992
0.84, -1, -2.45665, 25.9974, 25.7677, 5.95822, -62.9931, -14.4603
0.844, -1, -2.37636, 25.9574, 25.757, 6.08575, -62.8574, -14.5214
0.848, -1, -2.29625, 25.9175, 25.7463, 6.21298, -62.722, -14.5823
0.852, -1, -2.21633, 25.8777, 25.7356, 6.33993, -62.5869, -14.643
0.856, -1, -2.13658, 25.838, 25.725, 6.46659, -62.4521, -14.7036
0.86, -1, -2.05702, 25.7983, 25.7144, 6.59296, -62.3176, -14.7641
0.864, -1, -1.97764, 25.7588, 25.7038, 6.71904, -62.1834, -14.8244
0.868, -1, -1.89844, 25.7193, 25.6932, 6.84484, -62.0495, -14.8846
0.872, -1, -1.81942, 25.6799, 25.6827, 6.97035, -61.916, -14.9447
0.876, -1, -1.74058, 25.6406, 25.6722, 7.09557, -61.7827, -15.0046
0.88, -1, -1.66192, 25.6014, 25.6617, 7.2205, -61.6497, -15.0644
0.884, -1, -1.58344, 25.5623, 25.6512, 7.34516, -61.5171, -15.124
0.888, -1, -1.50513, 25.5233, 25.6408, 7.46952, -61.3847, -15.1835
0.892, -1, -1.42701, 25.4844, 25.6304, 7.5936, -61.2526, -15.2429
0.896, -1, -1.34906, 25.4456, 25.62, 7.7174, -61.1209, -15.3021
0.9, -1, -1.2713, 25.4068, 25.6096, 7.84092, -60.9894, -15.3612
0.904, -1, -1.19371, 25.3681, 25.5993, 7.96415, -60.8583, -15.4202
0.908, -1, -1.11629, 25.3296, 25.5889, 8.08711, -60.7274, -15.479
0.912, -1, -1.03905, 25.2911, 25.5786, 8.20978, -60.5969, -15.5377
0.916, -1, -0.961994, 25.2527, 25.5684, 8.33217, -60.4666, -15.5963
0.92, -1, -0.885109, 25.2144, 25.5581, 8.45428, -60.3366, -15.6547
0.924, -1, -0.808399, 25.1762, 25.5479, 8.57612, -60.207, -15.713
0.928, -1, -0.731865, 25.138, 25.5377, 8.69767, -60.0776, -15.7712
0.932, -1, -0.655505, 25.1, 25.5275, 8.81895, -59.9485, -15.8292
0.936, -1, -0.579319, 25.062, 25.5173, 8.93995, -59.8198, -15.8871
0.94, -1, -0.503307, 25.0241, 25.5072, 9.06068, -59.6913, -15.9449
0.944, -1, -0.427468, 24.9863, 25.4971, 9.18113, -59.5631, -16.0025
0.948, -1, -0.351802, 24.9486, 25.487, 9.30131, -59.4352, -16.06
0.952, -1, -0.276308, 24.911, 25.4769, 9.42121, -59.3076, -16.1174
0.956, -1, -0.200986, 24.8735, 25.4669, 9.54084, -59.1803, -16.1746
0.96, -1, -0.125835, 24.8361, 25.4569, 9.66019, -59.0532, -16.2318
0.964, -1, -0.0508559, 24.7987, 25.4469, 9.77928, -58.9265, -16.2887
0.968, -1, 0.023953, 24.7614, 25.4369, 9.89809, -58.8001, -16.3456
0.972, -1, 0.0985918, 24.7242, 25.4269, 10.0166, -58.6739, -16.4023
0.976, -1, 0.173061, 24.6871, 25.417, 10.1349, -58.548, -16.4589
0.98, -1, 0.247361, 24.6501, 25.4071, 10.2529, -58.4224, -16.5154
0.984, -1, 0.321492, 24.6132, 25.3972, 10.3706, -58.2971, -16.5717
0.988, -1, 0.395455, 24.5763, 25.3873, 10.4881, -58.1721, -16.6279
0.992, -1, 0.469251, 24.5395, 25.3775, 10.6053, -58.0474, -16.684
0.996, -1, 0.542879, 24.5028, 25.3677, 10.7223, -57.9229, -16.74
1, -1, 0.61634, 24.4662, 25.3579, 10.8389, -57.7988, -16.7958
1.004, -1, 0.689635, 24.4297, 25.3481, 10.9553, -57.6749, -16.8515
1.008, -1, 0.762764, 24.3933, 25.3384, 11.0715, -57.5513, -16.9071
1.012, -1, 0.835728, 24.3569, 25.3286, 11.1874, -57.4279, -16.9625
1.016, -1, 0.908526, 24.3207, 25.3189, 11.303, -57.3049, -17.0178
1.02, -1, 0.981161, 24.2845, 25.3092, 11.4183, -57.1821, -17.073
1.024, -1, 1.05363, 24.2484, 25.2996, 11.5334, -57.0596, -17.1281
1.027, -1, 1.12594, 24.2123, 25.2899, 11.6483, -56.9374, -17.1831
1.032, -1, 1.19808, 24.1764, 25.2803, 11.7629, -56.8155, -17.2379
1.036, -1, 1.27007, 24.1405, 25.2707, 11.8772, -56.6938, -17.2926
1.04, -1, 1.34189, 24.1047, 25.2611, 11.9912, -56.5724, -17.3472
1.044, -1, 1.41355, 24.069, 25.2516, 12.105, -56.4513, -17.4016
1.048, -1, 1.48505, 24.0334, 25.2421, 12.2186, -56.3304, -17.456
1.052, -1, 1.55639, 23.9978, 25.2325, 12.3319, -56.2098, -17.5102
1.055, -1, 1.62757, 23.9624, 25.2231, 12.4449, -56.0895, -17.5643
1.06, -1, 1.69859, 23.927, 25.2136, 12.5577, -55.9695, -17.6182
1.064, -1, 1.76945, 23.8917, 25.2041, 12.6703, -55.8497, -17.6721
1.068, -1, 1.84016, 23.8565, 25.1947, 12.7826, -55.7302, -17.7258
1.072, -1, 1.91071, 23.8213, 25.1853, 12.8946, -55.611, -17.7794
1.076, -1, 1.9811, 23.7862, 25.1759, 13.0064, -55.492, -17.8329
1.08, -1, 2.05134, 23.7512, 25.1666, 13.1179, -55.3733, -17.8863
1.084, -1, 2.12143, 23.7163, 25.1572, 13.2292, -55.2549, -17.9396
1.088, -1, 2.19136, 23.6815, 25.1479, 13.3403, -55.1367, -17.9927
1.091, -1, 2.26113, 23.6467, 25.1386, 13.4511, -55.0187, -18.0457
1.096, -1, 2.33076, 23.612, 25.1293, 13.5616, -54.9011, -18.0986
1.1, -1, 2.40023, 23.5774, 25.12, 13.672, -54.7837, -18.1514
1.104, -1, 2.46955, 23.5429, 25.1108, 13.7821, -54.6665, -18.2041
1.108, -1, 2.53871, 23.5084, 25.1016, 13.8919, -54.5496, -18.2567
1.112, -1, 2.60773, 23.474, 25.0924, 14.0015, -54.4329, -18.3091
1.116, -1, 2.6766, 23.4397, 25.0832, 14.1109, -54.3166, -18.3614
1.119, -1, 2.74532, 23.4055, 25.074, 14.22, -54.2004, -18.4137
1.124, -1, 2.8139, 23.3713, 25.0649, 14.3289, -54.0845, -18.4658
1.128, -1, 2.88232, 23.3372, 25.0558, 14.4376, -53.9689, -18.5178
1.132, -1, 2.9506, 23.3032, 25.0467, 14.546, -53.8535, -18.5696
1.136, -1, 3.01874, 23.2692, 25.0376, 14.6542, -53.7383, -18.6214
1.14, -1, 3.08673, 23.2353, 25.0285, 14.7622, -53.6234, -18.6731
1.144, -1, 3.15457, 23.2015, 25.0195, 14.8699, -53.5087, -18.7246
1.147, -1, 3.22227, 23.1678, 25.0104, 14.9774, -53.3943, -18.7761
1.152, -1, 3.28983, 23.1341, 25.0014, 15.0847, -53.2801, -18.8274
1.156, -1, 3.35725, 23.1006, 24.9925, 15.1918, -53.1662, -18.8786
1.16, -1, 3.42452, 23.067, 24.9835, 15.2986, -53.0525, -18.9298
1.164, -1, 3.49165, 23.0336, 24.9745, 15.4052, -52.939, -18.9808
1.168, -1, 3.55865, 23.0002, 24.9656, 15.5116, -52.8258, -19.0317
1.172, -1, 3.6255, 22.9669, 24.9567, 15.6178, -52.7128, -19.0825
1.175, -1, 3.69221, 22.9337, 24.9478, 15.7237, -52.6001, -19.1332
1.18, -1, 3.75879, 22.9005, 24.9389, 15.8294, -52.4876, -19.1838
1.184, -1, 3.82523, 22.8674, 24.9301, 15.9349, -52.3753, -19.2343
1.188, -1, 3.89153, 22.8343, 24.9212, 16.0402, -52.2632, -19.2846
1.192, -1, 3.95769, 22.8014, 24.9124, 16.1453, -52.1514, -19.3349
1.196, -1, 4.02372, 22.7685, 24.9036, 16.2501, -52.0398, -19.3851
1.2, -1, 4.08961, 22.7356, 24.8948, 16.3548, -51.9284, -19.4352
1.204, -1, 4.15537, 22.7029, 24.886, 16.4592, -51.8173, -19.4851
1.208, -1, 4.221, 22.6702, 24.8773, 16.5634, -51.7064, -19.535
1.212, -1, 4.28649, 22.6376, 24.8686, 16.6674, -51.5957, -19.5848
1.216, -1, 4.35185, 22.605, 24.8599, 16.7712, -51.4852, -19.6344
1.22, -1, 4.41707, 22.5725, 24.8512, 16.8748, -51.375, -19.684
1.224, -1, 4.48217, 22.54, 24.8425, 16.9782, -51.265, -19.7335
1.228, -1, 4.54713, 22.5077, 24.8338, 17.0814, -51.1552, -19.7828
1.232, -1, 4.61196, 22.4754, 24.8252, 17.1843, -51.0456, -19.8321
1.236, -1, 4.67667, 22.4431, 24.8166, 17.2871, -50.9362, -19.8813
1.24, -1, 4.74124, 22.411, 24.8079, 17.3896, -50.8271, -19.9303
1.244, -1, 4.80569, 22.3788, 24.7994, 17.492, -50.7182, -19.9793
1.248, -1, 4.87, 22.3468, 24.7908, 17.5941, -50.6095, -20.0282
1.252, -1, 4.93419, 22.3148, 24.7822, 17.696, -50.501, -20.077
1.256, -1, 4.99826, 22.2829, 24.7737, 17.7978, -50.3927, -20.1256
1.26, -1, 5.06219, 22.251, 24.7652, 17.8993, -50.2846, -20.1742
1.264, -1, 5.126, 22.2192, 24.7566, 18.0007, -50.1768, -20.2227
1.267, -1, 5.18969, 22.1875, 24.7482, 18.1018, -50.0692, -20.2711
1.272, -1, 5.25325, 22.1558, 24.7397, 18.2027, -49.9617, -20.3194
1.276, -1, 5.31669, 22.1242, 24.7312, 18.3035, -49.8545, -20.3676
1.28, -1, 5.38, 22.0927, 24.7228, 18.404, -49.7475, -20.4157
1.284, -1, 5.44319, 22.0612, 24.7144, 18.5044, -49.6407, -20.4638
1.288, -1, 5.50626, 22.0298, 24.706, 18.6045, -49.5341, -20.5117
1.292, -1, 5.56921, 21.9984, 24.6976, 18.7045, -49.4277, -20.5595
1.295, -1, 5.63203, 21.9671, 24.6892, 18.8043, -49.3215, -20.6073
1.3, -1, 5.69473, 21.9359, 24.6808, 18.9038, -49.2156, -20.6549
1.304, -1, 5.75732, 21.9047, 24.6725, 19.0032, -49.1098, -20.7025
1.308, -1, 5.81978, 21.8736, 24.6642, 19.1024, -49.0042, -20.7499
1.312, -1, 5.88212, 21.8425, 24.6558, 19.2014, -48.8988, -20.7973
1.316, -1, 5.94435, 21.8115, 24.6475, 19.3003, -48.7937, -20.8446
1.32, -1, 6.00646, 21.7805, 24.6393, 19.3989, -48.6887, -20.8918
1.324, -1, 6.06845, 21.7497, 24.631, 19.4973, -48.5839, -20.9389
1.328, -1, 6.13032, 21.7188, 24.6228, 19.5956, -48.4794, -20.9859
1.332, -1, 6.19207, 21.6881, 24.6145, 19.6937, -48.375, -21.0328
1.336, -1, 6.25371, 21.6573, 24.6063, 19.7916, -48.2708, -21.0797
1.34, -1, 6.31523, 21.6267, 24.5981, 19.8893, -48.1668, -21.1264
1.344, -1, 6.37664, 21.5961, 24.5899, 19.9868, -48.063, -21.1731
1.348, -1, 6.43793, 21.5655, 24.5817, 20.0841, -47.9594, -21.2197
1.352, -1, 6.49911, 21.5351, 24.5736, 20.1813, -47.856, -21.2662
1.356, -1, 6.56018, 21.5046, 24.5654, 20.2783, -47.7528, -21.3126
1.36, -1, 6.62113, 21.4743, 24.5573, 20.3751, -47.6498, -21.3589
1.364, -1, 6.68197, 21.4439, 24.5492, 20.4717, -47.547, -21.4051
1.368, -1, 6.74269, 21.4137, 24.5411, 20.5681, -47.4443, -21.4513
1.372, -1, 6.80331, 21.3835, 24.533, 20.6644, -47.3419, -21.4973
1.376, -1, 6.86381, 21.3533, 24.525, 20.7605, -47.2396, -21.5433
1.38, -1, 6.9242, 21.3232, 24.5169, 20.8564, -47.1375, -21.5892
1.384, -1, 6.98448, 21.2932, 24.5089, 20.9521, -47.0357, -21.635
1.388, -1, 7.04465, 21.2632, 24.5009, 21.0477, -46.934, -21.6807
1.392, -1, 7.10471, 21.2333, 24.4928, 21.1431, -46.8324, -21.7264
1.396, -1, 7.16467, 21.2034, 24.4849, 21.2383, -46.7311, -21.7719
1.4, -1, 7.22451, 21.1736, 24.4769, 21.3333, -46.63, -21.8174
1.404, -1, 7.28425, 21.1438, 24.4689, 21.4282, -46.529, -21.8628
1.408, -1, 7.34387, 21.1141, 24.461, 21.5229, -46.4282, -21.9081
1.412, -1, 7.4034, 21.0845, 24.453, 21.6174, -46.3276, -21.9534
1.416, -1, 7.46281, 21.0549, 24.4451, 21.7118, -46.2272, -21.9985
1.42, -1, 7.52212, 21.0253, 24.4372, 21.806, -46.1269, -22.0436
1.424, -1, 7.58133, 20.9958, 24.4293, 21.9, -46.0269, -22.0886
1.428, -1, 7.64043, 20.9664, 24.4214, 21.9938, -45.927, -22.1335
1.432, -1, 7.69943, 20.937, 24.4136, 22.0875, -45.8273, -22.1783
1.436, -1, 7.75832, 20.9076, 24.4057, 22.181, -45.7278, -22.2231
1.44, -1, 7.81711, 20.8783, 24.3979, 22.2744, -45.6284, -22.2677
1.444, -1, 7.8758, 20.8491, 24.3901, 22.3676, -45.5292, -22.3123
1.448, -1, 7.93438, 20.8199, 24.3822, 22.4606, -45.4302, -22.3568
1.452, -1, 7.99287, 20.7908, 24.3744, 22.5535, -45.3314, -22.4013
1.456, -1, 8.05125, 20.7617, 24.3667, 22.6462, -45.2327, -22.4456
1.46, -1, 8.10953, 20.7326, 24.3589, 22.7387, -45.1342, -22.4899
1.464, -1, 8.16771, 20.7037, 24.3511, 22.8311, -45.0359, -22.5341
1.468, -1, 8.22578, 20.6747, 24.3434, 22.9234, -44.9378, -22.5783
1.472, -1, 8.28376, 20.6458, 24.3357, 23.0154, -44.8398, -22.6223
1.476, -1, 8.34164, 20.617, 24.328, 23.1073, -44.742, -22.6663
1.48, -1, 8.39942, 20.5882, 24.3203, 23.1991, -44.6443, -22.7102
1.484, -1, 8.4571, 20.5595, 24.3126, 23.2907, -44.5468, -22.754
1.488, -1, 8.51469, 20.5308, 24.3049, 23.3821, -44.4495, -22.7978
1.492, -1, 8.57218, 20.5021, 24.2972, 23.4734, -44.3523, -22.8415
1.496, -1, 8.62957, 20.4735, 24.2896, 23.5645, -44.2554, -22.8851
1.5, -1, 8.68686, 20.445, 24.2819, 23.6555, -44.1585, -22.9286
1.504, -1, 8.74406, 20.4165, 24.2743, 23.7464, -44.0619, -22.9721
1.508, -1, 8.80116, 20.388, 24.2667, 23.837, -43.9654, -23.0155
1.512, -1, 8.85816, 20.3596, 24.2591, 23.9276, -43.869, -23.0588
1.516, -1, 8.91508, 20.3313, 24.2515, 24.0179, -43.7728, -23.102
1.52, -1, 8.97189, 20.303, 24.2439, 24.1082, -43.6768, -23.1452
1.524, -1, 9.02862, 20.2747, 24.2364, 24.1982, -43.5809, -23.1883
1.528, -1, 9.08525, 20.2465, 24.2288, 24.2882, -43.4852, -23.2313
1.532, -1, 9.14179, 20.2183, 24.2213, 24.378, -43.3897, -23.2743
1.536, -1, 9.19823, 20.1902, 24.2138, 24.4676, -43.2943, -23.3172
1.54, -1, 9.25459, 20.1621, 24.2063, 24.5571, -43.199, -23.36
1.544, -1, 9.31085, 20.1341, 24.1988, 24.6464, -43.1039, -23.4028
1.548, -1, 9.36702, 20.1061, 24.1913, 24.7356, -43.009, -23.4454
1.552, -1, 9.4231, 20.0782, 24.1838, 24.8247, -42.9142, -23.4881
1.556, -1, 9.47909, 20.0503, 24.1763, 24.9136, -42.8196, -23.5306
1.56, -1, 9.53499, 20.0224, 24.1689, 25.0024, -42.7251, -23.5731
1.564, -1, 9.5908, 19.9946, 24.1614, 25.091, -42.6308, -23.6155
1.568, -1, 9.64652, 19.9668, 24.154, 25.1795, -42.5366, -23.6578
1.572, -1, 9.70215, 19.9391, 24.1466, 25.2678, -42.4426, -23.7001
1.576, -1, 9.7577, 19.9114, 24.1392, 25.3561, -42.3487, -23.7423
1.58, -1, 9.81316, 19.8838, 24.1318, 25.4441, -42.255, -23.7845
1.584, -1, 9.86852, 19.8562, 24.1244, 25.5321, -42.1614, -23.8265
1.588, -1, 9.92381, 19.8287, 24.117, 25.6198, -42.068, -23.8685
1.592, -1, 9.979, 19.8012, 24.1097, 25.7075, -41.9747, -23.9105
1.596, -1, 10.0341, 19.7737, 24.1023, 25.795, -41.8816, -23.9524
1.6, -1, 10.0891, 19.7463, 24.095, 25.8824, -41.7886, -23.9942
1.604, -1, 10.1441, 19.7189, 24.0877, 25.9696, -41.6957, -24.0359
1.608, -1, 10.1989, 19.6916, 24.0804, 26.0567, -41.603, -24.0776
1.612, -1, 10.2537, 19.6643, 24.0731, 26.1437, -41.5104, -24.1192
1.616, -1, 10.3084, 19.6371, 24.0658, 26.2306, -41.418, -24.1608
1.62, -1, 10.363, 19.6099, 24.0585, 26.3173, -41.3257, -24.2023
1.624, -1, 10.4175, 19.5827, 24.0512, 26.4038, -41.2336, -24.2437
1.628, -1, 10.4719, 19.5556, 24.044, 26.4903, -41.1416, -24.2851
1.632, -1, 10.5263, 19.5285, 24.0367, 26.5766, -41.0497, -24.3264
1.636, -1, 10.5806, 19.5015, 24.0295, 26.6628, -40.958, -24.3676
1.64, -1, 10.6347, 19.4745, 24.0223, 26.7488, -40.8664, -24.4088
1.644, -1, 10.6888, 19.4475, 24.0151, 26.8348, -40.775, -24.4499
1.648, -1, 10.7429, 19.4206, 24.0079, 26.9205, -40.6837, -24.4909
1.652, -1, 10.7968, 19.3937, 24.0007, 27.0062, -40.5925, -24.5319
1.656, -1, 10.8507, 19.3669, 23.9935, 27.0917, -40.5015, -24.5729
1.66, -1, 10.9044, 19.3401, 23.9863, 27.1771, -40.4106, -24.6137
1.664, -1, 10.9581, 19.3133, 23.9792, 27.2624, -40.3198, -24.6545
1.668, -1, 11.0118, 19.2866, 23.972, 27.3476, -40.2292, -24.6953
1.672, -1, 11.0653, 19.2599, 23.9649, 27.4326, -40.1387, -24.736
1.676, -1, 11.1188, 19.2333, 23.9577, 27.5175, -40.0484, -24.7766
1.68, -1, 11.1722, 19.2067, 23.9506, 27.6023, -39.9581, -24.8172
1.684, -1, 11.2255, 19.1801, 23.9435, 27.6869, -39.868, -24.8577
1.688, -1, 11.2787, 19.1536, 23.9364, 27.7715, -39.7781, -24.8981
1.692, -1, 11.3318, 19.1271, 23.9293, 27.8559, -39.6883, -24.9385
1.696, -1, 11.3849, 19.1007, 23.9223, 27.9401, -39.5986, -24.9788
1.7, -1, 11.4379, 19.0743, 23.9152, 28.0243, -39.509, -25.0191
1.704, -1, 11.4908, 19.0479, 23.9081, 28.1083, -39.4196, -25.0593
1.708, -1, 11.5437, 19.0216, 23.9011, 28.1923, -39.3303, -25.0995
1.712, -1, 11.5964, 18.9953, 23.8941, 28.2761, -39.2411, -25.1396
1.716, -1, 11.6491, 18.969, 23.887, 28.3597, -39.152, -25.1796
1.72, -1, 11.7017, 18.9428, 23.88, 28.4433, -39.0631, -25.2196
1.724, -1, 11.7543, 18.9166, 23.873, 28.5267, -38.9743, -25.2595
1.728, -1, 11.8067, 18.8905, 23.866, 28.61, -38.8856, -25.2994
1.732, -1, 11.8591, 18.8644, 23.859, 28.6932, -38.7971, -25.3392
1.736, -1, 11.9114, 18.8383, 23.8521, 28.7763, -38.7087, -25.3789
1.74, -1, 11.9637, 18.8123, 23.8451, 28.8593, -38.6204, -25.4186
1.744, -1, 12.0158, 18.7863, 23.8381, 28.9421, -38.5322, -25.4583
1.748, -1, 12.0679, 18.7604, 23.8312, 29.0248, -38.4442, -25.4979
1.752, -1, 12.1199, 18.7344, 23.8243, 29.1075, -38.3562, -25.5374
1.756, -1, 12.1719, 18.7086, 23.8173, 29.19, -38.2684, -25.5769
1.76, -1, 12.2238, 18.6827, 23.8104, 29.2723, -38.1808, -25.6163
1.764, -1, 12.2756, 18.6569, 23.8035, 29.3546, -38.0932, -25.6556
1.768, -1, 12.3273, 18.6311, 23.7966, 29.4368, -38.0058, -25.695
1.772, -1, 12.379, 18.6054, 23.7897, 29.5188, -37.9185, -25.7342
1.776, -1, 12.4305, 18.5797, 23.7829, 29.6007, -37.8313, -25.7734
1.78, -1, 12.4821, 18.554, 23.776, 29.6825, -37.7442, -25.8126
1.784, -1, 12.5335, 18.5284, 23.7691, 29.7642, -37.6573, -25.8517
1.788, -1, 12.5849, 18.5028, 23.7623, 29.8458, -37.5704, -25.8907
1.792, -1, 12.6362, 18.4772, 23.7554, 29.9273, -37.4837, -25.9297
1.796, -1, 12.6874, 18.4517, 23.7486, 30.0087, -37.3971, -25.9686
1.8, -1, 12.7386, 18.4262, 23.7418, 30.0899, -37.3106, -26.0075
1.804, -1, 12.7897, 18.4007, 23.735, 30.1711, -37.2243, -26.0463
1.808, -1, 12.8407, 18.3753, 23.7282, 30.2521, -37.1381, -26.0851
1.812, -1, 12.8916, 18.3499, 23.7214, 30.333, -37.0519, -26.1238
1.816, -1, 12.9425, 18.3246, 23.7146, 30.4138, -36.9659, -26.1625
1.82, -1, 12.9933, 18.2992, 23.7078, 30.4945, -36.88, -26.2011
1.824, -1, 13.0441, 18.274, 23.7011, 30.5751, -36.7942, -26.2397
1.828, -1, 13.0948, 18.2487, 23.6943, 30.6556, -36.7086, -26.2782
1.832, -1, 13.1454, 18.2235, 23.6876, 30.736, -36.623, -26.3167
1.836, -1, 13.1959, 18.1983, 23.6808, 30.8163, -36.5376, -26.3551
1.84, -1, 13.2464, 18.1731, 23.6741, 30.8965, -36.4523, -26.3934
1.844, -1, 13.2968, 18.148, 23.6674, 30.9765, -36.3671, -26.4317
1.848, -1, 13.3472, 18.1229, 23.6607, 31.0565, -36.282, -26.47
1.852, -1, 13.3975, 18.0979, 23.654, 31.1363, -36.197, -26.5082
1.856, -1, 13.4477, 18.0729, 23.6473, 31.2161, -36.1121, -26.5464
1.86, -1, 13.4978, 18.0479, 23.6406, 31.2957, -36.0273, -26.5845
1.864, -1, 13.5479, 18.0229, 23.6339, 31.3753, -35.9427, -26.6225
1.868, -1, 13.5979, 17.998, 23.6272, 31.4547, -35.8582, -26.6606
1.872, -1, 13.6479, 17.9731, 23.6206, 31.534, -35.7737, -26.6985
1.876, -1, 13.6978, 17.9482, 23.6139, 31.6133, -35.6894, -26.7364
1.88, -1, 13.7476, 17.9234, 23.6073, 31.6924, -35.6052, -26.7743
1.884, -1, 13.7974, 17.8986, 23.6006, 31.7714, -35.5211, -26.8121
1.888, -1, 13.8471, 17.8739, 23.594, 31.8504, -35.4371, -26.8499
1.892, -1, 13.8967, 17.8491, 23.5874, 31.9292, -35.3532, -26.8876
1.896, -1, 13.9463, 17.8244, 23.5808, 32.0079, -35.2694, -26.9253
1.9, -1, 13.9958, 17.7998, 23.5742, 32.0865, -35.1857, -26.9629
1.904, -1, 14.0452, 17.7751, 23.5676, 32.1651, -35.1021, -27.0005
1.908, -1, 14.0946, 17.7505, 23.561, 32.2435, -35.0187, -27.038
1.912, -1, 14.144, 17.7259, 23.5544, 32.3218, -34.9353, -27.0755
1.916, -1, 14.1932, 17.7014, 23.5479, 32.4001, -34.852, -27.1129
1.92, -1, 14.2424, 17.6769, 23.5413, 32.4782, -34.7689, -27.1503
1.924, -1, 14.2916, 17.6524, 23.5348, 32.5563, -34.6858, -27.1877
1.928, -1, 14.3406, 17.6279, 23.5282, 32.6342, -34.6029, -27.2249
1.932, -1, 14.3896, 17.6035, 23.5217, 32.712, -34.52, -27.2622
1.936, -1, 14.4386, 17.5791, 23.5152, 32.7898, -34.4373, -27.2994
1.94, -1, 14.4875, 17.5547, 23.5086, 32.8674, -34.3546, -27.3366
1.944, -1, 14.5363, 17.5304, 23.5021, 32.945, -34.2721, -27.3737
1.948, -1, 14.5851, 17.5061, 23.4956, 33.0225, -34.1896, -27.4107
1.952, -1, 14.6338, 17.4818, 23.4891, 33.0998, -34.1073, -27.4478
1.956, -1, 14.6825, 17.4576, 23.4826, 33.1771, -34.0251, -27.4847
1.96, -1, 14.7311, 17.4334, 23.4762, 33.2543, -33.9429, -27.5217
1.964, -1, 14.7796, 17.4092, 23.4697, 33.3314, -33.8609, -27.5586
1.968, -1, 14.8281, 17.385, 23.4632, 33.4084, -33.7789, -27.5954
1.972, -1, 14.8765, 17.3609, 23.4568, 33.4853, -33.6971, -27.6322
1.976, -1, 14.9249, 17.3368, 23.4503, 33.5621, -33.6153, -27.6689
1.98, -1, 14.9732, 17.3127, 23.4439, 33.6388, -33.5337, -27.7057
1.984, -1, 15.0214, 17.2887, 23.4375, 33.7154, -33.4521, -27.7423
1.988, -1, 15.0696, 17.2647, 23.431, 33.792, -33.3707, -27.7789
1.992, -1, 15.1178, 17.2407, 23.4246, 33.8684, -33.2893, -27.8155
1.996, -1, 15.1658, 17.2167, 23.4182, 33.9448, -33.2081, -27.8521
1.999, -1, 15.2139, 17.1928, 23.4118, 34.021, -33.1269, -27.8886
2.004, -1, 15.2618, 17.1689, 23.4054, 34.0972, -33.0458, -27.925
2.008, -1, 15.3097, 17.145, 23.399, 34.1733, -32.9649, -27.9614
2.012, -1, 15.3576, 17.1212, 23.3926, 34.2493, -32.884, -27.9978
2.015, -1, 15.4054, 17.0974, 23.3863, 34.3252, -32.8032, -28.0341
2.019, -1, 15.4531, 17.0736, 23.3799, 34.401, -32.7225, -28.0704
2.024, -1, 15.5008, 17.0498, 23.3735, 34.4767, -32.6419, -28.1066
2.028, -1, 15.5484, 17.0261, 23.3672, 34.5524, -32.5614, -28.1428
2.031, -1, 15.596, 17.0024, 23.3609, 34.6279, -32.481, -28.179
2.036, -1, 15.6435, 16.9787, 23.3545, 34.7034, -32.4007, -28.2151
2.04, -1, 15.691, 16.9551, 23.3482, 34.7788, -32.3205, -28.2511
2.044, -1, 15.7384, 16.9314, 23.3419, 34.8541, -32.2403, -28.2872
2.048, -1, 15.7857, 16.9079, 23.3356, 34.9293, -32.1603, -28.3232
2.051, -1, 15.833, 16.8843, 23.3293, 35.0044, -32.0803, -28.3591
2.055, -1, 15.8803, 16.8607, 23.323, 35.0794, -32.0005, -28.395
2.06, -1, 15.9275, 16.8372, 23.3167, 35.1544, -31.9207, -28.4309
2.064, -1, 15.9746, 16.8137, 23.3104, 35.2293, -31.841, -28.4667
2.068, -1, 16.0217, 16.7903, 23.3041, 35.304, -31.7615, -28.5025
2.071, -1, 16.0687, 16.7668, 23.2978, 35.3787, -31.682, -28.5382
2.076, -1, 16.1157, 16.7434, 23.2916, 35.4533, -31.6026, -28.5739
2.08, -1, 16.1626, 16.72, 23.2853, 35.5279, -31.5232, -28.6096
2.084, -1, 16.2095, 16.6967, 23.2791, 35.6023, -31.444, -28.6452
2.087, -1, 16.2563, 16.6734, 23.2728, 35.6767, -31.3649, -28.6808
2.092, -1, 16.3031, 16.6501, 23.2666, 35.751, -31.2858, -28.7163
2.096, -1, 16.3498, 16.6268, 23.2604, 35.8252, -31.2068, -28.7518
2.1, -1, 16.3965, 16.6035, 23.2541, 35.8993, -31.128, -28.7873
2.104, -1, 16.4431, 16.5803, 23.2479, 35.9733, -31.0492, -28.8227
2.107, -1, 16.4896, 16.5571, 23.2417, 36.0473, -30.9705, -28.8581
2.111, -1, 16.5361, 16.5339, 23.2355, 36.1211, -30.8919, -28.8935
2.116, -1, 16.5826, 16.5108, 23.2293, 36.1949, -30.8133, -28.9288
2.12, -1, 16.629, 16.4876, 23.2231, 36.2686, -30.7349, -28.964
2.124, -1, 16.6754, 16.4645, 23.2169, 36.3422, -30.6565, -28.9993
2.127, -1, 16.7217, 16.4415, 23.2108, 36.4158, -30.5783, -29.0345
2.132, -1, 16.7679, 16.4184, 23.2046, 36.4893, -30.5001, -29.0696
2.136, -1, 16.8141, 16.3954, 23.1984, 36.5626, -30.422, -29.1047
2.14, -1, 16.8603, 16.3724, 23.1923, 36.636, -30.3439, -29.1398
2.143, -1, 16.9064, 16.3494, 23.1861, 36.7092, -30.266, -29.1749
2.148, -1, 16.9525, 16.3265, 23.18, 36.7823, -30.1882, -29.2099
2.152, -1, 16.9985, 16.3035, 23.1739, 36.8554, -30.1104, -29.2448
2.156, -1, 17.0444, 16.2806, 23.1677, 36.9284, -30.0327, -29.2798
2.16, -1, 17.0903, 16.2578, 23.1616, 37.0013, -29.9551, -29.3146
2.163, -1, 17.136, 16.235, 23.1555, 37.0742, -29.8776, -29.3495
2.168, -1, 17.1814, 16.2123, 23.1494, 37.1469, -29.8002, -29.3843
2.172, -1, 17.2261, 16.1899, 23.1432, 37.2195, -29.7229, -29.4191
2.176, -1, 17.2699, 16.168, 23.1369, 37.2919, -29.6459, -29.4537
2.179, -1, 17.3126, 16.1465, 23.1306, 37.364, -29.5692, -29.4882
2.184, -1, 17.3541, 16.1257, 23.1243, 37.4355, -29.4931, -29.5224
2.188, -1, 17.3942, 16.1056, 23.1179, 37.5062, -29.4179, -29.5563
2.192, -1, 17.4331, 16.0862, 23.1116, 37.5758, -29.344, -29.5895
2.196, -1, 17.4706, 16.0676, 23.1053, 37.6437, -29.2717, -29.6221
2.199, -1, 17.5068, 16.0498, 23.0992, 37.7096, -29.2017, -29.6536
2.204, -1, 17.5414, 16.0329, 23.0933, 37.7731, -29.1342, -29.684
2.208, -1, 17.5743, 16.017, 23.0876, 37.8335, -29.07, -29.7129
2.212, -1, 17.6054, 16.0022, 23.0823, 37.8904, -29.0095, -29.7402
2.216, -1, 17.6346, 15.9882, 23.0774, 37.9435, -28.9531, -29.7656
2.219, -1, 17.662, 15.9751, 23.0729, 37.9922, -28.9013, -29.7889
2.224, -1, 17.6877, 15.9626, 23.0689, 38.0363, -28.8544, -29.81
2.228, -1, 17.7118, 15.9507, 23.0656, 38.0756, -28.8126, -29.8288
2.232, -1, 17.7344, 15.9393, 23.0628, 38.11, -28.7759, -29.8453
2.235, -1, 17.7552, 15.9285, 23.0605, 38.1397, -28.7443, -29.8594
2.24, -1, 17.7743, 15.9185, 23.0588, 38.1648, -28.7176, -29.8714
2.244, -1, 17.7915, 15.9094, 23.0575, 38.1856, -28.6954, -29.8814
2.248, -1, 17.8067, 15.9013, 23.0566, 38.2025, -28.6773, -29.8895
2.252, -1, 17.8202, 15.8942, 23.056, 38.216, -28.6629, -29.8959
2.255, -1, 17.832, 15.8881, 23.0557, 38.2265, -28.6516, -29.9009
2.259, -1, 17.8423, 15.8828, 23.0556, 38.2345, -28.643, -29.9048
2.264, -1, 17.8512, 15.8784, 23.0556, 38.2404, -28.6366, -29.9076
2.268, -1, 17.8587, 15.8748, 23.0557, 38.2447, -28.632, -29.9096
2.272, -1, 17.8648, 15.8719, 23.0559, 38.2477, -28.6287, -29.9111
2.275, 2, 17.8697, 15.8697, 23.056, 38.2499, -28.6264, -29.9121
2.28, 2, 17.8733, 15.8681, 23.0561, 38.2513, -28.6248, -29.9128
2.284, 2, 17.876, 15.867, 23.0562, 38.2523, -28.6238, -29.9132
2.288, 2, 17.8778, 15.8662, 23.0563, 38.253, -28.623, -29.9136
2.291, 2, 17.879, 15.8657, 23.0563, 38.2534, -28.6226, -29.9138
2.296, 2, 17.8798, 15.8653, 23.0563, 38.2537, -28.6222, -29.9139
2.3, 2, 17.8804, 15.8651, 23.0563, 38.2539, -28.622, -29.914
2.304, 2, 17.8808, 15.8649, 23.0564, 38.2541, -28.6218, -29.9141
2.308, 2, 17.881, 15.8648, 23.0564, 38.2542, -28.6217, -29.9141
2.311, 2, 17.8812, 15.8647, 23.0564, 38.2542, -28.6217, -29.9142
2.316, 2, 17.8813, 15.8647, 23.0564, 38.2543, -28.6216, -29.9142
2.32, 2, 17.8814, 15.8646, 23.0564, 38.2543, -28.6216, -29.9142
2.324, 2, 17.8815, 15.8646, 23.0564, 38.2543, -28.6216, -29.9142
2.328, 2, 17.8815, 15.8646, 23.0564, 38.2543, -28.6215, -29.9142
2.331, 2, 17.8815, 15.8646, 23.0564, 38.2543, -28.6215, -29.9142
2.336, 2, 17.8815, 15.8646, 23.0564, 38.2544, -28.6215, -29.9142
2.34, 2, 17.8815, 15.8646, 23.0564, 38.2544, -28.6215, -29.9142
2.344, 2, 17.8816, 15.8646, 23.0564, 38.2544, -28.6215, -29.9142
2.347, 2, 17.8816, 15.8646, 23.0564, 38.2544, -28.6215, -29.9142
2.352, 2, 17.8816, 15.8646, 23.0564, 38.2544, -28.6215, -29.9142
2.356, 2, 17.8816, 15.8646, 23.0564, 38.2544, -28.6215, -29.9142
2.36, 2, 17.8816, 15.8645, 23.0564, 38.2544, -28.6215, -29.9142
2.364, 2, 17.8816, 15.8645, 23.0564, 38.2544, -28.6215, -29.9142
2.367, 2, 17.8816, 15.8645, 23.0564, 38.2544, -28.6215, -29.9142
2.372, 2, 17.8816, 15.8645, 23.0564, 38.2544, -28.6215, -29.9142
2.376, 2, 17.8816, 15.8645, 23.0564, 38.2544, -28.6215, -29.9142
2.38, 2, 17.8816, 15.8645, 23.0564, 38.2544, -28.6215, -29.9142
2.383, 2, 17.8816, 15.8645, 23.0564, 38.2544, -28.6215, -29.9142
2.388, 2, 17.8816, 15.8645, 23.0564, 38.2544, -28.6215, -29.9142
2.392, 2, 17.8816, 15.8645, 23.0564, 38.2544, -28.6215, -29.9142
2.396, 2, 17.8816, 15.8645, 23.0564, 38.2544, -28.6215, -29.9142
2.4, 2, 17.8816, 15.8645, 23.0564, 38.2544, -28.6215, -29.9142
2.403, 2, 17.8816, 15.8645, 23.0564, 38.2544, -28.6215, -29.9142
2.408, 2, 17.8816, 15.8645, 23.0564, 38.2544, -28.6215, -29.9142
2.412, 2, 17.8816, 15.8645, 23.0564, 38.2544, -28.6215, -29.9142
2.416, 2, 17.8816, 15.8645, 23.0564, 38.2544, -28.6215, -29.9142
2.42, 2, 17.8816, 15.8645, 23.0564, 38.2544, -28.6215, -29.9142
2.423, 2, 17.8816, 15.8645, 23.0564, 38.2544, -28.6215, -29.9142
2.428, 2, 17.8816, 15.8645, 23.0564, 38.2544, -28.6215, -29.9142
2.432, 2, 17.8816, 15.8645, 23.0564, 38.2544, -28.6215, -29.9142
2.436, 2, 17.8816, 15.8645, 23.0564, 38.2544, -28.6215, -29.9142
2.439, 2, 17.8816, 15.8645, 23.0564, 38.2544, -28.6215, -29.9142
2.444, 2, 17.8816, 15.8645, 23.0564, 38.2544, -28.6215, -29.9142
2.448, 2, 17.8816, 15.8645, 23.0564, 38.2544, -28.6215, -29.9142
2.452, 2, 17.8816, 15.8645, 23.0564, 38.2544, -28.6215, -29.9142
2.456, 2, 17.8816, 15.8645, 23.0564, 38.2544, -28.6215, -29.9142
2.459, 2, 17.8816, 15.8645, 23.0564, 38.2544, -28.6215, -29.9142
2.464, 2, 17.8816, 15.8645, 23.0564, 38.2544, -28.6215, -29.9142
2.468, 2, 17.8816, 15.8645, 23.0564, 38.2544, -28.6215, -29.9142
2.472, 2, 17.8816, 15.8645, 23.0564, 38.2544, -28.6215, -29.9142
2.476, 2, 17.8816, 15.8645, 23.0564, 38.2544, -28.6215, -29.9142
2.479, 2, 17.8816, 15.8645, 23.0564, 38.2544, -28.6215, -29.9142
2.484, 2, 17.8816, 15.8645, 23.0564, 38.2544, -28.6215, -29.9142
2.488, 2, 17.8816, 15.8645, 23.0564, 38.2544, -28.6215, -29.9142
2.492, 2, 17.8816, 15.8645, 23.0564, 38.2544, -28.6215, -29.9142
2.495, 2, 17.8816, 15.8645, 23.0564, 38.2544, -28.6215, -29.9142
2.5, 2, 17.8816, 15.8645, 23.0564, 38.2544, -28.6215, -29.9142
2.504, 2, 17.8816, 15.8645, 23.0564, 38.2544, -28.6215, -29.9142
2.508, 2, 17.8816, 15.8645, 23.0564, 38.2544, -28.6215, -29.9142
2.512, 2, 17.8816, 15.8645, 23.0564, 38.2544, -28.6215, -29.9142
2.515, 2, 17.8816, 15.8645, 23.0564, 38.2544, -28.6215, -29.9142
2.52, 2, 17.8816, 15.8645, 23.0564, 38.2544, -28.6215, -29.9142
2.524, 2, 17.8816, 15.8645, 23.0564, 38.2544, -28.6215, -29.9142
2.528, 2, 17.8816, 15.8645, 23.0564, 38.2544, -28.6215, -29.9142
2.531, 2, 17.8816, 15.8645, 23.0564, 38.2544, -28.6215, -29.9142
2.536, 2, 17.8816, 15.8645, 23.0564, 38.2544, -28.6215, -29.9142
2.54, 2, 17.8816, 15.8645, 23.0564, 38.2544, -28.6215, -29.9142
2.544, 2, 17.8816, 15.8645, 23.0564, 38.2544, -28.6215, -29.9142
2.548, 2, 17.8816, 15.8645, 23.0564, 38.2544, -28.6215, -29.9142
2.551, 2, 17.8816, 15.8645, 23.0564, 38.2544, -28.6215, -29.9142
2.556, 2, 17.8816, 15.8645, 23.0564, 38.2544, -28.6215, -29.9142
2.56, 2, 17.8816, 15.8645, 23.0564, 38.2544, -28.6215, -29.9142
2.564, 2, 17.8816, 15.8645, 23.0564, 38.2544, -28.6215, -29.9142
2.568, 2, 17.8816, 15.8645, 23.0564, 38.2544, -28.6215, -29.9142
2.571, 2, 17.8816, 15.8645, 23.0564, 38.2544, -28.6215, -29.9142
2.576, 2, 17.8816, 15.8645, 23.0564, 38.2544, -28.6215, -29.9142
2.58, 2, 17.8816, 15.8645, 23.0564, 38.2544, -28.6215, -29.9142
2.584, 2, 17.8816, 15.8645, 23.0564, 38.2544, -28.6215, -29.9142
2.587, 2, 17.8816, 15.8645, 23.0564, 38.2544, -28.6215, -29.9142
2.592, 2, 17.8816, 15.8645, 23.0564, 38.2544, -28.6215, -29.9142
2.596, 2, 17.8816, 15.8645, 23.0564, 38.2544, -28.6215, -29.9142
2.6, 2, 17.8816, 15.8645, 23.0564, 38.2544, -28.6215, -29.9142
2.604, 2, 17.8816, 15.8645, 23.0564, 38.2544, -28.6215, -29.9142
2.607, 2, 17.8816, 15.8645, 23.0564, 38.2544, -28.6215, -29.9142
2.612, 2, 17.8816, 15.8645, 23.0564, 38.2544, -28.6215, -29.9142
2.616, 2, 17.8816, 15.8645, 23.0564, 38.2544, -28.6215, -29.9142
2.62, 2, 17.8816, 15.8645, 23.0564, 38.2544, -28.6215, -29.9142
2.624, 2, 17.8816, 15.8645, 23.0564, 38.2544, -28.6215, -29.9142
2.627, 2, 17.8816, 15.8645, 23.0564, 38.2544, -28.6215, -29.9142
2.632, 2, 17.8816, 15.8645, 23.0564, 38.2544, -28.6215, -29.9142
2.636, 2, 17.8816, 15.8645, 23.0564, 38.2544, -28.6215, -29.9142
2.64, 2, 17.8816, 15.8645, 23.0564, 38.2544, -28.6215, -29.9142
2.643, 2, 17.8816, 15.8645, 23.0564, 38.2544, -28.6215, -29.9142
2.648, 2, 17.8816, 15.8645, 23.0564, 38.2544, -28.6215, -29.9142
2.652, 2, 17.8816, 15.8645, 23.0564, 38.2544, -28.6215, -29.9142
2.656, 2, 17.8816, 15.8645, 23.0564, 38.2544, -28.6215, -29.9142
2.66, 2, 17.8816, 15.8645, 23.0564, 38.2544, -28.6215, -29.9142
2.663, 2, 17.8816, 15.8645, 23.0564, 38.2544, -28.6215, -29.9142
2.668, 2, 17.8816, 15.8645, 23.0564, 38.2544, -28.6215, -29.9142
2.672, 2, 17.8816, 15.8645, 23.0564, 38.2544, -28.6215, -29.9142
2.676, 2, 17.8816, 15.8645, 23.0564, 38.2544, -28.6215, -29.9142
2.679, 2, 17.8816, 15.8645, 23.0564, 38.2544, -28.6215, -29.9142
2.684, 2, 17.8816, 15.8645, 23.0564, 38.2544, -28.6215, -29.9142
2.688, 2, 17.8816, 15.8645, 23.0564, 38.2544, -28.6215, -29.9142
2.692, 2, 17.8816, 15.8645, 23.0564, 38.2544, -28.6215, -29.9142
2.696, 2, 17.8816, 15.8645, 23.0564, 38.2544, -28.6215, -29.9142
2.699, 2, 17.8816, 15.8645, 23.0564, 38.2544, -28.6215, -29.9142
2.704, 2, 17.8816, 15.8645, 23.0564, 38.2544, -28.6215, -29.9142
2.708, 2, 17.8816, 15.8645, 23.0564, 38.2544, -28.6215, -29.9142
2.712, 2, 17.8816, 15.8645, 23.0564, 38.2544, -28.6215, -29.9142
2.716, 2, 17.8816, 15.8645, 23.0564, 38.2544, -28.6215, -29.9142
2.719, 2, 17.8816, 15.8645, 23.0564, 38.2544, -28.6215, -29.9142
2.724, 2, 17.8816, 15.8645, 23.0564, 38.2544, -28.6215, -29.9142
2.728, 2, 17.8816, 15.8645, 23.0564, 38.2544, -28.6215, -29.9142
2.732, 2, 17.8816, 15.8645, 23.0564, 38.2544, -28.6215, -29.9142
2.735, 2, 17.8816, 15.8645, 23.0564, 38.2544, -28.6215, -29.9142
2.74, 2, 17.8816, 15.8645, 23.0564, 38.2544, -28.6215, -29.9142
2.744, 2, 17.8816, 15.8645, 23.0564, 38.2544, -28.6215, -29.9142
2.748, 2, 17.8816, 15.8645, 23.0564, 38.2544, -28.6215, -29.9142
2.752, 2, 17.8816, 15.8645, 23.0564, 38.2544, -28.6215, -29.9142
2.755, 2, 17.8816, 15.8645, 23.0564, 38.2544, -28.6215, -29.9142
2.76, 2, 17.8816, 15.8645, 23.0564, 38.2544, -28.6215, -29.9142
2.764, 2, 17.8816, 15.8645, 23.0564, 38.2544, -28.6215, -29.9142
2.768, 2, 17.8816, 15.8645, 23.0564, 38.2544, -28.6215, -29.9142
2.772, 2, 17.8816, 15.8645, 23.0564, 38.2544, -28.6215, -29.9142
2.775, 2, 17.8816, 15.8645, 23.0564, 38.2544, -28.6215, -29.9142
2.78, 2, 17.8816, 15.8645, 23.0564, 38.2544, -28.6215, -29.9142
2.784, 2, 17.8816, 15.8645, 23.0564, 38.2544, -28.6215, -29.9142
2.788, 2, 17.8816, 15.8645, 23.0564, 38.2544, -28.6215, -29.9142
2.791, 2, 17.8816, 15.8645, 23.0564, 38.2544, -28.6215, -29.9142
2.796, 2, 17.8816, 15.8645, 23.0564, 38.2544, -28.6215, -29.9142
2.8, 2, 17.8816, 15.8645, 23.0564, 38.2544, -28.6215, -29.9142
2.804, 2, 17.8816, 15.8645, 23.0564, 38.2544, -28.6215, -29.9142
2.808, 2, 17.8816, 15.8645, 23.0564, 38.2544, -28.6215, -29.9142
2.811, 2, 17.8816, 15.8645, 23.0564, 38.2544, -28.6215, -29.9142
2.816, 2, 17.8816, 15.8645, 23.0564, 38.2544, -28.6215, -29.9142
2.82, 2, 17.8816, 15.8645, 23.0564, 38.2544, -28.6215, -29.9142
2.824, 2, 17.8816, 15.8645, 23.0564, 38.2544, -28.6215, -29.9142
2.828, 2, 17.8816, 15.8645, 23.0564, 38.2544, -28.6215, -29.9142
2.831, 2, 17.8816, 15.8645, 23.0564, 38.2544, -28.6215, -29.9142
2.836, 2, 17.8816, 15.8645, 23.0564, 38.2544, -28.6215, -29.9142
2.84, 2, 17.8816, 15.8645, 23.0564, 38.2544, -28.6215, -29.9142
2.844, 2, 17.8816, 15.8645, 23.0564, 38.2544, -28.6215, -29.9142
2.847, 2, 17.8816, 15.8645, 23.0564, 38.2544, -28.6215, -29.9142
2.852, 2, 17.8816, 15.8645, 23.0564, 38.2544, -28.6215, -29.9142
2.856, 2, 17.8816, 15.8645, 23.0564, 38.2544, -28.6215, -29.9142
2.86, 2, 17.8816, 15.8645, 23.0564, 38.2544, -28.6215, -29.9142
2.864, 2, 17.8816, 15.8645, 23.0564, 38.2544, -28.6215, -29.9142
2.867, 2, 17.8816, 15.8645, 23.0564, 38.2544, -28.6215, -29.9142
2.872, 2, 17.8816, 15.8645, 23.0564, 38.2544, -28.6215, -29.9142
2.876, 2, 17.8816, 15.8645, 23.0564, 38.2544, -28.6215, -29.9142
2.88, 2, 17.8816, 15.8645, 23.0564, 38.2544, -28.6215, -29.9142
2.883, 2, 17.8816, 15.8645, 23.0564, 38.2544, -28.6215, -29.9142
2.888, 2, 17.8816, 15.8645, 23.0564, 38.2544, -28.6215, -29.9142
2.892, 2, 17.8816, 15.8645, 23.0564, 38.2544, -28.6215, -29.9142
2.896, 2, 17.8816, 15.8645, 23.0564, 38.2544, -28.6215, -29.9142
2.9, 2, 17.8816, 15.8645, 23.0564, 38.2544, -28.6215, -29.9142
2.903, 2, 17.8816, 15.8645, 23.0564, 38.2544, -28.6215, -29.9142
2.908, 2, 17.8816, 15.8645, 23.0564, 38.2544, -28.6215, -29.9142
2.912, 2, 17.8816, 15.8645, 23.0564, 38.2544, -28.6215, -29.9142
2.916, 2, 17.8816, 15.8645, 23.0564, 38.2544, -28.6215, -29.9142
2.92, 2, 17.8816, 15.8645, 23.0564, 38.2544, -28.6215, -29.9142
2.923, 2, 17.8816, 15.8645, 23.0564, 38.2544, -28.6215, -29.9142
2.928, 2, 17.8816, 15.8645, 23.0564, 38.2544, -28.6215, -29.9142
2.932, 2, 17.8816, 15.8645, 23.0564, 38.2544, -28.6215, -29.9142
2.936, 2, 17.8816, 15.8645, 23.0564, 38.2544, -28.6215, -29.9142
2.939, 2, 17.8816, 15.8645, 23.0564, 38.2544, -28.6215, -29.9142
2.944, 2, 17.8816, 15.8645, 23.0564, 38.2544, -28.6215, -29.9142
2.948, 2, 17.8816, 15.8645, 23.0564, 38.2544, -28.6215, -29.9142
2.952, 2, 17.8816, 15.8645, 23.0564, 38.2544, -28.6215, -29.9142
2.956, 2, 17.8816, 15.8645, 23.0564, 38.2544, -28.6215, -29.9142
2.959, 2, 17.8816, 15.8645, 23.0564, 38.2544, -28.6215, -29.9142
2.964, 2, 17.8816, 15.8645, 23.0564, 38.2544, -28.6215, -29.9142
2.968, 2, 17.8816, 15.8645, 23.0564, 38.2544, -28.6215, -29.9142
2.972, 2, 17.8816, 15.8645, 23.0564, 38.2544, -28.6215, -29.9142
2.976, 2, 17.8816, 15.8645, 23.0564, 38.2544, -28.6215, -29.9142
2.98, 2, 17.8816, 15.8645, 23.0564, 38.2544, -28.6215, -29.9142
2.984, 2, 17.8816, 15.8645, 23.0564, 38.2544, -28.6215, -29.9142
2.988, 2, 17.8816, 15.8645, 23.0564, 38.2544, -28.6215, -29.9142
2.992, 2, 17.8816, 15.8645, 23.0564, 38.2544, -28.6215, -29.9142
2.995, 2, 17.8816, 15.8645, 23.0564, 38.2544, -28.6215, -29.9142
3, 2, 17.8816, 15.8645, 23.0564, 38.2544, -28.6215, -29.9142
3.004, 2, 17.8816, 15.8645, 23.0564, 38.2544, -28.6215, -29.9142
3.008, 2, 17.8816, 15.8645, 23.0564, 38.2544, -28.6215, -29.9142
3.012, 2, 17.8816, 15.8645, 23.0564, 38.2544, -28.6215, -29.9142
3.015, 2, 17.8816, 15.8645, 23.0564, 38.2544, -28.6215, -29.9142
3.02, 2, 17.8816, 15.8645, 23.0564, 38.2544, -28.6215, -29.9142
3.024, 2, 17.8816, 15.8645, 23.0564, 38.2544, -28.6215, -29.9142
3.028, 2, 17.8816, 15.8645, 23.0564, 38.2544, -28.6215, -29.9142
3.031, 2, 17.8816, 15.8645, 23.0564, 38.2544, -28.6215, -29.9142
3.036, 2, 17.8816, 15.8645, 23.0564, 38.2544, -28.6215, -29.9142
3.04, 2, 17.8816, 15.8645, 23.0564, 38.2544, -28.6215, -29.9142
3.044, 2, 17.8816, 15.8645, 23.0564, 38.2544, -28.6215, -29.9142
3.048, 2, 17.8816, 15.8645, 23.0564, 38.2544, -28.6215, -29.9142
3.051, 2, 17.8816, 15.8645, 23.0564, 38.2544, -28.6215, -29.9142
3.056, 2, 17.8816, 15.8645, 23.0564, 38.2544, -28.6215, -29.9142
3.06, 2, 17.8816, 15.8645, 23.0564, 38.2544, -28.6215, -29.9142
3.064, 2, 17.8816, 15.8645, 23.0564, 38.2544, -28.6215, -29.9142
3.068, 2, 17.8816, 15.8645, 23.0564, 38.2544, -28.6215, -29.9142
3.071, 2, 17.8816, 15.8645, 23.0564, 38.2544, -28.6215, -29.9142
3.076, 2, 17.8816, 15.8645, 23.0564, 38.2544, -28.6215, -29.9142
3.08, 2, 17.8816, 15.8645, 23.0564, 38.2544, -28.6215, -29.9142
3.084, 2, 17.8816, 15.8645, 23.0564, 38.2544, -28.6215, -29.9142
3.087, 2, 17.8816, 15.8645, 23.0564, 38.2544, -28.6215, -29.9142
3.092, 2, 17.8816, 15.8645, 23.0564, 38.2544, -28.6215, -29.9142
3.096, 2, 17.8816, 15.8645, 23.0564, 38.2544, -28.6215, -29.9142
3.1, 2, 17.8816, 15.8645, 23.0564, 38.2544, -28.6215, -29.9142
3.104, 2, 17.8816, 15.8645, 23.0564, 38.2544, -28.6215, -29.9142
3.107, 2, 17.8816, 15.8645, 23.0564, 38.2544, -28.6215, -29.9142
3.112, 2, 17.8816, 15.8645, 23.0564, 38.2544, -28.6215, -29.9142
3.116, 2, 17.8816, 15.8645, 23.0564, 38.2544, -28.6215, -29.9142
3.12, 2, 17.8816, 15.8645, 23.0564, 38.2544, -28.6215, -29.9142
3.124, 2, 17.8816, 15.8645, 23.0564, 38.2544, -28.6215, -29.9142
3.128, 2, 17.8816, 15.8645, 23.0564, 38.2544, -28.6215, -29.9142
3.132, 2, 17.8816, 15.8645, 23.0564, 38.2544, -28.6215, -29.9142
3.136, 2, 17.8816, 15.8645, 23.0564, 38.2544, -28.6215, -29.9142
3.14, 2, 17.8816, 15.8645, 23.0564, 38.2544, -28.6215, -29.9142
3.143, 2, 17.8816, 15.8645, 23.0564, 38.2544, -28.6215, -29.9142
3.148, 2, 17.8816, 15.8645, 23.0564, 38.2544, -28.6215, -29.9142
3.152, 2, 17.8816, 15.8645, 23.0564, 38.2544, -28.6215, -29.9142
3.156, 2, 17.8816, 15.8645, 23.0564, 38.2544, -28.6215, -29.9142
3.16, 2, 17.8816, 15.8645, 23.0564, 38.2544, -28.6215, -29.9142
3.163, 2, 17.8816, 15.8645, 23.0564, 38.2544, -28.6215, -29.9142
3.168, 2, 17.8816, 15.8645, 23.0564, 38.2544, -28.6215, -29.9142
3.172, 2, 17.8816, 15.8645, 23.0564, 38.2544, -28.6215, -29.9142
3.176, 2, 17.8816, 15.8645, 23.0564, 38.2544, -28.6215, -29.9142
3.179, 2, 17.8816, 15.8645, 23.0564, 38.2544, -28.6215, -29.9142
3.184, 2, 17.8816, 15.8645, 23.0564, 38.2544, -28.6215, -29.9142
3.188, 2, 17.8816, 15.8645, 23.0564, 38.2544, -28.6215, -29.9142
3.192, 2, 17.8816, 15.8645, 23.0564, 38.2544, -28.6215, -29.9142
3.196, 2, 17.8816, 15.8645, 23.0564, 38.2544, -28.6215, -29.9142
3.199, 2, 17.8816, 15.8645, 23.0564, 38.2544, -28.6215, -29.9142
3.204, 2, 17.8816, 15.8645, 23.0564, 38.2544, -28.6215, -29.9142
3.208, 2, 17.8816, 15.8645, 23.0564, 38.2544, -28.6215, -29.9142
3.212, 2, 17.8816, 15.8645, 23.0564, 38.2544, -28.6215, -29.9142
3.216, 2, 17.8816, 15.8645, 23.0564, 38.2544, -28.6215, -29.9142
3.22, 2, 17.8816, 15.8645, 23.0564, 38.2544, -28.6215, -29.9142
3.224, 2, 17.8816, 15.8645, 23.0564, 38.2544, -28.6215, -29.9142
3.228, 2, 17.8816, 15.8645, 23.0564, 38.2544, -28.6215, -29.9142
3.232, 2, 17.8816, 15.8645, 23.0564, 38.2544, -28.6215, -29.9142
3.235, 2, 17.8816, 15.8645, 23.0564, 38.2544, -28.6215, -29.9142
3.24, 2, 17.8816, 15.8645, 23.0564, 38.2544, -28.6215, -29.9142
3.244, 2, 17.8816, 15.8645, 23.0564, 38.2544, -28.6215, -29.9142
3.248, 2, 17.8816, 15.8645, 23.0564, 38.2544, -28.6215, -29.9142
3.252, 2, 17.8816, 15.8645, 23.0564, 38.2544, -28.6215, -29.9142
3.255, 2, 17.8816, 15.8645, 23.0564, 38.2544, -28.6215, -29.9142
3.26, 2, 17.8816, 15.8645, 23.0564, 38.2544, -28.6215, -29.9142
3.264, 2, 17.8816, 15.8645, 23.0564, 38.2544, -28.6215, -29.9142
3.268, 2, 17.8816, 15.8645, 23.0564, 38.2544, -28.6215, -29.9142
3.272, 2, 17.8816, 15.8645, 23.0564, 38.2544, -28.6215, -29.9142
3.276, 2, 17.8816, 15.8645, 23.0564, 38.2544, -28.6215, -29.9142
3.28, 2, 17.8816, 15.8645, 23.0564, 38.2544, -28.6215, -29.9142
3.284, 2, 17.8816, 15.8645, 23.0564, 38.2544, -28.6215, -29.9142
3.288, 2, 17.8816, 15.8645, 23.0564, 38.2544, -28.6215, -29.9142
3.291, 2, 17.8816, 15.8645, 23.0564, 38.2544, -28.6215, -29.9142
3.296, 2, 17.8816, 15.8645, 23.0564, 38.2544, -28.6215, -29.9142
3.3, 2, 17.8816, 15.8645, 23.0564, 38.2544, -28.6215, -29.9142
3.304, 2, 17.8816, 15.8645, 23.0564, 38.2544, -28.6215, -29.9142
3.308, 2, 17.8816, 15.8645, 23.0564, 38.2544, -28.6215, -29.9142
3.312, 2, 17.8816, 15.8645, 23.0564, 38.2544, -28.6215, -29.9142
3.316, 2, 17.8816, 15.8645, 23.0564, 38.2544, -28.6215, -29.9142
3.32, 2, 17.8816, 15.8645, 23.0564, 38.2544, -28.6215, -29.9142
3.324, 2, 17.8816, 15.8645, 23.0564, 38.2544, -28.6215, -29.9142
3.328, 2, 17.8816, 15.8645, 23.0564, 38.2544, -28.6215, -29.9142
3.332, 2, 17.8816, 15.8645, 23.0564, 38.2544, -28.6215, -29.9142
3.336, 2, 17.8816, 15.8645, 23.0564, 38.2544, -28.6215, -29.9142
3.34, 2, 17.8816, 15.8645, 23.0564, 38.2544, -28.6215, -29.9142
3.344, 2, 17.8816, 15.8645, 23.0564, 38.2544, -28.6215, -29.9142
3.347, 2, 17.8816, 15.8645, 23.0564, 38.2544, -28.6215, -29.9142
3.352, 4, 17.8816, 15.8645, 23.0564, 38.2544, -28.6215, -29.9142
3.356, 4, 17.8816, 15.8645, 23.0564, 38.2544, -28.6215, -29.9142
3.36, 4, 17.8816, 15.8645, 23.0564, 38.2544, -28.6215, -29.9142
3.364, 4, 17.8816, 15.8645, 23.0564, 38.2544, -28.6215, -29.9142
3.368, 4, 17.8816, 15.8645, 23.0564, 38.2544, -28.6215, -29.9142
3.372, 4, 17.8816, 15.8645, 23.0564, 38.2544, -28.6215, -29.9142
3.376, 4, 17.8816, 15.8645, 23.0564, 38.2544, -28.6215, -29.9142
3.38, 4, 17.8816, 15.8645, 23.0564, 38.2544, -28.6215, -29.9142
3.383, 4, 17.8816, 15.8645, 23.0564, 38.2544, -28.6215, -29.9142
3.388, 4, 17.8816, 15.8645, 23.0564, 38.2544, -28.6215, -29.9142
3.392, 4, 17.8816, 15.8645, 23.0564, 38.2544, -28.6215, -29.9142
3.396, 4, 17.8816, 15.8645, 23.0564, 38.2544, -28.6215, -29.9142
3.4, 4, 17.8816, 15.8645, 23.0564, 38.2544, -28.6215, -29.9142
3.403, 4, 17.8816, 15.8645, 23.0564, 38.2544, -28.6215, -29.9142
3.408, 4, 17.8816, 15.8645, 23.0564, 38.2544, -28.6215, -29.9142
3.412, 4, 17.8816, 15.8645, 23.0564, 38.2544, -28.6215, -29.9142
3.416, 4, 17.8816, 15.8645, 23.0564, 38.2544, -28.6215, -29.9142
3.42, 4, 17.8816, 15.8645, 23.0564, 38.2544, -28.6215, -29.9142
3.424, 4, 17.8816, 15.8645, 23.0564, 38.2544, -28.6215, -29.9142
3.428, 4, 17.8816, 15.8645, 23.0564, 38.2544, -28.6215, -29.9142
3.432, 4, 17.8816, 15.8645, 23.0564, 38.2544, -28.6215, -29.9142
3.436, 4, 17.8816, 15.8645, 23.0564, 38.2544, -28.6215, -29.9142
3.439, 4, 17.8816, 15.8645, 23.0564, 38.2544, -28.6215, -29.9142
3.444, 4, 17.8816, 15.8645, 23.0564, 38.2544, -28.6215, -29.9142
3.448, 4, 17.8816, 15.8645, 23.0564, 38.2544, -28.6215, -29.9142
3.452, 4, 17.8816, 15.8645, 23.0564, 38.2544, -28.6215, -29.9142
3.458, 4, 17.8816, 15.8645, 23.0564, 38.2544, -28.6215, -29.9142
3.46, 4, 17.8816, 15.8645, 23.0564, 38.2544, -28.6215, -29.9142
3.464, 4, 17.8816, 15.8645, 23.0564, 38.2544, -28.6215, -29.9142
3.468, 4, 17.8816, 15.8645, 23.0564, 38.2544, -28.6215, -29.9142
3.472, 4, 17.8816, 15.8645, 23.0564, 38.2544, -28.6215, -29.9142
3.476, 4, 17.8816, 15.8645, 23.0564, 38.2544, -28.6215, -29.9142
3.48, 4, 17.8816, 15.8645, 23.0564, 38.2544, -28.6215, -29.9142
3.484, 4, 17.8816, 15.8646, 23.0564, 38.2544, -28.6215, -29.9142
3.488, 4, 17.8815, 15.8646, 23.0564, 38.2544, -28.6215, -29.9142
3.492, 4, 17.8813, 15.8647, 23.0563, 38.2543, -28.6215, -29.9142
3.495, 4, 17.8808, 15.8651, 23.0563, 38.2543, -28.6215, -29.9142
3.5, 4, 17.8799, 15.8658, 23.0561, 38.2541, -28.6216, -29.914
3.504, 4, 17.8784, 15.867, 23.0557, 38.2537, -28.6217, -29.9137
3.508, 4, 17.8763, 15.869, 23.0552, 38.2529, -28.622, -29.913
3.512, 4, 17.8734, 15.8718, 23.0543, 38.2514, -28.6225, -29.9118
3.516, 4, 17.8697, 15.8758, 23.053, 38.2487, -28.6234, -29.9096
3.52, 4, 17.8651, 15.8812, 23.0512, 38.2445, -28.6248, -29.906
3.524, 5, 17.8594, 15.8885, 23.0486, 38.2381, -28.6269, -29.9006
3.528, 5, 17.8526, 15.8978, 23.0452, 38.2288, -28.6299, -29.8927
3.531, 5, 17.8445, 15.9095, 23.0407, 38.2157, -28.6342, -29.8817
3.536, 5, 17.8347, 15.9237, 23.0348, 38.198, -28.6401, -29.8667
3.54, 5, 17.8231, 15.9407, 23.0273, 38.1745, -28.6478, -29.8468
3.544, 5, 17.8096, 15.9606, 23.018, 38.1442, -28.6578, -29.821
3.548, 5, 17.7941, 15.9834, 23.0067, 38.1059, -28.6704, -29.7885
3.552, 5, 17.7763, 16.0093, 22.993, 38.0584, -28.6861, -29.7481
3.556, 5, 17.7562, 16.0389, 22.9767, 38.0006, -28.7052, -29.699
3.56, 5, 17.7334, 16.0723, 22.9576, 37.9314, -28.7281, -29.6401
3.564, 5, 17.7078, 16.11, 22.9354, 37.8498, -28.7552, -29.5707
3.568, 5, 17.6791, 16.1524, 22.9099, 37.7549, -28.7868, -29.49
3.572, 5, 17.6471, 16.1996, 22.8809, 37.6459, -28.8233, -29.3974
3.576, 5, 17.6117, 16.2519, 22.8482, 37.5222, -28.8648, -29.2922
3.58, 5, 17.5728, 16.3095, 22.8118, 37.3832, -28.9117, -29.174
3.584, 5, 17.5305, 16.3723, 22.7715, 37.2285, -28.9641, -29.0426
3.587, 5, 17.4845, 16.4404, 22.7274, 37.0579, -29.0221, -28.8978
3.592, 5, 17.4348, 16.5139, 22.6793, 36.8714, -29.086, -28.7396
3.596, 5, 17.3815, 16.5929, 22.6274, 36.6692, -29.1556, -28.5681
3.6, 5, 17.3243, 16.6772, 22.5716, 36.4515, -29.231, -28.3837
3.604, 5, 17.2635, 16.7667, 22.5121, 36.2188, -29.3122, -28.1866
3.608, 5, 17.1991, 16.8612, 22.4491, 35.9717, -29.399, -27.9775
3.612, 5, 17.1313, 16.9604, 22.3827, 35.711, -29.4913, -27.7571
3.616, 5, 17.0603, 17.0638, 22.3133, 35.4374, -29.5888, -27.526
3.62, 5, 16.9862, 17.171, 22.2409, 35.1522, -29.6914, -27.2853
3.624, 5, 16.9092, 17.2817, 22.1659, 34.8563, -29.7986, -27.0359
3.63, 5, 16.7465, 17.5131, 22.0091, 34.2377, -30.0258, -26.5152
3.632, 5, 16.7465, 17.5131, 22.0091, 34.2377, -30.0258, -26.5152
3.636, 5, 16.6611, 17.6333, 21.9279, 33.9176, -30.145, -26.2462
3.64, 5, 16.5732, 17.7563, 21.8452, 33.5919, -30.2674, -25.9728
3.644, 5, 16.483, 17.8819, 21.7613, 33.2618, -30.3926, -25.6961
3.648, 5, 16.3907, 18.0098, 21.6764, 32.9285, -30.5202, -25.417
3.652, 5, 16.2964, 18.1396, 21.5909, 32.5929, -30.6501, -25.1364
3.656, 5, 16.2004, 18.271, 21.5048, 32.256, -30.7817, -24.855
3.66, 5, 16.1027, 18.4037, 21.4185, 31.9185, -30.9149, -24.5735
3.664, 5, 16.0034, 18.5375, 21.3321, 31.5811, -31.0495, -24.2924
3.668, 5, 15.9028, 18.6719, 21.2458, 31.2443, -31.1852, -24.0122
3.672, 5, 15.8009, 18.8069, 21.1596, 30.9086, -31.322, -23.7332
3.676, 5, 15.698, 18.9421, 21.0737, 30.5741, -31.4597, -23.4556
3.679, 5, 15.5943, 19.0772, 20.9882, 30.241, -31.5982, -23.1796
3.684, 5, 15.4898, 19.2121, 20.9031, 29.9096, -31.7376, -22.9054
3.688, 5, 15.3848, 19.3467, 20.8185, 29.5799, -31.8777, -22.6329
3.692, 5, 15.2793, 19.4809, 20.7344, 29.252, -32.0185, -22.3622
3.696, 5, 15.1732, 19.6147, 20.6509, 28.9258, -32.1601, -22.0933
3.7, 5, 15.0668, 19.7479, 20.568, 28.6014, -32.3024, -21.8263
3.704, 5, 14.9599, 19.8805, 20.4856, 28.2789, -32.4454, -21.5611
3.708, 5, 14.8526, 20.0127, 20.4038, 27.9581, -32.5891, -21.2978
3.712, 5, 14.7449, 20.1442, 20.3226, 27.6392, -32.7335, -21.0363
3.716, 5, 14.6369, 20.2752, 20.242, 27.3221, -32.8786, -20.7766
3.72, 5, 14.5284, 20.4056, 20.162, 27.0068, -33.0244, -20.5187
3.724, 5, 14.4197, 20.5355, 20.0826, 26.6933, -33.1709, -20.2627
3.728, 5, 14.3105, 20.6647, 20.0038, 26.3815, -33.318, -20.0084
3.732, 5, 14.201, 20.7934, 19.9256, 26.0716, -33.4659, -19.756
3.735, 5, 14.0912, 20.9214, 19.8481, 25.7634, -33.6144, -19.5053
3.74, 5, 13.981, 21.0489, 19.7712, 25.457, -33.7636, -19.2563
3.744, 5, 13.8705, 21.1758, 19.6949, 25.1523, -33.9135, -19.0092
3.748, 5, 13.7597, 21.3021, 19.6192, 24.8494, -34.0641, -18.7637
3.752, 5, 13.6485, 21.4278, 19.5442, 24.5481, -34.2154, -18.52
3.756, 5, 13.537, 21.553, 19.4699, 24.2487, -34.3674, -18.278
3.76, 5, 13.4252, 21.6775, 19.3962, 23.9509, -34.52, -18.0377
3.764, 5, 13.313, 21.8014, 19.3231, 23.6548, -34.6734, -17.7991
3.768, 5, 13.2006, 21.9248, 19.2507, 23.3604, -34.8274, -17.5621
3.772, 5, 13.0878, 22.0475, 19.179, 23.0677, -34.9821, -17.3269
3.776, 5, 12.9748, 22.1697, 19.1079, 22.7767, -35.1375, -17.0933
3.78, 5, 12.8614, 22.2913, 19.0375, 22.4873, -35.2936, -16.8613
3.784, 5, 12.7477, 22.4123, 18.9678, 22.1996, -35.4503, -16.631
3.788, 5, 12.6338, 22.5326, 18.8987, 21.9136, -35.6078, -16.4023
3.792, 5, 12.5195, 22.6524, 18.8304, 21.6292, -35.7659, -16.1752
3.796, 5, 12.405, 22.7716, 18.7627, 21.3465, -35.9247, -15.9498
3.8, 5, 12.2902, 22.8902, 18.6957, 21.0653, -36.0842, -15.7259
3.804, 5, 12.175, 23.0082, 18.6295, 20.7858, -36.2444, -15.5036
3.808, 5, 12.0597, 23.1256, 18.5639, 20.5079, -36.4053, -15.2829
3.812, 5, 11.944, 23.2424, 18.499, 20.2316, -36.5668, -15.0637
3.816, 5, 11.8281, 23.3586, 18.4349, 19.9569, -36.7291, -14.8462
3.82, 5, 11.7119, 23.4743, 18.3714, 19.6838, -36.892, -14.6301
3.824, 5, 11.5954, 23.5893, 18.3087, 19.4123, -37.0555, -14.4156
3.828, 5, 11.4787, 23.7037, 18.2466, 19.1423, -37.2198, -14.2026
3.832, 5, 11.3617, 23.8175, 18.1853, 18.874, -37.3847, -13.9912
3.836, 5, 11.2444, 23.9307, 18.1248, 18.6071, -37.5503, -13.7812
3.84, 5, 11.1269, 24.0434, 18.0649, 18.3418, -37.7166, -13.5728
3.844, 5, 11.0092, 24.1554, 18.0058, 18.0781, -37.8836, -13.3658
3.848, 5, 10.8912, 24.2669, 17.9474, 17.8159, -38.0512, -13.1604
3.852, 5, 10.773, 24.3777, 17.8897, 17.5552, -38.2195, -12.9563
3.856, 5, 10.6545, 24.488, 17.8328, 17.296, -38.3885, -12.7538
3.86, 5, 10.5358, 24.5976, 17.7766, 17.0384, -38.5581, -12.5527
3.864, 5, 10.4168, 24.7067, 17.7211, 16.7822, -38.7284, -12.3531
3.868, 5, 10.2977, 24.8152, 17.6664, 16.5275, -38.8994, -12.1548
3.872, 5, 10.1783, 24.9231, 17.6124, 16.2744, -39.0711, -11.9581
3.876, 5, 10.0586, 25.0303, 17.5592, 16.0227, -39.2434, -11.7627
3.88, 5, 9.9388, 25.137, 17.5067, 15.7724, -39.4164, -11.5687
3.884, 5, 9.81874, 25.2431, 17.455, 15.5236, -39.5901, -11.3761
3.888, 5, 9.69847, 25.3487, 17.4041, 15.2763, -39.7644, -11.1849
3.892, 5, 9.57798, 25.4536, 17.3539, 15.0304, -39.9394, -10.9951
3.896, 5, 9.45729, 25.5579, 17.3044, 14.786, -40.1151, -10.8067
3.9, 5, 9.3364, 25.6616, 17.2558, 14.543, -40.2915, -10.6196
3.904, 5, 9.2153, 25.7648, 17.2079, 14.3014, -40.4685, -10.4339
3.908, 5, 9.094, 25.8673, 17.1608, 14.0612, -40.6462, -10.2495
3.912, 5, 8.9725, 25.9693, 17.1144, 13.8224, -40.8246, -10.0664
3.916, 5, 8.85081, 26.0707, 17.0689, 13.585, -41.0036, -9.88471
3.92, 5, 8.72894, 26.1714, 17.0241, 13.349, -41.1833, -9.7043
3.924, 5, 8.60687, 26.2716, 16.9801, 13.1144, -41.3636, -9.5252
3.928, 5, 8.48463, 26.3712, 16.9369, 12.8812, -41.5447, -9.3474
3.932, 5, 8.3622, 26.4702, 16.8944, 12.6493, -41.7263, -9.17089
3.936, 5, 8.2396, 26.5686, 16.8528, 12.4188, -41.9087, -8.99566
3.94, 5, 8.11683, 26.6665, 16.812, 12.1897, -42.0917, -8.82171
3.944, 5, 7.99388, 26.7637, 16.772, 11.9619, -42.2753, -8.64904
3.948, 5, 7.87077, 26.8603, 16.7327, 11.7354, -42.4596, -8.47762
3.952, 5, 7.7475, 26.9564, 16.6943, 11.5103, -42.6446, -8.30746
3.956, 5, 7.62407, 27.0519, 16.6567, 11.2865, -42.8302, -8.13854
3.96, 5, 7.50047, 27.1468, 16.6198, 11.064, -43.0164, -7.97087
3.964, 5, 7.37673, 27.2411, 16.5838, 10.8428, -43.2033, -7.80443
3.968, 5, 7.25283, 27.3348, 16.5486, 10.623, -43.3909, -7.63921
3.972, 5, 7.12878, 27.4279, 16.5142, 10.4044, -43.5791, -7.47521
3.976, 5, 7.00458, 27.5204, 16.4807, 10.1872, -43.768, -7.31243
3.98, 5, 6.88024, 27.6124, 16.4479, 9.97122, -43.9575, -7.15085
3.984, 5, 6.75577, 27.7037, 16.416, 9.75655, -44.1476, -6.99047
3.988, 5, 6.63115, 27.7945, 16.3849, 9.54315, -44.3384, -6.83128
3.992, 5, 6.5064, 27.8847, 16.3546, 9.33102, -44.5299, -6.67329
3.996, 5, 6.38151, 27.9743, 16.3251, 9.12017, -44.722, -6.51647
3.999, 5, 6.2565, 28.0633, 16.2965, 8.91057, -44.9147, -6.36082
4.004, 5, 6.13135, 28.1517, 16.2687, 8.70224, -45.1081, -6.20635
4.008, 5, 6.00608, 28.2395, 16.2417, 8.49515, -45.3021, -6.05304
4.012, 5, 5.88069, 28.3268, 16.2156, 8.28931, -45.4968, -5.90088
4.016, 5, 5.75518, 28.4134, 16.1903, 8.08471, -45.6921, -5.74988
4.02, 5, 5.62955, 28.4995, 16.1658, 7.88135, -45.888, -5.60002
4.024, 5, 5.5038, 28.585, 16.1422, 7.67922, -46.0846, -5.4513
4.028, 5, 5.37794, 28.67, 16.1194, 7.4783, -46.2819, -5.30371
4.032, 5, 5.25197, 28.7543, 16.0975, 7.27861, -46.4797, -5.15724
4.036, 5, 5.1259, 28.8381, 16.0764, 7.08012, -46.6783, -5.01189
4.04, 5, 4.99972, 28.9212, 16.0562, 6.88282, -46.8774, -4.86765
4.044, 5, 4.87344, 29.0038, 16.0368, 6.68673, -47.0772, -4.72451
4.048, 5, 4.74706, 29.0859, 16.0183, 6.49181, -47.2776, -4.58247
4.052, 5, 4.62059, 29.1673, 16.0006, 6.29807, -47.4787, -4.44151
4.056, 5, 4.49403, 29.2482, 15.9838, 6.1055, -47.6804, -4.30163
4.06, 5, 4.36738, 29.3285, 15.9678, 5.91409, -47.8827, -4.16283
4.064, 5, 4.24064, 29.4082, 15.9527, 5.72383, -48.0857, -4.02508
4.068, 5, 4.11382, 29.4873, 15.9384, 5.53472, -48.2893, -3.88839
4.072, 5, 3.98691, 29.5659, 15.925, 5.34674, -48.4935, -3.75275
4.076, 5, 3.85993, 29.6439, 15.9125, 5.1599, -48.6983, -3.61816
4.08, 5, 3.73288, 29.7214, 15.9008, 4.97417, -48.9038, -3.4846
4.084, 5, 3.60575, 29.7982, 15.8899, 4.78957, -49.1098, -3.35207
4.088, 5, 3.47855, 29.8745, 15.8799, 4.60607, -49.3165, -3.22056
4.092, 5, 3.35129, 29.9503, 15.8708, 4.42367, -49.5238, -3.09006
4.096, 5, 3.22401, 30.0254, 15.8625, 4.24237, -49.7317, -2.96058
4.1, 5, 3.09678, 30.1, 15.8551, 4.06216, -49.9402, -2.8321
4.104, 5, 2.96979, 30.1739, 15.8486, 3.88304, -50.1493, -2.70463
4.108, 5, 2.84324, 30.2472, 15.8429, 3.70502, -50.359, -2.57817
4.112, 5, 2.71731, 30.3196, 15.8382, 3.52814, -50.5692, -2.45273
4.116, 5, 2.59211, 30.3913, 15.8344, 3.35243, -50.7798, -2.32836
4.12, 5, 2.46768, 30.4621, 15.8315, 3.17797, -50.9908, -2.20511
4.124, 5, 2.34408, 30.5319, 15.8295, 3.00488, -51.202, -2.08305
4.128, 5, 2.22135, 30.6007, 15.8285, 2.8333, -51.4131, -1.96227
4.132, 5, 2.09959, 30.6684, 15.8284, 2.6634, -51.624, -1.8429
4.136, 5, 1.97896, 30.7349, 15.8291, 2.4954, -51.8342, -1.72509
4.14, 5, 1.85972, 30.8, 15.8308, 2.32956, -52.0435, -1.60901
4.144, 5, 1.74218, 30.8636, 15.8333, 2.16618, -52.2514, -1.49487
4.148, 5, 1.62661, 30.9257, 15.8367, 2.00563, -52.4573, -1.3829
4.152, 5, 1.51319, 30.9861, 15.8408, 1.8483, -52.6607, -1.27338
4.156, 5, 1.40209, 31.0448, 15.8455, 1.69461, -52.8609, -1.16658
4.16, 5, 1.29346, 31.1018, 15.8509, 1.54499, -53.0573, -1.06279
4.164, 5, 1.18747, 31.1571, 15.8567, 1.39987, -53.2491, -0.96229
4.168, 5, 1.08423, 31.2105, 15.8628, 1.25966, -53.4357, -0.865362
4.172, 5, 0.983665, 31.2621, 15.8692, 1.12473, -53.6166, -0.772275
4.176, 5, 0.8855, 31.312, 15.8756, 0.995357, -53.791, -0.683304
4.18, 5, 0.789358, 31.3603, 15.882, 0.871715, -53.9586, -0.598727
4.184, 5, 0.694837, 31.4073, 15.8881, 0.753823, -54.1191, -0.518811
4.188, 6, 0.601516, 31.4532, 15.8939, 0.641513, -54.2723, -0.443787
4.192, 6, 0.508989, 31.4981, 15.8993, 0.534417, -54.4184, -0.373821
4.196, 6, 0.416964, 31.5421, 15.9045, 0.431971, -54.5577, -0.308989
4.2, 6, 0.325329, 31.5852, 15.9094, 0.333429, -54.691, -0.249255
4.204, 6, 0.234069, 31.6275, 15.9142, 0.237911, -54.8191, -0.194462
4.208, 6, 0.143094, 31.6691, 15.9191, 0.144436, -54.9431, -0.144349
4.212, 6, 0.0521949, 31.7101, 15.924, 0.0519658, -55.0641, -0.0985723
4.216, 6, -0.0388283, 31.7508, 15.9293, -0.0405723, -55.1836, -0.0567262
4.22, 6, -0.13005, 31.7913, 15.935, -0.134251, -55.3028, -0.0183581
4.224, 6, -0.221455, 31.8316, 15.9415, -0.230105, -55.4231, 0.017029
4.228, 6, -0.313059, 31.8714, 15.9488, -0.32908, -55.5459, 0.0499675
4.232, 6, -0.404961, 31.9107, 15.9573, -0.431981, -55.6723, 0.0810061
4.236, 6, -0.497336, 31.9492, 15.9671, -0.53943, -55.8034, 0.110681
4.24, 6, -0.590458, 31.987, 15.9782, -0.651843, -55.9399, 0.139487
4.244, 6, -0.68474, 32.0242, 15.9909, -0.76942, -56.0826, 0.167842
4.248, 6, -0.780709, 32.0608, 16.0049, -0.892166, -56.2315, 0.19607
4.252, 6, -0.878875, 32.0973, 16.0204, -1.01992, -56.3869, 0.224387
4.256, 6, -0.97959, 32.1338, 16.0372, -1.15241, -56.5485, 0.252906
4.26, 6, -1.08301, 32.1705, 16.0554, -1.28927, -56.7162, 0.281664
4.264, 6, -1.1891, 32.2077, 16.0749, -1.43006, -56.8895, 0.310637
4.268, 6, -1.29778, 32.2453, 16.0956, -1.57433, -57.0679, 0.339764
4.272, 6, -1.40894, 32.2836, 16.1176, -1.72155, -57.251, 0.36896
4.276, 6, -1.52248, 32.3224, 16.1407, -1.87124, -57.4381, 0.398128
4.28, 6, -1.63834, 32.3618, 16.1649, -2.0229, -57.6288, 0.427166
4.284, 6, -1.75638, 32.4018, 16.1901, -2.17604, -57.8226, 0.455975
4.288, 6, -1.87645, 32.4422, 16.2163, -2.33027, -58.0189, 0.484465
4.292, 6, -1.99834, 32.4829, 16.2434, -2.4852, -58.2173, 0.512558
4.296, 6, -2.1218, 32.5238, 16.2715, -2.64056, -58.4175, 0.540188
4.3, 6, -2.24656, 32.5647, 16.3005, -2.79609, -58.6192, 0.567304
4.304, 6, -2.37236, 32.6055, 16.3304, -2.9516, -58.8222, 0.593862
4.308, 6, -2.49899, 32.6462, 16.3612, -3.10696, -59.0262, 0.619832
4.312, 6, -2.62629, 32.6865, 16.3929, -3.26204, -59.2312, 0.645187
4.316, 6, -2.75414, 32.7265, 16.4256, -3.41677, -59.4371, 0.669911
4.32, 6, -2.88242, 32.7661, 16.4592, -3.57107, -59.6438, 0.693988
4.324, 6, -3.01104, 32.8052, 16.4937, -3.72492, -59.8511, 0.71741
4.328, 6, -3.1399, 32.8439, 16.5292, -3.87827, -60.0592, 0.740169
4.332, 6, -3.26891, 32.8821, 16.5656, -4.03112, -60.2678, 0.762261
4.336, 6, -3.39804, 32.9198, 16.603, -4.18344, -60.4771, 0.783682
4.34, 6, -3.52723, 32.9569, 16.6413, -4.33523, -60.6871, 0.804429
4.344, 6, -3.65646, 32.9935, 16.6805, -4.48648, -60.8976, 0.824501
4.348, 6, -3.78571, 33.0296, 16.7207, -4.6372, -61.1087, 0.843896
4.352, 6, -3.91498, 33.0651, 16.7618, -4.78738, -61.3204, 0.862613
4.356, 6, -4.04425, 33.1001, 16.8038, -4.93702, -61.5328, 0.880651
4.36, 6, -4.17351, 33.1346, 16.8468, -5.08613, -61.7456, 0.898009
4.364, 6, -4.30276, 33.1685, 16.8907, -5.23469, -61.9591, 0.914686
4.368, 6, -4.43199, 33.2019, 16.9355, -5.38272, -62.1731, 0.93068
4.372, 6, -4.56119, 33.2347, 16.9813, -5.53021, -62.3878, 0.945992
4.376, 6, -4.69037, 33.267, 17.028, -5.67717, -62.6029, 0.96062
4.38, 6, -4.81952, 33.2988, 17.0757, -5.8236, -62.8187, 0.974562
4.384, 6, -4.94863, 33.3301, 17.1242, -5.9695, -63.035, 0.987819
4.388, 6, -5.07771, 33.3608, 17.1737, -6.11486, -63.2519, 1.00039
4.392, 6, -5.20676, 33.391, 17.2241, -6.2597, -63.4694, 1.01227
4.396, 6, -5.33577, 33.4206, 17.2755, -6.40401, -63.6874, 1.02346
4.4, 6, -5.46475, 33.4498, 17.3278, -6.5478, -63.906, 1.03396
4.404, 6, -5.59368, 33.4784, 17.381, -6.69107, -64.1251, 1.04377
4.408, 6, -5.72257, 33.5065, 17.4351, -6.83382, -64.3448, 1.05289
4.412, 6, -5.85141, 33.5341, 17.4901, -6.97605, -64.565, 1.06132
4.416, 6, -5.9802, 33.5612, 17.5461, -7.11777, -64.7858, 1.06906
4.42, 6, -6.10894, 33.5877, 17.603, -7.25898, -65.0072, 1.0761
4.424, 6, -6.23763, 33.6138, 17.6608, -7.39969, -65.2291, 1.08246
4.428, 6, -6.36626, 33.6394, 17.7195, -7.5399, -65.4515, 1.08812
4.432, 6, -6.49483, 33.6644, 17.7791, -7.67961, -65.6745, 1.09309
4.436, 6, -6.62334, 33.689, 17.8396, -7.81883, -65.8981, 1.09737
4.44, 6, -6.75178, 33.713, 17.901, -7.95756, -66.1222, 1.10096
4.444, 6, -6.88015, 33.7366, 17.9633, -8.09581, -66.3468, 1.10386
4.448, 6, -7.00844, 33.7596, 18.0265, -8.23359, -66.5719, 1.10607
4.452, 6, -7.13666, 33.7822, 18.0906, -8.37089, -66.7976, 1.10759
4.456, 6, -7.2648, 33.8043, 18.1556, -8.50772, -67.0238, 1.10843
4.46, 6, -7.39287, 33.8259, 18.2215, -8.64408, -67.2506, 1.10857
4.464, 6, -7.52085, 33.847, 18.2882, -8.77998, -67.4778, 1.10803
4.468, 6, -7.64875, 33.8677, 18.3559, -8.91542, -67.7056, 1.1068
4.472, 6, -7.77657, 33.8878, 18.4244, -9.05041, -67.9339, 1.10488
4.476, 6, -7.90431, 33.9075, 18.4938, -9.18494, -68.1628, 1.10227
4.48, 6, -8.03197, 33.9268, 18.5641, -9.31902, -68.3921, 1.09897
4.484, 6, -8.15953, 33.9455, 18.6352, -9.45266, -68.6219, 1.09498
4.488, 6, -8.28701, 33.9638, 18.7072, -9.58586, -68.8523, 1.0903
4.492, 6, -8.4144, 33.9817, 18.78, -9.71861, -69.0831, 1.08493
4.496, 6, -8.5417, 33.9991, 18.8537, -9.85093, -69.3145, 1.07887
4.5, 6, -8.6689, 34.016, 18.9283, -9.98282, -69.5463, 1.07212
4.504, 6, -8.796, 34.0325, 19.0037, -10.1143, -69.7786, 1.06468
4.508, 6, -8.923, 34.0485, 19.0799, -10.2453, -70.0115, 1.05655
4.512, 6, -9.04989, 34.0641, 19.157, -10.3759, -70.2448, 1.04773
4.516, 6, -9.17667, 34.0792, 19.235, -10.5061, -70.4786, 1.03822
4.52, 6, -9.30334, 34.0939, 19.3138, -10.6359, -70.7128, 1.02801
4.524, 6, -9.42989, 34.1082, 19.3934, -10.7652, -70.9476, 1.01712
4.528, 6, -9.55632, 34.122, 19.4738, -10.8942, -71.1828, 1.00553
4.532, 6, -9.68262, 34.1354, 19.5551, -11.0227, -71.4184, 0.993248
4.536, 6, -9.8088, 34.1484, 19.6372, -11.1509, -71.6546, 0.980273
4.54, 6, -9.93484, 34.1609, 19.7201, -11.2786, -71.8912, 0.966606
4.544, 6, -10.0608, 34.173, 19.8038, -11.406, -72.1282, 0.952244
4.548, 6, -10.1865, 34.1847, 19.8884, -11.533, -72.3658, 0.937189
4.552, 6, -10.3122, 34.196, 19.9737, -11.6595, -72.6037, 0.921439
4.556, 6, -10.4377, 34.2069, 20.0599, -11.7857, -72.8421, 0.904995
4.56, 6, -10.563, 34.2173, 20.1468, -11.9115, -73.081, 0.887855
4.564, 6, -10.6882, 34.2274, 20.2346, -12.037, -73.3202, 0.870019
4.568, 6, -10.8133, 34.237, 20.3232, -12.162, -73.56, 0.851488
4.572, 6, -10.9382, 34.2462, 20.4125, -12.2867, -73.8001, 0.83226
4.576, 6, -11.0629, 34.2551, 20.5026, -12.411, -74.0407, 0.812335
4.58, 6, -11.1875, 34.2635, 20.5936, -12.535, -74.2817, 0.791713
4.584, 6, -11.3119, 34.2716, 20.6853, -12.6586, -74.5231, 0.770394
4.588, 6, -11.4362, 34.2792, 20.7778, -12.7818, -74.7649, 0.748376
4.592, 6, -11.5602, 34.2865, 20.871, -12.9047, -75.0072, 0.725659
4.596, 6, -11.6841, 34.2934, 20.9651, -13.0273, -75.2499, 0.702244
4.6, 6, -11.8079, 34.2999, 21.0599, -13.1495, -75.4929, 0.678128
4.604, 6, -11.9314, 34.306, 21.1554, -13.2713, -75.7364, 0.653313
4.608, 6, -12.0548, 34.3118, 21.2517, -13.3929, -75.9802, 0.627797
4.612, 6, -12.178, 34.3172, 21.3488, -13.5141, -76.2245, 0.60158
4.616, 6, -12.301, 34.3222, 21.4467, -13.6349, -76.4691, 0.574661
4.62, 6, -12.4238, 34.3268, 21.5452, -13.7555, -76.7142, 0.54704
4.624, 6, -12.5464, 34.3311, 21.6446, -13.8757, -76.9596, 0.518716
4.628, 6, -12.6689, 34.335, 21.7446, -13.9956, -77.2054, 0.489688
4.632, 6, -12.7911, 34.3386, 21.8454, -14.1152, -77.4515, 0.459956
4.636, 6, -12.9131, 34.3419, 21.947, -14.2345, -77.6981, 0.429518
4.64, 6, -13.035, 34.3447, 22.0492, -14.3535, -77.945, 0.398373
4.644, 6, -13.1566, 34.3473, 22.1523, -14.4723, -78.1923, 0.366521
4.648, 6, -13.278, 34.3495, 22.256, -14.5907, -78.44, 0.33396
4.652, 6, -13.3992, 34.3513, 22.3604, -14.7088, -78.688, 0.300689
4.656, 6, -13.5201, 34.3528, 22.4656, -14.8267, -78.9364, 0.266706
4.66, 6, -13.6409, 34.354, 22.5715, -14.9442, -79.1852, 0.232011
4.664, 6, -13.7614, 34.3549, 22.6781, -15.0615, -79.4343, 0.196602
4.668, 6, -13.8817, 34.3554, 22.7854, -15.1785, -79.6838, 0.160477
4.672, 6, -14.0018, 34.3556, 22.8934, -15.2953, -79.9336, 0.123635
4.676, 6, -14.1217, 34.3555, 23.0021, -15.4118, -80.1838, 0.0860738
4.68, 6, -14.2413, 34.3551, 23.1115, -15.528, -80.4343, 0.0477931
4.684, 6, -14.3606, 34.3543, 23.2215, -15.644, -80.6852, 0.00879077
4.688, 6, -14.4798, 34.3533, 23.3323, -15.7597, -80.9364, -0.0309345
4.692, 6, -14.5987, 34.3519, 23.4438, -15.8752, -81.1879, -0.0713843
4.696, 6, -14.7173, 34.3503, 23.5559, -15.9905, -81.4398, -0.11256
4.7, 6, -14.8357, 34.3483, 23.6687, -16.1054, -81.6919, -0.154463
4.704, 6, -14.9538, 34.3461, 23.7822, -16.2202, -81.9444, -0.197095
4.708, 6, -15.0717, 34.3435, 23.8964, -16.3347, -82.1973, -0.240457
4.712, 6, -15.1893, 34.3407, 24.0112, -16.449, -82.4504, -0.284551
4.716, 6, -15.3067, 34.3376, 24.1266, -16.5631, -82.7038, -0.329378
4.72, 6, -15.4238, 34.3342, 24.2428, -16.6769, -82.9576, -0.37494
4.724, 6, -15.5406, 34.3305, 24.3595, -16.7906, -83.2116, -0.421237
4.728, 6, -15.6571, 34.3266, 24.4769, -16.904, -83.466, -0.468272
4.732, 6, -15.7733, 34.3223, 24.595, -17.0172, -83.7206, -0.516044
4.736, 6, -15.8892, 34.3178, 24.7137, -17.1302, -83.9755, -0.564555
4.74, 6, -16.0046, 34.313, 24.833, -17.243, -84.2307, -0.613802
4.744, 6, -16.1195, 34.308, 24.9528, -17.3556, -84.4861, -0.66378
4.748, 6, -16.2339, 34.3026, 25.0733, -17.4679, -84.7417, -0.714478
4.752, 6, -16.3477, 34.297, 25.1942, -17.58, -84.9973, -0.765879
4.756, 6, -16.4608, 34.291, 25.3156, -17.6918, -85.253, -0.817959
4.76, 6, -16.573, 34.2848, 25.4374, -17.8032, -85.5084, -0.870682
4.764, 6, -16.6842, 34.2783, 25.5594, -17.9142, -85.7634, -0.924001
4.768, 6, -16.7942, 34.2715, 25.6814, -18.0246, -86.0178, -0.977849
4.772, 6, -16.9028, 34.2645, 25.8034, -18.1344, -86.2711, -1.03214
4.776, 6, -17.0097, 34.2571, 25.925, -18.2433, -86.523, -1.08676
4.78, 6, -17.1147, 34.2495, 26.0459, -18.351, -86.7727, -1.14156
4.784, 6, -17.2176, 34.2417, 26.1659, -18.4574, -87.0198, -1.19638
4.788, 6, -17.3184, 34.2338, 26.2845, -18.562, -87.2633, -1.25102
4.792, 6, -17.4168, 34.2259, 26.4013, -18.6647, -87.5025, -1.30526
4.796, 6, -17.5127, 34.218, 26.5158, -18.7649, -87.7366, -1.35888
4.8, 6, -17.6057, 34.2102, 26.6277, -18.8624, -87.9647, -1.41164
4.804, 6, -17.6957, 34.2024, 26.7365, -18.9568, -88.1859, -1.46329
4.808, 6, -17.7823, 34.1949, 26.8418, -19.0477, -88.3994, -1.51358
4.812, 6, -17.8653, 34.1876, 26.943, -19.1349, -88.6043, -1.56228
4.816, 6, -17.9447, 34.1806, 27.0399, -19.218, -88.7999, -1.60913
4.82, 6, -18.0203, 34.174, 27.132, -19.2967, -88.9854, -1.65393
4.824, 6, -18.0921, 34.1678, 27.2191, -19.3707, -89.1604, -1.69648
4.828, 6, -18.1599, 34.162, 27.3009, -19.44, -89.3242, -1.7366
4.832, 6, -18.2237, 34.1567, 27.3772, -19.5043, -89.4766, -1.77418
4.836, 6, -18.2834, 34.1519, 27.4479, -19.5637, -89.6175, -1.80911
4.84, 6, -18.3389, 34.1476, 27.5129, -19.6181, -89.7468, -1.84134
4.844, 6, -18.39, 34.1438, 27.5723, -19.6676, -89.8645, -1.87085
4.848, 6, -18.4368, 34.1404, 27.6262, -19.7123, -89.971, -1.89766
4.852, 6, -18.4794, 34.1374, 27.6746, -19.7524, -90.0665, -1.92181
4.856, 6, -18.518, 34.1349, 27.7177, -19.7879, -90.1513, -1.94334
4.86, 6, -18.5527, 34.1328, 27.7558, -19.8191, -90.2259, -1.96237
4.864, 6, -18.5839, 34.1312, 27.7891, -19.8462, -90.2909, -1.97898
4.868, 6, -18.6117, 34.1299, 27.8179, -19.8696, -90.3469, -1.99334
4.872, 6, -18.6364, 34.129, 27.8425, -19.8894, -90.3946, -2.00559
4.876, 6, -18.658, 34.1284, 27.8633, -19.906, -90.4347, -2.01592
4.88, 6, -18.6768, 34.128, 27.8807, -19.9198, -90.468, -2.02451
4.884, 6, -18.693, 34.1279, 27.895, -19.9311, -90.4953, -2.03156
4.888, 6, -18.7067, 34.1279, 27.9066, -19.9402, -90.5173, -2.03726
4.892, 6, -18.7183, 34.128, 27.9159, -19.9473, -90.5348, -2.04179
4.896, 6, -18.7283, 34.1282, 27.9232, -19.9529, -90.5483, -2.04532
4.9, 6, -18.7368, 34.1285, 27.9288, -19.9571, -90.5587, -2.048
4.904, 6, -18.744, 34.1289, 27.9331, -19.9602, -90.5664, -2.05001
4.908, 6, -18.7502, 34.1292, 27.9362, -19.9625, -90.5721, -2.05147
4.912, 7, -18.7552, 34.1296, 27.9385, -19.9641, -90.5761, -2.05251
4.916, 7, -18.7593, 34.1299, 27.9401, -19.9652, -90.5789, -2.05323
4.92, 7, -18.7625, 34.1301, 27.9413, -19.9659, -90.5808, -2.05373
4.924, 7, -18.7647, 34.1303, 27.942, -19.9664, -90.5821, -2.05407
4.928, 7, -18.7663, 34.1304, 27.9426, -19.9668, -90.583, -2.0543
4.932, 7, -18.7674, 34.1305, 27.9429, -19.967, -90.5836, -2.05446
4.936, 7, -18.7682, 34.1305, 27.9432, -19.9672, -90.584, -2.05457
4.94, 7, -18.7687, 34.1306, 27.9433, -19.9673, -90.5843, -2.05464
4.944, 7, -18.769, 34.1306, 27.9435, -19.9674, -90.5845, -2.05469
4.948, 7, -18.7693, 34.1306, 27.9435, -19.9674, -90.5846, -2.05472
4.952, 7, -18.7694, 34.1306, 27.9436, -19.9675, -90.5847, -2.05474
4.956, 7, -18.7695, 34.1306, 27.9436, -19.9675, -90.5847, -2.05476
4.96, 7, -18.7696, 34.1307, 27.9436, -19.9675, -90.5848, -2.05477
4.964, 7, -18.7696, 34.1307, 27.9437, -19.9675, -90.5848, -2.05478
4.968, 7, -18.7697, 34.1307, 27.9437, -19.9675, -90.5848, -2.05478
4.972, 7, -18.7697, 34.1307, 27.9437, -19.9675, -90.5848, -2.05478
4.976, 7, -18.7697, 34.1307, 27.9437, -19.9675, -90.5848, -2.05479
4.98, 7, -18.7697, 34.1307, 27.9437, -19.9675, -90.5849, -2.05479
4.984, 7, -18.7697, 34.1307, 27.9437, -19.9675, -90.5849, -2.05479
4.988, 7, -18.7697, 34.1307, 27.9437, -19.9675, -90.5849, -2.05479
4.992, 7, -18.7697, 34.1307, 27.9437, -19.9675, -90.5849, -2.05479
4.996, 7, -18.7697, 34.1307, 27.9437, -19.9675, -90.5849, -2.05479
5, 7, -18.7697, 34.1307, 27.9437, -19.9675, -90.5849, -2.05479
5.004, 7, -18.7697, 34.1307, 27.9437, -19.9675, -90.5849, -2.05479
5.008, 7, -18.7697, 34.1307, 27.9437, -19.9675, -90.5849, -2.05479
5.012, 7, -18.7697, 34.1307, 27.9437, -19.9675, -90.5849, -2.05479
5.016, 7, -18.7697, 34.1307, 27.9437, -19.9675, -90.5849, -2.05479
5.02, 7, -18.7697, 34.1307, 27.9437, -19.9675, -90.5849, -2.05479
5.024, 7, -18.7697, 34.1307, 27.9437, -19.9675, -90.5849, -2.05479
5.028, 7, -18.7697, 34.1307, 27.9437, -19.9675, -90.5849, -2.05479
