hehonglu123/ABB_Primitive_Study/execution/movec_30_ori/curve_exe_v500_z20.csv
timestamp, cmd_num, J1, J2, J3, J4, J5, J6
0, -1, -18.7697, 34.1307, 27.9437, -19.9675, -90.5849, -2.05479
0.002, -1, -18.7697, 34.1307, 27.9437, -19.9675, -90.5849, -2.05479
0.006, -1, -18.7697, 34.1307, 27.9437, -19.9675, -90.5849, -2.05479
0.008, -1, -18.7697, 34.1307, 27.9437, -19.9675, -90.5849, -2.05479
0.011, -1, -18.7697, 34.1307, 27.9437, -19.9675, -90.5849, -2.05479
0.016, -1, -18.7697, 34.1307, 27.9437, -19.9675, -90.5849, -2.05479
0.02, -1, -18.7697, 34.1307, 27.9437, -19.9675, -90.5849, -2.05479
0.024, -1, -18.7697, 34.1307, 27.9437, -19.9675, -90.5849, -2.05479
0.028, -1, -18.7697, 34.1307, 27.9437, -19.9675, -90.5849, -2.05479
0.032, -1, -18.7697, 34.1307, 27.9437, -19.9675, -90.5849, -2.05479
0.036, -1, -18.7697, 34.1306, 27.9437, -19.9675, -90.5849, -2.05479
0.04, -1, -18.7694, 34.1306, 27.9437, -19.9675, -90.5849, -2.05479
0.044, -1, -18.7688, 34.1304, 27.9437, -19.9675, -90.5848, -2.05481
0.048, -1, -18.7677, 34.13, 27.9438, -19.9674, -90.5848, -2.05485
0.052, -1, -18.7659, 34.1293, 27.9439, -19.9672, -90.5846, -2.05494
0.056, -1, -18.7633, 34.1282, 27.9441, -19.9669, -90.5841, -2.05514
0.06, -1, -18.7599, 34.1267, 27.9443, -19.9661, -90.5833, -2.05552
0.064, -1, -18.7555, 34.1248, 27.9446, -19.9648, -90.5819, -2.05618
0.068, -1, -18.7501, 34.1222, 27.9448, -19.9626, -90.5796, -2.05723
0.072, -1, -18.7435, 34.119, 27.945, -19.9593, -90.576, -2.05884
0.076, -1, -18.7354, 34.115, 27.9452, -19.9545, -90.5709, -2.06119
0.08, -1, -18.7256, 34.11, 27.9454, -19.9477, -90.5636, -2.06449
0.084, -1, -18.7137, 34.104, 27.9453, -19.9384, -90.5537, -2.06898
0.088, -1, -18.6996, 34.0968, 27.9451, -19.9261, -90.5406, -2.07492
0.092, -1, -18.6829, 34.0883, 27.9446, -19.9102, -90.5236, -2.08261
0.096, -1, -18.6635, 34.0784, 27.9438, -19.89, -90.502, -2.09234
0.1, -1, -18.6412, 34.0671, 27.9426, -19.8649, -90.4752, -2.10442
0.104, -1, -18.6159, 34.0542, 27.9408, -19.8342, -90.4426, -2.11914
0.108, -1, -18.5871, 34.0396, 27.9385, -19.7974, -90.4034, -2.13679
0.112, -1, -18.5548, 34.0233, 27.9355, -19.754, -90.3571, -2.15761
0.116, -1, -18.519, 34.0053, 27.9318, -19.7034, -90.3033, -2.18184
0.12, -1, -18.4795, 33.9854, 27.9274, -19.6454, -90.2415, -2.20966
0.124, -1, -18.4364, 33.9638, 27.9221, -19.5795, -90.1714, -2.24119
0.128, -1, -18.3897, 33.9405, 27.916, -19.5056, -90.0928, -2.27653
0.131, -1, -18.3395, 33.9154, 27.909, -19.4238, -90.0058, -2.31566
0.136, -1, -18.2858, 33.8886, 27.9012, -19.3341, -89.9103, -2.35855
0.139, -1, -18.2285, 33.8601, 27.8926, -19.2369, -89.8069, -2.40506
0.144, -1, -18.1677, 33.8299, 27.8833, -19.1324, -89.6957, -2.45501
0.148, -1, -18.1034, 33.798, 27.8733, -19.0212, -89.5774, -2.50817
0.152, -1, -18.0358, 33.7644, 27.8627, -18.9038, -89.4525, -2.56429
0.156, -1, -17.9651, 33.7293, 27.8515, -18.7808, -89.3217, -2.62308
0.16, -1, -17.8915, 33.6928, 27.8399, -18.6529, -89.1856, -2.68422
0.164, -1, -17.8153, 33.6549, 27.828, -18.5207, -89.045, -2.74741
0.168, -1, -17.7365, 33.6157, 27.8158, -18.3849, -88.9005, -2.81233
0.172, -1, -17.6553, 33.5753, 27.8034, -18.2462, -88.7528, -2.87868
0.176, -1, -17.572, 33.5337, 27.7909, -18.105, -88.6026, -2.94619
0.18, -1, -17.4867, 33.4912, 27.7784, -17.9619, -88.4503, -3.01463
0.184, -1, -17.3998, 33.4477, 27.7658, -17.8172, -88.2964, -3.0838
0.188, -1, -17.3114, 33.4034, 27.7532, -17.6715, -88.1413, -3.15353
0.192, -1, -17.2218, 33.3586, 27.7406, -17.5248, -87.9852, -3.2237
0.196, -1, -17.1312, 33.3132, 27.728, -17.3774, -87.8284, -3.2942
0.2, -1, -17.0399, 33.2675, 27.7155, -17.2295, -87.671, -3.36496
0.204, -1, -16.9478, 33.2215, 27.7029, -17.0812, -87.5132, -3.43592
0.208, -1, -16.8552, 33.1752, 27.6903, -16.9326, -87.355, -3.50704
0.212, -1, -16.7621, 33.1287, 27.6778, -16.7836, -87.1965, -3.5783
0.216, -1, -16.6687, 33.0821, 27.6652, -16.6345, -87.0378, -3.64966
0.22, -1, -16.5751, 33.0353, 27.6527, -16.4851, -86.8788, -3.72113
0.224, -1, -16.4812, 32.9885, 27.6401, -16.3356, -86.7197, -3.79268
0.228, -1, -16.3872, 32.9416, 27.6275, -16.1859, -86.5604, -3.8643
0.232, -1, -16.2931, 32.8947, 27.6149, -16.0361, -86.4009, -3.936
0.236, -1, -16.1988, 32.8477, 27.6023, -15.8861, -86.2413, -4.00777
0.24, -1, -16.1045, 32.8006, 27.5897, -15.736, -86.0815, -4.0796
0.244, -1, -16.01, 32.7535, 27.5771, -15.5857, -85.9216, -4.15149
0.248, -1, -15.9155, 32.7064, 27.5645, -15.4354, -85.7616, -4.22345
0.252, -1, -15.8209, 32.6592, 27.5518, -15.2849, -85.6014, -4.29546
0.256, -1, -15.7262, 32.6119, 27.5392, -15.1343, -85.4411, -4.36752
0.26, -1, -15.6314, 32.5647, 27.5265, -14.9836, -85.2807, -4.43964
0.264, -1, -15.5366, 32.5174, 27.5139, -14.8327, -85.1202, -4.5118
0.268, -1, -15.4417, 32.4701, 27.5012, -14.6818, -84.9596, -4.58402
0.272, -1, -15.3467, 32.4227, 27.4885, -14.5308, -84.7989, -4.65628
0.276, -1, -15.2517, 32.3753, 27.4758, -14.3797, -84.638, -4.72859
0.28, -1, -15.1566, 32.3279, 27.4631, -14.2285, -84.4771, -4.80094
0.284, -1, -15.0615, 32.2805, 27.4504, -14.0772, -84.3161, -4.87333
0.288, -1, -14.9663, 32.233, 27.4377, -13.9258, -84.155, -4.94576
0.292, -1, -14.8711, 32.1855, 27.425, -13.7744, -83.9938, -5.01823
0.296, -1, -14.7758, 32.138, 27.4123, -13.6229, -83.8326, -5.09074
0.3, -1, -14.6805, 32.0905, 27.3995, -13.4713, -83.6712, -5.16327
0.304, -1, -14.5851, 32.0429, 27.3868, -13.3196, -83.5098, -5.23584
0.308, -1, -14.4897, 31.9953, 27.3741, -13.1679, -83.3484, -5.30844
0.312, -1, -14.3943, 31.9478, 27.3613, -13.0161, -83.1868, -5.38107
0.316, -1, -14.2988, 31.9001, 27.3486, -12.8643, -83.0252, -5.45372
0.32, -1, -14.2033, 31.8525, 27.3358, -12.7124, -82.8636, -5.5264
0.324, -1, -14.1078, 31.8049, 27.3231, -12.5604, -82.7019, -5.5991
0.328, -1, -14.0122, 31.7572, 27.3103, -12.4085, -82.5401, -5.67183
0.332, -1, -13.9167, 31.7096, 27.2975, -12.2564, -82.3784, -5.74457
0.336, -1, -13.8211, 31.6619, 27.2848, -12.1044, -82.2165, -5.81732
0.34, -1, -13.7255, 31.6142, 27.272, -11.9523, -82.0547, -5.89009
0.344, -1, -13.6298, 31.5665, 27.2592, -11.8002, -81.8928, -5.96287
0.348, -1, -13.5342, 31.5188, 27.2464, -11.6481, -81.7309, -6.03567
0.352, -1, -13.4385, 31.4711, 27.2337, -11.4959, -81.569, -6.10847
0.356, -1, -13.3429, 31.4234, 27.2209, -11.3438, -81.4071, -6.18127
0.36, -1, -13.2472, 31.3757, 27.2081, -11.1916, -81.2451, -6.25408
0.364, -1, -13.1516, 31.328, 27.1953, -11.0395, -81.0832, -6.32689
0.368, -1, -13.0559, 31.2803, 27.1825, -10.8873, -80.9212, -6.3997
0.372, -1, -12.9603, 31.2326, 27.1697, -10.7352, -80.7593, -6.47251
0.376, -1, -12.8646, 31.1849, 27.157, -10.583, -80.5974, -6.54531
0.38, -1, -12.769, 31.1372, 27.1442, -10.4309, -80.4355, -6.6181
0.384, -1, -12.6734, 31.0895, 27.1314, -10.2788, -80.2736, -6.69088
0.388, -1, -12.5777, 31.0418, 27.1186, -10.1267, -80.1118, -6.76365
0.392, -1, -12.4822, 30.9941, 27.1059, -9.97466, -79.9499, -6.8364
0.396, -1, -12.3866, 30.9465, 27.0931, -9.82266, -79.7882, -6.90914
0.4, -1, -12.291, 30.8988, 27.0803, -9.67069, -79.6264, -6.98185
0.404, -1, -12.1955, 30.8512, 27.0676, -9.51877, -79.4647, -7.05455
0.408, -1, -12.1, 30.8036, 27.0548, -9.36689, -79.3031, -7.12722
0.412, -1, -12.0046, 30.756, 27.0421, -9.21508, -79.1415, -7.19987
0.416, -1, -11.9092, 30.7084, 27.0293, -9.06332, -78.98, -7.27248
0.42, -1, -11.8138, 30.6608, 27.0166, -8.91163, -78.8186, -7.34507
0.424, -1, -11.7184, 30.6133, 27.0038, -8.76, -78.6572, -7.41762
0.428, -1, -11.6231, 30.5658, 26.9911, -8.60845, -78.4959, -7.49014
0.432, -1, -11.5279, 30.5183, 26.9784, -8.45698, -78.3347, -7.56262
0.436, -1, -11.4326, 30.4708, 26.9657, -8.30559, -78.1736, -7.63506
0.44, -1, -11.3375, 30.4234, 26.953, -8.15429, -78.0126, -7.70745
0.444, -1, -11.2424, 30.376, 26.9403, -8.00308, -77.8517, -7.77981
0.448, -1, -11.1473, 30.3286, 26.9276, -7.85197, -77.6908, -7.85211
0.452, -1, -11.0524, 30.2813, 26.9149, -7.70096, -77.5301, -7.92437
0.456, -1, -10.9574, 30.2339, 26.9022, -7.55005, -77.3695, -7.99658
0.46, -1, -10.8626, 30.1867, 26.8895, -7.39926, -77.209, -8.06874
0.464, -1, -10.7678, 30.1394, 26.8769, -7.24857, -77.0487, -8.14084
0.468, -1, -10.6731, 30.0922, 26.8642, -7.09801, -76.8884, -8.21289
0.472, -1, -10.5785, 30.045, 26.8516, -6.94757, -76.7283, -8.28487
0.476, -1, -10.4839, 29.9979, 26.839, -6.79726, -76.5683, -8.3568
0.48, -1, -10.3895, 29.9508, 26.8264, -6.64708, -76.4085, -8.42866
0.484, -1, -10.2951, 29.9038, 26.8138, -6.49703, -76.2488, -8.50046
0.488, -1, -10.2008, 29.8568, 26.8012, -6.34712, -76.0893, -8.57219
0.492, -1, -10.1066, 29.8098, 26.7886, -6.19736, -75.9299, -8.64385
0.496, -1, -10.0125, 29.7629, 26.776, -6.04775, -75.7707, -8.71544
0.5, -1, -9.91844, 29.716, 26.7635, -5.89829, -75.6116, -8.78695
0.504, -1, -9.82452, 29.6692, 26.7509, -5.74898, -75.4527, -8.8584
0.508, -1, -9.73069, 29.6225, 26.7384, -5.59984, -75.294, -8.92976
0.512, -1, -9.63697, 29.5757, 26.7259, -5.45086, -75.1354, -9.00105
0.516, -1, -9.54335, 29.5291, 26.7134, -5.30204, -74.977, -9.07226
0.52, -1, -9.44984, 29.4825, 26.7009, -5.1534, -74.8188, -9.14339
0.524, -1, -9.35644, 29.4359, 26.6884, -5.00493, -74.6608, -9.21443
0.528, -1, -9.26314, 29.3894, 26.676, -4.85664, -74.503, -9.28539
0.532, -1, -9.16997, 29.343, 26.6635, -4.70853, -74.3454, -9.35626
0.536, -1, -9.0769, 29.2966, 26.6511, -4.56061, -74.188, -9.42704
0.54, -1, -8.98396, 29.2503, 26.6387, -4.41288, -74.0307, -9.49773
0.544, -1, -8.89113, 29.204, 26.6263, -4.26534, -73.8737, -9.56833
0.548, -1, -8.79843, 29.1578, 26.6139, -4.11799, -73.7169, -9.63883
0.552, -1, -8.70584, 29.1116, 26.6016, -3.97084, -73.5603, -9.70924
0.556, -1, -8.61339, 29.0656, 26.5892, -3.82389, -73.4039, -9.77956
0.56, -1, -8.52106, 29.0196, 26.5769, -3.67715, -73.2477, -9.84978
0.564, -1, -8.42886, 28.9736, 26.5646, -3.53062, -73.0918, -9.91989
0.568, -1, -8.3368, 28.9277, 26.5523, -3.38429, -72.936, -9.98991
0.572, -1, -8.24486, 28.8819, 26.54, -3.23818, -72.7805, -10.0598
0.576, -1, -8.15307, 28.8361, 26.5278, -3.09229, -72.6253, -10.1296
0.58, -1, -8.06141, 28.7905, 26.5155, -2.94661, -72.4702, -10.1993
0.584, -1, -7.96988, 28.7448, 26.5033, -2.80116, -72.3154, -10.2689
0.588, -1, -7.8785, 28.6993, 26.4911, -2.65593, -72.1609, -10.3384
0.592, -1, -7.78726, 28.6538, 26.4789, -2.51093, -72.0065, -10.4078
0.596, -1, -7.69617, 28.6084, 26.4668, -2.36616, -71.8525, -10.4771
0.6, -1, -7.60522, 28.5631, 26.4546, -2.22162, -71.6986, -10.5463
0.604, -1, -7.51441, 28.5178, 26.4425, -2.07732, -71.5451, -10.6153
0.608, -1, -7.42376, 28.4727, 26.4304, -1.93325, -71.3917, -10.6842
0.612, -1, -7.33326, 28.4276, 26.4183, -1.78942, -71.2387, -10.7531
0.616, -1, -7.2429, 28.3825, 26.4063, -1.64584, -71.0859, -10.8218
0.62, -1, -7.1527, 28.3376, 26.3942, -1.5025, -70.9333, -10.8904
0.624, -1, -7.06265, 28.2927, 26.3822, -1.3594, -70.781, -10.9588
0.628, -1, -6.97276, 28.2479, 26.3702, -1.21656, -70.629, -11.0272
0.632, -1, -6.88303, 28.2032, 26.3582, -1.07396, -70.4772, -11.0954
0.636, -1, -6.79346, 28.1585, 26.3463, -0.931622, -70.3257, -11.1635
0.64, -1, -6.70404, 28.114, 26.3344, -0.789537, -70.1745, -11.2315
0.644, -1, -6.61479, 28.0695, 26.3224, -0.647708, -70.0236, -11.2994
0.648, -1, -6.5257, 28.0251, 26.3106, -0.506139, -69.8729, -11.3671
0.652, -1, -6.43677, 27.9808, 26.2987, -0.364831, -69.7225, -11.4347
0.656, -1, -6.34801, 27.9366, 26.2868, -0.223785, -69.5724, -11.5022
0.66, -1, -6.25941, 27.8924, 26.275, -0.0830049, -69.4226, -11.5696
0.664, -1, -6.17098, 27.8483, 26.2632, 0.057509, -69.273, -11.6368
0.668, -1, -6.08272, 27.8044, 26.2514, 0.197755, -69.1238, -11.7039
0.672, -1, -5.99463, 27.7605, 26.2397, 0.33773, -68.9748, -11.7709
0.676, -1, -5.9067, 27.7166, 26.2279, 0.477435, -68.8261, -11.8378
0.68, -1, -5.81895, 27.6729, 26.2162, 0.616866, -68.6777, -11.9045
0.684, -1, -5.73137, 27.6293, 26.2045, 0.756022, -68.5296, -11.9711
0.688, -1, -5.64396, 27.5857, 26.1929, 0.894902, -68.3818, -12.0375
0.692, -1, -5.55673, 27.5422, 26.1812, 1.0335, -68.2343, -12.1038
0.696, -1, -5.46968, 27.4988, 26.1696, 1.17183, -68.0871, -12.17
0.7, -1, -5.38279, 27.4556, 26.158, 1.30987, -67.9402, -12.2361
0.704, -1, -5.29609, 27.4123, 26.1465, 1.44763, -67.7936, -12.302
0.708, -1, -5.20956, 27.3692, 26.1349, 1.58511, -67.6473, -12.3678
0.712, -1, -5.12321, 27.3262, 26.1234, 1.72231, -67.5013, -12.4334
0.716, -1, -5.03704, 27.2833, 26.1119, 1.85921, -67.3555, -12.4989
0.72, -1, -4.95105, 27.2404, 26.1004, 1.99584, -67.2101, -12.5643
0.724, -1, -4.86524, 27.1976, 26.089, 2.13217, -67.065, -12.6296
0.728, -1, -4.77961, 27.155, 26.0775, 2.26822, -66.9203, -12.6947
0.732, -1, -4.69416, 27.1124, 26.0661, 2.40397, -66.7758, -12.7596
0.736, -1, -4.6089, 27.0699, 26.0548, 2.53944, -66.6316, -12.8244
0.74, -1, -4.52381, 27.0275, 26.0434, 2.67461, -66.4877, -12.8891
0.744, -1, -4.43891, 26.9852, 26.0321, 2.8095, -66.3442, -12.9537
0.748, -1, -4.3542, 26.943, 26.0208, 2.94408, -66.201, -13.0181
0.752, -1, -4.26966, 26.9009, 26.0095, 3.07838, -66.058, -13.0823
0.756, -1, -4.18531, 26.8588, 25.9983, 3.21238, -65.9154, -13.1464
0.76, -1, -4.10115, 26.8169, 25.987, 3.34609, -65.7731, -13.2104
0.764, -1, -4.01717, 26.775, 25.9758, 3.4795, -65.6311, -13.2743
0.768, -1, -3.93337, 26.7333, 25.9646, 3.61261, -65.4895, -13.338
0.772, -1, -3.84976, 26.6916, 25.9535, 3.74543, -65.3481, -13.4015
0.776, -1, -3.76633, 26.65, 25.9424, 3.87795, -65.2071, -13.4649
0.78, -1, -3.68309, 26.6086, 25.9313, 4.01018, -65.0664, -13.5282
0.784, -1, -3.60003, 26.5672, 25.9202, 4.14211, -64.9259, -13.5913
0.788, -1, -3.51716, 26.5259, 25.9091, 4.27375, -64.7858, -13.6543
0.792, -1, -3.43447, 26.4847, 25.8981, 4.40509, -64.6461, -13.7172
0.796, -1, -3.35197, 26.4436, 25.8871, 4.53613, -64.5066, -13.7799
0.8, -1, -3.26966, 26.4026, 25.8761, 4.66688, -64.3674, -13.8424
0.804, -1, -3.18753, 26.3616, 25.8652, 4.79734, -64.2286, -13.9049
0.808, -1, -3.10558, 26.3208, 25.8542, 4.9275, -64.0901, -13.9671
0.812, -1, -3.02382, 26.2801, 25.8433, 5.05736, -63.9519, -14.0293
0.816, -1, -2.94225, 26.2394, 25.8324, 5.18693, -63.814, -14.0913
0.82, -1, -2.86085, 26.1989, 25.8216, 5.31621, -63.6764, -14.1531
0.824, -1, -2.77965, 26.1584, 25.8108, 5.4452, -63.5391, -14.2149
0.828, -1, -2.69862, 26.118, 25.8, 5.57389, -63.4021, -14.2764
0.832, -1, -2.61778, 26.0777, 25.7892, 5.70229, -63.2655, -14.3379
0.836, -1, -2.53713, 26.0375, 25.7784, 5.8304, -63.1292, -14.3992
0.84, -1, -2.45665, 25.9974, 25.7677, 5.95822, -62.9931, -14.4603
0.844, -1, -2.37636, 25.9574, 25.757, 6.08575, -62.8574, -14.5214
0.848, -1, -2.29625, 25.9175, 25.7463, 6.21298, -62.722, -14.5823
0.852, -1, -2.21633, 25.8777, 25.7356, 6.33993, -62.5869, -14.643
0.856, -1, -2.13658, 25.838, 25.725, 6.46659, -62.4521, -14.7036
0.86, -1, -2.05702, 25.7983, 25.7144, 6.59296, -62.3176, -14.7641
0.864, -1, -1.97764, 25.7588, 25.7038, 6.71904, -62.1834, -14.8244
0.868, -1, -1.89844, 25.7193, 25.6932, 6.84484, -62.0495, -14.8846
0.872, -1, -1.81942, 25.6799, 25.6827, 6.97035, -61.916, -14.9447
0.876, -1, -1.74058, 25.6406, 25.6722, 7.09557, -61.7827, -15.0046
0.88, -1, -1.66192, 25.6014, 25.6617, 7.2205, -61.6497, -15.0644
0.884, -1, -1.58344, 25.5623, 25.6512, 7.34516, -61.5171, -15.124
0.888, -1, -1.50513, 25.5233, 25.6408, 7.46952, -61.3847, -15.1835
0.892, -1, -1.42701, 25.4844, 25.6304, 7.5936, -61.2526, -15.2429
0.896, -1, -1.34906, 25.4456, 25.62, 7.7174, -61.1209, -15.3021
0.9, -1, -1.2713, 25.4068, 25.6096, 7.84092, -60.9894, -15.3612
0.904, -1, -1.19371, 25.3681, 25.5993, 7.96415, -60.8583, -15.4202
0.908, -1, -1.11629, 25.3296, 25.5889, 8.08711, -60.7274, -15.479
0.912, -1, -1.03905, 25.2911, 25.5786, 8.20978, -60.5969, -15.5377
0.916, -1, -0.961994, 25.2527, 25.5684, 8.33217, -60.4666, -15.5963
0.92, -1, -0.885109, 25.2144, 25.5581, 8.45428, -60.3366, -15.6547
0.924, -1, -0.808399, 25.1762, 25.5479, 8.57612, -60.207, -15.713
0.928, -1, -0.731865, 25.138, 25.5377, 8.69767, -60.0776, -15.7712
0.932, -1, -0.655505, 25.1, 25.5275, 8.81895, -59.9485, -15.8292
0.936, -1, -0.579319, 25.062, 25.5173, 8.93995, -59.8198, -15.8871
0.94, -1, -0.503307, 25.0241, 25.5072, 9.06068, -59.6913, -15.9449
0.944, -1, -0.427468, 24.9863, 25.4971, 9.18113, -59.5631, -16.0025
0.948, -1, -0.351802, 24.9486, 25.487, 9.30131, -59.4352, -16.06
0.952, -1, -0.276308, 24.911, 25.4769, 9.42121, -59.3076, -16.1174
0.956, -1, -0.200986, 24.8735, 25.4669, 9.54084, -59.1803, -16.1746
0.96, -1, -0.125835, 24.8361, 25.4569, 9.66019, -59.0532, -16.2318
0.964, -1, -0.0508559, 24.7987, 25.4469, 9.77928, -58.9265, -16.2887
0.968, -1, 0.023953, 24.7614, 25.4369, 9.89809, -58.8001, -16.3456
0.972, -1, 0.0985918, 24.7242, 25.4269, 10.0166, -58.6739, -16.4023
0.976, -1, 0.173061, 24.6871, 25.417, 10.1349, -58.548, -16.4589
0.98, -1, 0.247361, 24.6501, 25.4071, 10.2529, -58.4224, -16.5154
0.984, -1, 0.321492, 24.6132, 25.3972, 10.3706, -58.2971, -16.5717
0.988, -1, 0.395455, 24.5763, 25.3873, 10.4881, -58.1721, -16.6279
0.992, -1, 0.469251, 24.5395, 25.3775, 10.6053, -58.0474, -16.684
0.996, -1, 0.542879, 24.5028, 25.3677, 10.7223, -57.9229, -16.74
1, -1, 0.61634, 24.4662, 25.3579, 10.8389, -57.7988, -16.7958
1.004, -1, 0.689635, 24.4297, 25.3481, 10.9553, -57.6749, -16.8515
1.008, -1, 0.762764, 24.3933, 25.3384, 11.0715, -57.5513, -16.9071
1.012, -1, 0.835728, 24.3569, 25.3286, 11.1874, -57.4279, -16.9625
1.016, -1, 0.908526, 24.3207, 25.3189, 11.303, -57.3049, -17.0178
1.02, -1, 0.981161, 24.2845, 25.3092, 11.4183, -57.1821, -17.073
1.024, -1, 1.05363, 24.2484, 25.2996, 11.5334, -57.0596, -17.1281
1.027, -1, 1.12594, 24.2123, 25.2899, 11.6483, -56.9374, -17.1831
1.032, -1, 1.19808, 24.1764, 25.2803, 11.7629, -56.8155, -17.2379
1.036, -1, 1.27007, 24.1405, 25.2707, 11.8772, -56.6938, -17.2926
1.04, -1, 1.34189, 24.1047, 25.2611, 11.9912, -56.5724, -17.3472
1.044, -1, 1.41355, 24.069, 25.2516, 12.105, -56.4513, -17.4016
1.048, -1, 1.48505, 24.0334, 25.2421, 12.2186, -56.3304, -17.456
1.052, -1, 1.55639, 23.9978, 25.2325, 12.3319, -56.2098, -17.5102
1.055, -1, 1.62757, 23.9624, 25.2231, 12.4449, -56.0895, -17.5643
1.06, -1, 1.69859, 23.927, 25.2136, 12.5577, -55.9695, -17.6182
1.064, -1, 1.76945, 23.8917, 25.2041, 12.6703, -55.8497, -17.6721
1.068, -1, 1.84016, 23.8565, 25.1947, 12.7826, -55.7302, -17.7258
1.072, -1, 1.91071, 23.8213, 25.1853, 12.8946, -55.611, -17.7794
1.076, -1, 1.9811, 23.7862, 25.1759, 13.0064, -55.492, -17.8329
1.08, -1, 2.05134, 23.7512, 25.1666, 13.1179, -55.3733, -17.8863
1.084, -1, 2.12143, 23.7163, 25.1572, 13.2292, -55.2549, -17.9396
1.088, -1, 2.19136, 23.6815, 25.1479, 13.3403, -55.1367, -17.9927
1.091, -1, 2.26113, 23.6467, 25.1386, 13.4511, -55.0187, -18.0457
1.096, -1, 2.33076, 23.612, 25.1293, 13.5616, -54.9011, -18.0986
1.1, -1, 2.40023, 23.5774, 25.12, 13.672, -54.7837, -18.1514
1.104, -1, 2.46955, 23.5429, 25.1108, 13.7821, -54.6665, -18.2041
1.108, -1, 2.53871, 23.5084, 25.1016, 13.8919, -54.5496, -18.2567
1.112, -1, 2.60773, 23.474, 25.0924, 14.0015, -54.4329, -18.3091
1.116, -1, 2.6766, 23.4397, 25.0832, 14.1109, -54.3166, -18.3614
1.119, -1, 2.74532, 23.4055, 25.074, 14.22, -54.2004, -18.4137
1.124, -1, 2.8139, 23.3713, 25.0649, 14.3289, -54.0845, -18.4658
1.128, -1, 2.88232, 23.3372, 25.0558, 14.4376, -53.9689, -18.5178
1.132, -1, 2.9506, 23.3032, 25.0467, 14.546, -53.8535, -18.5696
1.136, -1, 3.01874, 23.2692, 25.0376, 14.6542, -53.7383, -18.6214
1.14, -1, 3.08673, 23.2353, 25.0285, 14.7622, -53.6234, -18.6731
1.144, -1, 3.15457, 23.2015, 25.0195, 14.8699, -53.5087, -18.7246
1.147, -1, 3.22227, 23.1678, 25.0104, 14.9774, -53.3943, -18.7761
1.152, -1, 3.28983, 23.1341, 25.0014, 15.0847, -53.2801, -18.8274
1.156, -1, 3.35725, 23.1006, 24.9925, 15.1918, -53.1662, -18.8786
1.16, -1, 3.42452, 23.067, 24.9835, 15.2986, -53.0525, -18.9298
1.164, -1, 3.49165, 23.0336, 24.9745, 15.4052, -52.939, -18.9808
1.168, -1, 3.55865, 23.0002, 24.9656, 15.5116, -52.8258, -19.0317
1.172, -1, 3.6255, 22.9669, 24.9567, 15.6178, -52.7128, -19.0825
1.175, -1, 3.69221, 22.9337, 24.9478, 15.7237, -52.6001, -19.1332
1.18, -1, 3.75879, 22.9005, 24.9389, 15.8294, -52.4876, -19.1838
1.184, -1, 3.82523, 22.8674, 24.9301, 15.9349, -52.3753, -19.2343
1.188, -1, 3.89153, 22.8343, 24.9212, 16.0402, -52.2632, -19.2846
1.192, -1, 3.95769, 22.8014, 24.9124, 16.1453, -52.1514, -19.3349
1.196, -1, 4.02372, 22.7685, 24.9036, 16.2501, -52.0398, -19.3851
1.2, -1, 4.08961, 22.7356, 24.8948, 16.3548, -51.9284, -19.4352
1.204, -1, 4.15537, 22.7029, 24.886, 16.4592, -51.8173, -19.4851
1.208, -1, 4.221, 22.6702, 24.8773, 16.5634, -51.7064, -19.535
1.212, -1, 4.28649, 22.6376, 24.8686, 16.6674, -51.5957, -19.5848
1.216, -1, 4.35185, 22.605, 24.8599, 16.7712, -51.4852, -19.6344
1.22, -1, 4.41707, 22.5725, 24.8512, 16.8748, -51.375, -19.684
1.224, -1, 4.48217, 22.54, 24.8425, 16.9782, -51.265, -19.7335
1.228, -1, 4.54713, 22.5077, 24.8338, 17.0814, -51.1552, -19.7828
1.232, -1, 4.61196, 22.4754, 24.8252, 17.1843, -51.0456, -19.8321
1.236, -1, 4.67667, 22.4431, 24.8166, 17.2871, -50.9362, -19.8813
1.24, -1, 4.74124, 22.411, 24.8079, 17.3896, -50.8271, -19.9303
1.244, -1, 4.80569, 22.3788, 24.7994, 17.492, -50.7182, -19.9793
1.248, -1, 4.87, 22.3468, 24.7908, 17.5941, -50.6095, -20.0282
1.252, -1, 4.93419, 22.3148, 24.7822, 17.696, -50.501, -20.077
1.256, -1, 4.99826, 22.2829, 24.7737, 17.7978, -50.3927, -20.1256
1.26, -1, 5.06219, 22.251, 24.7652, 17.8993, -50.2846, -20.1742
1.264, -1, 5.126, 22.2192, 24.7566, 18.0007, -50.1768, -20.2227
1.267, -1, 5.18969, 22.1875, 24.7482, 18.1018, -50.0692, -20.2711
1.272, -1, 5.25325, 22.1558, 24.7397, 18.2027, -49.9617, -20.3194
1.276, -1, 5.31669, 22.1242, 24.7312, 18.3035, -49.8545, -20.3676
1.28, -1, 5.38, 22.0927, 24.7228, 18.404, -49.7475, -20.4157
1.284, -1, 5.44319, 22.0612, 24.7144, 18.5044, -49.6407, -20.4638
1.288, -1, 5.50626, 22.0298, 24.706, 18.6045, -49.5341, -20.5117
1.292, -1, 5.56921, 21.9984, 24.6976, 18.7045, -49.4277, -20.5595
1.295, -1, 5.63203, 21.9671, 24.6892, 18.8043, -49.3215, -20.6073
1.3, -1, 5.69473, 21.9359, 24.6808, 18.9038, -49.2156, -20.6549
1.304, -1, 5.75732, 21.9047, 24.6725, 19.0032, -49.1098, -20.7025
1.308, -1, 5.81978, 21.8736, 24.6642, 19.1024, -49.0042, -20.7499
1.312, -1, 5.88212, 21.8425, 24.6558, 19.2014, -48.8988, -20.7973
1.316, -1, 5.94435, 21.8115, 24.6475, 19.3003, -48.7937, -20.8446
1.32, -1, 6.00646, 21.7805, 24.6393, 19.3989, -48.6887, -20.8918
1.324, -1, 6.06845, 21.7497, 24.631, 19.4973, -48.5839, -20.9389
1.328, -1, 6.13032, 21.7188, 24.6228, 19.5956, -48.4794, -20.9859
1.332, -1, 6.19207, 21.6881, 24.6145, 19.6937, -48.375, -21.0328
1.336, -1, 6.25371, 21.6573, 24.6063, 19.7916, -48.2708, -21.0797
1.34, -1, 6.31523, 21.6267, 24.5981, 19.8893, -48.1668, -21.1264
1.344, -1, 6.37664, 21.5961, 24.5899, 19.9868, -48.063, -21.1731
1.348, -1, 6.43793, 21.5655, 24.5817, 20.0841, -47.9594, -21.2197
1.352, -1, 6.49911, 21.5351, 24.5736, 20.1813, -47.856, -21.2662
1.356, -1, 6.56018, 21.5046, 24.5654, 20.2783, -47.7528, -21.3126
1.36, -1, 6.62113, 21.4743, 24.5573, 20.3751, -47.6498, -21.3589
1.364, -1, 6.68197, 21.4439, 24.5492, 20.4717, -47.547, -21.4051
1.368, -1, 6.74269, 21.4137, 24.5411, 20.5681, -47.4443, -21.4513
1.372, -1, 6.80331, 21.3835, 24.533, 20.6644, -47.3419, -21.4973
1.376, -1, 6.86381, 21.3533, 24.525, 20.7605, -47.2396, -21.5433
1.38, -1, 6.9242, 21.3232, 24.5169, 20.8564, -47.1375, -21.5892
1.384, -1, 6.98448, 21.2932, 24.5089, 20.9521, -47.0357, -21.635
1.388, -1, 7.04465, 21.2632, 24.5009, 21.0477, -46.934, -21.6807
1.392, -1, 7.10471, 21.2333, 24.4928, 21.1431, -46.8324, -21.7264
1.396, -1, 7.16467, 21.2034, 24.4849, 21.2383, -46.7311, -21.7719
1.4, -1, 7.22451, 21.1736, 24.4769, 21.3333, -46.63, -21.8174
1.404, -1, 7.28425, 21.1438, 24.4689, 21.4282, -46.529, -21.8628
1.408, -1, 7.34387, 21.1141, 24.461, 21.5229, -46.4282, -21.9081
1.412, -1, 7.4034, 21.0845, 24.453, 21.6174, -46.3276, -21.9534
1.416, -1, 7.46281, 21.0549, 24.4451, 21.7118, -46.2272, -21.9985
1.42, -1, 7.52212, 21.0253, 24.4372, 21.806, -46.1269, -22.0436
1.424, -1, 7.58133, 20.9958, 24.4293, 21.9, -46.0269, -22.0886
1.428, -1, 7.64043, 20.9664, 24.4214, 21.9938, -45.927, -22.1335
1.432, -1, 7.69943, 20.937, 24.4136, 22.0875, -45.8273, -22.1783
1.436, -1, 7.75832, 20.9076, 24.4057, 22.181, -45.7278, -22.2231
1.44, -1, 7.81711, 20.8783, 24.3979, 22.2744, -45.6284, -22.2677
1.444, -1, 7.8758, 20.8491, 24.3901, 22.3676, -45.5292, -22.3123
1.448, -1, 7.93438, 20.8199, 24.3822, 22.4606, -45.4302, -22.3568
1.452, -1, 7.99287, 20.7908, 24.3744, 22.5535, -45.3314, -22.4013
1.456, -1, 8.05125, 20.7617, 24.3667, 22.6462, -45.2327, -22.4456
1.46, -1, 8.10953, 20.7326, 24.3589, 22.7387, -45.1342, -22.4899
1.464, -1, 8.16771, 20.7037, 24.3511, 22.8311, -45.0359, -22.5341
1.468, -1, 8.22578, 20.6747, 24.3434, 22.9234, -44.9378, -22.5783
1.472, -1, 8.28376, 20.6458, 24.3357, 23.0154, -44.8398, -22.6223
1.476, -1, 8.34164, 20.617, 24.328, 23.1073, -44.742, -22.6663
1.48, -1, 8.39942, 20.5882, 24.3203, 23.1991, -44.6443, -22.7102
1.484, -1, 8.4571, 20.5595, 24.3126, 23.2907, -44.5468, -22.754
1.488, -1, 8.51469, 20.5308, 24.3049, 23.3821, -44.4495, -22.7978
1.492, -1, 8.57218, 20.5021, 24.2972, 23.4734, -44.3523, -22.8415
1.496, -1, 8.62957, 20.4735, 24.2896, 23.5645, -44.2554, -22.8851
1.5, -1, 8.68686, 20.445, 24.2819, 23.6555, -44.1585, -22.9286
1.504, -1, 8.74406, 20.4165, 24.2743, 23.7464, -44.0619, -22.9721
1.508, -1, 8.80116, 20.388, 24.2667, 23.837, -43.9654, -23.0155
1.512, -1, 8.85816, 20.3596, 24.2591, 23.9276, -43.869, -23.0588
1.516, -1, 8.91508, 20.3313, 24.2515, 24.0179, -43.7728, -23.102
1.52, -1, 8.97189, 20.303, 24.2439, 24.1082, -43.6768, -23.1452
1.524, -1, 9.02862, 20.2747, 24.2364, 24.1982, -43.5809, -23.1883
1.528, -1, 9.08525, 20.2465, 24.2288, 24.2882, -43.4852, -23.2313
1.532, -1, 9.14179, 20.2183, 24.2213, 24.378, -43.3897, -23.2743
1.536, -1, 9.19823, 20.1902, 24.2138, 24.4676, -43.2943, -23.3172
1.54, -1, 9.25459, 20.1621, 24.2063, 24.5571, -43.199, -23.36
1.544, -1, 9.31085, 20.1341, 24.1988, 24.6464, -43.1039, -23.4028
1.548, -1, 9.36702, 20.1061, 24.1913, 24.7356, -43.009, -23.4454
1.552, -1, 9.4231, 20.0782, 24.1838, 24.8247, -42.9142, -23.4881
1.556, -1, 9.47909, 20.0503, 24.1763, 24.9136, -42.8196, -23.5306
1.56, -1, 9.53499, 20.0224, 24.1689, 25.0024, -42.7251, -23.5731
1.564, -1, 9.5908, 19.9946, 24.1614, 25.091, -42.6308, -23.6155
1.568, -1, 9.64652, 19.9668, 24.154, 25.1795, -42.5366, -23.6578
1.572, -1, 9.70215, 19.9391, 24.1466, 25.2678, -42.4426, -23.7001
1.576, -1, 9.7577, 19.9114, 24.1392, 25.3561, -42.3487, -23.7423
1.58, -1, 9.81316, 19.8838, 24.1318, 25.4441, -42.255, -23.7845
1.584, -1, 9.86852, 19.8562, 24.1244, 25.5321, -42.1614, -23.8265
1.588, -1, 9.92381, 19.8287, 24.117, 25.6198, -42.068, -23.8685
1.592, -1, 9.979, 19.8012, 24.1097, 25.7075, -41.9747, -23.9105
1.596, -1, 10.0341, 19.7737, 24.1023, 25.795, -41.8816, -23.9524
1.6, -1, 10.0891, 19.7463, 24.095, 25.8824, -41.7886, -23.9942
1.604, -1, 10.1441, 19.7189, 24.0877, 25.9696, -41.6957, -24.0359
1.608, -1, 10.1989, 19.6916, 24.0804, 26.0567, -41.603, -24.0776
1.612, -1, 10.2537, 19.6643, 24.0731, 26.1437, -41.5104, -24.1192
1.616, -1, 10.3084, 19.6371, 24.0658, 26.2306, -41.418, -24.1608
1.62, -1, 10.363, 19.6099, 24.0585, 26.3173, -41.3257, -24.2023
1.624, -1, 10.4175, 19.5827, 24.0512, 26.4038, -41.2336, -24.2437
1.628, -1, 10.4719, 19.5556, 24.044, 26.4903, -41.1416, -24.2851
1.632, -1, 10.5263, 19.5285, 24.0367, 26.5766, -41.0497, -24.3264
1.636, -1, 10.5806, 19.5015, 24.0295, 26.6628, -40.958, -24.3676
1.64, -1, 10.6347, 19.4745, 24.0223, 26.7488, -40.8664, -24.4088
1.644, -1, 10.6888, 19.4475, 24.0151, 26.8348, -40.775, -24.4499
1.648, -1, 10.7429, 19.4206, 24.0079, 26.9205, -40.6837, -24.4909
1.652, -1, 10.7968, 19.3937, 24.0007, 27.0062, -40.5925, -24.5319
1.656, -1, 10.8507, 19.3669, 23.9935, 27.0917, -40.5015, -24.5729
1.66, -1, 10.9044, 19.3401, 23.9863, 27.1771, -40.4106, -24.6137
1.664, -1, 10.9581, 19.3133, 23.9792, 27.2624, -40.3198, -24.6545
1.668, -1, 11.0118, 19.2866, 23.972, 27.3476, -40.2292, -24.6953
1.672, -1, 11.0653, 19.2599, 23.9649, 27.4326, -40.1387, -24.736
1.676, -1, 11.1188, 19.2333, 23.9577, 27.5175, -40.0484, -24.7766
1.68, -1, 11.1722, 19.2067, 23.9506, 27.6023, -39.9581, -24.8172
1.684, -1, 11.2255, 19.1801, 23.9435, 27.6869, -39.868, -24.8577
1.688, -1, 11.2787, 19.1536, 23.9364, 27.7715, -39.7781, -24.8981
1.692, -1, 11.3318, 19.1271, 23.9293, 27.8559, -39.6883, -24.9385
1.696, -1, 11.3849, 19.1007, 23.9223, 27.9401, -39.5986, -24.9788
1.7, -1, 11.4379, 19.0743, 23.9152, 28.0243, -39.509, -25.0191
1.704, -1, 11.4908, 19.0479, 23.9081, 28.1083, -39.4196, -25.0593
1.708, -1, 11.5437, 19.0216, 23.9011, 28.1923, -39.3303, -25.0995
1.712, -1, 11.5964, 18.9953, 23.8941, 28.2761, -39.2411, -25.1396
1.716, -1, 11.6491, 18.969, 23.887, 28.3597, -39.152, -25.1796
1.72, -1, 11.7017, 18.9428, 23.88, 28.4433, -39.0631, -25.2196
1.724, -1, 11.7543, 18.9166, 23.873, 28.5267, -38.9743, -25.2595
1.728, -1, 11.8067, 18.8905, 23.866, 28.61, -38.8856, -25.2994
1.732, -1, 11.8591, 18.8644, 23.859, 28.6932, -38.7971, -25.3392
1.736, -1, 11.9114, 18.8383, 23.8521, 28.7763, -38.7087, -25.3789
1.74, -1, 11.9637, 18.8123, 23.8451, 28.8593, -38.6204, -25.4186
1.744, -1, 12.0158, 18.7863, 23.8381, 28.9421, -38.5322, -25.4583
1.748, -1, 12.0679, 18.7604, 23.8312, 29.0248, -38.4442, -25.4979
1.752, -1, 12.1199, 18.7344, 23.8243, 29.1075, -38.3562, -25.5374
1.756, -1, 12.1719, 18.7086, 23.8173, 29.19, -38.2684, -25.5769
1.76, -1, 12.2238, 18.6827, 23.8104, 29.2723, -38.1808, -25.6163
1.764, -1, 12.2756, 18.6569, 23.8035, 29.3546, -38.0932, -25.6556
1.768, -1, 12.3273, 18.6311, 23.7966, 29.4368, -38.0058, -25.695
1.772, -1, 12.379, 18.6054, 23.7897, 29.5188, -37.9185, -25.7342
1.776, -1, 12.4305, 18.5797, 23.7829, 29.6007, -37.8313, -25.7734
1.78, -1, 12.4821, 18.554, 23.776, 29.6825, -37.7442, -25.8126
1.784, -1, 12.5335, 18.5284, 23.7691, 29.7642, -37.6573, -25.8517
1.788, -1, 12.5849, 18.5028, 23.7623, 29.8458, -37.5704, -25.8907
1.792, -1, 12.6362, 18.4772, 23.7554, 29.9273, -37.4837, -25.9297
1.796, -1, 12.6874, 18.4517, 23.7486, 30.0087, -37.3971, -25.9686
1.8, -1, 12.7386, 18.4262, 23.7418, 30.0899, -37.3106, -26.0075
1.804, -1, 12.7897, 18.4007, 23.735, 30.1711, -37.2243, -26.0463
1.808, -1, 12.8407, 18.3753, 23.7282, 30.2521, -37.1381, -26.0851
1.812, -1, 12.8916, 18.3499, 23.7214, 30.333, -37.0519, -26.1238
1.816, -1, 12.9425, 18.3246, 23.7146, 30.4138, -36.9659, -26.1625
1.82, -1, 12.9933, 18.2992, 23.7078, 30.4945, -36.88, -26.2011
1.824, -1, 13.0441, 18.274, 23.7011, 30.5751, -36.7942, -26.2397
1.828, -1, 13.0948, 18.2487, 23.6943, 30.6556, -36.7086, -26.2782
1.832, -1, 13.1454, 18.2235, 23.6876, 30.736, -36.623, -26.3167
1.836, -1, 13.1959, 18.1983, 23.6808, 30.8163, -36.5376, -26.3551
1.84, -1, 13.2464, 18.1731, 23.6741, 30.8965, -36.4523, -26.3934
1.844, -1, 13.2968, 18.148, 23.6674, 30.9765, -36.3671, -26.4317
1.848, -1, 13.3472, 18.1229, 23.6607, 31.0565, -36.282, -26.47
1.852, -1, 13.3975, 18.0979, 23.654, 31.1363, -36.197, -26.5082
1.856, -1, 13.4477, 18.0729, 23.6473, 31.2161, -36.1121, -26.5464
1.86, -1, 13.4978, 18.0479, 23.6406, 31.2957, -36.0273, -26.5845
1.864, -1, 13.5479, 18.0229, 23.6339, 31.3753, -35.9427, -26.6225
1.868, -1, 13.5979, 17.998, 23.6272, 31.4547, -35.8582, -26.6606
1.872, -1, 13.6479, 17.9731, 23.6206, 31.534, -35.7737, -26.6985
1.876, -1, 13.6978, 17.9482, 23.6139, 31.6133, -35.6894, -26.7364
1.88, -1, 13.7476, 17.9234, 23.6073, 31.6924, -35.6052, -26.7743
1.884, -1, 13.7974, 17.8986, 23.6006, 31.7714, -35.5211, -26.8121
1.888, -1, 13.8471, 17.8739, 23.594, 31.8504, -35.4371, -26.8499
1.892, -1, 13.8967, 17.8491, 23.5874, 31.9292, -35.3532, -26.8876
1.896, -1, 13.9463, 17.8244, 23.5808, 32.0079, -35.2694, -26.9253
1.9, -1, 13.9958, 17.7998, 23.5742, 32.0865, -35.1857, -26.9629
1.904, -1, 14.0452, 17.7751, 23.5676, 32.1651, -35.1021, -27.0005
1.908, -1, 14.0946, 17.7505, 23.561, 32.2435, -35.0187, -27.038
1.912, -1, 14.144, 17.7259, 23.5544, 32.3218, -34.9353, -27.0755
1.916, -1, 14.1932, 17.7014, 23.5479, 32.4001, -34.852, -27.1129
1.92, -1, 14.2424, 17.6769, 23.5413, 32.4782, -34.7689, -27.1503
1.924, -1, 14.2916, 17.6524, 23.5348, 32.5563, -34.6858, -27.1877
1.928, -1, 14.3406, 17.6279, 23.5282, 32.6342, -34.6029, -27.2249
1.932, -1, 14.3896, 17.6035, 23.5217, 32.712, -34.52, -27.2622
1.936, -1, 14.4386, 17.5791, 23.5152, 32.7898, -34.4373, -27.2994
1.94, -1, 14.4875, 17.5547, 23.5086, 32.8674, -34.3546, -27.3366
1.944, -1, 14.5363, 17.5304, 23.5021, 32.945, -34.2721, -27.3737
1.948, -1, 14.5851, 17.5061, 23.4956, 33.0225, -34.1896, -27.4107
1.952, -1, 14.6338, 17.4818, 23.4891, 33.0998, -34.1073, -27.4478
1.956, -1, 14.6825, 17.4576, 23.4826, 33.1771, -34.0251, -27.4847
1.96, -1, 14.7311, 17.4334, 23.4762, 33.2543, -33.9429, -27.5217
1.964, -1, 14.7796, 17.4092, 23.4697, 33.3314, -33.8609, -27.5586
1.968, -1, 14.8281, 17.385, 23.4632, 33.4084, -33.7789, -27.5954
1.972, -1, 14.8765, 17.3609, 23.4568, 33.4853, -33.6971, -27.6322
1.976, -1, 14.9249, 17.3368, 23.4503, 33.5621, -33.6153, -27.6689
1.98, -1, 14.9732, 17.3127, 23.4439, 33.6388, -33.5337, -27.7057
1.984, -1, 15.0214, 17.2887, 23.4375, 33.7154, -33.4521, -27.7423
1.988, -1, 15.0696, 17.2647, 23.431, 33.792, -33.3707, -27.7789
1.992, -1, 15.1178, 17.2407, 23.4246, 33.8684, -33.2893, -27.8155
1.996, -1, 15.1658, 17.2167, 23.4182, 33.9448, -33.2081, -27.8521
1.999, -1, 15.2139, 17.1928, 23.4118, 34.021, -33.1269, -27.8886
2.004, -1, 15.2618, 17.1689, 23.4054, 34.0972, -33.0458, -27.925
2.008, -1, 15.3097, 17.145, 23.399, 34.1733, -32.9649, -27.9614
2.012, -1, 15.3576, 17.1212, 23.3926, 34.2493, -32.884, -27.9978
2.015, -1, 15.4054, 17.0974, 23.3863, 34.3252, -32.8032, -28.0341
2.019, -1, 15.4531, 17.0736, 23.3799, 34.401, -32.7225, -28.0704
2.024, -1, 15.5008, 17.0498, 23.3735, 34.4767, -32.6419, -28.1066
2.028, -1, 15.5484, 17.0261, 23.3672, 34.5524, -32.5614, -28.1428
2.031, -1, 15.596, 17.0024, 23.3609, 34.6279, -32.481, -28.179
2.036, -1, 15.6435, 16.9787, 23.3545, 34.7034, -32.4007, -28.2151
2.04, -1, 15.691, 16.9551, 23.3482, 34.7788, -32.3205, -28.2511
2.044, -1, 15.7384, 16.9314, 23.3419, 34.8541, -32.2403, -28.2872
2.048, -1, 15.7857, 16.9079, 23.3356, 34.9293, -32.1603, -28.3232
2.051, -1, 15.833, 16.8843, 23.3293, 35.0044, -32.0803, -28.3591
2.055, -1, 15.8803, 16.8607, 23.323, 35.0794, -32.0005, -28.395
2.06, -1, 15.9275, 16.8372, 23.3167, 35.1544, -31.9207, -28.4309
2.064, -1, 15.9746, 16.8137, 23.3104, 35.2293, -31.841, -28.4667
2.068, -1, 16.0217, 16.7903, 23.3041, 35.304, -31.7615, -28.5025
2.071, -1, 16.0687, 16.7668, 23.2978, 35.3787, -31.682, -28.5382
2.076, -1, 16.1157, 16.7434, 23.2916, 35.4533, -31.6026, -28.5739
2.08, -1, 16.1626, 16.72, 23.2853, 35.5279, -31.5232, -28.6096
2.084, -1, 16.2095, 16.6967, 23.2791, 35.6023, -31.444, -28.6452
2.087, -1, 16.2563, 16.6734, 23.2728, 35.6767, -31.3649, -28.6808
2.092, -1, 16.3031, 16.6501, 23.2666, 35.751, -31.2858, -28.7163
2.096, -1, 16.3498, 16.6268, 23.2604, 35.8252, -31.2068, -28.7518
2.1, -1, 16.3965, 16.6035, 23.2541, 35.8993, -31.128, -28.7873
2.104, -1, 16.4431, 16.5803, 23.2479, 35.9733, -31.0492, -28.8227
2.107, -1, 16.4896, 16.5571, 23.2417, 36.0473, -30.9705, -28.8581
2.111, -1, 16.5361, 16.5339, 23.2355, 36.1211, -30.8919, -28.8935
2.116, -1, 16.5826, 16.5108, 23.2293, 36.1949, -30.8133, -28.9288
2.12, -1, 16.629, 16.4876, 23.2231, 36.2686, -30.7349, -28.964
2.124, -1, 16.6754, 16.4645, 23.2169, 36.3422, -30.6565, -28.9993
2.127, -1, 16.7217, 16.4415, 23.2108, 36.4158, -30.5783, -29.0345
2.132, -1, 16.7679, 16.4184, 23.2046, 36.4893, -30.5001, -29.0696
2.136, -1, 16.8141, 16.3954, 23.1984, 36.5626, -30.422, -29.1047
2.14, -1, 16.8603, 16.3724, 23.1923, 36.636, -30.3439, -29.1398
2.143, -1, 16.9064, 16.3494, 23.1861, 36.7092, -30.266, -29.1749
2.148, -1, 16.9525, 16.3265, 23.18, 36.7823, -30.1882, -29.2099
2.152, -1, 16.9985, 16.3035, 23.1739, 36.8554, -30.1104, -29.2448
2.156, -1, 17.0444, 16.2806, 23.1677, 36.9284, -30.0327, -29.2798
2.16, -1, 17.0903, 16.2578, 23.1616, 37.0013, -29.9551, -29.3146
2.163, -1, 17.136, 16.235, 23.1555, 37.0742, -29.8776, -29.3495
2.168, -1, 17.1814, 16.2123, 23.1494, 37.1469, -29.8002, -29.3843
2.172, -1, 17.2261, 16.1899, 23.1432, 37.2195, -29.7229, -29.4191
2.176, -1, 17.2699, 16.168, 23.1369, 37.2919, -29.6459, -29.4537
2.179, -1, 17.3126, 16.1465, 23.1306, 37.364, -29.5692, -29.4882
2.184, -1, 17.3541, 16.1257, 23.1243, 37.4355, -29.4931, -29.5224
2.188, -1, 17.3942, 16.1056, 23.1179, 37.5062, -29.4179, -29.5563
2.192, -1, 17.4331, 16.0862, 23.1116, 37.5758, -29.344, -29.5895
2.196, -1, 17.4706, 16.0676, 23.1053, 37.6437, -29.2717, -29.6221
2.199, -1, 17.5068, 16.0498, 23.0992, 37.7096, -29.2017, -29.6536
2.204, -1, 17.5414, 16.0329, 23.0933, 37.7731, -29.1342, -29.684
2.208, -1, 17.5743, 16.017, 23.0876, 37.8335, -29.07, -29.7129
2.212, -1, 17.6054, 16.0022, 23.0823, 37.8904, -29.0095, -29.7402
2.216, -1, 17.6346, 15.9882, 23.0774, 37.9435, -28.9531, -29.7656
2.219, -1, 17.662, 15.9751, 23.0729, 37.9922, -28.9013, -29.7889
2.224, -1, 17.6877, 15.9626, 23.0689, 38.0363, -28.8544, -29.81
2.228, -1, 17.7118, 15.9507, 23.0656, 38.0756, -28.8126, -29.8288
2.232, -1, 17.7344, 15.9393, 23.0628, 38.11, -28.7759, -29.8453
2.235, -1, 17.7552, 15.9285, 23.0605, 38.1397, -28.7443, -29.8594
2.24, -1, 17.7743, 15.9185, 23.0588, 38.1648, -28.7176, -29.8714
2.244, -1, 17.7915, 15.9094, 23.0575, 38.1856, -28.6954, -29.8814
2.248, -1, 17.8067, 15.9013, 23.0566, 38.2025, -28.6773, -29.8895
2.252, -1, 17.8202, 15.8942, 23.056, 38.216, -28.6629, -29.8959
2.255, -1, 17.832, 15.8881, 23.0557, 38.2265, -28.6516, -29.9009
2.259, -1, 17.8423, 15.8828, 23.0556, 38.2345, -28.643, -29.9048
2.264, -1, 17.8512, 15.8784, 23.0556, 38.2404, -28.6366, -29.9076
2.268, -1, 17.8587, 15.8748, 23.0557, 38.2447, -28.632, -29.9096
2.272, -1, 17.8648, 15.8719, 23.0559, 38.2477, -28.6287, -29.9111
2.275, 2, 17.8697, 15.8697, 23.056, 38.2499, -28.6264, -29.9121
2.28, 2, 17.8733, 15.8681, 23.0561, 38.2513, -28.6248, -29.9128
2.284, 2, 17.876, 15.867, 23.0562, 38.2523, -28.6238, -29.9132
2.288, 2, 17.8778, 15.8662, 23.0563, 38.253, -28.623, -29.9136
2.291, 2, 17.879, 15.8657, 23.0563, 38.2534, -28.6226, -29.9138
2.296, 2, 17.8798, 15.8653, 23.0563, 38.2537, -28.6222, -29.9139
2.3, 2, 17.8804, 15.8651, 23.0563, 38.2539, -28.622, -29.914
2.304, 2, 17.8808, 15.8649, 23.0564, 38.2541, -28.6218, -29.9141
2.308, 2, 17.881, 15.8648, 23.0564, 38.2542, -28.6217, -29.9141
2.311, 2, 17.8812, 15.8647, 23.0564, 38.2542, -28.6217, -29.9142
2.316, 2, 17.8813, 15.8647, 23.0564, 38.2543, -28.6216, -29.9142
2.32, 2, 17.8814, 15.8646, 23.0564, 38.2543, -28.6216, -29.9142
2.324, 2, 17.8815, 15.8646, 23.0564, 38.2543, -28.6216, -29.9142
2.328, 2, 17.8815, 15.8646, 23.0564, 38.2543, -28.6215, -29.9142
2.331, 2, 17.8815, 15.8646, 23.0564, 38.2543, -28.6215, -29.9142
2.336, 2, 17.8815, 15.8646, 23.0564, 38.2544, -28.6215, -29.9142
2.34, 2, 17.8815, 15.8646, 23.0564, 38.2544, -28.6215, -29.9142
2.344, 2, 17.8816, 15.8646, 23.0564, 38.2544, -28.6215, -29.9142
2.347, 2, 17.8816, 15.8646, 23.0564, 38.2544, -28.6215, -29.9142
2.352, 2, 17.8816, 15.8646, 23.0564, 38.2544, -28.6215, -29.9142
2.356, 2, 17.8816, 15.8646, 23.0564, 38.2544, -28.6215, -29.9142
2.36, 2, 17.8816, 15.8645, 23.0564, 38.2544, -28.6215, -29.9142
2.364, 2, 17.8816, 15.8645, 23.0564, 38.2544, -28.6215, -29.9142
2.367, 2, 17.8816, 15.8645, 23.0564, 38.2544, -28.6215, -29.9142
2.372, 2, 17.8816, 15.8645, 23.0564, 38.2544, -28.6215, -29.9142
2.376, 2, 17.8816, 15.8645, 23.0564, 38.2544, -28.6215, -29.9142
2.38, 2, 17.8816, 15.8645, 23.0564, 38.2544, -28.6215, -29.9142
2.383, 2, 17.8816, 15.8645, 23.0564, 38.2544, -28.6215, -29.9142
2.388, 2, 17.8816, 15.8645, 23.0564, 38.2544, -28.6215, -29.9142
2.392, 2, 17.8816, 15.8645, 23.0564, 38.2544, -28.6215, -29.9142
2.396, 2, 17.8816, 15.8645, 23.0564, 38.2544, -28.6215, -29.9142
2.4, 2, 17.8816, 15.8645, 23.0564, 38.2544, -28.6215, -29.9142
2.403, 2, 17.8816, 15.8645, 23.0564, 38.2544, -28.6215, -29.9142
2.408, 2, 17.8816, 15.8645, 23.0564, 38.2544, -28.6215, -29.9142
2.412, 2, 17.8816, 15.8645, 23.0564, 38.2544, -28.6215, -29.9142
2.416, 2, 17.8816, 15.8645, 23.0564, 38.2544, -28.6215, -29.9142
2.42, 2, 17.8816, 15.8645, 23.0564, 38.2544, -28.6215, -29.9142
2.423, 2, 17.8816, 15.8645, 23.0564, 38.2544, -28.6215, -29.9142
2.428, 2, 17.8816, 15.8645, 23.0564, 38.2544, -28.6215, -29.9142
2.432, 2, 17.8816, 15.8645, 23.0564, 38.2544, -28.6215, -29.9142
2.436, 2, 17.8816, 15.8645, 23.0564, 38.2544, -28.6215, -29.9142
2.439, 2, 17.8816, 15.8645, 23.0564, 38.2544, -28.6215, -29.9142
2.444, 2, 17.8816, 15.8645, 23.0564, 38.2544, -28.6215, -29.9142
2.448, 2, 17.8816, 15.8645, 23.0564, 38.2544, -28.6215, -29.9142
2.452, 2, 17.8816, 15.8645, 23.0564, 38.2544, -28.6215, -29.9142
2.456, 2, 17.8816, 15.8645, 23.0564, 38.2544, -28.6215, -29.9142
2.459, 2, 17.8816, 15.8645, 23.0564, 38.2544, -28.6215, -29.9142
2.464, 2, 17.8816, 15.8645, 23.0564, 38.2544, -28.6215, -29.9142
2.468, 2, 17.8816, 15.8645, 23.0564, 38.2544, -28.6215, -29.9142
2.472, 2, 17.8816, 15.8645, 23.0564, 38.2544, -28.6215, -29.9142
2.476, 2, 17.8816, 15.8645, 23.0564, 38.2544, -28.6215, -29.9142
2.479, 2, 17.8816, 15.8645, 23.0564, 38.2544, -28.6215, -29.9142
2.484, 2, 17.8816, 15.8645, 23.0564, 38.2544, -28.6215, -29.9142
2.488, 2, 17.8816, 15.8645, 23.0564, 38.2544, -28.6215, -29.9142
2.492, 2, 17.8816, 15.8645, 23.0564, 38.2544, -28.6215, -29.9142
2.495, 2, 17.8816, 15.8645, 23.0564, 38.2544, -28.6215, -29.9142
2.5, 2, 17.8816, 15.8645, 23.0564, 38.2544, -28.6215, -29.9142
2.504, 2, 17.8816, 15.8645, 23.0564, 38.2544, -28.6215, -29.9142
2.508, 2, 17.8816, 15.8645, 23.0564, 38.2544, -28.6215, -29.9142
2.512, 2, 17.8816, 15.8645, 23.0564, 38.2544, -28.6215, -29.9142
2.515, 2, 17.8816, 15.8645, 23.0564, 38.2544, -28.6215, -29.9142
2.52, 2, 17.8816, 15.8645, 23.0564, 38.2544, -28.6215, -29.9142
2.524, 2, 17.8816, 15.8645, 23.0564, 38.2544, -28.6215, -29.9142
2.528, 2, 17.8816, 15.8645, 23.0564, 38.2544, -28.6215, -29.9142
2.531, 2, 17.8816, 15.8645, 23.0564, 38.2544, -28.6215, -29.9142
2.536, 2, 17.8816, 15.8645, 23.0564, 38.2544, -28.6215, -29.9142
2.54, 2, 17.8816, 15.8645, 23.0564, 38.2544, -28.6215, -29.9142
2.544, 2, 17.8816, 15.8645, 23.0564, 38.2544, -28.6215, -29.9142
2.548, 2, 17.8816, 15.8645, 23.0564, 38.2544, -28.6215, -29.9142
2.551, 2, 17.8816, 15.8645, 23.0564, 38.2544, -28.6215, -29.9142
2.556, 2, 17.8816, 15.8645, 23.0564, 38.2544, -28.6215, -29.9142
2.56, 2, 17.8816, 15.8645, 23.0564, 38.2544, -28.6215, -29.9142
2.564, 2, 17.8816, 15.8645, 23.0564, 38.2544, -28.6215, -29.9142
2.568, 2, 17.8816, 15.8645, 23.0564, 38.2544, -28.6215, -29.9142
2.571, 2, 17.8816, 15.8645, 23.0564, 38.2544, -28.6215, -29.9142
2.576, 2, 17.8816, 15.8645, 23.0564, 38.2544, -28.6215, -29.9142
2.58, 2, 17.8816, 15.8645, 23.0564, 38.2544, -28.6215, -29.9142
2.584, 2, 17.8816, 15.8645, 23.0564, 38.2544, -28.6215, -29.9142
2.587, 2, 17.8816, 15.8645, 23.0564, 38.2544, -28.6215, -29.9142
2.592, 2, 17.8816, 15.8645, 23.0564, 38.2544, -28.6215, -29.9142
2.596, 2, 17.8816, 15.8645, 23.0564, 38.2544, -28.6215, -29.9142
2.6, 2, 17.8816, 15.8645, 23.0564, 38.2544, -28.6215, -29.9142
2.604, 2, 17.8816, 15.8645, 23.0564, 38.2544, -28.6215, -29.9142
2.607, 2, 17.8816, 15.8645, 23.0564, 38.2544, -28.6215, -29.9142
2.612, 2, 17.8816, 15.8645, 23.0564, 38.2544, -28.6215, -29.9142
2.616, 2, 17.8816, 15.8645, 23.0564, 38.2544, -28.6215, -29.9142
2.62, 2, 17.8816, 15.8645, 23.0564, 38.2544, -28.6215, -29.9142
2.624, 2, 17.8816, 15.8645, 23.0564, 38.2544, -28.6215, -29.9142
2.627, 2, 17.8816, 15.8645, 23.0564, 38.2544, -28.6215, -29.9142
2.632, 2, 17.8816, 15.8645, 23.0564, 38.2544, -28.6215, -29.9142
2.636, 2, 17.8816, 15.8645, 23.0564, 38.2544, -28.6215, -29.9142
2.64, 2, 17.8816, 15.8645, 23.0564, 38.2544, -28.6215, -29.9142
2.643, 2, 17.8816, 15.8645, 23.0564, 38.2544, -28.6215, -29.9142
2.648, 2, 17.8816, 15.8645, 23.0564, 38.2544, -28.6215, -29.9142
2.652, 2, 17.8816, 15.8645, 23.0564, 38.2544, -28.6215, -29.9142
2.656, 2, 17.8816, 15.8645, 23.0564, 38.2544, -28.6215, -29.9142
2.66, 2, 17.8816, 15.8645, 23.0564, 38.2544, -28.6215, -29.9142
2.663, 2, 17.8816, 15.8645, 23.0564, 38.2544, -28.6215, -29.9142
2.668, 2, 17.8816, 15.8645, 23.0564, 38.2544, -28.6215, -29.9142
2.672, 2, 17.8816, 15.8645, 23.0564, 38.2544, -28.6215, -29.9142
2.676, 2, 17.8816, 15.8645, 23.0564, 38.2544, -28.6215, -29.9142
2.679, 2, 17.8816, 15.8645, 23.0564, 38.2544, -28.6215, -29.9142
2.684, 2, 17.8816, 15.8645, 23.0564, 38.2544, -28.6215, -29.9142
2.688, 2, 17.8816, 15.8645, 23.0564, 38.2544, -28.6215, -29.9142
2.692, 2, 17.8816, 15.8645, 23.0564, 38.2544, -28.6215, -29.9142
2.696, 2, 17.8816, 15.8645, 23.0564, 38.2544, -28.6215, -29.9142
2.699, 2, 17.8816, 15.8645, 23.0564, 38.2544, -28.6215, -29.9142
2.704, 2, 17.8816, 15.8645, 23.0564, 38.2544, -28.6215, -29.9142
2.708, 2, 17.8816, 15.8645, 23.0564, 38.2544, -28.6215, -29.9142
2.712, 2, 17.8816, 15.8645, 23.0564, 38.2544, -28.6215, -29.9142
2.716, 2, 17.8816, 15.8645, 23.0564, 38.2544, -28.6215, -29.9142
2.719, 2, 17.8816, 15.8645, 23.0564, 38.2544, -28.6215, -29.9142
2.724, 2, 17.8816, 15.8645, 23.0564, 38.2544, -28.6215, -29.9142
2.728, 2, 17.8816, 15.8645, 23.0564, 38.2544, -28.6215, -29.9142
2.732, 2, 17.8816, 15.8645, 23.0564, 38.2544, -28.6215, -29.9142
2.735, 2, 17.8816, 15.8645, 23.0564, 38.2544, -28.6215, -29.9142
2.74, 2, 17.8816, 15.8645, 23.0564, 38.2544, -28.6215, -29.9142
2.744, 2, 17.8816, 15.8645, 23.0564, 38.2544, -28.6215, -29.9142
2.748, 2, 17.8816, 15.8645, 23.0564, 38.2544, -28.6215, -29.9142
2.752, 2, 17.8816, 15.8645, 23.0564, 38.2544, -28.6215, -29.9142
2.755, 2, 17.8816, 15.8645, 23.0564, 38.2544, -28.6215, -29.9142
2.76, 2, 17.8816, 15.8645, 23.0564, 38.2544, -28.6215, -29.9142
2.764, 2, 17.8816, 15.8645, 23.0564, 38.2544, -28.6215, -29.9142
2.768, 2, 17.8816, 15.8645, 23.0564, 38.2544, -28.6215, -29.9142
2.772, 2, 17.8816, 15.8645, 23.0564, 38.2544, -28.6215, -29.9142
2.775, 2, 17.8816, 15.8645, 23.0564, 38.2544, -28.6215, -29.9142
2.78, 2, 17.8816, 15.8645, 23.0564, 38.2544, -28.6215, -29.9142
2.784, 2, 17.8816, 15.8645, 23.0564, 38.2544, -28.6215, -29.9142
2.788, 2, 17.8816, 15.8645, 23.0564, 38.2544, -28.6215, -29.9142
2.791, 2, 17.8816, 15.8645, 23.0564, 38.2544, -28.6215, -29.9142
2.796, 2, 17.8816, 15.8645, 23.0564, 38.2544, -28.6215, -29.9142
2.8, 2, 17.8816, 15.8645, 23.0564, 38.2544, -28.6215, -29.9142
2.804, 2, 17.8816, 15.8645, 23.0564, 38.2544, -28.6215, -29.9142
2.808, 2, 17.8816, 15.8645, 23.0564, 38.2544, -28.6215, -29.9142
2.811, 2, 17.8816, 15.8645, 23.0564, 38.2544, -28.6215, -29.9142
2.816, 2, 17.8816, 15.8645, 23.0564, 38.2544, -28.6215, -29.9142
2.82, 2, 17.8816, 15.8645, 23.0564, 38.2544, -28.6215, -29.9142
2.824, 2, 17.8816, 15.8645, 23.0564, 38.2544, -28.6215, -29.9142
2.828, 2, 17.8816, 15.8645, 23.0564, 38.2544, -28.6215, -29.9142
2.831, 2, 17.8816, 15.8645, 23.0564, 38.2544, -28.6215, -29.9142
2.836, 2, 17.8816, 15.8645, 23.0564, 38.2544, -28.6215, -29.9142
2.84, 2, 17.8816, 15.8645, 23.0564, 38.2544, -28.6215, -29.9142
2.844, 2, 17.8816, 15.8645, 23.0564, 38.2544, -28.6215, -29.9142
2.847, 2, 17.8816, 15.8645, 23.0564, 38.2544, -28.6215, -29.9142
2.852, 2, 17.8816, 15.8645, 23.0564, 38.2544, -28.6215, -29.9142
2.856, 2, 17.8816, 15.8645, 23.0564, 38.2544, -28.6215, -29.9142
2.86, 2, 17.8816, 15.8645, 23.0564, 38.2544, -28.6215, -29.9142
2.864, 2, 17.8816, 15.8645, 23.0564, 38.2544, -28.6215, -29.9142
2.867, 2, 17.8816, 15.8645, 23.0564, 38.2544, -28.6215, -29.9142
2.872, 2, 17.8816, 15.8645, 23.0564, 38.2544, -28.6215, -29.9142
2.876, 2, 17.8816, 15.8645, 23.0564, 38.2544, -28.6215, -29.9142
2.88, 2, 17.8816, 15.8645, 23.0564, 38.2544, -28.6215, -29.9142
2.883, 2, 17.8816, 15.8645, 23.0564, 38.2544, -28.6215, -29.9142
2.888, 2, 17.8816, 15.8645, 23.0564, 38.2544, -28.6215, -29.9142
2.892, 2, 17.8816, 15.8645, 23.0564, 38.2544, -28.6215, -29.9142
2.896, 2, 17.8816, 15.8645, 23.0564, 38.2544, -28.6215, -29.9142
2.9, 2, 17.8816, 15.8645, 23.0564, 38.2544, -28.6215, -29.9142
2.903, 2, 17.8816, 15.8645, 23.0564, 38.2544, -28.6215, -29.9142
2.908, 2, 17.8816, 15.8645, 23.0564, 38.2544, -28.6215, -29.9142
2.912, 2, 17.8816, 15.8645, 23.0564, 38.2544, -28.6215, -29.9142
2.916, 2, 17.8816, 15.8645, 23.0564, 38.2544, -28.6215, -29.9142
2.92, 2, 17.8816, 15.8645, 23.0564, 38.2544, -28.6215, -29.9142
2.923, 2, 17.8816, 15.8645, 23.0564, 38.2544, -28.6215, -29.9142
2.928, 2, 17.8816, 15.8645, 23.0564, 38.2544, -28.6215, -29.9142
2.932, 2, 17.8816, 15.8645, 23.0564, 38.2544, -28.6215, -29.9142
2.936, 2, 17.8816, 15.8645, 23.0564, 38.2544, -28.6215, -29.9142
2.939, 2, 17.8816, 15.8645, 23.0564, 38.2544, -28.6215, -29.9142
2.944, 2, 17.8816, 15.8645, 23.0564, 38.2544, -28.6215, -29.9142
2.948, 2, 17.8816, 15.8645, 23.0564, 38.2544, -28.6215, -29.9142
2.952, 2, 17.8816, 15.8645, 23.0564, 38.2544, -28.6215, -29.9142
2.956, 2, 17.8816, 15.8645, 23.0564, 38.2544, -28.6215, -29.9142
2.959, 2, 17.8816, 15.8645, 23.0564, 38.2544, -28.6215, -29.9142
2.964, 2, 17.8816, 15.8645, 23.0564, 38.2544, -28.6215, -29.9142
2.968, 2, 17.8816, 15.8645, 23.0564, 38.2544, -28.6215, -29.9142
2.972, 2, 17.8816, 15.8645, 23.0564, 38.2544, -28.6215, -29.9142
2.976, 2, 17.8816, 15.8645, 23.0564, 38.2544, -28.6215, -29.9142
2.98, 2, 17.8816, 15.8645, 23.0564, 38.2544, -28.6215, -29.9142
2.984, 2, 17.8816, 15.8645, 23.0564, 38.2544, -28.6215, -29.9142
2.988, 2, 17.8816, 15.8645, 23.0564, 38.2544, -28.6215, -29.9142
2.992, 2, 17.8816, 15.8645, 23.0564, 38.2544, -28.6215, -29.9142
2.995, 2, 17.8816, 15.8645, 23.0564, 38.2544, -28.6215, -29.9142
3, 2, 17.8816, 15.8645, 23.0564, 38.2544, -28.6215, -29.9142
3.004, 2, 17.8816, 15.8645, 23.0564, 38.2544, -28.6215, -29.9142
3.008, 2, 17.8816, 15.8645, 23.0564, 38.2544, -28.6215, -29.9142
3.012, 2, 17.8816, 15.8645, 23.0564, 38.2544, -28.6215, -29.9142
3.015, 2, 17.8816, 15.8645, 23.0564, 38.2544, -28.6215, -29.9142
3.02, 2, 17.8816, 15.8645, 23.0564, 38.2544, -28.6215, -29.9142
3.024, 2, 17.8816, 15.8645, 23.0564, 38.2544, -28.6215, -29.9142
3.028, 2, 17.8816, 15.8645, 23.0564, 38.2544, -28.6215, -29.9142
3.031, 2, 17.8816, 15.8645, 23.0564, 38.2544, -28.6215, -29.9142
3.036, 2, 17.8816, 15.8645, 23.0564, 38.2544, -28.6215, -29.9142
3.04, 2, 17.8816, 15.8645, 23.0564, 38.2544, -28.6215, -29.9142
3.044, 2, 17.8816, 15.8645, 23.0564, 38.2544, -28.6215, -29.9142
3.048, 2, 17.8816, 15.8645, 23.0564, 38.2544, -28.6215, -29.9142
3.051, 2, 17.8816, 15.8645, 23.0564, 38.2544, -28.6215, -29.9142
3.056, 2, 17.8816, 15.8645, 23.0564, 38.2544, -28.6215, -29.9142
3.06, 2, 17.8816, 15.8645, 23.0564, 38.2544, -28.6215, -29.9142
3.064, 2, 17.8816, 15.8645, 23.0564, 38.2544, -28.6215, -29.9142
3.068, 2, 17.8816, 15.8645, 23.0564, 38.2544, -28.6215, -29.9142
3.071, 2, 17.8816, 15.8645, 23.0564, 38.2544, -28.6215, -29.9142
3.076, 2, 17.8816, 15.8645, 23.0564, 38.2544, -28.6215, -29.9142
3.08, 2, 17.8816, 15.8645, 23.0564, 38.2544, -28.6215, -29.9142
3.084, 2, 17.8816, 15.8645, 23.0564, 38.2544, -28.6215, -29.9142
3.087, 2, 17.8816, 15.8645, 23.0564, 38.2544, -28.6215, -29.9142
3.092, 2, 17.8816, 15.8645, 23.0564, 38.2544, -28.6215, -29.9142
3.096, 2, 17.8816, 15.8645, 23.0564, 38.2544, -28.6215, -29.9142
3.1, 2, 17.8816, 15.8645, 23.0564, 38.2544, -28.6215, -29.9142
3.104, 2, 17.8816, 15.8645, 23.0564, 38.2544, -28.6215, -29.9142
3.107, 2, 17.8816, 15.8645, 23.0564, 38.2544, -28.6215, -29.9142
3.112, 2, 17.8816, 15.8645, 23.0564, 38.2544, -28.6215, -29.9142
3.116, 2, 17.8816, 15.8645, 23.0564, 38.2544, -28.6215, -29.9142
3.12, 2, 17.8816, 15.8645, 23.0564, 38.2544, -28.6215, -29.9142
3.124, 2, 17.8816, 15.8645, 23.0564, 38.2544, -28.6215, -29.9142
3.128, 2, 17.8816, 15.8645, 23.0564, 38.2544, -28.6215, -29.9142
3.132, 2, 17.8816, 15.8645, 23.0564, 38.2544, -28.6215, -29.9142
3.136, 2, 17.8816, 15.8645, 23.0564, 38.2544, -28.6215, -29.9142
3.14, 2, 17.8816, 15.8645, 23.0564, 38.2544, -28.6215, -29.9142
3.143, 2, 17.8816, 15.8645, 23.0564, 38.2544, -28.6215, -29.9142
3.148, 2, 17.8816, 15.8645, 23.0564, 38.2544, -28.6215, -29.9142
3.152, 2, 17.8816, 15.8645, 23.0564, 38.2544, -28.6215, -29.9142
3.156, 2, 17.8816, 15.8645, 23.0564, 38.2544, -28.6215, -29.9142
3.16, 2, 17.8816, 15.8645, 23.0564, 38.2544, -28.6215, -29.9142
3.163, 2, 17.8816, 15.8645, 23.0564, 38.2544, -28.6215, -29.9142
3.168, 2, 17.8816, 15.8645, 23.0564, 38.2544, -28.6215, -29.9142
3.172, 2, 17.8816, 15.8645, 23.0564, 38.2544, -28.6215, -29.9142
3.176, 2, 17.8816, 15.8645, 23.0564, 38.2544, -28.6215, -29.9142
3.179, 2, 17.8816, 15.8645, 23.0564, 38.2544, -28.6215, -29.9142
3.184, 2, 17.8816, 15.8645, 23.0564, 38.2544, -28.6215, -29.9142
3.188, 2, 17.8816, 15.8645, 23.0564, 38.2544, -28.6215, -29.9142
3.192, 2, 17.8816, 15.8645, 23.0564, 38.2544, -28.6215, -29.9142
3.196, 2, 17.8816, 15.8645, 23.0564, 38.2544, -28.6215, -29.9142
3.199, 2, 17.8816, 15.8645, 23.0564, 38.2544, -28.6215, -29.9142
3.204, 2, 17.8816, 15.8645, 23.0564, 38.2544, -28.6215, -29.9142
3.208, 2, 17.8816, 15.8645, 23.0564, 38.2544, -28.6215, -29.9142
3.212, 2, 17.8816, 15.8645, 23.0564, 38.2544, -28.6215, -29.9142
3.216, 2, 17.8816, 15.8645, 23.0564, 38.2544, -28.6215, -29.9142
3.22, 2, 17.8816, 15.8645, 23.0564, 38.2544, -28.6215, -29.9142
3.224, 2, 17.8816, 15.8645, 23.0564, 38.2544, -28.6215, -29.9142
3.228, 2, 17.8816, 15.8645, 23.0564, 38.2544, -28.6215, -29.9142
3.232, 2, 17.8816, 15.8645, 23.0564, 38.2544, -28.6215, -29.9142
3.235, 2, 17.8816, 15.8645, 23.0564, 38.2544, -28.6215, -29.9142
3.24, 2, 17.8816, 15.8645, 23.0564, 38.2544, -28.6215, -29.9142
3.244, 2, 17.8816, 15.8645, 23.0564, 38.2544, -28.6215, -29.9142
3.248, 2, 17.8816, 15.8645, 23.0564, 38.2544, -28.6215, -29.9142
3.252, 2, 17.8816, 15.8645, 23.0564, 38.2544, -28.6215, -29.9142
3.255, 2, 17.8816, 15.8645, 23.0564, 38.2544, -28.6215, -29.9142
3.26, 2, 17.8816, 15.8645, 23.0564, 38.2544, -28.6215, -29.9142
3.264, 2, 17.8816, 15.8645, 23.0564, 38.2544, -28.6215, -29.9142
3.268, 2, 17.8816, 15.8645, 23.0564, 38.2544, -28.6215, -29.9142
3.272, 2, 17.8816, 15.8645, 23.0564, 38.2544, -28.6215, -29.9142
3.276, 2, 17.8816, 15.8645, 23.0564, 38.2544, -28.6215, -29.9142
3.28, 2, 17.8816, 15.8645, 23.0564, 38.2544, -28.6215, -29.9142
3.284, 2, 17.8816, 15.8645, 23.0564, 38.2544, -28.6215, -29.9142
3.288, 2, 17.8816, 15.8645, 23.0564, 38.2544, -28.6215, -29.9142
3.291, 2, 17.8816, 15.8645, 23.0564, 38.2544, -28.6215, -29.9142
3.296, 2, 17.8816, 15.8645, 23.0564, 38.2544, -28.6215, -29.9142
3.3, 2, 17.8816, 15.8645, 23.0564, 38.2544, -28.6215, -29.9142
3.304, 2, 17.8816, 15.8645, 23.0564, 38.2544, -28.6215, -29.9142
3.308, 2, 17.8816, 15.8645, 23.0564, 38.2544, -28.6215, -29.9142
3.312, 2, 17.8816, 15.8645, 23.0564, 38.2544, -28.6215, -29.9142
3.316, 2, 17.8816, 15.8645, 23.0564, 38.2544, -28.6215, -29.9142
3.32, 2, 17.8816, 15.8645, 23.0564, 38.2544, -28.6215, -29.9142
3.324, 2, 17.8816, 15.8645, 23.0564, 38.2544, -28.6215, -29.9142
3.328, 2, 17.8816, 15.8645, 23.0564, 38.2544, -28.6215, -29.9142
3.332, 2, 17.8816, 15.8645, 23.0564, 38.2544, -28.6215, -29.9142
3.336, 2, 17.8816, 15.8645, 23.0564, 38.2544, -28.6215, -29.9142
3.34, 2, 17.8816, 15.8645, 23.0564, 38.2544, -28.6215, -29.9142
3.344, 2, 17.8816, 15.8645, 23.0564, 38.2544, -28.6215, -29.9142
3.347, 2, 17.8816, 15.8645, 23.0564, 38.2544, -28.6215, -29.9142
3.352, 4, 17.8816, 15.8645, 23.0564, 38.2544, -28.6215, -29.9142
3.356, 4, 17.8816, 15.8645, 23.0564, 38.2544, -28.6215, -29.9142
3.36, 4, 17.8816, 15.8645, 23.0564, 38.2544, -28.6215, -29.9142
3.364, 4, 17.8816, 15.8645, 23.0564, 38.2544, -28.6215, -29.9142
3.368, 4, 17.8816, 15.8645, 23.0564, 38.2544, -28.6215, -29.9142
3.372, 4, 17.8816, 15.8645, 23.0564, 38.2544, -28.6215, -29.9142
3.376, 4, 17.8816, 15.8645, 23.0564, 38.2544, -28.6215, -29.9142
3.38, 4, 17.8816, 15.8645, 23.0564, 38.2544, -28.6215, -29.9142
3.383, 4, 17.8816, 15.8645, 23.0564, 38.2544, -28.6215, -29.9142
3.388, 4, 17.8816, 15.8645, 23.0564, 38.2544, -28.6215, -29.9142
3.392, 4, 17.8816, 15.8645, 23.0564, 38.2544, -28.6215, -29.9142
3.396, 4, 17.8816, 15.8645, 23.0564, 38.2544, -28.6215, -29.9142
3.4, 4, 17.8816, 15.8645, 23.0564, 38.2544, -28.6215, -29.9142
3.403, 4, 17.8816, 15.8645, 23.0564, 38.2544, -28.6215, -29.9142
3.408, 4, 17.8816, 15.8645, 23.0564, 38.2544, -28.6215, -29.9142
3.412, 4, 17.8816, 15.8645, 23.0564, 38.2544, -28.6215, -29.9142
3.416, 4, 17.8816, 15.8645, 23.0564, 38.2544, -28.6215, -29.9142
3.42, 4, 17.8816, 15.8645, 23.0564, 38.2544, -28.6215, -29.9142
3.424, 4, 17.8816, 15.8645, 23.0564, 38.2544, -28.6215, -29.9142
3.428, 4, 17.8816, 15.8645, 23.0564, 38.2544, -28.6215, -29.9142
3.432, 4, 17.8816, 15.8645, 23.0564, 38.2544, -28.6215, -29.9142
3.436, 4, 17.8816, 15.8645, 23.0564, 38.2544, -28.6215, -29.9142
3.439, 4, 17.8816, 15.8645, 23.0564, 38.2544, -28.6215, -29.9142
3.444, 4, 17.8816, 15.8645, 23.0564, 38.2544, -28.6215, -29.9142
3.448, 4, 17.8816, 15.8645, 23.0564, 38.2544, -28.6215, -29.9142
3.452, 4, 17.8816, 15.8645, 23.0564, 38.2544, -28.6215, -29.9142
3.458, 4, 17.8816, 15.8645, 23.0564, 38.2544, -28.6215, -29.9142
3.46, 4, 17.8816, 15.8645, 23.0564, 38.2544, -28.6215, -29.9142
3.464, 4, 17.8816, 15.8645, 23.0564, 38.2544, -28.6215, -29.9142
3.468, 4, 17.8816, 15.8645, 23.0564, 38.2544, -28.6215, -29.9142
3.472, 4, 17.8816, 15.8645, 23.0564, 38.2544, -28.6215, -29.9142
3.476, 4, 17.8816, 15.8645, 23.0564, 38.2544, -28.6215, -29.9142
3.48, 4, 17.8816, 15.8645, 23.0564, 38.2544, -28.6215, -29.9142
3.484, 4, 17.8816, 15.8646, 23.0564, 38.2544, -28.6215, -29.9142
3.488, 4, 17.8815, 15.8646, 23.0564, 38.2544, -28.6215, -29.9142
3.492, 4, 17.8813, 15.8647, 23.0563, 38.2543, -28.6215, -29.9142
3.495, 4, 17.8808, 15.8651, 23.0563, 38.2543, -28.6215, -29.9142
3.5, 4, 17.8799, 15.8658, 23.0561, 38.2541, -28.6216, -29.914
3.504, 4, 17.8784, 15.867, 23.0557, 38.2537, -28.6217, -29.9137
3.508, 4, 17.8763, 15.869, 23.0552, 38.2529, -28.622, -29.913
3.512, 4, 17.8734, 15.8718, 23.0543, 38.2514, -28.6225, -29.9118
3.516, 4, 17.8697, 15.8758, 23.053, 38.2487, -28.6234, -29.9096
3.52, 4, 17.8651, 15.8812, 23.0512, 38.2445, -28.6248, -29.906
3.524, 5, 17.8594, 15.8885, 23.0486, 38.2381, -28.6269, -29.9006
3.528, 5, 17.8526, 15.8978, 23.0452, 38.2288, -28.6299, -29.8927
3.531, 5, 17.8445, 15.9094, 23.0407, 38.2157, -28.6342, -29.8817
3.536, 5, 17.8347, 15.9237, 23.0348, 38.198, -28.6401, -29.8667
3.54, 5, 17.8233, 15.9405, 23.0274, 38.1745, -28.6478, -29.8468
3.544, 5, 17.8102, 15.9598, 23.0182, 38.1443, -28.6577, -29.8211
3.548, 5, 17.7955, 15.9816, 23.0071, 38.1062, -28.6703, -29.7887
3.552, 5, 17.7792, 16.0059, 22.9939, 38.0593, -28.6857, -29.7488
3.556, 5, 17.7612, 16.0327, 22.9784, 38.0026, -28.7045, -29.7006
3.56, 5, 17.7416, 16.0622, 22.9605, 37.9355, -28.7267, -29.6435
3.564, 5, 17.7202, 16.0947, 22.9401, 37.8576, -28.7525, -29.5771
3.568, 5, 17.697, 16.1301, 22.9171, 37.7685, -28.7821, -29.5013
3.572, 5, 17.6719, 16.1686, 22.8916, 37.6683, -28.8155, -29.416
3.576, 5, 17.6449, 16.21, 22.8635, 37.5572, -28.8526, -29.3215
3.58, 5, 17.6162, 16.2541, 22.8329, 37.4357, -28.8934, -29.218
3.584, 5, 17.5857, 16.3008, 22.8, 37.3043, -28.9376, -29.1063
3.587, 5, 17.5535, 16.3499, 22.7651, 37.164, -28.9849, -28.9869
3.592, 5, 17.5196, 16.4015, 22.7281, 37.0156, -29.0352, -28.8608
3.596, 5, 17.484, 16.4557, 22.6893, 36.8602, -29.0881, -28.7287
3.6, 5, 17.4466, 16.5124, 22.649, 36.6988, -29.1432, -28.5918
3.604, 5, 17.4074, 16.5718, 22.6073, 36.5327, -29.2002, -28.4507
3.608, 5, 17.3666, 16.6336, 22.5645, 36.3626, -29.2589, -28.3065
3.612, 5, 17.3243, 16.6976, 22.5207, 36.1894, -29.3189, -28.1597
3.616, 5, 17.2806, 16.7634, 22.4762, 36.014, -29.3799, -28.0111
3.62, 5, 17.2359, 16.8307, 22.4311, 35.8369, -29.4419, -27.8613
3.624, 5, 17.1901, 16.8991, 22.3856, 35.6587, -29.5046, -27.7105
3.628, 5, 17.1435, 16.9684, 22.3398, 35.4798, -29.5678, -27.5593
3.632, 5, 17.0961, 17.0385, 22.2938, 35.3005, -29.6316, -27.4079
3.636, 5, 17.0481, 17.109, 22.2476, 35.1212, -29.6957, -27.2565
3.64, 5, 16.9995, 17.18, 22.2014, 34.9419, -29.7601, -27.1052
3.644, 5, 16.9505, 17.2511, 22.1552, 34.7628, -29.8248, -26.9543
3.648, 5, 16.9012, 17.3224, 22.109, 34.5841, -29.8897, -26.8037
3.652, 5, 16.8517, 17.3936, 22.0629, 34.4057, -29.9549, -26.6536
3.656, 5, 16.8019, 17.4649, 22.0169, 34.2278, -30.0202, -26.5039
3.66, 5, 16.7519, 17.5361, 21.971, 34.0503, -30.0858, -26.3547
3.664, 5, 16.7018, 17.6071, 21.9252, 33.8733, -30.1515, -26.206
3.668, 5, 16.6516, 17.6781, 21.8795, 33.6967, -30.2175, -26.0577
3.672, 5, 16.6012, 17.749, 21.834, 33.5206, -30.2836, -25.91
3.676, 5, 16.5507, 17.8197, 21.7886, 33.3451, -30.3499, -25.7628
3.679, 5, 16.5001, 17.8903, 21.7432, 33.17, -30.4164, -25.6161
3.684, 5, 16.4494, 17.9607, 21.6981, 32.9954, -30.483, -25.4699
3.688, 5, 16.3985, 18.0311, 21.653, 32.8213, -30.5499, -25.3242
3.692, 5, 16.3476, 18.1012, 21.6081, 32.6477, -30.6169, -25.179
3.696, 5, 16.2965, 18.1713, 21.5633, 32.4746, -30.684, -25.0344
3.7, 5, 16.2453, 18.2412, 21.5187, 32.3019, -30.7514, -24.8902
3.704, 5, 16.1941, 18.3109, 21.4742, 32.1298, -30.819, -24.7466
3.708, 5, 16.1427, 18.3805, 21.4298, 31.9582, -30.8867, -24.6034
3.712, 5, 16.0912, 18.4499, 21.3856, 31.787, -30.9546, -24.4608
3.716, 5, 16.0396, 18.5193, 21.3415, 31.6164, -31.0226, -24.3187
3.72, 5, 15.9879, 18.5884, 21.2976, 31.4462, -31.0909, -24.177
3.724, 5, 15.9361, 18.6574, 21.2537, 31.2765, -31.1593, -24.0359
3.728, 5, 15.8842, 18.7263, 21.2101, 31.1073, -31.2279, -23.8952
3.732, 5, 15.8322, 18.795, 21.1665, 30.9386, -31.2967, -23.7551
3.735, 5, 15.7801, 18.8636, 21.1231, 30.7704, -31.3656, -23.6154
3.74, 5, 15.7279, 18.932, 21.0799, 30.6026, -31.4347, -23.4763
3.744, 5, 15.6756, 19.0003, 21.0368, 30.4353, -31.504, -23.3376
3.748, 5, 15.6232, 19.0684, 20.9938, 30.2686, -31.5735, -23.1994
3.752, 5, 15.5707, 19.1364, 20.951, 30.1022, -31.6431, -23.0618
3.756, 5, 15.5181, 19.2042, 20.9084, 29.9364, -31.713, -22.9245
3.76, 5, 15.4654, 19.2719, 20.8658, 29.771, -31.783, -22.7878
3.764, 5, 15.4126, 19.3395, 20.8235, 29.6061, -31.8531, -22.6516
3.768, 5, 15.3598, 19.4069, 20.7812, 29.4417, -31.9235, -22.5158
3.772, 5, 15.3068, 19.4741, 20.7391, 29.2778, -31.994, -22.3805
3.776, 5, 15.2537, 19.5412, 20.6972, 29.1143, -32.0647, -22.2457
3.78, 5, 15.2005, 19.6082, 20.6554, 28.9513, -32.1356, -22.1114
3.784, 5, 15.1473, 19.675, 20.6138, 28.7887, -32.2066, -21.9776
3.788, 5, 15.0939, 19.7416, 20.5723, 28.6267, -32.2778, -21.8442
3.792, 5, 15.0404, 19.8081, 20.5309, 28.4651, -32.3492, -21.7113
3.796, 5, 14.9869, 19.8745, 20.4897, 28.3039, -32.4208, -21.5788
3.8, 5, 14.9333, 19.9407, 20.4487, 28.1432, -32.4925, -21.4468
3.804, 5, 14.8795, 20.0068, 20.4078, 27.983, -32.5644, -21.3153
3.808, 5, 14.8257, 20.0727, 20.3671, 27.8232, -32.6365, -21.1843
3.812, 5, 14.7718, 20.1385, 20.3265, 27.6639, -32.7087, -21.0537
3.816, 5, 14.7178, 20.2041, 20.286, 27.5051, -32.7812, -20.9236
3.82, 5, 14.6637, 20.2696, 20.2457, 27.3467, -32.8537, -20.7939
3.824, 5, 14.6095, 20.3349, 20.2056, 27.1887, -32.9265, -20.6647
3.828, 5, 14.5552, 20.4001, 20.1656, 27.0312, -32.9995, -20.5359
3.832, 5, 14.5009, 20.4651, 20.1258, 26.8742, -33.0726, -20.4076
3.836, 5, 14.4464, 20.53, 20.0861, 26.7176, -33.1458, -20.2798
3.84, 5, 14.3919, 20.5947, 20.0466, 26.5614, -33.2193, -20.1524
3.844, 5, 14.3372, 20.6593, 20.0072, 26.4057, -33.2929, -20.0254
3.848, 5, 14.2825, 20.7238, 19.968, 26.2505, -33.3667, -19.8989
3.852, 5, 14.2277, 20.7881, 19.9289, 26.0957, -33.4407, -19.7729
3.856, 5, 14.1728, 20.8522, 19.89, 25.9413, -33.5148, -19.6473
3.86, 5, 14.1179, 20.9162, 19.8513, 25.7874, -33.5891, -19.5221
3.864, 5, 14.0628, 20.9801, 19.8127, 25.6339, -33.6636, -19.3974
3.868, 5, 14.0077, 21.0438, 19.7742, 25.4808, -33.7382, -19.2731
3.872, 5, 13.9524, 21.1073, 19.7359, 25.3282, -33.813, -19.1492
3.876, 5, 13.8971, 21.1708, 19.6978, 25.1761, -33.888, -19.0258
3.88, 5, 13.8417, 21.234, 19.6598, 25.0243, -33.9632, -18.9028
3.884, 5, 13.7862, 21.2971, 19.622, 24.873, -34.0385, -18.7802
3.888, 5, 13.7307, 21.3601, 19.5844, 24.7221, -34.114, -18.6581
3.892, 5, 13.675, 21.4229, 19.5469, 24.5717, -34.1897, -18.5364
3.896, 5, 13.6193, 21.4856, 19.5096, 24.4217, -34.2655, -18.4152
3.9, 5, 13.5635, 21.5482, 19.4724, 24.2721, -34.3416, -18.2943
3.904, 5, 13.5076, 21.6105, 19.4354, 24.1229, -34.4178, -18.1739
3.908, 5, 13.4516, 21.6728, 19.3985, 23.9742, -34.4941, -18.0539
3.912, 5, 13.3956, 21.7349, 19.3618, 23.8259, -34.5706, -17.9343
3.916, 5, 13.3395, 21.7968, 19.3253, 23.678, -34.6473, -17.8152
3.92, 5, 13.2833, 21.8586, 19.289, 23.5305, -34.7242, -17.6965
3.924, 5, 13.227, 21.9203, 19.2528, 23.3835, -34.8013, -17.5782
3.928, 5, 13.1706, 21.9818, 19.2168, 23.2368, -34.8785, -17.4603
3.932, 5, 13.1142, 22.0431, 19.1809, 23.0906, -34.9559, -17.3428
3.936, 5, 13.0577, 22.1043, 19.1452, 22.9449, -35.0334, -17.2257
3.94, 5, 13.0011, 22.1654, 19.1097, 22.7995, -35.1112, -17.1091
3.944, 5, 12.9444, 22.2263, 19.0743, 22.6546, -35.1891, -16.9929
3.948, 5, 12.8876, 22.287, 19.0391, 22.51, -35.2672, -16.877
3.952, 5, 12.8308, 22.3476, 19.0041, 22.3659, -35.3454, -16.7616
3.956, 5, 12.7739, 22.4081, 18.9693, 22.2222, -35.4238, -16.6466
3.96, 5, 12.717, 22.4684, 18.9346, 22.0789, -35.5024, -16.532
3.964, 5, 12.6599, 22.5286, 18.9001, 21.9361, -35.5812, -16.4178
3.968, 5, 12.6028, 22.5886, 18.8658, 21.7936, -35.6601, -16.304
3.972, 5, 12.5456, 22.6484, 18.8316, 21.6516, -35.7392, -16.1906
3.976, 5, 12.4884, 22.7082, 18.7976, 21.5099, -35.8185, -16.0776
3.98, 5, 12.431, 22.7677, 18.7638, 21.3687, -35.8979, -15.9651
3.984, 5, 12.3736, 22.8271, 18.7302, 21.2278, -35.9776, -15.8529
3.988, 5, 12.3161, 22.8864, 18.6967, 21.0874, -36.0574, -15.7411
3.992, 5, 12.2586, 22.9455, 18.6634, 20.9474, -36.1373, -15.6297
3.996, 5, 12.201, 23.0045, 18.6303, 20.8078, -36.2174, -15.5187
3.999, 5, 12.1433, 23.0633, 18.5974, 20.6686, -36.2977, -15.4081
4.004, 5, 12.0856, 23.122, 18.5646, 20.5298, -36.3782, -15.2979
4.008, 5, 12.0277, 23.1805, 18.532, 20.3914, -36.4588, -15.1881
4.012, 5, 11.9698, 23.2389, 18.4996, 20.2534, -36.5397, -15.0786
4.016, 5, 11.9119, 23.2971, 18.4673, 20.1158, -36.6206, -14.9696
4.02, 5, 11.8539, 23.3552, 18.4353, 19.9786, -36.7018, -14.861
4.024, 5, 11.7958, 23.4131, 18.4034, 19.8418, -36.7831, -14.7527
4.028, 5, 11.7376, 23.4709, 18.3717, 19.7053, -36.8646, -14.6448
4.032, 5, 11.6794, 23.5285, 18.3402, 19.5693, -36.9463, -14.5373
4.036, 5, 11.6211, 23.586, 18.3088, 19.4337, -37.0281, -14.4302
4.04, 5, 11.5628, 23.6433, 18.2777, 19.2985, -37.1101, -14.3235
4.044, 5, 11.5043, 23.7005, 18.2467, 19.1636, -37.1923, -14.2171
4.048, 5, 11.4459, 23.7575, 18.2159, 19.0292, -37.2746, -14.1112
4.052, 5, 11.3873, 23.8144, 18.1853, 18.8951, -37.3571, -14.0056
4.056, 5, 11.3287, 23.8711, 18.1548, 18.7615, -37.4398, -13.9004
4.06, 5, 11.27, 23.9277, 18.1245, 18.6282, -37.5226, -13.7955
4.064, 5, 11.2113, 23.9841, 18.0945, 18.4953, -37.6056, -13.6911
4.068, 5, 11.1525, 24.0404, 18.0646, 18.3628, -37.6888, -13.587
4.072, 5, 11.0936, 24.0965, 18.0348, 18.2307, -37.7722, -13.4833
4.076, 5, 11.0347, 24.1525, 18.0053, 18.0989, -37.8557, -13.3799
4.08, 5, 10.9757, 24.2083, 17.9759, 17.9676, -37.9394, -13.277
4.084, 5, 10.9167, 24.264, 17.9468, 17.8366, -38.0232, -13.1744
4.088, 5, 10.8576, 24.3195, 17.9178, 17.706, -38.1072, -13.0721
4.092, 5, 10.7984, 24.3749, 17.889, 17.5758, -38.1914, -12.9703
4.096, 5, 10.7392, 24.4302, 17.8604, 17.446, -38.2758, -12.8688
4.1, 5, 10.6799, 24.4853, 17.8319, 17.3165, -38.3603, -12.7676
4.104, 5, 10.6206, 24.5402, 17.8037, 17.1874, -38.445, -12.6668
4.108, 5, 10.5612, 24.595, 17.7756, 17.0587, -38.5298, -12.5664
4.112, 5, 10.5017, 24.6496, 17.7477, 16.9304, -38.6148, -12.4664
4.116, 5, 10.4422, 24.7041, 17.72, 16.8025, -38.7, -12.3667
4.12, 5, 10.3826, 24.7585, 17.6925, 16.6749, -38.7854, -12.2674
4.124, 5, 10.323, 24.8127, 17.6651, 16.5477, -38.8709, -12.1684
4.128, 5, 10.2633, 24.8667, 17.638, 16.4209, -38.9566, -12.0698
4.134, 5, 10.1437, 24.9744, 17.5843, 16.1683, -39.1285, -11.8736
4.136, 5, 10.1437, 24.9744, 17.5843, 16.1683, -39.1285, -11.8736
4.14, 5, 10.0838, 25.028, 17.5577, 16.0426, -39.2147, -11.776
4.144, 5, 10.0239, 25.0815, 17.5313, 15.9173, -39.3011, -11.6788
4.148, 5, 9.96396, 25.1348, 17.5051, 15.7923, -39.3876, -11.582
4.152, 5, 9.90393, 25.1879, 17.479, 15.6676, -39.4743, -11.4855
4.156, 5, 9.84385, 25.241, 17.4532, 15.5434, -39.5612, -11.3893
4.16, 5, 9.78371, 25.2938, 17.4276, 15.4195, -39.6482, -11.2935
4.164, 5, 9.72352, 25.3465, 17.4021, 15.296, -39.7354, -11.198
4.168, 5, 9.66328, 25.3991, 17.3769, 15.1728, -39.8228, -11.1029
4.172, 5, 9.60298, 25.4515, 17.3518, 15.05, -39.9103, -11.0081
4.176, 5, 9.54263, 25.5038, 17.3269, 14.9275, -39.998, -10.9137
4.18, 5, 9.48223, 25.5559, 17.3022, 14.8054, -40.0859, -10.8196
4.184, 5, 9.42178, 25.6079, 17.2777, 14.6837, -40.174, -10.7259
4.188, 5, 9.36127, 25.6597, 17.2534, 14.5623, -40.2622, -10.6324
4.192, 5, 9.30072, 25.7114, 17.2293, 14.4413, -40.3506, -10.5394
4.196, 5, 9.24011, 25.763, 17.2054, 14.3206, -40.4391, -10.4466
4.2, 5, 9.17946, 25.8143, 17.1816, 14.2003, -40.5278, -10.3542
4.204, 5, 9.11875, 25.8656, 17.1581, 14.0803, -40.6167, -10.2622
4.208, 5, 9.058, 25.9167, 17.1348, 13.9607, -40.7057, -10.1704
4.212, 5, 8.99719, 25.9676, 17.1116, 13.8415, -40.795, -10.079
4.216, 5, 8.93634, 26.0184, 17.0887, 13.7226, -40.8843, -9.98794
4.22, 5, 8.87544, 26.0691, 17.0659, 13.604, -40.9739, -9.8972
4.224, 5, 8.81449, 26.1196, 17.0434, 13.4858, -41.0636, -9.80679
4.228, 5, 8.7535, 26.1699, 17.021, 13.3679, -41.1535, -9.71671
4.232, 5, 8.69246, 26.2201, 16.9988, 13.2504, -41.2435, -9.62695
4.236, 5, 8.63138, 26.2702, 16.9769, 13.1332, -41.3337, -9.53752
4.24, 5, 8.57025, 26.3201, 16.9551, 13.0163, -41.4241, -9.44841
4.244, 5, 8.50907, 26.3699, 16.9335, 12.8999, -41.5146, -9.35963
4.248, 5, 8.44785, 26.4195, 16.9121, 12.7837, -41.6054, -9.27117
4.252, 5, 8.38659, 26.4689, 16.8909, 12.6679, -41.6962, -9.18303
4.256, 5, 8.32529, 26.5183, 16.87, 12.5524, -41.7873, -9.09521
4.26, 5, 8.26394, 26.5674, 16.8492, 12.4373, -41.8785, -9.00772
4.264, 5, 8.20255, 26.6165, 16.8286, 12.3225, -41.9698, -8.92054
4.268, 5, 8.14111, 26.6653, 16.8082, 12.208, -42.0614, -8.83368
4.272, 5, 8.07964, 26.7141, 16.788, 12.0939, -42.153, -8.74714
4.276, 5, 8.01812, 26.7626, 16.768, 11.9801, -42.2449, -8.66092
4.28, 5, 7.95656, 26.8111, 16.7482, 11.8667, -42.3369, -8.57501
4.284, 5, 7.89496, 26.8594, 16.7287, 11.7536, -42.4291, -8.48941
4.288, 5, 7.83332, 26.9075, 16.7093, 11.6408, -42.5215, -8.40413
4.292, 5, 7.77164, 26.9555, 16.6901, 11.5283, -42.614, -8.31916
4.296, 5, 7.70991, 27.0033, 16.6711, 11.4162, -42.7066, -8.2345
4.3, 5, 7.64815, 27.051, 16.6523, 11.3045, -42.7995, -8.15016
4.304, 5, 7.58635, 27.0986, 16.6337, 11.193, -42.8925, -8.06612
4.308, 5, 7.52451, 27.146, 16.6154, 11.0819, -42.9856, -7.98239
4.312, 5, 7.46263, 27.1932, 16.5972, 10.9711, -43.079, -7.89898
4.316, 5, 7.40072, 27.2404, 16.5792, 10.8606, -43.1725, -7.81587
4.32, 5, 7.33877, 27.2873, 16.5614, 10.7505, -43.2661, -7.73306
4.324, 5, 7.27677, 27.3341, 16.5439, 10.6407, -43.3599, -7.65056
4.328, 5, 7.21475, 27.3808, 16.5265, 10.5312, -43.4539, -7.56837
4.332, 5, 7.15268, 27.4273, 16.5094, 10.422, -43.548, -7.48648
4.336, 5, 7.09058, 27.4737, 16.4924, 10.3132, -43.6423, -7.4049
4.34, 5, 7.02844, 27.5199, 16.4756, 10.2047, -43.7368, -7.32361
4.344, 5, 6.96627, 27.566, 16.4591, 10.0965, -43.8314, -7.24263
4.348, 5, 6.90406, 27.6119, 16.4428, 9.98862, -43.9262, -7.16195
4.352, 5, 6.84182, 27.6577, 16.4266, 9.88107, -44.0212, -7.08157
4.356, 5, 6.77954, 27.7034, 16.4107, 9.77385, -44.1163, -7.00149
4.36, 5, 6.71723, 27.7488, 16.395, 9.66695, -44.2115, -6.92171
4.364, 5, 6.65488, 27.7942, 16.3794, 9.56036, -44.307, -6.84222
4.368, 5, 6.5925, 27.8394, 16.3641, 9.4541, -44.4025, -6.76304
4.372, 5, 6.53009, 27.8844, 16.349, 9.34815, -44.4983, -6.68415
4.376, 5, 6.46764, 27.9294, 16.3341, 9.24252, -44.5942, -6.60555
4.38, 5, 6.40516, 27.9741, 16.3194, 9.13721, -44.6903, -6.52725
4.384, 5, 6.34265, 28.0187, 16.3049, 9.03221, -44.7865, -6.44924
4.388, 5, 6.2801, 28.0632, 16.2906, 8.92753, -44.8829, -6.37153
4.392, 5, 6.21753, 28.1075, 16.2766, 8.82316, -44.9795, -6.29411
4.396, 5, 6.15492, 28.1517, 16.2627, 8.71911, -45.0762, -6.21698
4.4, 5, 6.09227, 28.1957, 16.249, 8.61537, -45.173, -6.14014
4.404, 5, 6.0296, 28.2396, 16.2356, 8.51195, -45.2701, -6.0636
4.408, 5, 5.9669, 28.2833, 16.2223, 8.40883, -45.3673, -5.98734
4.412, 5, 5.90416, 28.3269, 16.2093, 8.30603, -45.4646, -5.91137
4.416, 5, 5.8414, 28.3703, 16.1965, 8.20354, -45.5621, -5.83569
4.42, 5, 5.7786, 28.4136, 16.1838, 8.10136, -45.6598, -5.7603
4.424, 5, 5.71578, 28.4568, 16.1714, 7.99949, -45.7577, -5.68519
4.428, 5, 5.65293, 28.4998, 16.1592, 7.89792, -45.8557, -5.61037
4.432, 5, 5.59005, 28.5427, 16.1472, 7.79667, -45.9538, -5.53583
4.436, 5, 5.52714, 28.5854, 16.1355, 7.69571, -46.0521, -5.46158
4.44, 5, 5.4642, 28.6279, 16.1239, 7.59507, -46.1506, -5.38761
4.444, 5, 5.40123, 28.6703, 16.1125, 7.49473, -46.2493, -5.31392
4.448, 5, 5.33824, 28.7126, 16.1014, 7.39469, -46.3481, -5.24051
4.452, 5, 5.27523, 28.7548, 16.0905, 7.29495, -46.447, -5.16738
4.456, 5, 5.21218, 28.7967, 16.0798, 7.19552, -46.5461, -5.09453
4.46, 5, 5.14911, 28.8386, 16.0692, 7.09639, -46.6454, -5.02196
4.464, 5, 5.08601, 28.8803, 16.0589, 6.99755, -46.7449, -4.94966
4.468, 5, 5.02289, 28.9218, 16.0489, 6.89901, -46.8445, -4.87764
4.472, 5, 4.95974, 28.9632, 16.039, 6.80077, -46.9442, -4.8059
4.476, 5, 4.89657, 29.0045, 16.0293, 6.70283, -47.0442, -4.73442
4.48, 5, 4.83337, 29.0456, 16.0199, 6.60518, -47.1443, -4.66322
4.484, 5, 4.77014, 29.0866, 16.0106, 6.50782, -47.2445, -4.5923
4.488, 5, 4.7069, 29.1274, 16.0016, 6.41076, -47.3449, -4.52164
4.492, 5, 4.64362, 29.1681, 15.9928, 6.31399, -47.4455, -4.45125
4.496, 5, 4.58033, 29.2086, 15.9842, 6.21751, -47.5462, -4.38113
4.5, 5, 4.51701, 29.249, 15.9758, 6.12132, -47.647, -4.31128
4.504, 5, 4.45367, 29.2893, 15.9677, 6.02542, -47.7481, -4.2417
4.508, 5, 4.3903, 29.3294, 15.9597, 5.92981, -47.8493, -4.17238
4.512, 5, 4.32692, 29.3693, 15.9519, 5.83448, -47.9506, -4.10333
4.516, 5, 4.26351, 29.4092, 15.9444, 5.73945, -48.0521, -4.03454
4.52, 5, 4.20009, 29.4488, 15.9371, 5.64469, -48.1538, -3.96602
4.524, 5, 4.13664, 29.4884, 15.93, 5.55023, -48.2556, -3.89776
4.528, 5, 4.07317, 29.5278, 15.9231, 5.45604, -48.3575, -3.82976
4.532, 5, 4.00968, 29.567, 15.9164, 5.36214, -48.4596, -3.76202
4.536, 5, 3.94617, 29.6061, 15.9099, 5.26852, -48.5619, -3.69454
4.54, 5, 3.88265, 29.6451, 15.9037, 5.17518, -48.6644, -3.62732
4.544, 5, 3.8191, 29.6839, 15.8976, 5.08213, -48.7669, -3.56036
4.548, 5, 3.75554, 29.7226, 15.8918, 4.98935, -48.8697, -3.49366
4.552, 5, 3.69195, 29.7612, 15.8862, 4.89685, -48.9726, -3.42722
4.556, 5, 3.62836, 29.7996, 15.8808, 4.80463, -49.0756, -3.36103
4.56, 5, 3.56474, 29.8378, 15.8756, 4.71269, -49.1788, -3.2951
4.564, 5, 3.50111, 29.8759, 15.8706, 4.62102, -49.2822, -3.22942
4.568, 5, 3.43746, 29.9139, 15.8659, 4.52963, -49.3857, -3.164
4.572, 5, 3.37379, 29.9518, 15.8613, 4.43852, -49.4893, -3.09883
4.576, 5, 3.31011, 29.9895, 15.857, 4.34767, -49.5931, -3.03391
4.58, 5, 3.24641, 30.027, 15.8529, 4.25711, -49.6971, -2.96924
4.584, 5, 3.1827, 30.0644, 15.849, 4.16681, -49.8012, -2.90483
4.588, 5, 3.11898, 30.1017, 15.8453, 4.07679, -49.9055, -2.84067
4.592, 5, 3.05524, 30.1388, 15.8418, 3.98704, -50.0099, -2.77676
4.596, 5, 2.99148, 30.1758, 15.8385, 3.89756, -50.1145, -2.71309
4.6, 5, 2.92771, 30.2127, 15.8355, 3.80835, -50.2192, -2.64968
4.604, 5, 2.86393, 30.2494, 15.8327, 3.71941, -50.324, -2.58651
4.608, 5, 2.80014, 30.286, 15.8301, 3.63074, -50.4291, -2.52359
4.612, 5, 2.73633, 30.3224, 15.8277, 3.54234, -50.5342, -2.46092
4.616, 5, 2.67251, 30.3587, 15.8255, 3.45421, -50.6396, -2.39849
4.62, 5, 2.60868, 30.3948, 15.8235, 3.36634, -50.745, -2.33631
4.624, 5, 2.54484, 30.4308, 15.8218, 3.27874, -50.8506, -2.27438
4.628, 5, 2.48099, 30.4667, 15.8202, 3.1914, -50.9564, -2.21269
4.632, 5, 2.41712, 30.5024, 15.8189, 3.10434, -51.0623, -2.15124
4.636, 5, 2.35325, 30.538, 15.8178, 3.01753, -51.1684, -2.09004
4.64, 5, 2.28937, 30.5735, 15.8169, 2.93099, -51.2746, -2.02908
4.644, 5, 2.22547, 30.6088, 15.8163, 2.84471, -51.381, -1.96836
4.648, 5, 2.16157, 30.644, 15.8158, 2.7587, -51.4875, -1.90788
4.652, 5, 2.09765, 30.679, 15.8156, 2.67295, -51.5942, -1.84764
4.656, 5, 2.03373, 30.7139, 15.8156, 2.58746, -51.701, -1.78765
4.66, 5, 1.9698, 30.7486, 15.8158, 2.50223, -51.808, -1.72789
4.664, 5, 1.90586, 30.7832, 15.8162, 2.41726, -51.9151, -1.66838
4.668, 5, 1.84191, 30.8177, 15.8169, 2.33255, -52.0223, -1.6091
4.672, 5, 1.77795, 30.8521, 15.8177, 2.24811, -52.1297, -1.55006
4.676, 5, 1.71399, 30.8862, 15.8188, 2.16392, -52.2373, -1.49126
4.68, 5, 1.65002, 30.9203, 15.8201, 2.07999, -52.345, -1.4327
4.684, 5, 1.58604, 30.9542, 15.8216, 1.99632, -52.4529, -1.37438
4.688, 5, 1.52205, 30.9879, 15.8234, 1.9129, -52.5609, -1.3163
4.692, 5, 1.45805, 31.0215, 15.8253, 1.82974, -52.669, -1.25849
4.696, 5, 1.39404, 31.0549, 15.8275, 1.74682, -52.7773, -1.20095
4.7, 5, 1.33002, 31.0882, 15.8299, 1.66414, -52.8856, -1.14372
4.704, 5, 1.26599, 31.1212, 15.8324, 1.5817, -52.9941, -1.08684
4.708, 5, 1.20195, 31.1541, 15.8353, 1.49948, -53.1027, -1.03037
4.712, 5, 1.13789, 31.1868, 15.8383, 1.41746, -53.2112, -0.97438
4.716, 5, 1.07383, 31.2193, 15.8415, 1.33564, -53.3198, -0.918932
4.72, 5, 1.00976, 31.2517, 15.8449, 1.25399, -53.4284, -0.864111
4.724, 5, 0.945672, 31.2838, 15.8486, 1.1725, -53.5369, -0.809998
4.728, 5, 0.881579, 31.3157, 15.8524, 1.09115, -53.6453, -0.756679
4.732, 5, 0.817476, 31.3474, 15.8565, 1.00993, -53.7535, -0.704239
4.736, 5, 0.753364, 31.3788, 15.8607, 0.928809, -53.8616, -0.652761
4.74, 5, 0.689242, 31.4101, 15.8651, 0.847779, -53.9694, -0.602322
4.744, 5, 0.625109, 31.4411, 15.8698, 0.766821, -54.077, -0.55299
4.748, 5, 0.560964, 31.4719, 15.8746, 0.685923, -54.1843, -0.504824
4.752, 5, 0.496807, 31.5025, 15.8797, 0.605071, -54.2913, -0.457869
4.756, 6, 0.432636, 31.5328, 15.8849, 0.524257, -54.3981, -0.41216
4.76, 6, 0.36845, 31.5629, 15.8903, 0.443471, -54.5044, -0.367722
4.764, 6, 0.304247, 31.5927, 15.896, 0.362706, -54.6105, -0.32457
4.768, 6, 0.240026, 31.6223, 15.9018, 0.281955, -54.7162, -0.282714
4.772, 6, 0.175786, 31.6515, 15.9078, 0.201213, -54.8215, -0.24216
4.776, 6, 0.111528, 31.6806, 15.914, 0.120475, -54.9266, -0.202911
4.78, 6, 0.0472556, 31.7093, 15.9204, 0.039734, -55.0312, -0.164969
4.784, 6, -0.0170324, 31.7377, 15.927, -0.0410141, -55.1356, -0.128332
4.788, 6, -0.0813368, 31.7659, 15.9339, -0.121774, -55.2396, -0.0929996
4.792, 6, -0.145659, 31.7938, 15.9409, -0.202551, -55.3432, -0.0589712
4.796, 6, -0.21, 31.8214, 15.9481, -0.28335, -55.4465, -0.0262444
4.8, 6, -0.27436, 31.8488, 15.9555, -0.364175, -55.5495, 0.00518381
4.804, 6, -0.338738, 31.8758, 15.9632, -0.44503, -55.6521, 0.0353188
4.808, 6, -0.403132, 31.9026, 15.971, -0.525919, -55.7543, 0.0641703
4.812, 6, -0.467539, 31.9292, 15.9791, -0.606843, -55.8563, 0.0917554
4.816, 6, -0.531957, 31.9555, 15.9874, -0.687802, -55.9579, 0.1181
4.82, 6, -0.596388, 31.9815, 15.9959, -0.768793, -56.0592, 0.143241
4.824, 6, -0.660835, 32.0073, 16.0046, -0.849811, -56.1602, 0.167228
4.828, 6, -0.725299, 32.0329, 16.0135, -0.930848, -56.261, 0.19012
4.832, 6, -0.789782, 32.0582, 16.0227, -1.01189, -56.3615, 0.211988
4.836, 6, -0.85428, 32.0833, 16.0321, -1.09293, -56.4618, 0.232907
4.84, 6, -0.918793, 32.1081, 16.0417, -1.17396, -56.562, 0.252959
4.844, 6, -0.983319, 32.1328, 16.0515, -1.25495, -56.6621, 0.272231
4.848, 6, -1.04786, 32.1572, 16.0616, -1.3359, -56.7621, 0.290809
4.852, 6, -1.1124, 32.1814, 16.0719, -1.41678, -56.862, 0.308779
4.856, 6, -1.17697, 32.2054, 16.0825, -1.49758, -56.9619, 0.326223
4.86, 6, -1.24154, 32.2292, 16.0932, -1.5783, -57.0619, 0.343218
4.864, 6, -1.30613, 32.2528, 16.1043, -1.6589, -57.1619, 0.35983
4.868, 6, -1.37074, 32.2762, 16.1155, -1.73939, -57.2621, 0.376116
4.872, 6, -1.43536, 32.2994, 16.1271, -1.81975, -57.3623, 0.392122
4.876, 6, -1.49999, 32.3225, 16.1388, -1.89998, -57.4627, 0.40788
4.88, 6, -1.56463, 32.3453, 16.1508, -1.98007, -57.5632, 0.423415
4.884, 6, -1.62928, 32.368, 16.163, -2.06003, -57.6638, 0.438743
4.888, 6, -1.69394, 32.3906, 16.1755, -2.13984, -57.7646, 0.453877
4.892, 6, -1.75861, 32.413, 16.1883, -2.2195, -57.8656, 0.468823
4.896, 6, -1.82329, 32.4352, 16.2013, -2.29903, -57.9667, 0.483587
4.9, 6, -1.88797, 32.4573, 16.2145, -2.3784, -58.0679, 0.498173
4.904, 6, -1.95266, 32.4792, 16.2279, -2.45764, -58.1693, 0.512582
4.908, 6, -2.01736, 32.501, 16.2417, -2.53673, -58.2709, 0.526818
4.912, 6, -2.08206, 32.5227, 16.2556, -2.61567, -58.3726, 0.540881
4.916, 6, -2.14677, 32.5442, 16.2698, -2.69447, -58.4745, 0.554771
4.92, 6, -2.21148, 32.5655, 16.2843, -2.77313, -58.5765, 0.568489
4.924, 6, -2.2762, 32.5867, 16.299, -2.85164, -58.6787, 0.582037
4.928, 6, -2.34093, 32.6078, 16.3139, -2.93001, -58.781, 0.595413
4.932, 6, -2.40566, 32.6287, 16.3291, -3.00823, -58.8835, 0.608619
4.936, 6, -2.47039, 32.6495, 16.3445, -3.08631, -58.9861, 0.621655
4.94, 6, -2.53513, 32.6701, 16.3601, -3.16425, -59.0889, 0.634519
4.944, 6, -2.59987, 32.6906, 16.376, -3.24205, -59.1919, 0.647214
4.948, 6, -2.66462, 32.711, 16.3922, -3.31971, -59.295, 0.659738
4.952, 6, -2.72937, 32.7312, 16.4085, -3.39723, -59.3983, 0.672093
4.956, 6, -2.79412, 32.7513, 16.4252, -3.4746, -59.5017, 0.684277
4.96, 6, -2.85887, 32.7712, 16.442, -3.55183, -59.6052, 0.696291
4.964, 6, -2.92363, 32.791, 16.4591, -3.62893, -59.7089, 0.708136
4.968, 6, -2.98839, 32.8106, 16.4765, -3.70588, -59.8128, 0.71981
4.972, 6, -3.05314, 32.8301, 16.494, -3.78269, -59.9168, 0.731315
4.976, 6, -3.1179, 32.8495, 16.5118, -3.85937, -60.021, 0.742649
4.98, 6, -3.18267, 32.8687, 16.5299, -3.9359, -60.1253, 0.753814
4.984, 6, -3.24743, 32.8878, 16.5482, -4.0123, -60.2298, 0.76481
4.988, 6, -3.31219, 32.9068, 16.5667, -4.08856, -60.3344, 0.775635
4.992, 6, -3.37695, 32.9256, 16.5855, -4.16468, -60.4391, 0.786291
4.996, 6, -3.44171, 32.9442, 16.6045, -4.24067, -60.544, 0.796778
5, 6, -3.50647, 32.9628, 16.6237, -4.31651, -60.6491, 0.807094
5.004, 6, -3.57123, 32.9812, 16.6432, -4.39222, -60.7543, 0.817241
5.008, 6, -3.63599, 32.9994, 16.6629, -4.46779, -60.8597, 0.827218
5.012, 6, -3.70075, 33.0176, 16.6828, -4.54323, -60.9652, 0.837026
5.016, 6, -3.7655, 33.0355, 16.703, -4.61853, -61.0708, 0.846664
5.02, 6, -3.83026, 33.0534, 16.7234, -4.6937, -61.1766, 0.856133
5.024, 6, -3.89501, 33.0711, 16.7441, -4.76873, -61.2826, 0.865432
5.028, 6, -3.95975, 33.0887, 16.7649, -4.84362, -61.3886, 0.874561
5.032, 6, -4.0245, 33.1061, 16.7861, -4.91838, -61.4949, 0.883521
5.036, 6, -4.08924, 33.1234, 16.8074, -4.99301, -61.6013, 0.892311
5.04, 6, -4.15397, 33.1406, 16.829, -5.0675, -61.7078, 0.900932
5.044, 6, -4.2187, 33.1576, 16.8508, -5.14186, -61.8144, 0.909383
5.048, 6, -4.28343, 33.1745, 16.8729, -5.21608, -61.9213, 0.917664
5.052, 6, -4.34815, 33.1913, 16.8951, -5.29017, -62.0282, 0.925776
5.056, 6, -4.41287, 33.2079, 16.9176, -5.36413, -62.1353, 0.933718
5.06, 6, -4.47758, 33.2244, 16.9404, -5.43796, -62.2425, 0.94149
5.064, 6, -4.54228, 33.2408, 16.9634, -5.51165, -62.3499, 0.949093
5.068, 6, -4.60698, 33.2571, 16.9866, -5.58522, -62.4575, 0.956525
5.072, 6, -4.67167, 33.2732, 17.01, -5.65865, -62.5651, 0.963788
5.076, 6, -4.73636, 33.2891, 17.0337, -5.73195, -62.6729, 0.970881
5.08, 6, -4.80104, 33.305, 17.0576, -5.80512, -62.7809, 0.977804
5.084, 6, -4.86571, 33.3207, 17.0817, -5.87815, -62.889, 0.984558
5.088, 6, -4.93037, 33.3363, 17.1061, -5.95106, -62.9972, 0.991141
5.092, 6, -4.99502, 33.3517, 17.1306, -6.02384, -63.1056, 0.997554
5.096, 6, -5.05967, 33.367, 17.1555, -6.09649, -63.2141, 1.0038
5.1, 6, -5.12431, 33.3822, 17.1805, -6.169, -63.3228, 1.00987
5.104, 6, -5.18893, 33.3973, 17.2058, -6.24139, -63.4316, 1.01577
5.108, 6, -5.25355, 33.4122, 17.2313, -6.31365, -63.5405, 1.0215
5.112, 6, -5.31816, 33.427, 17.257, -6.38578, -63.6496, 1.02707
5.116, 6, -5.38276, 33.4416, 17.283, -6.45779, -63.7588, 1.03246
5.12, 6, -5.44735, 33.4562, 17.3092, -6.52966, -63.8681, 1.03768
5.124, 6, -5.51192, 33.4706, 17.3356, -6.60141, -63.9776, 1.04273
5.128, 6, -5.57649, 33.4849, 17.3622, -6.67303, -64.0872, 1.04761
5.132, 6, -5.64104, 33.499, 17.3891, -6.74452, -64.197, 1.05232
5.136, 6, -5.70558, 33.513, 17.4162, -6.81588, -64.3069, 1.05686
5.14, 6, -5.77011, 33.5269, 17.4435, -6.88712, -64.4169, 1.06123
5.144, 6, -5.83462, 33.5407, 17.4711, -6.95823, -64.5271, 1.06542
5.148, 6, -5.89913, 33.5543, 17.4989, -7.02922, -64.6374, 1.06945
5.152, 6, -5.96362, 33.5678, 17.5269, -7.10007, -64.7479, 1.0733
5.156, 6, -6.02809, 33.5812, 17.5551, -7.17081, -64.8585, 1.07698
5.16, 6, -6.09255, 33.5945, 17.5836, -7.24141, -64.9692, 1.0805
5.164, 6, -6.157, 33.6076, 17.6123, -7.3119, -65.08, 1.08384
5.168, 6, -6.22143, 33.6206, 17.6412, -7.38225, -65.191, 1.087
5.172, 6, -6.28585, 33.6335, 17.6703, -7.45249, -65.3022, 1.09
5.176, 6, -6.35025, 33.6462, 17.6997, -7.52259, -65.4134, 1.09283
5.18, 6, -6.41464, 33.6589, 17.7293, -7.59258, -65.5248, 1.09548
5.184, 6, -6.47901, 33.6714, 17.7591, -7.66244, -65.6363, 1.09796
5.188, 6, -6.54336, 33.6837, 17.7891, -7.73217, -65.748, 1.10027
5.192, 6, -6.6077, 33.696, 17.8194, -7.80179, -65.8598, 1.1024
5.196, 6, -6.67202, 33.7081, 17.8499, -7.87128, -65.9717, 1.10437
5.2, 6, -6.73632, 33.7201, 17.8806, -7.94064, -66.0838, 1.10616
5.204, 6, -6.8006, 33.732, 17.9116, -8.00989, -66.196, 1.10777
5.208, 6, -6.86487, 33.7437, 17.9427, -8.07901, -66.3083, 1.10922
5.212, 6, -6.92911, 33.7554, 17.9741, -8.14801, -66.4207, 1.11049
5.216, 6, -6.99334, 33.7669, 18.0057, -8.21688, -66.5333, 1.11159
5.22, 6, -7.05754, 33.7782, 18.0376, -8.28564, -66.6461, 1.11251
5.224, 6, -7.12173, 33.7895, 18.0696, -8.35427, -66.7589, 1.11327
5.228, 6, -7.1859, 33.8006, 18.1019, -8.42279, -66.8719, 1.11384
5.232, 6, -7.25005, 33.8116, 18.1344, -8.49118, -66.985, 1.11425
5.236, 6, -7.31418, 33.8225, 18.1671, -8.55945, -67.0983, 1.11448
5.24, 6, -7.37829, 33.8333, 18.2001, -8.6276, -67.2116, 1.11453
5.244, 6, -7.44237, 33.844, 18.2333, -8.69563, -67.3251, 1.11442
5.248, 6, -7.50644, 33.8545, 18.2667, -8.76354, -67.4388, 1.11412
5.252, 6, -7.57049, 33.8649, 18.3003, -8.83133, -67.5525, 1.11366
5.256, 6, -7.63452, 33.8752, 18.3341, -8.89901, -67.6664, 1.11302
5.26, 6, -7.69852, 33.8853, 18.3682, -8.96657, -67.7804, 1.1122
5.264, 6, -7.76251, 33.8954, 18.4025, -9.03401, -67.8946, 1.11122
5.268, 6, -7.82647, 33.9053, 18.437, -9.10134, -68.0089, 1.11006
5.272, 6, -7.89041, 33.9151, 18.4717, -9.16855, -68.1233, 1.10873
5.276, 6, -7.95433, 33.9248, 18.5067, -9.23565, -68.2378, 1.10722
5.28, 6, -8.01822, 33.9344, 18.5418, -9.30264, -68.3525, 1.10554
5.284, 6, -8.08208, 33.9439, 18.5772, -9.36951, -68.4673, 1.10369
5.288, 6, -8.14593, 33.9532, 18.6128, -9.43627, -68.5822, 1.10167
5.292, 6, -8.20975, 33.9624, 18.6486, -9.50293, -68.6973, 1.09947
5.296, 6, -8.27354, 33.9715, 18.6846, -9.56947, -68.8124, 1.09711
5.3, 6, -8.33731, 33.9805, 18.7209, -9.6359, -68.9277, 1.09457
5.304, 6, -8.40105, 33.9894, 18.7573, -9.70223, -69.0431, 1.09186
5.308, 6, -8.46477, 33.9982, 18.794, -9.76845, -69.1587, 1.08897
5.312, 6, -8.52846, 34.0068, 18.8309, -9.83455, -69.2744, 1.08592
5.316, 6, -8.59213, 34.0154, 18.868, -9.90055, -69.3902, 1.08269
5.32, 6, -8.65577, 34.0238, 18.9053, -9.96645, -69.5061, 1.07929
5.324, 6, -8.71938, 34.0321, 18.9428, -10.0322, -69.6221, 1.07572
5.328, 6, -8.78297, 34.0403, 18.9806, -10.0979, -69.7383, 1.07197
5.332, 6, -8.84653, 34.0484, 19.0185, -10.1635, -69.8546, 1.06805
5.336, 6, -8.91007, 34.0564, 19.0567, -10.229, -69.971, 1.06396
5.34, 6, -8.97358, 34.0642, 19.0951, -10.2943, -70.0876, 1.0597
5.344, 6, -9.03706, 34.072, 19.1337, -10.3596, -70.2042, 1.05527
5.348, 6, -9.10051, 34.0796, 19.1725, -10.4247, -70.321, 1.05066
5.352, 6, -9.16393, 34.0871, 19.2115, -10.4898, -70.4379, 1.04588
5.356, 6, -9.22733, 34.0946, 19.2507, -10.5547, -70.5549, 1.04093
5.36, 6, -9.29069, 34.1019, 19.2901, -10.6196, -70.6721, 1.0358
5.364, 6, -9.35403, 34.1091, 19.3298, -10.6843, -70.7893, 1.0305
5.368, 6, -9.41734, 34.1162, 19.3696, -10.749, -70.9067, 1.02503
5.372, 6, -9.48061, 34.1231, 19.4097, -10.8135, -71.0242, 1.01938
5.376, 6, -9.54386, 34.13, 19.45, -10.8779, -71.1418, 1.01357
5.38, 6, -9.60708, 34.1368, 19.4904, -10.9423, -71.2596, 1.00758
5.384, 6, -9.67026, 34.1434, 19.5311, -11.0065, -71.3774, 1.00141
5.388, 6, -9.73341, 34.15, 19.572, -11.0707, -71.4954, 0.995074
5.392, 6, -9.79653, 34.1564, 19.6131, -11.1347, -71.6135, 0.988562
5.396, 6, -9.85962, 34.1628, 19.6544, -11.1986, -71.7317, 0.981878
5.4, 6, -9.92268, 34.169, 19.6959, -11.2625, -71.85, 0.97502
5.404, 6, -9.9857, 34.1751, 19.7376, -11.3262, -71.9684, 0.967988
5.408, 6, -10.0487, 34.1811, 19.7795, -11.3898, -72.087, 0.960783
5.412, 6, -10.1116, 34.1871, 19.8216, -11.4534, -72.2057, 0.953404
5.416, 6, -10.1746, 34.1929, 19.864, -11.5168, -72.3244, 0.945851
5.42, 6, -10.2375, 34.1986, 19.9065, -11.5802, -72.4433, 0.938124
5.424, 6, -10.3003, 34.2042, 19.9492, -11.6434, -72.5623, 0.930224
5.428, 6, -10.3631, 34.2097, 19.9922, -11.7066, -72.6815, 0.922149
5.432, 6, -10.4259, 34.215, 20.0353, -11.7697, -72.8007, 0.913901
5.436, 6, -10.4887, 34.2203, 20.0786, -11.8326, -72.92, 0.905478
5.44, 6, -10.5514, 34.2255, 20.1222, -11.8955, -73.0395, 0.896881
5.444, 6, -10.614, 34.2306, 20.1659, -11.9583, -73.1591, 0.88811
5.448, 6, -10.6767, 34.2356, 20.2098, -12.021, -73.2787, 0.879165
5.452, 6, -10.7393, 34.2405, 20.254, -12.0836, -73.3985, 0.870045
5.456, 6, -10.8018, 34.2452, 20.2983, -12.1461, -73.5184, 0.860751
5.46, 6, -10.8644, 34.2499, 20.3428, -12.2085, -73.6384, 0.851282
5.464, 6, -10.9269, 34.2545, 20.3876, -12.2708, -73.7585, 0.841639
5.468, 6, -10.9893, 34.259, 20.4325, -12.333, -73.8788, 0.831821
5.472, 6, -11.0517, 34.2633, 20.4776, -12.3951, -73.9991, 0.821828
5.476, 6, -11.1141, 34.2676, 20.523, -12.4572, -74.1195, 0.811661
5.48, 6, -11.1764, 34.2718, 20.5685, -12.5191, -74.2401, 0.801319
5.484, 6, -11.2387, 34.2759, 20.6142, -12.581, -74.3607, 0.790802
5.488, 6, -11.3009, 34.2799, 20.6601, -12.6428, -74.4815, 0.78011
5.492, 6, -11.3631, 34.2837, 20.7062, -12.7045, -74.6024, 0.769242
5.496, 6, -11.4253, 34.2875, 20.7526, -12.766, -74.7233, 0.7582
5.5, 6, -11.4874, 34.2912, 20.7991, -12.8276, -74.8444, 0.746983
5.504, 6, -11.5495, 34.2948, 20.8457, -12.889, -74.9656, 0.73559
5.508, 6, -11.6116, 34.2983, 20.8926, -12.9503, -75.0869, 0.724023
5.512, 6, -11.6735, 34.3017, 20.9397, -13.0116, -75.2083, 0.712279
5.516, 6, -11.7355, 34.305, 20.987, -13.0727, -75.3297, 0.700361
5.52, 6, -11.7974, 34.3082, 21.0345, -13.1338, -75.4513, 0.688266
5.524, 6, -11.8593, 34.3113, 21.0821, -13.1948, -75.573, 0.675997
5.528, 6, -11.9211, 34.3143, 21.13, -13.2557, -75.6948, 0.663551
5.532, 6, -11.9829, 34.3173, 21.178, -13.3165, -75.8167, 0.65093
5.536, 6, -12.0446, 34.3201, 21.2262, -13.3773, -75.9387, 0.638134
5.54, 6, -12.1063, 34.3228, 21.2747, -13.4379, -76.0608, 0.625161
5.544, 6, -12.1679, 34.3255, 21.3233, -13.4985, -76.183, 0.612013
5.548, 6, -12.2295, 34.328, 21.3721, -13.559, -76.3053, 0.598688
5.552, 6, -12.291, 34.3305, 21.4211, -13.6194, -76.4277, 0.585188
5.556, 6, -12.3525, 34.3328, 21.4702, -13.6797, -76.5502, 0.571511
5.56, 6, -12.414, 34.3351, 21.5196, -13.74, -76.6727, 0.557658
5.564, 6, -12.4754, 34.3373, 21.5691, -13.8001, -76.7954, 0.543629
5.568, 6, -12.5367, 34.3394, 21.6189, -13.8602, -76.9182, 0.529424
5.572, 6, -12.598, 34.3414, 21.6688, -13.9202, -77.0411, 0.515043
5.576, 6, -12.6593, 34.3433, 21.7189, -13.9802, -77.1641, 0.500485
5.58, 6, -12.7205, 34.3452, 21.7692, -14.04, -77.2871, 0.48575
5.584, 6, -12.7816, 34.3469, 21.8197, -14.0998, -77.4103, 0.470839
5.588, 6, -12.8427, 34.3486, 21.8703, -14.1595, -77.5335, 0.455751
5.592, 6, -12.9038, 34.3501, 21.9212, -14.2191, -77.6569, 0.440487
5.596, 6, -12.9648, 34.3516, 21.9722, -14.2787, -77.7803, 0.425046
5.6, 6, -13.0257, 34.353, 22.0234, -14.3381, -77.9038, 0.409428
5.604, 6, -13.0866, 34.3543, 22.0748, -14.3975, -78.0275, 0.393633
5.608, 6, -13.1474, 34.3555, 22.1264, -14.4569, -78.1512, 0.377661
5.612, 6, -13.2082, 34.3566, 22.1781, -14.5161, -78.275, 0.361512
5.616, 6, -13.269, 34.3577, 22.23, -14.5753, -78.3989, 0.345187
5.62, 6, -13.3296, 34.3586, 22.2821, -14.6344, -78.5229, 0.328683
5.624, 6, -13.3903, 34.3595, 22.3344, -14.6934, -78.6469, 0.312003
5.628, 6, -13.4508, 34.3603, 22.3869, -14.7524, -78.7711, 0.295146
5.632, 6, -13.5113, 34.361, 22.4395, -14.8112, -78.8954, 0.278111
5.636, 6, -13.5718, 34.3616, 22.4924, -14.8701, -79.0197, 0.260898
5.64, 6, -13.6322, 34.3622, 22.5454, -14.9288, -79.1441, 0.243508
5.644, 6, -13.6926, 34.3626, 22.5985, -14.9875, -79.2686, 0.225941
5.648, 6, -13.7528, 34.363, 22.6519, -15.0461, -79.3932, 0.208196
5.652, 6, -13.8131, 34.3633, 22.7054, -15.1046, -79.5179, 0.190273
5.656, 6, -13.8733, 34.3635, 22.7591, -15.1631, -79.6427, 0.172172
5.66, 6, -13.9334, 34.3637, 22.813, -15.2215, -79.7675, 0.153893
5.664, 6, -13.9934, 34.3637, 22.8671, -15.2798, -79.8925, 0.135435
5.668, 6, -14.0534, 34.3637, 22.9213, -15.3381, -80.0175, 0.1168
5.672, 6, -14.1134, 34.3636, 22.9757, -15.3963, -80.1426, 0.0979855
5.676, 6, -14.1733, 34.3634, 23.0303, -15.4544, -80.2678, 0.0789924
5.68, 6, -14.2331, 34.3632, 23.085, -15.5125, -80.3931, 0.0598203
5.684, 6, -14.2929, 34.3628, 23.1399, -15.5705, -80.5184, 0.040469
5.688, 6, -14.3526, 34.3624, 23.195, -15.6285, -80.6439, 0.0209382
5.692, 6, -14.4122, 34.3619, 23.2503, -15.6863, -80.7694, 0.00122765
5.696, 6, -14.4718, 34.3614, 23.3057, -15.7442, -80.895, -0.0186629
5.7, 6, -14.5313, 34.3607, 23.3613, -15.8019, -81.0207, -0.0387336
5.704, 6, -14.5908, 34.36, 23.4171, -15.8596, -81.1465, -0.0589848
5.708, 6, -14.6502, 34.3592, 23.473, -15.9173, -81.2723, -0.0794167
5.712, 6, -14.7095, 34.3583, 23.5291, -15.9748, -81.3983, -0.10003
5.716, 6, -14.7688, 34.3574, 23.5854, -16.0324, -81.5243, -0.120824
5.72, 6, -14.828, 34.3564, 23.6418, -16.0898, -81.6504, -0.141799
5.724, 6, -14.8871, 34.3553, 23.6985, -16.1472, -81.7766, -0.162956
5.728, 6, -14.9462, 34.3541, 23.7552, -16.2046, -81.9028, -0.184295
5.732, 6, -15.0052, 34.3529, 23.8122, -16.2618, -82.0292, -0.205816
5.736, 6, -15.0642, 34.3515, 23.8693, -16.3191, -82.1556, -0.227519
5.74, 6, -15.1231, 34.3502, 23.9266, -16.3762, -82.2821, -0.249405
5.744, 6, -15.1819, 34.3487, 23.984, -16.4334, -82.4087, -0.271473
5.748, 6, -15.2407, 34.3472, 24.0416, -16.4904, -82.5354, -0.293725
5.752, 6, -15.2994, 34.3456, 24.0994, -16.5474, -82.6621, -0.316159
5.756, 6, -15.358, 34.3439, 24.1574, -16.6044, -82.7889, -0.338777
5.76, 6, -15.4165, 34.3422, 24.2155, -16.6613, -82.9158, -0.361579
5.764, 6, -15.475, 34.3403, 24.2737, -16.7181, -83.0428, -0.384564
5.768, 6, -15.5335, 34.3385, 24.3322, -16.7749, -83.1698, -0.407734
5.772, 6, -15.5918, 34.3365, 24.3908, -16.8316, -83.2969, -0.431087
5.776, 6, -15.6501, 34.3345, 24.4495, -16.8883, -83.4241, -0.454626
5.78, 6, -15.7083, 34.3324, 24.5084, -16.9449, -83.5514, -0.478348
5.784, 6, -15.7665, 34.3302, 24.5675, -17.0015, -83.6787, -0.502256
5.788, 6, -15.8245, 34.328, 24.6267, -17.058, -83.8061, -0.526349
5.792, 6, -15.8825, 34.3257, 24.6861, -17.1145, -83.9336, -0.550627
5.796, 6, -15.9405, 34.3234, 24.7457, -17.1709, -84.0612, -0.575091
5.8, 6, -15.9983, 34.321, 24.8054, -17.2273, -84.1888, -0.599741
5.804, 6, -16.0561, 34.3185, 24.8652, -17.2836, -84.3165, -0.624576
5.808, 6, -16.1138, 34.3159, 24.9253, -17.3399, -84.4443, -0.649598
5.812, 6, -16.1715, 34.3133, 24.9854, -17.3961, -84.5721, -0.674806
5.816, 6, -16.2291, 34.3106, 25.0458, -17.4523, -84.7, -0.7002
5.82, 6, -16.2866, 34.3079, 25.1063, -17.5085, -84.828, -0.725781
5.824, 6, -16.344, 34.3051, 25.1669, -17.5645, -84.956, -0.75155
5.828, 6, -16.4013, 34.3022, 25.2277, -17.6206, -85.0842, -0.777505
5.832, 6, -16.4586, 34.2993, 25.2886, -17.6766, -85.2123, -0.803648
5.836, 6, -16.5158, 34.2963, 25.3497, -17.7325, -85.3406, -0.829978
5.84, 6, -16.5729, 34.2932, 25.411, -17.7884, -85.4689, -0.856497
5.844, 6, -16.63, 34.2901, 25.4724, -17.8443, -85.5973, -0.883203
5.848, 6, -16.6869, 34.2869, 25.534, -17.9001, -85.7257, -0.910097
5.852, 6, -16.7438, 34.2837, 25.5957, -17.9559, -85.8542, -0.93718
5.856, 6, -16.8006, 34.2804, 25.6575, -18.0116, -85.9828, -0.964452
5.86, 6, -16.8573, 34.2771, 25.7195, -18.0673, -86.1114, -0.991912
5.864, 6, -16.914, 34.2737, 25.7817, -18.123, -86.2401, -1.01956
5.868, 6, -16.9706, 34.2702, 25.844, -18.1786, -86.3689, -1.0474
5.872, 6, -17.0271, 34.2667, 25.9065, -18.2342, -86.4977, -1.07543
5.876, 6, -17.0835, 34.2631, 25.9691, -18.2897, -86.6266, -1.10364
5.88, 6, -17.1398, 34.2594, 26.0318, -18.3452, -86.7556, -1.13205
5.884, 6, -17.196, 34.2557, 26.0947, -18.4006, -86.8846, -1.16065
5.888, 6, -17.2522, 34.252, 26.1577, -18.456, -87.0136, -1.18944
5.892, 6, -17.3083, 34.2482, 26.2209, -18.5114, -87.1428, -1.21842
5.896, 6, -17.3643, 34.2443, 26.2842, -18.5668, -87.272, -1.24759
5.9, 6, -17.4202, 34.2404, 26.3477, -18.6221, -87.4012, -1.27695
5.904, 6, -17.4761, 34.2364, 26.4113, -18.6773, -87.5305, -1.30651
5.908, 6, -17.5318, 34.2324, 26.4751, -18.7326, -87.6599, -1.33626
5.912, 6, -17.5875, 34.2283, 26.539, -18.7878, -87.7893, -1.3662
5.916, 6, -17.6431, 34.2242, 26.603, -18.8429, -87.9188, -1.39633
5.92, 6, -17.6986, 34.22, 26.6672, -18.8981, -88.0483, -1.42666
5.924, 6, -17.754, 34.2158, 26.7315, -18.9532, -88.1779, -1.45718
