hehonglu123/ABB_Primitive_Study/execution/movec_30_ori/curve_exe_v1500_z20.csv
timestamp, cmd_num, J1, J2, J3, J4, J5, J6
0, -1, -18.7697, 34.1307, 27.9437, -19.9675, -90.5849, -2.05479
0.002, -1, -18.7697, 34.1307, 27.9437, -19.9675, -90.5849, -2.05479
0.006, -1, -18.7697, 34.1307, 27.9437, -19.9675, -90.5849, -2.05479
0.008, -1, -18.7697, 34.1307, 27.9437, -19.9675, -90.5849, -2.05479
0.011, -1, -18.7697, 34.1307, 27.9437, -19.9675, -90.5849, -2.05479
0.016, -1, -18.7697, 34.1307, 27.9437, -19.9675, -90.5849, -2.05479
0.02, -1, -18.7697, 34.1307, 27.9437, -19.9675, -90.5849, -2.05479
0.024, -1, -18.7697, 34.1307, 27.9437, -19.9675, -90.5849, -2.05479
0.028, -1, -18.7697, 34.1307, 27.9437, -19.9675, -90.5849, -2.05479
0.032, -1, -18.7697, 34.1307, 27.9437, -19.9675, -90.5849, -2.05479
0.036, -1, -18.7697, 34.1306, 27.9437, -19.9675, -90.5849, -2.05479
0.04, -1, -18.7694, 34.1306, 27.9437, -19.9675, -90.5849, -2.05479
0.044, -1, -18.7688, 34.1304, 27.9437, -19.9675, -90.5848, -2.05481
0.048, -1, -18.7677, 34.13, 27.9438, -19.9674, -90.5848, -2.05485
0.052, -1, -18.7659, 34.1293, 27.9439, -19.9672, -90.5846, -2.05494
0.056, -1, -18.7633, 34.1282, 27.9441, -19.9669, -90.5841, -2.05514
0.06, -1, -18.7599, 34.1267, 27.9443, -19.9661, -90.5833, -2.05552
0.064, -1, -18.7555, 34.1248, 27.9446, -19.9648, -90.5819, -2.05618
0.068, -1, -18.7501, 34.1222, 27.9448, -19.9626, -90.5796, -2.05723
0.072, -1, -18.7435, 34.119, 27.945, -19.9593, -90.576, -2.05884
0.076, -1, -18.7354, 34.115, 27.9452, -19.9545, -90.5709, -2.06119
0.08, -1, -18.7256, 34.11, 27.9454, -19.9477, -90.5636, -2.06449
0.084, -1, -18.7137, 34.104, 27.9453, -19.9384, -90.5537, -2.06898
0.088, -1, -18.6996, 34.0968, 27.9451, -19.9261, -90.5406, -2.07492
0.092, -1, -18.6829, 34.0883, 27.9446, -19.9102, -90.5236, -2.08261
0.096, -1, -18.6635, 34.0784, 27.9438, -19.89, -90.502, -2.09234
0.1, -1, -18.6412, 34.0671, 27.9426, -19.8649, -90.4752, -2.10442
0.104, -1, -18.6159, 34.0542, 27.9408, -19.8342, -90.4426, -2.11914
0.108, -1, -18.5871, 34.0396, 27.9385, -19.7974, -90.4034, -2.13679
0.112, -1, -18.5548, 34.0233, 27.9355, -19.754, -90.3571, -2.15761
0.116, -1, -18.519, 34.0053, 27.9318, -19.7034, -90.3033, -2.18184
0.12, -1, -18.4795, 33.9854, 27.9274, -19.6454, -90.2415, -2.20966
0.124, -1, -18.4364, 33.9638, 27.9221, -19.5795, -90.1714, -2.24119
0.128, -1, -18.3897, 33.9405, 27.916, -19.5056, -90.0928, -2.27653
0.131, -1, -18.3395, 33.9154, 27.909, -19.4238, -90.0058, -2.31566
0.136, -1, -18.2858, 33.8886, 27.9012, -19.3341, -89.9103, -2.35855
0.139, -1, -18.2285, 33.8601, 27.8926, -19.2369, -89.8069, -2.40506
0.144, -1, -18.1677, 33.8299, 27.8833, -19.1324, -89.6957, -2.45501
0.148, -1, -18.1034, 33.798, 27.8733, -19.0212, -89.5774, -2.50817
0.152, -1, -18.0358, 33.7644, 27.8627, -18.9038, -89.4525, -2.56429
0.156, -1, -17.9651, 33.7293, 27.8515, -18.7808, -89.3217, -2.62308
0.16, -1, -17.8915, 33.6928, 27.8399, -18.6529, -89.1856, -2.68422
0.164, -1, -17.8153, 33.6549, 27.828, -18.5207, -89.045, -2.74741
0.168, -1, -17.7365, 33.6157, 27.8158, -18.3849, -88.9005, -2.81233
0.172, -1, -17.6553, 33.5753, 27.8034, -18.2462, -88.7528, -2.87868
0.176, -1, -17.572, 33.5337, 27.7909, -18.105, -88.6026, -2.94619
0.18, -1, -17.4867, 33.4912, 27.7784, -17.9619, -88.4503, -3.01463
0.184, -1, -17.3998, 33.4477, 27.7658, -17.8172, -88.2964, -3.0838
0.188, -1, -17.3114, 33.4034, 27.7532, -17.6715, -88.1413, -3.15353
0.192, -1, -17.2218, 33.3586, 27.7406, -17.5248, -87.9852, -3.2237
0.196, -1, -17.1312, 33.3132, 27.728, -17.3774, -87.8284, -3.2942
0.2, -1, -17.0399, 33.2675, 27.7155, -17.2295, -87.671, -3.36496
0.204, -1, -16.9478, 33.2215, 27.7029, -17.0812, -87.5132, -3.43592
0.208, -1, -16.8552, 33.1752, 27.6903, -16.9326, -87.355, -3.50704
0.212, -1, -16.7621, 33.1287, 27.6778, -16.7836, -87.1965, -3.5783
0.216, -1, -16.6687, 33.0821, 27.6652, -16.6345, -87.0378, -3.64966
0.22, -1, -16.5751, 33.0353, 27.6527, -16.4851, -86.8788, -3.72113
0.224, -1, -16.4812, 32.9885, 27.6401, -16.3356, -86.7197, -3.79268
0.228, -1, -16.3872, 32.9416, 27.6275, -16.1859, -86.5604, -3.8643
0.232, -1, -16.2931, 32.8947, 27.6149, -16.0361, -86.4009, -3.936
0.236, -1, -16.1988, 32.8477, 27.6023, -15.8861, -86.2413, -4.00777
0.24, -1, -16.1045, 32.8006, 27.5897, -15.736, -86.0815, -4.0796
0.244, -1, -16.01, 32.7535, 27.5771, -15.5857, -85.9216, -4.15149
0.248, -1, -15.9155, 32.7064, 27.5645, -15.4354, -85.7616, -4.22345
0.252, -1, -15.8209, 32.6592, 27.5518, -15.2849, -85.6014, -4.29546
0.256, -1, -15.7262, 32.6119, 27.5392, -15.1343, -85.4411, -4.36752
0.26, -1, -15.6314, 32.5647, 27.5265, -14.9836, -85.2807, -4.43964
0.264, -1, -15.5366, 32.5174, 27.5139, -14.8327, -85.1202, -4.5118
0.268, -1, -15.4417, 32.4701, 27.5012, -14.6818, -84.9596, -4.58402
0.272, -1, -15.3467, 32.4227, 27.4885, -14.5308, -84.7989, -4.65628
0.276, -1, -15.2517, 32.3753, 27.4758, -14.3797, -84.638, -4.72859
0.28, -1, -15.1566, 32.3279, 27.4631, -14.2285, -84.4771, -4.80094
0.284, -1, -15.0615, 32.2805, 27.4504, -14.0772, -84.3161, -4.87333
0.288, -1, -14.9663, 32.233, 27.4377, -13.9258, -84.155, -4.94576
0.292, -1, -14.8711, 32.1855, 27.425, -13.7744, -83.9938, -5.01823
0.296, -1, -14.7758, 32.138, 27.4123, -13.6229, -83.8326, -5.09074
0.3, -1, -14.6805, 32.0905, 27.3995, -13.4713, -83.6712, -5.16327
0.304, -1, -14.5851, 32.0429, 27.3868, -13.3196, -83.5098, -5.23584
0.308, -1, -14.4897, 31.9953, 27.3741, -13.1679, -83.3484, -5.30844
0.312, -1, -14.3943, 31.9478, 27.3613, -13.0161, -83.1868, -5.38107
0.316, -1, -14.2988, 31.9001, 27.3486, -12.8643, -83.0252, -5.45372
0.32, -1, -14.2033, 31.8525, 27.3358, -12.7124, -82.8636, -5.5264
0.324, -1, -14.1078, 31.8049, 27.3231, -12.5604, -82.7019, -5.5991
0.328, -1, -14.0122, 31.7572, 27.3103, -12.4085, -82.5401, -5.67183
0.332, -1, -13.9167, 31.7096, 27.2975, -12.2564, -82.3784, -5.74457
0.336, -1, -13.8211, 31.6619, 27.2848, -12.1044, -82.2165, -5.81732
0.34, -1, -13.7255, 31.6142, 27.272, -11.9523, -82.0547, -5.89009
0.344, -1, -13.6298, 31.5665, 27.2592, -11.8002, -81.8928, -5.96287
0.348, -1, -13.5342, 31.5188, 27.2464, -11.6481, -81.7309, -6.03567
0.352, -1, -13.4385, 31.4711, 27.2337, -11.4959, -81.569, -6.10847
0.356, -1, -13.3429, 31.4234, 27.2209, -11.3438, -81.4071, -6.18127
0.36, -1, -13.2472, 31.3757, 27.2081, -11.1916, -81.2451, -6.25408
0.364, -1, -13.1516, 31.328, 27.1953, -11.0395, -81.0832, -6.32689
0.368, -1, -13.0559, 31.2803, 27.1825, -10.8873, -80.9212, -6.3997
0.372, -1, -12.9603, 31.2326, 27.1697, -10.7352, -80.7593, -6.47251
0.376, -1, -12.8646, 31.1849, 27.157, -10.583, -80.5974, -6.54531
0.38, -1, -12.769, 31.1372, 27.1442, -10.4309, -80.4355, -6.6181
0.384, -1, -12.6734, 31.0895, 27.1314, -10.2788, -80.2736, -6.69088
0.388, -1, -12.5777, 31.0418, 27.1186, -10.1267, -80.1118, -6.76365
0.392, -1, -12.4822, 30.9941, 27.1059, -9.97466, -79.9499, -6.8364
0.396, -1, -12.3866, 30.9465, 27.0931, -9.82266, -79.7882, -6.90914
0.4, -1, -12.291, 30.8988, 27.0803, -9.67069, -79.6264, -6.98185
0.404, -1, -12.1955, 30.8512, 27.0676, -9.51877, -79.4647, -7.05455
0.408, -1, -12.1, 30.8036, 27.0548, -9.36689, -79.3031, -7.12722
0.412, -1, -12.0046, 30.756, 27.0421, -9.21508, -79.1415, -7.19987
0.416, -1, -11.9092, 30.7084, 27.0293, -9.06332, -78.98, -7.27248
0.42, -1, -11.8138, 30.6608, 27.0166, -8.91163, -78.8186, -7.34507
0.424, -1, -11.7184, 30.6133, 27.0038, -8.76, -78.6572, -7.41762
0.428, -1, -11.6231, 30.5658, 26.9911, -8.60845, -78.4959, -7.49014
0.432, -1, -11.5279, 30.5183, 26.9784, -8.45698, -78.3347, -7.56262
0.436, -1, -11.4326, 30.4708, 26.9657, -8.30559, -78.1736, -7.63506
0.44, -1, -11.3375, 30.4234, 26.953, -8.15429, -78.0126, -7.70745
0.444, -1, -11.2424, 30.376, 26.9403, -8.00308, -77.8517, -7.77981
0.448, -1, -11.1473, 30.3286, 26.9276, -7.85197, -77.6908, -7.85211
0.452, -1, -11.0524, 30.2813, 26.9149, -7.70096, -77.5301, -7.92437
0.456, -1, -10.9574, 30.2339, 26.9022, -7.55005, -77.3695, -7.99658
0.46, -1, -10.8626, 30.1867, 26.8895, -7.39926, -77.209, -8.06874
0.464, -1, -10.7678, 30.1394, 26.8769, -7.24857, -77.0487, -8.14084
0.468, -1, -10.6731, 30.0922, 26.8642, -7.09801, -76.8884, -8.21289
0.472, -1, -10.5785, 30.045, 26.8516, -6.94757, -76.7283, -8.28487
0.476, -1, -10.4839, 29.9979, 26.839, -6.79726, -76.5683, -8.3568
0.48, -1, -10.3895, 29.9508, 26.8264, -6.64708, -76.4085, -8.42866
0.484, -1, -10.2951, 29.9038, 26.8138, -6.49703, -76.2488, -8.50046
0.488, -1, -10.2008, 29.8568, 26.8012, -6.34712, -76.0893, -8.57219
0.492, -1, -10.1066, 29.8098, 26.7886, -6.19736, -75.9299, -8.64385
0.496, -1, -10.0125, 29.7629, 26.776, -6.04775, -75.7707, -8.71544
0.5, -1, -9.91844, 29.716, 26.7635, -5.89829, -75.6116, -8.78695
0.504, -1, -9.82452, 29.6692, 26.7509, -5.74898, -75.4527, -8.8584
0.508, -1, -9.73069, 29.6225, 26.7384, -5.59984, -75.294, -8.92976
0.512, -1, -9.63697, 29.5757, 26.7259, -5.45086, -75.1354, -9.00105
0.516, -1, -9.54335, 29.5291, 26.7134, -5.30204, -74.977, -9.07226
0.52, -1, -9.44984, 29.4825, 26.7009, -5.1534, -74.8188, -9.14339
0.524, -1, -9.35644, 29.4359, 26.6884, -5.00493, -74.6608, -9.21443
0.528, -1, -9.26314, 29.3894, 26.676, -4.85664, -74.503, -9.28539
0.532, -1, -9.16997, 29.343, 26.6635, -4.70853, -74.3454, -9.35626
0.536, -1, -9.0769, 29.2966, 26.6511, -4.56061, -74.188, -9.42704
0.54, -1, -8.98396, 29.2503, 26.6387, -4.41288, -74.0307, -9.49773
0.544, -1, -8.89113, 29.204, 26.6263, -4.26534, -73.8737, -9.56833
0.548, -1, -8.79843, 29.1578, 26.6139, -4.11799, -73.7169, -9.63883
0.552, -1, -8.70584, 29.1116, 26.6016, -3.97084, -73.5603, -9.70924
0.556, -1, -8.61339, 29.0656, 26.5892, -3.82389, -73.4039, -9.77956
0.56, -1, -8.52106, 29.0196, 26.5769, -3.67715, -73.2477, -9.84978
0.564, -1, -8.42886, 28.9736, 26.5646, -3.53062, -73.0918, -9.91989
0.568, -1, -8.3368, 28.9277, 26.5523, -3.38429, -72.936, -9.98991
0.572, -1, -8.24486, 28.8819, 26.54, -3.23818, -72.7805, -10.0598
0.576, -1, -8.15307, 28.8361, 26.5278, -3.09229, -72.6253, -10.1296
0.58, -1, -8.06141, 28.7905, 26.5155, -2.94661, -72.4702, -10.1993
0.584, -1, -7.96988, 28.7448, 26.5033, -2.80116, -72.3154, -10.2689
0.588, -1, -7.8785, 28.6993, 26.4911, -2.65593, -72.1609, -10.3384
0.592, -1, -7.78726, 28.6538, 26.4789, -2.51093, -72.0065, -10.4078
0.596, -1, -7.69617, 28.6084, 26.4668, -2.36616, -71.8525, -10.4771
0.6, -1, -7.60522, 28.5631, 26.4546, -2.22162, -71.6986, -10.5463
0.604, -1, -7.51441, 28.5178, 26.4425, -2.07732, -71.5451, -10.6153
0.608, -1, -7.42376, 28.4727, 26.4304, -1.93325, -71.3917, -10.6842
0.612, -1, -7.33326, 28.4276, 26.4183, -1.78942, -71.2387, -10.7531
0.616, -1, -7.2429, 28.3825, 26.4063, -1.64584, -71.0859, -10.8218
0.62, -1, -7.1527, 28.3376, 26.3942, -1.5025, -70.9333, -10.8904
0.624, -1, -7.06265, 28.2927, 26.3822, -1.3594, -70.781, -10.9588
0.628, -1, -6.97276, 28.2479, 26.3702, -1.21656, -70.629, -11.0272
0.632, -1, -6.88303, 28.2032, 26.3582, -1.07396, -70.4772, -11.0954
0.636, -1, -6.79346, 28.1585, 26.3463, -0.931622, -70.3257, -11.1635
0.64, -1, -6.70404, 28.114, 26.3344, -0.789537, -70.1745, -11.2315
0.644, -1, -6.61479, 28.0695, 26.3224, -0.647708, -70.0236, -11.2994
0.648, -1, -6.5257, 28.0251, 26.3106, -0.506139, -69.8729, -11.3671
0.652, -1, -6.43677, 27.9808, 26.2987, -0.364831, -69.7225, -11.4347
0.656, -1, -6.34801, 27.9366, 26.2868, -0.223785, -69.5724, -11.5022
0.66, -1, -6.25941, 27.8924, 26.275, -0.0830049, -69.4226, -11.5696
0.664, -1, -6.17098, 27.8483, 26.2632, 0.057509, -69.273, -11.6368
0.668, -1, -6.08272, 27.8044, 26.2514, 0.197755, -69.1238, -11.7039
0.672, -1, -5.99463, 27.7605, 26.2397, 0.33773, -68.9748, -11.7709
0.676, -1, -5.9067, 27.7166, 26.2279, 0.477435, -68.8261, -11.8378
0.68, -1, -5.81895, 27.6729, 26.2162, 0.616866, -68.6777, -11.9045
0.684, -1, -5.73137, 27.6293, 26.2045, 0.756022, -68.5296, -11.9711
0.688, -1, -5.64396, 27.5857, 26.1929, 0.894902, -68.3818, -12.0375
0.692, -1, -5.55673, 27.5422, 26.1812, 1.0335, -68.2343, -12.1038
0.696, -1, -5.46968, 27.4988, 26.1696, 1.17183, -68.0871, -12.17
0.7, -1, -5.38279, 27.4556, 26.158, 1.30987, -67.9402, -12.2361
0.704, -1, -5.29609, 27.4123, 26.1465, 1.44763, -67.7936, -12.302
0.708, -1, -5.20956, 27.3692, 26.1349, 1.58511, -67.6473, -12.3678
0.712, -1, -5.12321, 27.3262, 26.1234, 1.72231, -67.5013, -12.4334
0.716, -1, -5.03704, 27.2833, 26.1119, 1.85921, -67.3555, -12.4989
0.72, -1, -4.95105, 27.2404, 26.1004, 1.99584, -67.2101, -12.5643
0.724, -1, -4.86524, 27.1976, 26.089, 2.13217, -67.065, -12.6296
0.728, -1, -4.77961, 27.155, 26.0775, 2.26822, -66.9203, -12.6947
0.732, -1, -4.69416, 27.1124, 26.0661, 2.40397, -66.7758, -12.7596
0.736, -1, -4.6089, 27.0699, 26.0548, 2.53944, -66.6316, -12.8244
0.74, -1, -4.52381, 27.0275, 26.0434, 2.67461, -66.4877, -12.8891
0.744, -1, -4.43891, 26.9852, 26.0321, 2.8095, -66.3442, -12.9537
0.748, -1, -4.3542, 26.943, 26.0208, 2.94408, -66.201, -13.0181
0.752, -1, -4.26966, 26.9009, 26.0095, 3.07838, -66.058, -13.0823
0.756, -1, -4.18531, 26.8588, 25.9983, 3.21238, -65.9154, -13.1464
0.76, -1, -4.10115, 26.8169, 25.987, 3.34609, -65.7731, -13.2104
0.764, -1, -4.01717, 26.775, 25.9758, 3.4795, -65.6311, -13.2743
0.768, -1, -3.93337, 26.7333, 25.9646, 3.61261, -65.4895, -13.338
0.772, -1, -3.84976, 26.6916, 25.9535, 3.74543, -65.3481, -13.4015
0.776, -1, -3.76633, 26.65, 25.9424, 3.87795, -65.2071, -13.4649
0.78, -1, -3.68309, 26.6086, 25.9313, 4.01018, -65.0664, -13.5282
0.784, -1, -3.60003, 26.5672, 25.9202, 4.14211, -64.9259, -13.5913
0.788, -1, -3.51716, 26.5259, 25.9091, 4.27375, -64.7858, -13.6543
0.792, -1, -3.43447, 26.4847, 25.8981, 4.40509, -64.6461, -13.7172
0.796, -1, -3.35197, 26.4436, 25.8871, 4.53613, -64.5066, -13.7799
0.8, -1, -3.26966, 26.4026, 25.8761, 4.66688, -64.3674, -13.8424
0.804, -1, -3.18753, 26.3616, 25.8652, 4.79734, -64.2286, -13.9049
0.808, -1, -3.10558, 26.3208, 25.8542, 4.9275, -64.0901, -13.9671
0.812, -1, -3.02382, 26.2801, 25.8433, 5.05736, -63.9519, -14.0293
0.816, -1, -2.94225, 26.2394, 25.8324, 5.18693, -63.814, -14.0913
0.82, -1, -2.86085, 26.1989, 25.8216, 5.31621, -63.6764, -14.1531
0.824, -1, -2.77965, 26.1584, 25.8108, 5.4452, -63.5391, -14.2149
0.828, -1, -2.69862, 26.118, 25.8, 5.57389, -63.4021, -14.2764
0.832, -1, -2.61778, 26.0777, 25.7892, 5.70229, -63.2655, -14.3379
0.836, -1, -2.53713, 26.0375, 25.7784, 5.8304, -63.1292, -14.3992
0.84, -1, -2.45665, 25.9974, 25.7677, 5.95822, -62.9931, -14.4603
0.844, -1, -2.37636, 25.9574, 25.757, 6.08575, -62.8574, -14.5214
0.848, -1, -2.29625, 25.9175, 25.7463, 6.21298, -62.722, -14.5823
0.852, -1, -2.21633, 25.8777, 25.7356, 6.33993, -62.5869, -14.643
0.856, -1, -2.13658, 25.838, 25.725, 6.46659, -62.4521, -14.7036
0.86, -1, -2.05702, 25.7983, 25.7144, 6.59296, -62.3176, -14.7641
0.864, -1, -1.97764, 25.7588, 25.7038, 6.71904, -62.1834, -14.8244
0.868, -1, -1.89844, 25.7193, 25.6932, 6.84484, -62.0495, -14.8846
0.872, -1, -1.81942, 25.6799, 25.6827, 6.97035, -61.916, -14.9447
0.876, -1, -1.74058, 25.6406, 25.6722, 7.09557, -61.7827, -15.0046
0.88, -1, -1.66192, 25.6014, 25.6617, 7.2205, -61.6497, -15.0644
0.884, -1, -1.58344, 25.5623, 25.6512, 7.34516, -61.5171, -15.124
0.888, -1, -1.50513, 25.5233, 25.6408, 7.46952, -61.3847, -15.1835
0.892, -1, -1.42701, 25.4844, 25.6304, 7.5936, -61.2526, -15.2429
0.896, -1, -1.34906, 25.4456, 25.62, 7.7174, -61.1209, -15.3021
0.9, -1, -1.2713, 25.4068, 25.6096, 7.84092, -60.9894, -15.3612
0.904, -1, -1.19371, 25.3681, 25.5993, 7.96415, -60.8583, -15.4202
0.908, -1, -1.11629, 25.3296, 25.5889, 8.08711, -60.7274, -15.479
0.912, -1, -1.03905, 25.2911, 25.5786, 8.20978, -60.5969, -15.5377
0.916, -1, -0.961994, 25.2527, 25.5684, 8.33217, -60.4666, -15.5963
0.92, -1, -0.885109, 25.2144, 25.5581, 8.45428, -60.3366, -15.6547
0.924, -1, -0.808399, 25.1762, 25.5479, 8.57612, -60.207, -15.713
0.928, -1, -0.731865, 25.138, 25.5377, 8.69767, -60.0776, -15.7712
0.932, -1, -0.655505, 25.1, 25.5275, 8.81895, -59.9485, -15.8292
0.936, -1, -0.579319, 25.062, 25.5173, 8.93995, -59.8198, -15.8871
0.94, -1, -0.503307, 25.0241, 25.5072, 9.06068, -59.6913, -15.9449
0.944, -1, -0.427468, 24.9863, 25.4971, 9.18113, -59.5631, -16.0025
0.948, -1, -0.351802, 24.9486, 25.487, 9.30131, -59.4352, -16.06
0.952, -1, -0.276308, 24.911, 25.4769, 9.42121, -59.3076, -16.1174
0.956, -1, -0.200986, 24.8735, 25.4669, 9.54084, -59.1803, -16.1746
0.96, -1, -0.125835, 24.8361, 25.4569, 9.66019, -59.0532, -16.2318
0.964, -1, -0.0508559, 24.7987, 25.4469, 9.77928, -58.9265, -16.2887
0.968, -1, 0.023953, 24.7614, 25.4369, 9.89809, -58.8001, -16.3456
0.972, -1, 0.0985918, 24.7242, 25.4269, 10.0166, -58.6739, -16.4023
0.976, -1, 0.173061, 24.6871, 25.417, 10.1349, -58.548, -16.4589
0.98, -1, 0.247361, 24.6501, 25.4071, 10.2529, -58.4224, -16.5154
0.984, -1, 0.321492, 24.6132, 25.3972, 10.3706, -58.2971, -16.5717
0.988, -1, 0.395455, 24.5763, 25.3873, 10.4881, -58.1721, -16.6279
0.992, -1, 0.469251, 24.5395, 25.3775, 10.6053, -58.0474, -16.684
0.996, -1, 0.542879, 24.5028, 25.3677, 10.7223, -57.9229, -16.74
1, -1, 0.61634, 24.4662, 25.3579, 10.8389, -57.7988, -16.7958
1.004, -1, 0.689635, 24.4297, 25.3481, 10.9553, -57.6749, -16.8515
1.008, -1, 0.762764, 24.3933, 25.3384, 11.0715, -57.5513, -16.9071
1.012, -1, 0.835728, 24.3569, 25.3286, 11.1874, -57.4279, -16.9625
1.016, -1, 0.908526, 24.3207, 25.3189, 11.303, -57.3049, -17.0178
1.02, -1, 0.981161, 24.2845, 25.3092, 11.4183, -57.1821, -17.073
1.024, -1, 1.05363, 24.2484, 25.2996, 11.5334, -57.0596, -17.1281
1.027, -1, 1.12594, 24.2123, 25.2899, 11.6483, -56.9374, -17.1831
1.032, -1, 1.19808, 24.1764, 25.2803, 11.7629, -56.8155, -17.2379
1.036, -1, 1.27007, 24.1405, 25.2707, 11.8772, -56.6938, -17.2926
1.04, -1, 1.34189, 24.1047, 25.2611, 11.9912, -56.5724, -17.3472
1.044, -1, 1.41355, 24.069, 25.2516, 12.105, -56.4513, -17.4016
1.048, -1, 1.48505, 24.0334, 25.2421, 12.2186, -56.3304, -17.456
1.052, -1, 1.55639, 23.9978, 25.2325, 12.3319, -56.2098, -17.5102
1.055, -1, 1.62757, 23.9624, 25.2231, 12.4449, -56.0895, -17.5643
1.06, -1, 1.69859, 23.927, 25.2136, 12.5577, -55.9695, -17.6182
1.064, -1, 1.76945, 23.8917, 25.2041, 12.6703, -55.8497, -17.6721
1.068, -1, 1.84016, 23.8565, 25.1947, 12.7826, -55.7302, -17.7258
1.072, -1, 1.91071, 23.8213, 25.1853, 12.8946, -55.611, -17.7794
1.076, -1, 1.9811, 23.7862, 25.1759, 13.0064, -55.492, -17.8329
1.08, -1, 2.05134, 23.7512, 25.1666, 13.1179, -55.3733, -17.8863
1.084, -1, 2.12143, 23.7163, 25.1572, 13.2292, -55.2549, -17.9396
1.088, -1, 2.19136, 23.6815, 25.1479, 13.3403, -55.1367, -17.9927
1.091, -1, 2.26113, 23.6467, 25.1386, 13.4511, -55.0187, -18.0457
1.096, -1, 2.33076, 23.612, 25.1293, 13.5616, -54.9011, -18.0986
1.1, -1, 2.40023, 23.5774, 25.12, 13.672, -54.7837, -18.1514
1.104, -1, 2.46955, 23.5429, 25.1108, 13.7821, -54.6665, -18.2041
1.108, -1, 2.53871, 23.5084, 25.1016, 13.8919, -54.5496, -18.2567
1.112, -1, 2.60773, 23.474, 25.0924, 14.0015, -54.4329, -18.3091
1.116, -1, 2.6766, 23.4397, 25.0832, 14.1109, -54.3166, -18.3614
1.119, -1, 2.74532, 23.4055, 25.074, 14.22, -54.2004, -18.4137
1.124, -1, 2.8139, 23.3713, 25.0649, 14.3289, -54.0845, -18.4658
1.128, -1, 2.88232, 23.3372, 25.0558, 14.4376, -53.9689, -18.5178
1.132, -1, 2.9506, 23.3032, 25.0467, 14.546, -53.8535, -18.5696
1.136, -1, 3.01874, 23.2692, 25.0376, 14.6542, -53.7383, -18.6214
1.14, -1, 3.08673, 23.2353, 25.0285, 14.7622, -53.6234, -18.6731
1.144, -1, 3.15457, 23.2015, 25.0195, 14.8699, -53.5087, -18.7246
1.147, -1, 3.22227, 23.1678, 25.0104, 14.9774, -53.3943, -18.7761
1.152, -1, 3.28983, 23.1341, 25.0014, 15.0847, -53.2801, -18.8274
1.156, -1, 3.35725, 23.1006, 24.9925, 15.1918, -53.1662, -18.8786
1.16, -1, 3.42452, 23.067, 24.9835, 15.2986, -53.0525, -18.9298
1.164, -1, 3.49165, 23.0336, 24.9745, 15.4052, -52.939, -18.9808
1.168, -1, 3.55865, 23.0002, 24.9656, 15.5116, -52.8258, -19.0317
1.172, -1, 3.6255, 22.9669, 24.9567, 15.6178, -52.7128, -19.0825
1.175, -1, 3.69221, 22.9337, 24.9478, 15.7237, -52.6001, -19.1332
1.18, -1, 3.75879, 22.9005, 24.9389, 15.8294, -52.4876, -19.1838
1.184, -1, 3.82523, 22.8674, 24.9301, 15.9349, -52.3753, -19.2343
1.188, -1, 3.89153, 22.8343, 24.9212, 16.0402, -52.2632, -19.2846
1.192, -1, 3.95769, 22.8014, 24.9124, 16.1453, -52.1514, -19.3349
1.196, -1, 4.02372, 22.7685, 24.9036, 16.2501, -52.0398, -19.3851
1.2, -1, 4.08961, 22.7356, 24.8948, 16.3548, -51.9284, -19.4352
1.204, -1, 4.15537, 22.7029, 24.886, 16.4592, -51.8173, -19.4851
1.208, -1, 4.221, 22.6702, 24.8773, 16.5634, -51.7064, -19.535
1.212, -1, 4.28649, 22.6376, 24.8686, 16.6674, -51.5957, -19.5848
1.216, -1, 4.35185, 22.605, 24.8599, 16.7712, -51.4852, -19.6344
1.22, -1, 4.41707, 22.5725, 24.8512, 16.8748, -51.375, -19.684
1.224, -1, 4.48217, 22.54, 24.8425, 16.9782, -51.265, -19.7335
1.228, -1, 4.54713, 22.5077, 24.8338, 17.0814, -51.1552, -19.7828
1.232, -1, 4.61196, 22.4754, 24.8252, 17.1843, -51.0456, -19.8321
1.236, -1, 4.67667, 22.4431, 24.8166, 17.2871, -50.9362, -19.8813
1.24, -1, 4.74124, 22.411, 24.8079, 17.3896, -50.8271, -19.9303
1.244, -1, 4.80569, 22.3788, 24.7994, 17.492, -50.7182, -19.9793
1.248, -1, 4.87, 22.3468, 24.7908, 17.5941, -50.6095, -20.0282
1.252, -1, 4.93419, 22.3148, 24.7822, 17.696, -50.501, -20.077
1.256, -1, 4.99826, 22.2829, 24.7737, 17.7978, -50.3927, -20.1256
1.26, -1, 5.06219, 22.251, 24.7652, 17.8993, -50.2846, -20.1742
1.264, -1, 5.126, 22.2192, 24.7566, 18.0007, -50.1768, -20.2227
1.267, -1, 5.18969, 22.1875, 24.7482, 18.1018, -50.0692, -20.2711
1.272, -1, 5.25325, 22.1558, 24.7397, 18.2027, -49.9617, -20.3194
1.276, -1, 5.31669, 22.1242, 24.7312, 18.3035, -49.8545, -20.3676
1.28, -1, 5.38, 22.0927, 24.7228, 18.404, -49.7475, -20.4157
1.284, -1, 5.44319, 22.0612, 24.7144, 18.5044, -49.6407, -20.4638
1.288, -1, 5.50626, 22.0298, 24.706, 18.6045, -49.5341, -20.5117
1.292, -1, 5.56921, 21.9984, 24.6976, 18.7045, -49.4277, -20.5595
1.295, -1, 5.63203, 21.9671, 24.6892, 18.8043, -49.3215, -20.6073
1.3, -1, 5.69473, 21.9359, 24.6808, 18.9038, -49.2156, -20.6549
1.304, -1, 5.75732, 21.9047, 24.6725, 19.0032, -49.1098, -20.7025
1.308, -1, 5.81978, 21.8736, 24.6642, 19.1024, -49.0042, -20.7499
1.312, -1, 5.88212, 21.8425, 24.6558, 19.2014, -48.8988, -20.7973
1.316, -1, 5.94435, 21.8115, 24.6475, 19.3003, -48.7937, -20.8446
1.32, -1, 6.00646, 21.7805, 24.6393, 19.3989, -48.6887, -20.8918
1.324, -1, 6.06845, 21.7497, 24.631, 19.4973, -48.5839, -20.9389
1.328, -1, 6.13032, 21.7188, 24.6228, 19.5956, -48.4794, -20.9859
1.332, -1, 6.19207, 21.6881, 24.6145, 19.6937, -48.375, -21.0328
1.336, -1, 6.25371, 21.6573, 24.6063, 19.7916, -48.2708, -21.0797
1.34, -1, 6.31523, 21.6267, 24.5981, 19.8893, -48.1668, -21.1264
1.344, -1, 6.37664, 21.5961, 24.5899, 19.9868, -48.063, -21.1731
1.348, -1, 6.43793, 21.5655, 24.5817, 20.0841, -47.9594, -21.2197
1.352, -1, 6.49911, 21.5351, 24.5736, 20.1813, -47.856, -21.2662
1.356, -1, 6.56018, 21.5046, 24.5654, 20.2783, -47.7528, -21.3126
1.36, -1, 6.62113, 21.4743, 24.5573, 20.3751, -47.6498, -21.3589
1.364, -1, 6.68197, 21.4439, 24.5492, 20.4717, -47.547, -21.4051
1.368, -1, 6.74269, 21.4137, 24.5411, 20.5681, -47.4443, -21.4513
1.372, -1, 6.80331, 21.3835, 24.533, 20.6644, -47.3419, -21.4973
1.376, -1, 6.86381, 21.3533, 24.525, 20.7605, -47.2396, -21.5433
1.38, -1, 6.9242, 21.3232, 24.5169, 20.8564, -47.1375, -21.5892
1.384, -1, 6.98448, 21.2932, 24.5089, 20.9521, -47.0357, -21.635
1.388, -1, 7.04465, 21.2632, 24.5009, 21.0477, -46.934, -21.6807
1.392, -1, 7.10471, 21.2333, 24.4928, 21.1431, -46.8324, -21.7264
1.396, -1, 7.16467, 21.2034, 24.4849, 21.2383, -46.7311, -21.7719
1.4, -1, 7.22451, 21.1736, 24.4769, 21.3333, -46.63, -21.8174
1.404, -1, 7.28425, 21.1438, 24.4689, 21.4282, -46.529, -21.8628
1.408, -1, 7.34387, 21.1141, 24.461, 21.5229, -46.4282, -21.9081
1.412, -1, 7.4034, 21.0845, 24.453, 21.6174, -46.3276, -21.9534
1.416, -1, 7.46281, 21.0549, 24.4451, 21.7118, -46.2272, -21.9985
1.42, -1, 7.52212, 21.0253, 24.4372, 21.806, -46.1269, -22.0436
1.424, -1, 7.58133, 20.9958, 24.4293, 21.9, -46.0269, -22.0886
1.428, -1, 7.64043, 20.9664, 24.4214, 21.9938, -45.927, -22.1335
1.432, -1, 7.69943, 20.937, 24.4136, 22.0875, -45.8273, -22.1783
1.436, -1, 7.75832, 20.9076, 24.4057, 22.181, -45.7278, -22.2231
1.44, -1, 7.81711, 20.8783, 24.3979, 22.2744, -45.6284, -22.2677
1.444, -1, 7.8758, 20.8491, 24.3901, 22.3676, -45.5292, -22.3123
1.448, -1, 7.93438, 20.8199, 24.3822, 22.4606, -45.4302, -22.3568
1.452, -1, 7.99287, 20.7908, 24.3744, 22.5535, -45.3314, -22.4013
1.456, -1, 8.05125, 20.7617, 24.3667, 22.6462, -45.2327, -22.4456
1.46, -1, 8.10953, 20.7326, 24.3589, 22.7387, -45.1342, -22.4899
1.464, -1, 8.16771, 20.7037, 24.3511, 22.8311, -45.0359, -22.5341
1.468, -1, 8.22578, 20.6747, 24.3434, 22.9234, -44.9378, -22.5783
1.472, -1, 8.28376, 20.6458, 24.3357, 23.0154, -44.8398, -22.6223
1.476, -1, 8.34164, 20.617, 24.328, 23.1073, -44.742, -22.6663
1.48, -1, 8.39942, 20.5882, 24.3203, 23.1991, -44.6443, -22.7102
1.484, -1, 8.4571, 20.5595, 24.3126, 23.2907, -44.5468, -22.754
1.488, -1, 8.51469, 20.5308, 24.3049, 23.3821, -44.4495, -22.7978
1.492, -1, 8.57218, 20.5021, 24.2972, 23.4734, -44.3523, -22.8415
1.496, -1, 8.62957, 20.4735, 24.2896, 23.5645, -44.2554, -22.8851
1.5, -1, 8.68686, 20.445, 24.2819, 23.6555, -44.1585, -22.9286
1.504, -1, 8.74406, 20.4165, 24.2743, 23.7464, -44.0619, -22.9721
1.508, -1, 8.80116, 20.388, 24.2667, 23.837, -43.9654, -23.0155
1.512, -1, 8.85816, 20.3596, 24.2591, 23.9276, -43.869, -23.0588
1.516, -1, 8.91508, 20.3313, 24.2515, 24.0179, -43.7728, -23.102
1.52, -1, 8.97189, 20.303, 24.2439, 24.1082, -43.6768, -23.1452
1.524, -1, 9.02862, 20.2747, 24.2364, 24.1982, -43.5809, -23.1883
1.528, -1, 9.08525, 20.2465, 24.2288, 24.2882, -43.4852, -23.2313
1.532, -1, 9.14179, 20.2183, 24.2213, 24.378, -43.3897, -23.2743
1.536, -1, 9.19823, 20.1902, 24.2138, 24.4676, -43.2943, -23.3172
1.54, -1, 9.25459, 20.1621, 24.2063, 24.5571, -43.199, -23.36
1.544, -1, 9.31085, 20.1341, 24.1988, 24.6464, -43.1039, -23.4028
1.548, -1, 9.36702, 20.1061, 24.1913, 24.7356, -43.009, -23.4454
1.552, -1, 9.4231, 20.0782, 24.1838, 24.8247, -42.9142, -23.4881
1.556, -1, 9.47909, 20.0503, 24.1763, 24.9136, -42.8196, -23.5306
1.56, -1, 9.53499, 20.0224, 24.1689, 25.0024, -42.7251, -23.5731
1.564, -1, 9.5908, 19.9946, 24.1614, 25.091, -42.6308, -23.6155
1.568, -1, 9.64652, 19.9668, 24.154, 25.1795, -42.5366, -23.6578
1.572, -1, 9.70215, 19.9391, 24.1466, 25.2678, -42.4426, -23.7001
1.576, -1, 9.7577, 19.9114, 24.1392, 25.3561, -42.3487, -23.7423
1.58, -1, 9.81316, 19.8838, 24.1318, 25.4441, -42.255, -23.7845
1.584, -1, 9.86852, 19.8562, 24.1244, 25.5321, -42.1614, -23.8265
1.588, -1, 9.92381, 19.8287, 24.117, 25.6198, -42.068, -23.8685
1.592, -1, 9.979, 19.8012, 24.1097, 25.7075, -41.9747, -23.9105
1.596, -1, 10.0341, 19.7737, 24.1023, 25.795, -41.8816, -23.9524
1.6, -1, 10.0891, 19.7463, 24.095, 25.8824, -41.7886, -23.9942
1.604, -1, 10.1441, 19.7189, 24.0877, 25.9696, -41.6957, -24.0359
1.608, -1, 10.1989, 19.6916, 24.0804, 26.0567, -41.603, -24.0776
1.612, -1, 10.2537, 19.6643, 24.0731, 26.1437, -41.5104, -24.1192
1.616, -1, 10.3084, 19.6371, 24.0658, 26.2306, -41.418, -24.1608
1.62, -1, 10.363, 19.6099, 24.0585, 26.3173, -41.3257, -24.2023
1.624, -1, 10.4175, 19.5827, 24.0512, 26.4038, -41.2336, -24.2437
1.628, -1, 10.4719, 19.5556, 24.044, 26.4903, -41.1416, -24.2851
1.632, -1, 10.5263, 19.5285, 24.0367, 26.5766, -41.0497, -24.3264
1.636, -1, 10.5806, 19.5015, 24.0295, 26.6628, -40.958, -24.3676
1.64, -1, 10.6347, 19.4745, 24.0223, 26.7488, -40.8664, -24.4088
1.644, -1, 10.6888, 19.4475, 24.0151, 26.8348, -40.775, -24.4499
1.648, -1, 10.7429, 19.4206, 24.0079, 26.9205, -40.6837, -24.4909
1.652, -1, 10.7968, 19.3937, 24.0007, 27.0062, -40.5925, -24.5319
1.656, -1, 10.8507, 19.3669, 23.9935, 27.0917, -40.5015, -24.5729
1.66, -1, 10.9044, 19.3401, 23.9863, 27.1771, -40.4106, -24.6137
1.664, -1, 10.9581, 19.3133, 23.9792, 27.2624, -40.3198, -24.6545
1.668, -1, 11.0118, 19.2866, 23.972, 27.3476, -40.2292, -24.6953
1.672, -1, 11.0653, 19.2599, 23.9649, 27.4326, -40.1387, -24.736
1.676, -1, 11.1188, 19.2333, 23.9577, 27.5175, -40.0484, -24.7766
1.68, -1, 11.1722, 19.2067, 23.9506, 27.6023, -39.9581, -24.8172
1.684, -1, 11.2255, 19.1801, 23.9435, 27.6869, -39.868, -24.8577
1.688, -1, 11.2787, 19.1536, 23.9364, 27.7715, -39.7781, -24.8981
1.692, -1, 11.3318, 19.1271, 23.9293, 27.8559, -39.6883, -24.9385
1.696, -1, 11.3849, 19.1007, 23.9223, 27.9401, -39.5986, -24.9788
1.7, -1, 11.4379, 19.0743, 23.9152, 28.0243, -39.509, -25.0191
1.704, -1, 11.4908, 19.0479, 23.9081, 28.1083, -39.4196, -25.0593
1.708, -1, 11.5437, 19.0216, 23.9011, 28.1923, -39.3303, -25.0995
1.712, -1, 11.5964, 18.9953, 23.8941, 28.2761, -39.2411, -25.1396
1.716, -1, 11.6491, 18.969, 23.887, 28.3597, -39.152, -25.1796
1.72, -1, 11.7017, 18.9428, 23.88, 28.4433, -39.0631, -25.2196
1.724, -1, 11.7543, 18.9166, 23.873, 28.5267, -38.9743, -25.2595
1.728, -1, 11.8067, 18.8905, 23.866, 28.61, -38.8856, -25.2994
1.732, -1, 11.8591, 18.8644, 23.859, 28.6932, -38.7971, -25.3392
1.736, -1, 11.9114, 18.8383, 23.8521, 28.7763, -38.7087, -25.3789
1.74, -1, 11.9637, 18.8123, 23.8451, 28.8593, -38.6204, -25.4186
1.744, -1, 12.0158, 18.7863, 23.8381, 28.9421, -38.5322, -25.4583
1.748, -1, 12.0679, 18.7604, 23.8312, 29.0248, -38.4442, -25.4979
1.752, -1, 12.1199, 18.7344, 23.8243, 29.1075, -38.3562, -25.5374
1.756, -1, 12.1719, 18.7086, 23.8173, 29.19, -38.2684, -25.5769
1.76, -1, 12.2238, 18.6827, 23.8104, 29.2723, -38.1808, -25.6163
1.764, -1, 12.2756, 18.6569, 23.8035, 29.3546, -38.0932, -25.6556
1.768, -1, 12.3273, 18.6311, 23.7966, 29.4368, -38.0058, -25.695
1.772, -1, 12.379, 18.6054, 23.7897, 29.5188, -37.9185, -25.7342
1.776, -1, 12.4305, 18.5797, 23.7829, 29.6007, -37.8313, -25.7734
1.78, -1, 12.4821, 18.554, 23.776, 29.6825, -37.7442, -25.8126
1.784, -1, 12.5335, 18.5284, 23.7691, 29.7642, -37.6573, -25.8517
1.788, -1, 12.5849, 18.5028, 23.7623, 29.8458, -37.5704, -25.8907
1.792, -1, 12.6362, 18.4772, 23.7554, 29.9273, -37.4837, -25.9297
1.796, -1, 12.6874, 18.4517, 23.7486, 30.0087, -37.3971, -25.9686
1.8, -1, 12.7386, 18.4262, 23.7418, 30.0899, -37.3106, -26.0075
1.804, -1, 12.7897, 18.4007, 23.735, 30.1711, -37.2243, -26.0463
1.808, -1, 12.8407, 18.3753, 23.7282, 30.2521, -37.1381, -26.0851
1.812, -1, 12.8916, 18.3499, 23.7214, 30.333, -37.0519, -26.1238
1.816, -1, 12.9425, 18.3246, 23.7146, 30.4138, -36.9659, -26.1625
1.82, -1, 12.9933, 18.2992, 23.7078, 30.4945, -36.88, -26.2011
1.824, -1, 13.0441, 18.274, 23.7011, 30.5751, -36.7942, -26.2397
1.828, -1, 13.0948, 18.2487, 23.6943, 30.6556, -36.7086, -26.2782
1.832, -1, 13.1454, 18.2235, 23.6876, 30.736, -36.623, -26.3167
1.836, -1, 13.1959, 18.1983, 23.6808, 30.8163, -36.5376, -26.3551
1.84, -1, 13.2464, 18.1731, 23.6741, 30.8965, -36.4523, -26.3934
1.844, -1, 13.2968, 18.148, 23.6674, 30.9765, -36.3671, -26.4317
1.848, -1, 13.3472, 18.1229, 23.6607, 31.0565, -36.282, -26.47
1.852, -1, 13.3975, 18.0979, 23.654, 31.1363, -36.197, -26.5082
1.856, -1, 13.4477, 18.0729, 23.6473, 31.2161, -36.1121, -26.5464
1.86, -1, 13.4978, 18.0479, 23.6406, 31.2957, -36.0273, -26.5845
1.864, -1, 13.5479, 18.0229, 23.6339, 31.3753, -35.9427, -26.6225
1.868, -1, 13.5979, 17.998, 23.6272, 31.4547, -35.8582, -26.6606
1.872, -1, 13.6479, 17.9731, 23.6206, 31.534, -35.7737, -26.6985
1.876, -1, 13.6978, 17.9482, 23.6139, 31.6133, -35.6894, -26.7364
1.88, -1, 13.7476, 17.9234, 23.6073, 31.6924, -35.6052, -26.7743
1.884, -1, 13.7974, 17.8986, 23.6006, 31.7714, -35.5211, -26.8121
1.888, -1, 13.8471, 17.8739, 23.594, 31.8504, -35.4371, -26.8499
1.892, -1, 13.8967, 17.8491, 23.5874, 31.9292, -35.3532, -26.8876
1.896, -1, 13.9463, 17.8244, 23.5808, 32.0079, -35.2694, -26.9253
1.9, -1, 13.9958, 17.7998, 23.5742, 32.0865, -35.1857, -26.9629
1.904, -1, 14.0452, 17.7751, 23.5676, 32.1651, -35.1021, -27.0005
1.908, -1, 14.0946, 17.7505, 23.561, 32.2435, -35.0187, -27.038
1.912, -1, 14.144, 17.7259, 23.5544, 32.3218, -34.9353, -27.0755
1.916, -1, 14.1932, 17.7014, 23.5479, 32.4001, -34.852, -27.1129
1.92, -1, 14.2424, 17.6769, 23.5413, 32.4782, -34.7689, -27.1503
1.924, -1, 14.2916, 17.6524, 23.5348, 32.5563, -34.6858, -27.1877
1.928, -1, 14.3406, 17.6279, 23.5282, 32.6342, -34.6029, -27.2249
1.932, -1, 14.3896, 17.6035, 23.5217, 32.712, -34.52, -27.2622
1.936, -1, 14.4386, 17.5791, 23.5152, 32.7898, -34.4373, -27.2994
1.94, -1, 14.4875, 17.5547, 23.5086, 32.8674, -34.3546, -27.3366
1.944, -1, 14.5363, 17.5304, 23.5021, 32.945, -34.2721, -27.3737
1.948, -1, 14.5851, 17.5061, 23.4956, 33.0225, -34.1896, -27.4107
1.952, -1, 14.6338, 17.4818, 23.4891, 33.0998, -34.1073, -27.4478
1.956, -1, 14.6825, 17.4576, 23.4826, 33.1771, -34.0251, -27.4847
1.96, -1, 14.7311, 17.4334, 23.4762, 33.2543, -33.9429, -27.5217
1.964, -1, 14.7796, 17.4092, 23.4697, 33.3314, -33.8609, -27.5586
1.968, -1, 14.8281, 17.385, 23.4632, 33.4084, -33.7789, -27.5954
1.972, -1, 14.8765, 17.3609, 23.4568, 33.4853, -33.6971, -27.6322
1.976, -1, 14.9249, 17.3368, 23.4503, 33.5621, -33.6153, -27.6689
1.98, -1, 14.9732, 17.3127, 23.4439, 33.6388, -33.5337, -27.7057
1.984, -1, 15.0214, 17.2887, 23.4375, 33.7154, -33.4521, -27.7423
1.988, -1, 15.0696, 17.2647, 23.431, 33.792, -33.3707, -27.7789
1.992, -1, 15.1178, 17.2407, 23.4246, 33.8684, -33.2893, -27.8155
1.996, -1, 15.1658, 17.2167, 23.4182, 33.9448, -33.2081, -27.8521
1.999, -1, 15.2139, 17.1928, 23.4118, 34.021, -33.1269, -27.8886
2.004, -1, 15.2618, 17.1689, 23.4054, 34.0972, -33.0458, -27.925
2.008, -1, 15.3097, 17.145, 23.399, 34.1733, -32.9649, -27.9614
2.012, -1, 15.3576, 17.1212, 23.3926, 34.2493, -32.884, -27.9978
2.015, -1, 15.4054, 17.0974, 23.3863, 34.3252, -32.8032, -28.0341
2.019, -1, 15.4531, 17.0736, 23.3799, 34.401, -32.7225, -28.0704
2.024, -1, 15.5008, 17.0498, 23.3735, 34.4767, -32.6419, -28.1066
2.028, -1, 15.5484, 17.0261, 23.3672, 34.5524, -32.5614, -28.1428
2.031, -1, 15.596, 17.0024, 23.3609, 34.6279, -32.481, -28.179
2.036, -1, 15.6435, 16.9787, 23.3545, 34.7034, -32.4007, -28.2151
2.04, -1, 15.691, 16.9551, 23.3482, 34.7788, -32.3205, -28.2511
2.044, -1, 15.7384, 16.9314, 23.3419, 34.8541, -32.2403, -28.2872
2.048, -1, 15.7857, 16.9079, 23.3356, 34.9293, -32.1603, -28.3232
2.051, -1, 15.833, 16.8843, 23.3293, 35.0044, -32.0803, -28.3591
2.055, -1, 15.8803, 16.8607, 23.323, 35.0794, -32.0005, -28.395
2.06, -1, 15.9275, 16.8372, 23.3167, 35.1544, -31.9207, -28.4309
2.064, -1, 15.9746, 16.8137, 23.3104, 35.2293, -31.841, -28.4667
2.068, -1, 16.0217, 16.7903, 23.3041, 35.304, -31.7615, -28.5025
2.071, -1, 16.0687, 16.7668, 23.2978, 35.3787, -31.682, -28.5382
2.076, -1, 16.1157, 16.7434, 23.2916, 35.4533, -31.6026, -28.5739
2.08, -1, 16.1626, 16.72, 23.2853, 35.5279, -31.5232, -28.6096
2.084, -1, 16.2095, 16.6967, 23.2791, 35.6023, -31.444, -28.6452
2.087, -1, 16.2563, 16.6734, 23.2728, 35.6767, -31.3649, -28.6808
2.092, -1, 16.3031, 16.6501, 23.2666, 35.751, -31.2858, -28.7163
2.096, -1, 16.3498, 16.6268, 23.2604, 35.8252, -31.2068, -28.7518
2.1, -1, 16.3965, 16.6035, 23.2541, 35.8993, -31.128, -28.7873
2.104, -1, 16.4431, 16.5803, 23.2479, 35.9733, -31.0492, -28.8227
2.107, -1, 16.4896, 16.5571, 23.2417, 36.0473, -30.9705, -28.8581
2.111, -1, 16.5361, 16.5339, 23.2355, 36.1211, -30.8919, -28.8935
2.116, -1, 16.5826, 16.5108, 23.2293, 36.1949, -30.8133, -28.9288
2.12, -1, 16.629, 16.4876, 23.2231, 36.2686, -30.7349, -28.964
2.124, -1, 16.6754, 16.4645, 23.2169, 36.3422, -30.6565, -28.9993
2.127, -1, 16.7217, 16.4415, 23.2108, 36.4158, -30.5783, -29.0345
2.132, -1, 16.7679, 16.4184, 23.2046, 36.4893, -30.5001, -29.0696
2.136, -1, 16.8141, 16.3954, 23.1984, 36.5626, -30.422, -29.1047
2.14, -1, 16.8603, 16.3724, 23.1923, 36.636, -30.3439, -29.1398
2.143, -1, 16.9064, 16.3494, 23.1861, 36.7092, -30.266, -29.1749
2.148, -1, 16.9525, 16.3265, 23.18, 36.7823, -30.1882, -29.2099
2.152, -1, 16.9985, 16.3035, 23.1739, 36.8554, -30.1104, -29.2448
2.156, -1, 17.0444, 16.2806, 23.1677, 36.9284, -30.0327, -29.2798
2.16, -1, 17.0903, 16.2578, 23.1616, 37.0013, -29.9551, -29.3146
2.163, -1, 17.136, 16.235, 23.1555, 37.0742, -29.8776, -29.3495
2.168, -1, 17.1814, 16.2123, 23.1494, 37.1469, -29.8002, -29.3843
2.172, -1, 17.2261, 16.1899, 23.1432, 37.2195, -29.7229, -29.4191
2.176, -1, 17.2699, 16.168, 23.1369, 37.2919, -29.6459, -29.4537
2.179, -1, 17.3126, 16.1465, 23.1306, 37.364, -29.5692, -29.4882
2.184, -1, 17.3541, 16.1257, 23.1243, 37.4355, -29.4931, -29.5224
2.188, -1, 17.3942, 16.1056, 23.1179, 37.5062, -29.4179, -29.5563
2.192, -1, 17.4331, 16.0862, 23.1116, 37.5758, -29.344, -29.5895
2.196, -1, 17.4706, 16.0676, 23.1053, 37.6437, -29.2717, -29.6221
2.199, -1, 17.5068, 16.0498, 23.0992, 37.7096, -29.2017, -29.6536
2.204, -1, 17.5414, 16.0329, 23.0933, 37.7731, -29.1342, -29.684
2.208, -1, 17.5743, 16.017, 23.0876, 37.8335, -29.07, -29.7129
2.212, -1, 17.6054, 16.0022, 23.0823, 37.8904, -29.0095, -29.7402
2.216, -1, 17.6346, 15.9882, 23.0774, 37.9435, -28.9531, -29.7656
2.219, -1, 17.662, 15.9751, 23.0729, 37.9922, -28.9013, -29.7889
2.224, -1, 17.6877, 15.9626, 23.0689, 38.0363, -28.8544, -29.81
2.228, -1, 17.7118, 15.9507, 23.0656, 38.0756, -28.8126, -29.8288
2.232, -1, 17.7344, 15.9393, 23.0628, 38.11, -28.7759, -29.8453
2.235, -1, 17.7552, 15.9285, 23.0605, 38.1397, -28.7443, -29.8594
2.24, -1, 17.7743, 15.9185, 23.0588, 38.1648, -28.7176, -29.8714
2.244, -1, 17.7915, 15.9094, 23.0575, 38.1856, -28.6954, -29.8814
2.248, -1, 17.8067, 15.9013, 23.0566, 38.2025, -28.6773, -29.8895
2.252, -1, 17.8202, 15.8942, 23.056, 38.216, -28.6629, -29.8959
2.255, -1, 17.832, 15.8881, 23.0557, 38.2265, -28.6516, -29.9009
2.259, -1, 17.8423, 15.8828, 23.0556, 38.2345, -28.643, -29.9048
2.264, -1, 17.8512, 15.8784, 23.0556, 38.2404, -28.6366, -29.9076
2.268, -1, 17.8587, 15.8748, 23.0557, 38.2447, -28.632, -29.9096
2.272, -1, 17.8648, 15.8719, 23.0559, 38.2477, -28.6287, -29.9111
2.275, 2, 17.8697, 15.8697, 23.056, 38.2499, -28.6264, -29.9121
2.28, 2, 17.8733, 15.8681, 23.0561, 38.2513, -28.6248, -29.9128
2.284, 2, 17.876, 15.867, 23.0562, 38.2523, -28.6238, -29.9132
2.288, 2, 17.8778, 15.8662, 23.0563, 38.253, -28.623, -29.9136
2.291, 2, 17.879, 15.8657, 23.0563, 38.2534, -28.6226, -29.9138
2.296, 2, 17.8798, 15.8653, 23.0563, 38.2537, -28.6222, -29.9139
2.3, 2, 17.8804, 15.8651, 23.0563, 38.2539, -28.622, -29.914
2.304, 2, 17.8808, 15.8649, 23.0564, 38.2541, -28.6218, -29.9141
2.308, 2, 17.881, 15.8648, 23.0564, 38.2542, -28.6217, -29.9141
2.311, 2, 17.8812, 15.8647, 23.0564, 38.2542, -28.6217, -29.9142
2.316, 2, 17.8813, 15.8647, 23.0564, 38.2543, -28.6216, -29.9142
2.32, 2, 17.8814, 15.8646, 23.0564, 38.2543, -28.6216, -29.9142
2.324, 2, 17.8815, 15.8646, 23.0564, 38.2543, -28.6216, -29.9142
2.328, 2, 17.8815, 15.8646, 23.0564, 38.2543, -28.6215, -29.9142
2.331, 2, 17.8815, 15.8646, 23.0564, 38.2543, -28.6215, -29.9142
2.336, 2, 17.8815, 15.8646, 23.0564, 38.2544, -28.6215, -29.9142
2.34, 2, 17.8815, 15.8646, 23.0564, 38.2544, -28.6215, -29.9142
2.344, 2, 17.8816, 15.8646, 23.0564, 38.2544, -28.6215, -29.9142
2.347, 2, 17.8816, 15.8646, 23.0564, 38.2544, -28.6215, -29.9142
2.352, 2, 17.8816, 15.8646, 23.0564, 38.2544, -28.6215, -29.9142
2.356, 2, 17.8816, 15.8646, 23.0564, 38.2544, -28.6215, -29.9142
2.36, 2, 17.8816, 15.8645, 23.0564, 38.2544, -28.6215, -29.9142
2.364, 2, 17.8816, 15.8645, 23.0564, 38.2544, -28.6215, -29.9142
2.367, 2, 17.8816, 15.8645, 23.0564, 38.2544, -28.6215, -29.9142
2.372, 2, 17.8816, 15.8645, 23.0564, 38.2544, -28.6215, -29.9142
2.376, 2, 17.8816, 15.8645, 23.0564, 38.2544, -28.6215, -29.9142
2.38, 2, 17.8816, 15.8645, 23.0564, 38.2544, -28.6215, -29.9142
2.383, 2, 17.8816, 15.8645, 23.0564, 38.2544, -28.6215, -29.9142
2.388, 2, 17.8816, 15.8645, 23.0564, 38.2544, -28.6215, -29.9142
2.392, 2, 17.8816, 15.8645, 23.0564, 38.2544, -28.6215, -29.9142
2.396, 2, 17.8816, 15.8645, 23.0564, 38.2544, -28.6215, -29.9142
2.4, 2, 17.8816, 15.8645, 23.0564, 38.2544, -28.6215, -29.9142
2.403, 2, 17.8816, 15.8645, 23.0564, 38.2544, -28.6215, -29.9142
2.408, 2, 17.8816, 15.8645, 23.0564, 38.2544, -28.6215, -29.9142
2.412, 2, 17.8816, 15.8645, 23.0564, 38.2544, -28.6215, -29.9142
2.416, 2, 17.8816, 15.8645, 23.0564, 38.2544, -28.6215, -29.9142
2.42, 2, 17.8816, 15.8645, 23.0564, 38.2544, -28.6215, -29.9142
2.423, 2, 17.8816, 15.8645, 23.0564, 38.2544, -28.6215, -29.9142
2.428, 2, 17.8816, 15.8645, 23.0564, 38.2544, -28.6215, -29.9142
2.432, 2, 17.8816, 15.8645, 23.0564, 38.2544, -28.6215, -29.9142
2.436, 2, 17.8816, 15.8645, 23.0564, 38.2544, -28.6215, -29.9142
2.439, 2, 17.8816, 15.8645, 23.0564, 38.2544, -28.6215, -29.9142
2.444, 2, 17.8816, 15.8645, 23.0564, 38.2544, -28.6215, -29.9142
2.448, 2, 17.8816, 15.8645, 23.0564, 38.2544, -28.6215, -29.9142
2.452, 2, 17.8816, 15.8645, 23.0564, 38.2544, -28.6215, -29.9142
2.456, 2, 17.8816, 15.8645, 23.0564, 38.2544, -28.6215, -29.9142
2.459, 2, 17.8816, 15.8645, 23.0564, 38.2544, -28.6215, -29.9142
2.464, 2, 17.8816, 15.8645, 23.0564, 38.2544, -28.6215, -29.9142
2.468, 2, 17.8816, 15.8645, 23.0564, 38.2544, -28.6215, -29.9142
2.472, 2, 17.8816, 15.8645, 23.0564, 38.2544, -28.6215, -29.9142
2.476, 2, 17.8816, 15.8645, 23.0564, 38.2544, -28.6215, -29.9142
2.479, 2, 17.8816, 15.8645, 23.0564, 38.2544, -28.6215, -29.9142
2.484, 2, 17.8816, 15.8645, 23.0564, 38.2544, -28.6215, -29.9142
2.488, 2, 17.8816, 15.8645, 23.0564, 38.2544, -28.6215, -29.9142
2.492, 2, 17.8816, 15.8645, 23.0564, 38.2544, -28.6215, -29.9142
2.495, 2, 17.8816, 15.8645, 23.0564, 38.2544, -28.6215, -29.9142
2.5, 2, 17.8816, 15.8645, 23.0564, 38.2544, -28.6215, -29.9142
2.504, 2, 17.8816, 15.8645, 23.0564, 38.2544, -28.6215, -29.9142
2.508, 2, 17.8816, 15.8645, 23.0564, 38.2544, -28.6215, -29.9142
2.512, 2, 17.8816, 15.8645, 23.0564, 38.2544, -28.6215, -29.9142
2.515, 2, 17.8816, 15.8645, 23.0564, 38.2544, -28.6215, -29.9142
2.52, 2, 17.8816, 15.8645, 23.0564, 38.2544, -28.6215, -29.9142
2.524, 2, 17.8816, 15.8645, 23.0564, 38.2544, -28.6215, -29.9142
2.528, 2, 17.8816, 15.8645, 23.0564, 38.2544, -28.6215, -29.9142
2.531, 2, 17.8816, 15.8645, 23.0564, 38.2544, -28.6215, -29.9142
2.536, 2, 17.8816, 15.8645, 23.0564, 38.2544, -28.6215, -29.9142
2.54, 2, 17.8816, 15.8645, 23.0564, 38.2544, -28.6215, -29.9142
2.544, 2, 17.8816, 15.8645, 23.0564, 38.2544, -28.6215, -29.9142
2.548, 2, 17.8816, 15.8645, 23.0564, 38.2544, -28.6215, -29.9142
2.551, 2, 17.8816, 15.8645, 23.0564, 38.2544, -28.6215, -29.9142
2.556, 2, 17.8816, 15.8645, 23.0564, 38.2544, -28.6215, -29.9142
2.56, 2, 17.8816, 15.8645, 23.0564, 38.2544, -28.6215, -29.9142
2.564, 2, 17.8816, 15.8645, 23.0564, 38.2544, -28.6215, -29.9142
2.568, 2, 17.8816, 15.8645, 23.0564, 38.2544, -28.6215, -29.9142
2.571, 2, 17.8816, 15.8645, 23.0564, 38.2544, -28.6215, -29.9142
2.576, 2, 17.8816, 15.8645, 23.0564, 38.2544, -28.6215, -29.9142
2.58, 2, 17.8816, 15.8645, 23.0564, 38.2544, -28.6215, -29.9142
2.584, 2, 17.8816, 15.8645, 23.0564, 38.2544, -28.6215, -29.9142
2.587, 2, 17.8816, 15.8645, 23.0564, 38.2544, -28.6215, -29.9142
2.592, 2, 17.8816, 15.8645, 23.0564, 38.2544, -28.6215, -29.9142
2.596, 2, 17.8816, 15.8645, 23.0564, 38.2544, -28.6215, -29.9142
2.6, 2, 17.8816, 15.8645, 23.0564, 38.2544, -28.6215, -29.9142
2.604, 2, 17.8816, 15.8645, 23.0564, 38.2544, -28.6215, -29.9142
2.607, 2, 17.8816, 15.8645, 23.0564, 38.2544, -28.6215, -29.9142
2.612, 2, 17.8816, 15.8645, 23.0564, 38.2544, -28.6215, -29.9142
2.616, 2, 17.8816, 15.8645, 23.0564, 38.2544, -28.6215, -29.9142
2.62, 2, 17.8816, 15.8645, 23.0564, 38.2544, -28.6215, -29.9142
2.624, 2, 17.8816, 15.8645, 23.0564, 38.2544, -28.6215, -29.9142
2.627, 2, 17.8816, 15.8645, 23.0564, 38.2544, -28.6215, -29.9142
2.632, 2, 17.8816, 15.8645, 23.0564, 38.2544, -28.6215, -29.9142
2.636, 2, 17.8816, 15.8645, 23.0564, 38.2544, -28.6215, -29.9142
2.64, 2, 17.8816, 15.8645, 23.0564, 38.2544, -28.6215, -29.9142
2.643, 2, 17.8816, 15.8645, 23.0564, 38.2544, -28.6215, -29.9142
2.648, 2, 17.8816, 15.8645, 23.0564, 38.2544, -28.6215, -29.9142
2.652, 2, 17.8816, 15.8645, 23.0564, 38.2544, -28.6215, -29.9142
2.656, 2, 17.8816, 15.8645, 23.0564, 38.2544, -28.6215, -29.9142
2.66, 2, 17.8816, 15.8645, 23.0564, 38.2544, -28.6215, -29.9142
2.663, 2, 17.8816, 15.8645, 23.0564, 38.2544, -28.6215, -29.9142
2.668, 2, 17.8816, 15.8645, 23.0564, 38.2544, -28.6215, -29.9142
2.672, 2, 17.8816, 15.8645, 23.0564, 38.2544, -28.6215, -29.9142
2.676, 2, 17.8816, 15.8645, 23.0564, 38.2544, -28.6215, -29.9142
2.679, 2, 17.8816, 15.8645, 23.0564, 38.2544, -28.6215, -29.9142
2.684, 2, 17.8816, 15.8645, 23.0564, 38.2544, -28.6215, -29.9142
2.688, 2, 17.8816, 15.8645, 23.0564, 38.2544, -28.6215, -29.9142
2.692, 2, 17.8816, 15.8645, 23.0564, 38.2544, -28.6215, -29.9142
2.696, 2, 17.8816, 15.8645, 23.0564, 38.2544, -28.6215, -29.9142
2.699, 2, 17.8816, 15.8645, 23.0564, 38.2544, -28.6215, -29.9142
2.704, 2, 17.8816, 15.8645, 23.0564, 38.2544, -28.6215, -29.9142
2.708, 2, 17.8816, 15.8645, 23.0564, 38.2544, -28.6215, -29.9142
2.712, 2, 17.8816, 15.8645, 23.0564, 38.2544, -28.6215, -29.9142
2.716, 2, 17.8816, 15.8645, 23.0564, 38.2544, -28.6215, -29.9142
2.719, 2, 17.8816, 15.8645, 23.0564, 38.2544, -28.6215, -29.9142
2.724, 2, 17.8816, 15.8645, 23.0564, 38.2544, -28.6215, -29.9142
2.728, 2, 17.8816, 15.8645, 23.0564, 38.2544, -28.6215, -29.9142
2.732, 2, 17.8816, 15.8645, 23.0564, 38.2544, -28.6215, -29.9142
2.735, 2, 17.8816, 15.8645, 23.0564, 38.2544, -28.6215, -29.9142
2.74, 2, 17.8816, 15.8645, 23.0564, 38.2544, -28.6215, -29.9142
2.744, 2, 17.8816, 15.8645, 23.0564, 38.2544, -28.6215, -29.9142
2.748, 2, 17.8816, 15.8645, 23.0564, 38.2544, -28.6215, -29.9142
2.752, 2, 17.8816, 15.8645, 23.0564, 38.2544, -28.6215, -29.9142
2.755, 2, 17.8816, 15.8645, 23.0564, 38.2544, -28.6215, -29.9142
2.76, 2, 17.8816, 15.8645, 23.0564, 38.2544, -28.6215, -29.9142
2.764, 2, 17.8816, 15.8645, 23.0564, 38.2544, -28.6215, -29.9142
2.768, 2, 17.8816, 15.8645, 23.0564, 38.2544, -28.6215, -29.9142
2.772, 2, 17.8816, 15.8645, 23.0564, 38.2544, -28.6215, -29.9142
2.775, 2, 17.8816, 15.8645, 23.0564, 38.2544, -28.6215, -29.9142
2.78, 2, 17.8816, 15.8645, 23.0564, 38.2544, -28.6215, -29.9142
2.784, 2, 17.8816, 15.8645, 23.0564, 38.2544, -28.6215, -29.9142
2.788, 2, 17.8816, 15.8645, 23.0564, 38.2544, -28.6215, -29.9142
2.791, 2, 17.8816, 15.8645, 23.0564, 38.2544, -28.6215, -29.9142
2.796, 2, 17.8816, 15.8645, 23.0564, 38.2544, -28.6215, -29.9142
2.8, 2, 17.8816, 15.8645, 23.0564, 38.2544, -28.6215, -29.9142
2.804, 2, 17.8816, 15.8645, 23.0564, 38.2544, -28.6215, -29.9142
2.808, 2, 17.8816, 15.8645, 23.0564, 38.2544, -28.6215, -29.9142
2.811, 2, 17.8816, 15.8645, 23.0564, 38.2544, -28.6215, -29.9142
2.816, 2, 17.8816, 15.8645, 23.0564, 38.2544, -28.6215, -29.9142
2.82, 2, 17.8816, 15.8645, 23.0564, 38.2544, -28.6215, -29.9142
2.824, 2, 17.8816, 15.8645, 23.0564, 38.2544, -28.6215, -29.9142
2.828, 2, 17.8816, 15.8645, 23.0564, 38.2544, -28.6215, -29.9142
2.831, 2, 17.8816, 15.8645, 23.0564, 38.2544, -28.6215, -29.9142
2.836, 2, 17.8816, 15.8645, 23.0564, 38.2544, -28.6215, -29.9142
2.84, 2, 17.8816, 15.8645, 23.0564, 38.2544, -28.6215, -29.9142
2.844, 2, 17.8816, 15.8645, 23.0564, 38.2544, -28.6215, -29.9142
2.847, 2, 17.8816, 15.8645, 23.0564, 38.2544, -28.6215, -29.9142
2.852, 2, 17.8816, 15.8645, 23.0564, 38.2544, -28.6215, -29.9142
2.856, 2, 17.8816, 15.8645, 23.0564, 38.2544, -28.6215, -29.9142
2.86, 2, 17.8816, 15.8645, 23.0564, 38.2544, -28.6215, -29.9142
2.864, 2, 17.8816, 15.8645, 23.0564, 38.2544, -28.6215, -29.9142
2.867, 2, 17.8816, 15.8645, 23.0564, 38.2544, -28.6215, -29.9142
2.872, 2, 17.8816, 15.8645, 23.0564, 38.2544, -28.6215, -29.9142
2.876, 2, 17.8816, 15.8645, 23.0564, 38.2544, -28.6215, -29.9142
2.88, 2, 17.8816, 15.8645, 23.0564, 38.2544, -28.6215, -29.9142
2.883, 2, 17.8816, 15.8645, 23.0564, 38.2544, -28.6215, -29.9142
2.888, 2, 17.8816, 15.8645, 23.0564, 38.2544, -28.6215, -29.9142
2.892, 2, 17.8816, 15.8645, 23.0564, 38.2544, -28.6215, -29.9142
2.896, 2, 17.8816, 15.8645, 23.0564, 38.2544, -28.6215, -29.9142
2.9, 2, 17.8816, 15.8645, 23.0564, 38.2544, -28.6215, -29.9142
2.903, 2, 17.8816, 15.8645, 23.0564, 38.2544, -28.6215, -29.9142
2.908, 2, 17.8816, 15.8645, 23.0564, 38.2544, -28.6215, -29.9142
2.912, 2, 17.8816, 15.8645, 23.0564, 38.2544, -28.6215, -29.9142
2.916, 2, 17.8816, 15.8645, 23.0564, 38.2544, -28.6215, -29.9142
2.92, 2, 17.8816, 15.8645, 23.0564, 38.2544, -28.6215, -29.9142
2.923, 2, 17.8816, 15.8645, 23.0564, 38.2544, -28.6215, -29.9142
2.928, 2, 17.8816, 15.8645, 23.0564, 38.2544, -28.6215, -29.9142
2.932, 2, 17.8816, 15.8645, 23.0564, 38.2544, -28.6215, -29.9142
2.936, 2, 17.8816, 15.8645, 23.0564, 38.2544, -28.6215, -29.9142
2.939, 2, 17.8816, 15.8645, 23.0564, 38.2544, -28.6215, -29.9142
2.944, 2, 17.8816, 15.8645, 23.0564, 38.2544, -28.6215, -29.9142
2.948, 2, 17.8816, 15.8645, 23.0564, 38.2544, -28.6215, -29.9142
2.952, 2, 17.8816, 15.8645, 23.0564, 38.2544, -28.6215, -29.9142
2.956, 2, 17.8816, 15.8645, 23.0564, 38.2544, -28.6215, -29.9142
2.959, 2, 17.8816, 15.8645, 23.0564, 38.2544, -28.6215, -29.9142
2.964, 2, 17.8816, 15.8645, 23.0564, 38.2544, -28.6215, -29.9142
2.968, 2, 17.8816, 15.8645, 23.0564, 38.2544, -28.6215, -29.9142
2.972, 2, 17.8816, 15.8645, 23.0564, 38.2544, -28.6215, -29.9142
2.976, 2, 17.8816, 15.8645, 23.0564, 38.2544, -28.6215, -29.9142
2.98, 2, 17.8816, 15.8645, 23.0564, 38.2544, -28.6215, -29.9142
2.984, 2, 17.8816, 15.8645, 23.0564, 38.2544, -28.6215, -29.9142
2.988, 2, 17.8816, 15.8645, 23.0564, 38.2544, -28.6215, -29.9142
2.992, 2, 17.8816, 15.8645, 23.0564, 38.2544, -28.6215, -29.9142
2.995, 2, 17.8816, 15.8645, 23.0564, 38.2544, -28.6215, -29.9142
3, 2, 17.8816, 15.8645, 23.0564, 38.2544, -28.6215, -29.9142
3.004, 2, 17.8816, 15.8645, 23.0564, 38.2544, -28.6215, -29.9142
3.008, 2, 17.8816, 15.8645, 23.0564, 38.2544, -28.6215, -29.9142
3.012, 2, 17.8816, 15.8645, 23.0564, 38.2544, -28.6215, -29.9142
3.015, 2, 17.8816, 15.8645, 23.0564, 38.2544, -28.6215, -29.9142
3.02, 2, 17.8816, 15.8645, 23.0564, 38.2544, -28.6215, -29.9142
3.024, 2, 17.8816, 15.8645, 23.0564, 38.2544, -28.6215, -29.9142
3.028, 2, 17.8816, 15.8645, 23.0564, 38.2544, -28.6215, -29.9142
3.031, 2, 17.8816, 15.8645, 23.0564, 38.2544, -28.6215, -29.9142
3.036, 2, 17.8816, 15.8645, 23.0564, 38.2544, -28.6215, -29.9142
3.04, 2, 17.8816, 15.8645, 23.0564, 38.2544, -28.6215, -29.9142
3.044, 2, 17.8816, 15.8645, 23.0564, 38.2544, -28.6215, -29.9142
3.048, 2, 17.8816, 15.8645, 23.0564, 38.2544, -28.6215, -29.9142
3.051, 2, 17.8816, 15.8645, 23.0564, 38.2544, -28.6215, -29.9142
3.056, 2, 17.8816, 15.8645, 23.0564, 38.2544, -28.6215, -29.9142
3.06, 2, 17.8816, 15.8645, 23.0564, 38.2544, -28.6215, -29.9142
3.064, 2, 17.8816, 15.8645, 23.0564, 38.2544, -28.6215, -29.9142
3.068, 2, 17.8816, 15.8645, 23.0564, 38.2544, -28.6215, -29.9142
3.071, 2, 17.8816, 15.8645, 23.0564, 38.2544, -28.6215, -29.9142
3.076, 2, 17.8816, 15.8645, 23.0564, 38.2544, -28.6215, -29.9142
3.08, 2, 17.8816, 15.8645, 23.0564, 38.2544, -28.6215, -29.9142
3.084, 2, 17.8816, 15.8645, 23.0564, 38.2544, -28.6215, -29.9142
3.087, 2, 17.8816, 15.8645, 23.0564, 38.2544, -28.6215, -29.9142
3.092, 2, 17.8816, 15.8645, 23.0564, 38.2544, -28.6215, -29.9142
3.096, 2, 17.8816, 15.8645, 23.0564, 38.2544, -28.6215, -29.9142
3.1, 2, 17.8816, 15.8645, 23.0564, 38.2544, -28.6215, -29.9142
3.104, 2, 17.8816, 15.8645, 23.0564, 38.2544, -28.6215, -29.9142
3.107, 2, 17.8816, 15.8645, 23.0564, 38.2544, -28.6215, -29.9142
3.112, 2, 17.8816, 15.8645, 23.0564, 38.2544, -28.6215, -29.9142
3.116, 2, 17.8816, 15.8645, 23.0564, 38.2544, -28.6215, -29.9142
3.12, 2, 17.8816, 15.8645, 23.0564, 38.2544, -28.6215, -29.9142
3.124, 2, 17.8816, 15.8645, 23.0564, 38.2544, -28.6215, -29.9142
3.128, 2, 17.8816, 15.8645, 23.0564, 38.2544, -28.6215, -29.9142
3.132, 2, 17.8816, 15.8645, 23.0564, 38.2544, -28.6215, -29.9142
3.136, 2, 17.8816, 15.8645, 23.0564, 38.2544, -28.6215, -29.9142
3.14, 2, 17.8816, 15.8645, 23.0564, 38.2544, -28.6215, -29.9142
3.143, 2, 17.8816, 15.8645, 23.0564, 38.2544, -28.6215, -29.9142
3.148, 2, 17.8816, 15.8645, 23.0564, 38.2544, -28.6215, -29.9142
3.152, 2, 17.8816, 15.8645, 23.0564, 38.2544, -28.6215, -29.9142
3.156, 2, 17.8816, 15.8645, 23.0564, 38.2544, -28.6215, -29.9142
3.16, 2, 17.8816, 15.8645, 23.0564, 38.2544, -28.6215, -29.9142
3.163, 2, 17.8816, 15.8645, 23.0564, 38.2544, -28.6215, -29.9142
3.168, 2, 17.8816, 15.8645, 23.0564, 38.2544, -28.6215, -29.9142
3.172, 2, 17.8816, 15.8645, 23.0564, 38.2544, -28.6215, -29.9142
3.176, 2, 17.8816, 15.8645, 23.0564, 38.2544, -28.6215, -29.9142
3.179, 2, 17.8816, 15.8645, 23.0564, 38.2544, -28.6215, -29.9142
3.184, 2, 17.8816, 15.8645, 23.0564, 38.2544, -28.6215, -29.9142
3.188, 2, 17.8816, 15.8645, 23.0564, 38.2544, -28.6215, -29.9142
3.192, 2, 17.8816, 15.8645, 23.0564, 38.2544, -28.6215, -29.9142
3.196, 2, 17.8816, 15.8645, 23.0564, 38.2544, -28.6215, -29.9142
3.199, 2, 17.8816, 15.8645, 23.0564, 38.2544, -28.6215, -29.9142
3.204, 2, 17.8816, 15.8645, 23.0564, 38.2544, -28.6215, -29.9142
3.208, 2, 17.8816, 15.8645, 23.0564, 38.2544, -28.6215, -29.9142
3.212, 2, 17.8816, 15.8645, 23.0564, 38.2544, -28.6215, -29.9142
3.216, 2, 17.8816, 15.8645, 23.0564, 38.2544, -28.6215, -29.9142
3.22, 2, 17.8816, 15.8645, 23.0564, 38.2544, -28.6215, -29.9142
3.224, 2, 17.8816, 15.8645, 23.0564, 38.2544, -28.6215, -29.9142
3.228, 2, 17.8816, 15.8645, 23.0564, 38.2544, -28.6215, -29.9142
3.232, 2, 17.8816, 15.8645, 23.0564, 38.2544, -28.6215, -29.9142
3.235, 2, 17.8816, 15.8645, 23.0564, 38.2544, -28.6215, -29.9142
3.24, 2, 17.8816, 15.8645, 23.0564, 38.2544, -28.6215, -29.9142
3.244, 2, 17.8816, 15.8645, 23.0564, 38.2544, -28.6215, -29.9142
3.248, 2, 17.8816, 15.8645, 23.0564, 38.2544, -28.6215, -29.9142
3.252, 2, 17.8816, 15.8645, 23.0564, 38.2544, -28.6215, -29.9142
3.255, 2, 17.8816, 15.8645, 23.0564, 38.2544, -28.6215, -29.9142
3.26, 2, 17.8816, 15.8645, 23.0564, 38.2544, -28.6215, -29.9142
3.264, 2, 17.8816, 15.8645, 23.0564, 38.2544, -28.6215, -29.9142
3.268, 2, 17.8816, 15.8645, 23.0564, 38.2544, -28.6215, -29.9142
3.272, 2, 17.8816, 15.8645, 23.0564, 38.2544, -28.6215, -29.9142
3.276, 2, 17.8816, 15.8645, 23.0564, 38.2544, -28.6215, -29.9142
3.28, 2, 17.8816, 15.8645, 23.0564, 38.2544, -28.6215, -29.9142
3.284, 2, 17.8816, 15.8645, 23.0564, 38.2544, -28.6215, -29.9142
3.288, 2, 17.8816, 15.8645, 23.0564, 38.2544, -28.6215, -29.9142
3.291, 2, 17.8816, 15.8645, 23.0564, 38.2544, -28.6215, -29.9142
3.296, 2, 17.8816, 15.8645, 23.0564, 38.2544, -28.6215, -29.9142
3.3, 2, 17.8816, 15.8645, 23.0564, 38.2544, -28.6215, -29.9142
3.304, 2, 17.8816, 15.8645, 23.0564, 38.2544, -28.6215, -29.9142
3.308, 2, 17.8816, 15.8645, 23.0564, 38.2544, -28.6215, -29.9142
3.312, 2, 17.8816, 15.8645, 23.0564, 38.2544, -28.6215, -29.9142
3.316, 2, 17.8816, 15.8645, 23.0564, 38.2544, -28.6215, -29.9142
3.32, 2, 17.8816, 15.8645, 23.0564, 38.2544, -28.6215, -29.9142
3.324, 2, 17.8816, 15.8645, 23.0564, 38.2544, -28.6215, -29.9142
3.328, 2, 17.8816, 15.8645, 23.0564, 38.2544, -28.6215, -29.9142
3.332, 2, 17.8816, 15.8645, 23.0564, 38.2544, -28.6215, -29.9142
3.336, 2, 17.8816, 15.8645, 23.0564, 38.2544, -28.6215, -29.9142
3.34, 2, 17.8816, 15.8645, 23.0564, 38.2544, -28.6215, -29.9142
3.344, 2, 17.8816, 15.8645, 23.0564, 38.2544, -28.6215, -29.9142
3.347, 2, 17.8816, 15.8645, 23.0564, 38.2544, -28.6215, -29.9142
3.352, 4, 17.8816, 15.8645, 23.0564, 38.2544, -28.6215, -29.9142
3.356, 4, 17.8816, 15.8645, 23.0564, 38.2544, -28.6215, -29.9142
3.36, 4, 17.8816, 15.8645, 23.0564, 38.2544, -28.6215, -29.9142
3.364, 4, 17.8816, 15.8645, 23.0564, 38.2544, -28.6215, -29.9142
3.368, 4, 17.8816, 15.8645, 23.0564, 38.2544, -28.6215, -29.9142
3.372, 4, 17.8816, 15.8645, 23.0564, 38.2544, -28.6215, -29.9142
3.376, 4, 17.8816, 15.8645, 23.0564, 38.2544, -28.6215, -29.9142
3.38, 4, 17.8816, 15.8645, 23.0564, 38.2544, -28.6215, -29.9142
3.383, 4, 17.8816, 15.8645, 23.0564, 38.2544, -28.6215, -29.9142
3.388, 4, 17.8816, 15.8645, 23.0564, 38.2544, -28.6215, -29.9142
3.392, 4, 17.8816, 15.8645, 23.0564, 38.2544, -28.6215, -29.9142
3.396, 4, 17.8816, 15.8645, 23.0564, 38.2544, -28.6215, -29.9142
3.4, 4, 17.8816, 15.8645, 23.0564, 38.2544, -28.6215, -29.9142
3.403, 4, 17.8816, 15.8645, 23.0564, 38.2544, -28.6215, -29.9142
3.408, 4, 17.8816, 15.8645, 23.0564, 38.2544, -28.6215, -29.9142
3.412, 4, 17.8816, 15.8645, 23.0564, 38.2544, -28.6215, -29.9142
3.416, 4, 17.8816, 15.8645, 23.0564, 38.2544, -28.6215, -29.9142
3.42, 4, 17.8816, 15.8645, 23.0564, 38.2544, -28.6215, -29.9142
3.424, 4, 17.8816, 15.8645, 23.0564, 38.2544, -28.6215, -29.9142
3.428, 4, 17.8816, 15.8645, 23.0564, 38.2544, -28.6215, -29.9142
3.432, 4, 17.8816, 15.8645, 23.0564, 38.2544, -28.6215, -29.9142
3.436, 4, 17.8816, 15.8645, 23.0564, 38.2544, -28.6215, -29.9142
3.439, 4, 17.8816, 15.8645, 23.0564, 38.2544, -28.6215, -29.9142
3.444, 4, 17.8816, 15.8645, 23.0564, 38.2544, -28.6215, -29.9142
3.448, 4, 17.8816, 15.8645, 23.0564, 38.2544, -28.6215, -29.9142
3.452, 4, 17.8816, 15.8645, 23.0564, 38.2544, -28.6215, -29.9142
3.457, 4, 17.8816, 15.8645, 23.0564, 38.2544, -28.6215, -29.9142
3.462, 4, 17.8816, 15.8645, 23.0564, 38.2544, -28.6215, -29.9142
3.466, 4, 17.8816, 15.8645, 23.0564, 38.2544, -28.6215, -29.9142
3.468, 4, 17.8816, 15.8645, 23.0564, 38.2544, -28.6215, -29.9142
3.472, 4, 17.8816, 15.8645, 23.0564, 38.2544, -28.6215, -29.9142
3.476, 4, 17.8816, 15.8645, 23.0564, 38.2544, -28.6215, -29.9142
3.48, 4, 17.8816, 15.8645, 23.0564, 38.2544, -28.6215, -29.9142
3.484, 4, 17.8816, 15.8646, 23.0564, 38.2544, -28.6215, -29.9142
3.488, 4, 17.8815, 15.8646, 23.0564, 38.2544, -28.6215, -29.9142
3.492, 4, 17.8813, 15.8647, 23.0563, 38.2543, -28.6215, -29.9142
3.495, 4, 17.8808, 15.8651, 23.0563, 38.2543, -28.6215, -29.9142
3.5, 4, 17.8799, 15.8658, 23.0561, 38.2541, -28.6216, -29.914
3.504, 4, 17.8784, 15.867, 23.0557, 38.2537, -28.6217, -29.9137
3.508, 4, 17.8763, 15.869, 23.0552, 38.2529, -28.622, -29.913
3.512, 4, 17.8734, 15.8718, 23.0543, 38.2514, -28.6225, -29.9118
3.516, 4, 17.8697, 15.8758, 23.053, 38.2487, -28.6234, -29.9096
3.52, 4, 17.8651, 15.8812, 23.0512, 38.2445, -28.6248, -29.906
3.524, 5, 17.8594, 15.8885, 23.0486, 38.2381, -28.6269, -29.9006
3.528, 5, 17.8526, 15.8978, 23.0452, 38.2288, -28.6299, -29.8927
3.531, 5, 17.8445, 15.9095, 23.0407, 38.2157, -28.6342, -29.8817
3.536, 5, 17.8347, 15.9237, 23.0348, 38.198, -28.6401, -29.8667
3.54, 5, 17.8231, 15.9407, 23.0273, 38.1745, -28.6478, -29.8468
3.544, 5, 17.8096, 15.9606, 23.018, 38.1442, -28.6578, -29.821
3.548, 5, 17.7941, 15.9834, 23.0067, 38.1059, -28.6704, -29.7885
3.552, 5, 17.7763, 16.0093, 22.993, 38.0584, -28.6861, -29.7481
3.556, 5, 17.7562, 16.0389, 22.9767, 38.0006, -28.7052, -29.699
3.56, 5, 17.7334, 16.0723, 22.9576, 37.9314, -28.7281, -29.6401
3.564, 5, 17.7078, 16.11, 22.9354, 37.8498, -28.7552, -29.5707
3.568, 5, 17.6791, 16.1524, 22.9099, 37.7549, -28.7868, -29.49
3.572, 5, 17.647, 16.1997, 22.8808, 37.6459, -28.8233, -29.3973
3.576, 5, 17.6115, 16.2522, 22.8481, 37.5221, -28.8648, -29.2921
3.58, 5, 17.5722, 16.3102, 22.8116, 37.383, -28.9117, -29.174
3.584, 5, 17.5291, 16.3738, 22.7711, 37.2281, -28.9642, -29.0424
3.587, 5, 17.4819, 16.4433, 22.7266, 37.0571, -29.0224, -28.8972
3.592, 5, 17.4305, 16.519, 22.6779, 36.8697, -29.0866, -28.7382
3.596, 5, 17.3746, 16.6008, 22.625, 36.6657, -29.1569, -28.5653
3.6, 5, 17.3139, 16.6892, 22.5678, 36.4451, -29.2334, -28.3784
3.604, 5, 17.2485, 16.7841, 22.5063, 36.2079, -29.3163, -28.1776
3.608, 5, 17.1781, 16.8856, 22.4406, 35.954, -29.4057, -27.9629
3.612, 5, 17.1025, 16.9938, 22.3705, 35.6835, -29.5017, -27.7344
3.616, 5, 17.0218, 17.1087, 22.2962, 35.3964, -29.6045, -27.4921
3.62, 5, 16.9359, 17.2301, 22.2176, 35.0929, -29.7142, -27.2362
3.624, 5, 16.8448, 17.358, 22.1348, 34.7729, -29.831, -26.9667
3.628, 5, 16.7487, 17.4921, 22.048, 34.4368, -29.9549, -26.684
3.632, 5, 16.6479, 17.6319, 21.9573, 34.0847, -30.0862, -26.3882
3.636, 5, 16.5424, 17.7773, 21.8627, 33.7171, -30.2247, -26.0798
3.64, 5, 16.4324, 17.9278, 21.7646, 33.3345, -30.3706, -25.7593
3.644, 5, 16.3183, 18.0831, 21.6631, 32.9377, -30.5237, -25.4273
3.648, 5, 16.2, 18.2429, 21.5585, 32.5276, -30.6839, -25.0847
3.652, 5, 16.0776, 18.4069, 21.451, 32.1053, -30.851, -24.7324
3.656, 5, 15.9512, 18.5746, 21.341, 31.6721, -31.0246, -24.3716
3.66, 5, 15.8209, 18.7458, 21.2287, 31.2292, -31.2044, -24.0033
3.664, 5, 15.6871, 18.92, 21.1145, 30.778, -31.39, -23.6288
3.668, 5, 15.5499, 19.0969, 20.9987, 30.3201, -31.581, -23.2493
3.672, 5, 15.4095, 19.2763, 20.8818, 29.8569, -31.7769, -22.866
3.676, 5, 15.2659, 19.4581, 20.7641, 29.3899, -31.9772, -22.4804
3.679, 5, 15.1193, 19.6421, 20.6457, 28.9205, -32.1815, -22.0934
3.684, 5, 14.9697, 19.8281, 20.5272, 28.45, -32.3892, -21.7062
3.688, 5, 14.8173, 20.0157, 20.4086, 27.9794, -32.6001, -21.3197
3.692, 5, 14.6623, 20.2045, 20.2904, 27.5097, -32.8136, -20.9347
3.696, 5, 14.505, 20.394, 20.1726, 27.0418, -33.0297, -20.5518
3.7, 5, 14.3456, 20.5839, 20.0555, 26.5761, -33.2479, -20.1715
3.704, 5, 14.1844, 20.7738, 19.9394, 26.1131, -33.4682, -19.7942
3.708, 5, 14.0218, 20.9632, 19.8243, 25.6531, -33.6904, -19.4201
3.712, 5, 13.8579, 21.152, 19.7103, 25.1965, -33.9143, -19.0494
3.716, 5, 13.6928, 21.34, 19.5976, 24.7433, -34.14, -18.6822
3.72, 5, 13.5266, 21.5271, 19.4862, 24.2937, -34.3674, -18.3186
3.724, 5, 13.3595, 21.7131, 19.3762, 23.8477, -34.5964, -17.9587
3.728, 5, 13.1915, 21.898, 19.2675, 23.4053, -34.827, -17.6025
3.732, 5, 13.0227, 22.0816, 19.1603, 22.9667, -35.0592, -17.2499
3.735, 5, 12.8532, 22.264, 19.0546, 22.5318, -35.293, -16.901
3.74, 5, 12.6829, 22.4452, 18.9504, 22.1005, -35.5283, -16.5558
3.744, 5, 12.5119, 22.625, 18.8477, 21.673, -35.7652, -16.2142
3.748, 5, 12.3403, 22.8036, 18.7465, 21.2491, -36.0036, -15.8762
3.752, 5, 12.168, 22.9808, 18.6469, 20.8289, -36.2435, -15.5418
3.756, 5, 11.995, 23.1567, 18.5488, 20.4123, -36.485, -15.2109
3.76, 5, 11.8214, 23.3313, 18.4523, 19.9992, -36.728, -14.8835
3.764, 5, 11.6472, 23.5045, 18.3575, 19.5898, -36.9726, -14.5596
3.768, 5, 11.4725, 23.6764, 18.2642, 19.1839, -37.2186, -14.2392
3.772, 5, 11.2971, 23.847, 18.1725, 18.7815, -37.4662, -13.9222
3.776, 5, 11.1211, 24.0162, 18.0825, 18.3826, -37.7153, -13.6086
3.78, 5, 10.9446, 24.1841, 17.994, 17.9872, -37.966, -13.2983
3.784, 5, 10.7676, 24.3507, 17.9073, 17.5952, -38.2181, -12.9913
3.788, 5, 10.59, 24.5159, 17.8222, 17.2067, -38.4718, -12.6877
3.792, 5, 10.4118, 24.6798, 17.7387, 16.8215, -38.727, -12.3873
3.796, 5, 10.2332, 24.8424, 17.6569, 16.4397, -38.9837, -12.0901
3.8, 5, 10.054, 25.0036, 17.5769, 16.0612, -39.2419, -11.7961
3.804, 5, 9.8744, 25.1635, 17.4985, 15.686, -39.5016, -11.5053
3.808, 5, 9.69427, 25.3221, 17.4218, 15.3141, -39.7628, -11.2176
3.812, 5, 9.51368, 25.4793, 17.3468, 14.9455, -40.0255, -10.9331
3.816, 5, 9.33262, 25.6352, 17.2735, 14.58, -40.2898, -10.6516
3.82, 5, 9.15112, 25.7897, 17.202, 14.2178, -40.5555, -10.3731
3.824, 5, 8.96917, 25.9429, 17.1322, 13.8587, -40.8227, -10.0977
3.828, 5, 8.78679, 26.0948, 17.0642, 13.5028, -41.0915, -9.82521
3.832, 5, 8.60398, 26.2454, 16.9979, 13.15, -41.3617, -9.55571
3.836, 5, 8.42076, 26.3946, 16.9334, 12.8004, -41.6334, -9.28915
3.84, 5, 8.23714, 26.5425, 16.8707, 12.4538, -41.9066, -9.0255
3.844, 5, 8.05312, 26.6891, 16.8098, 12.1102, -42.1813, -8.76473
3.848, 5, 7.86872, 26.8344, 16.7506, 11.7697, -42.4575, -8.50681
3.852, 5, 7.68395, 26.9783, 16.6933, 11.4322, -42.7351, -8.25172
3.856, 5, 7.49882, 27.1209, 16.6378, 11.0977, -43.0142, -7.99944
3.86, 5, 7.31333, 27.2622, 16.584, 10.7661, -43.2947, -7.74994
3.864, 5, 7.12751, 27.4021, 16.5322, 10.4375, -43.5768, -7.5032
3.868, 5, 6.94135, 27.5408, 16.4821, 10.1118, -43.8603, -7.25919
3.872, 5, 6.75486, 27.6781, 16.4339, 9.78906, -44.1452, -7.0179
3.876, 5, 6.56807, 27.8141, 16.3876, 9.46916, -44.4316, -6.7793
3.88, 5, 6.38097, 27.9488, 16.3431, 9.15213, -44.7195, -6.54336
3.884, 5, 6.19359, 28.0821, 16.3004, 8.83794, -45.0088, -6.31007
3.888, 5, 6.00592, 28.2142, 16.2597, 8.52657, -45.2995, -6.0794
3.892, 5, 5.81797, 28.3449, 16.2208, 8.21799, -45.5917, -5.85133
3.896, 5, 5.62977, 28.4744, 16.1838, 7.91219, -45.8854, -5.62584
3.9, 5, 5.4413, 28.6025, 16.1486, 7.60915, -46.1805, -5.40289
3.904, 5, 5.25259, 28.7293, 16.1154, 7.30883, -46.477, -5.18248
3.908, 5, 5.06365, 28.8548, 16.0841, 7.01121, -46.7749, -4.96457
3.912, 5, 4.87448, 28.9791, 16.0546, 6.71628, -47.0743, -4.74914
3.916, 5, 4.68509, 29.102, 16.0271, 6.424, -47.3751, -4.53617
3.92, 5, 4.4955, 29.2236, 16.0015, 6.13436, -47.6774, -4.32563
3.924, 5, 4.30571, 29.344, 15.9778, 5.84732, -47.981, -4.11751
3.928, 5, 4.11573, 29.463, 15.956, 5.56287, -48.2861, -3.91177
3.932, 5, 3.92557, 29.5808, 15.9361, 5.28099, -48.5925, -3.70839
3.936, 5, 3.73524, 29.6973, 15.9182, 5.00165, -48.9003, -3.50737
3.94, 5, 3.54474, 29.8125, 15.9022, 4.72483, -49.2095, -3.30866
3.944, 5, 3.35409, 29.9264, 15.8881, 4.4505, -49.5201, -3.11226
3.948, 5, 3.16331, 30.039, 15.8759, 4.17866, -49.8321, -2.91814
3.952, 5, 2.9724, 30.1503, 15.8657, 3.90927, -50.1454, -2.72631
3.956, 5, 2.78138, 30.2603, 15.8574, 3.64232, -50.4601, -2.53677
3.96, 5, 2.59025, 30.3688, 15.851, 3.37776, -50.7761, -2.34958
3.964, 5, 2.39902, 30.4758, 15.8466, 3.11555, -51.0933, -2.16487
3.968, 5, 2.2077, 30.5813, 15.8441, 2.85564, -51.4117, -1.98285
3.972, 5, 2.01633, 30.6852, 15.8435, 2.59794, -51.731, -1.80385
3.976, 5, 1.82495, 30.7874, 15.8448, 2.34235, -52.0511, -1.62827
3.98, 5, 1.63356, 30.8878, 15.848, 2.08874, -52.3717, -1.45664
3.984, 5, 1.44218, 30.9866, 15.8531, 1.83699, -52.6925, -1.28956
3.988, 6, 1.25074, 31.0836, 15.86, 1.58695, -53.0132, -1.12771
3.992, 6, 1.05919, 31.1789, 15.8689, 1.33845, -53.3334, -0.971764
3.996, 6, 0.867449, 31.2724, 15.8796, 1.09133, -53.6528, -0.822433
3.999, 6, 0.675495, 31.3641, 15.8922, 0.845391, -53.971, -0.680373
4.004, 6, 0.483319, 31.4542, 15.9066, 0.600467, -54.2879, -0.546163
4.008, 6, 0.290948, 31.5426, 15.9229, 0.356384, -54.6031, -0.420254
4.012, 6, 0.09844, 31.6292, 15.9411, 0.112991, -54.9165, -0.302933
4.016, 6, -0.0941569, 31.7142, 15.9613, -0.12983, -55.2282, -0.194299
4.02, 6, -0.286838, 31.7974, 15.9834, -0.37216, -55.538, -0.0942508
4.024, 6, -0.479643, 31.8789, 16.0074, -0.614042, -55.8463, -0.00250446
4.028, 6, -0.672616, 31.9586, 16.0334, -0.855484, -56.1532, 0.0813852
4.032, 6, -0.865762, 32.0366, 16.0615, -1.09646, -56.459, 0.157988
4.036, 6, -1.05904, 32.1127, 16.0915, -1.33695, -56.7639, 0.227963
4.04, 6, -1.25238, 32.1871, 16.1237, -1.57687, -57.0684, 0.29202
4.044, 6, -1.44572, 32.2597, 16.1579, -1.81615, -57.3727, 0.350884
4.048, 6, -1.63905, 32.3304, 16.1943, -2.05471, -57.6772, 0.40526
4.052, 6, -1.83235, 32.3994, 16.2327, -2.29245, -57.9821, 0.455799
4.056, 6, -2.02564, 32.4667, 16.2733, -2.52929, -58.2878, 0.50307
4.06, 6, -2.21898, 32.5323, 16.3161, -2.76512, -58.5944, 0.547548
4.064, 6, -2.41242, 32.5964, 16.3609, -2.99988, -58.9021, 0.589605
4.068, 6, -2.60598, 32.6589, 16.4079, -3.23351, -59.2108, 0.629517
4.072, 6, -2.79964, 32.72, 16.4571, -3.46596, -59.5209, 0.66748
4.076, 6, -2.99336, 32.7797, 16.5083, -3.69722, -59.8321, 0.70363
4.08, 6, -3.18713, 32.8381, 16.5617, -3.92727, -60.1447, 0.738057
4.084, 6, -3.38091, 32.8952, 16.6172, -4.1561, -60.4585, 0.770825
4.088, 6, -3.57467, 32.9511, 16.6749, -4.38371, -60.7736, 0.801973
4.092, 6, -3.7684, 33.0056, 16.7346, -4.6101, -61.0901, 0.831532
4.096, 6, -3.96208, 33.0589, 16.7965, -4.83528, -61.4078, 0.859518
4.1, 6, -4.1557, 33.111, 16.8605, -5.05924, -61.7269, 0.885945
4.104, 6, -4.34924, 33.1619, 16.9266, -5.282, -62.0472, 0.91082
4.108, 6, -4.54271, 33.2115, 16.9948, -5.50355, -62.3689, 0.934147
4.112, 6, -4.73609, 33.26, 17.0651, -5.72391, -62.6918, 0.95593
4.116, 6, -4.92938, 33.3072, 17.1375, -5.94308, -63.016, 0.976168
4.12, 6, -5.12259, 33.3532, 17.2119, -6.16108, -63.3415, 0.994862
4.124, 6, -5.31571, 33.3981, 17.2885, -6.37789, -63.6682, 1.01201
4.128, 6, -5.50875, 33.4418, 17.3671, -6.59354, -63.9962, 1.02761
4.132, 6, -5.70169, 33.4844, 17.4477, -6.80804, -64.3254, 1.04167
4.136, 6, -5.89454, 33.5257, 17.5305, -7.02138, -64.6559, 1.05418
4.14, 6, -6.08729, 33.566, 17.6152, -7.23359, -64.9876, 1.06514
4.144, 6, -6.27995, 33.6051, 17.702, -7.44466, -65.3205, 1.07454
4.148, 6, -6.47251, 33.6431, 17.7909, -7.65462, -65.6547, 1.0824
4.152, 6, -6.66496, 33.6799, 17.8818, -7.86347, -65.9901, 1.08871
4.156, 6, -6.85729, 33.7157, 17.9747, -8.07123, -66.3266, 1.09346
4.16, 6, -7.04949, 33.7503, 18.0696, -8.2779, -66.6644, 1.09666
4.164, 6, -7.24156, 33.7838, 18.1665, -8.4835, -67.0033, 1.09831
4.168, 6, -7.43347, 33.8163, 18.2654, -8.68805, -67.3435, 1.09841
4.172, 6, -7.62521, 33.8476, 18.3663, -8.89156, -67.6848, 1.09696
4.176, 6, -7.81677, 33.8779, 18.4692, -9.09403, -68.0273, 1.09395
4.18, 6, -8.00814, 33.9072, 18.574, -9.29549, -68.3709, 1.0894
4.184, 6, -8.19931, 33.9354, 18.6808, -9.49594, -68.7157, 1.08329
4.188, 6, -8.39027, 33.9625, 18.7895, -9.6954, -69.0616, 1.07563
4.192, 6, -8.58101, 33.9886, 18.9001, -9.89387, -69.4086, 1.06641
4.196, 6, -8.77152, 34.0137, 19.0127, -10.0914, -69.7567, 1.05564
4.2, 6, -8.9618, 34.0378, 19.1272, -10.2879, -70.106, 1.04332
4.204, 6, -9.15184, 34.0609, 19.2435, -10.4835, -70.4563, 1.02944
4.208, 6, -9.34162, 34.083, 19.3618, -10.6782, -70.8077, 1.014
4.212, 6, -9.53113, 34.1041, 19.4819, -10.8719, -71.1602, 0.997005
4.216, 6, -9.72037, 34.1242, 19.6039, -11.0648, -71.5137, 0.978449
4.22, 6, -9.90932, 34.1434, 19.7278, -11.2567, -71.8683, 0.958332
4.224, 6, -10.098, 34.1616, 19.8535, -11.4478, -72.2239, 0.936653
4.228, 6, -10.2863, 34.1789, 19.981, -11.6379, -72.5805, 0.913411
4.232, 6, -10.4743, 34.1952, 20.1103, -11.8272, -72.9381, 0.888605
4.236, 6, -10.662, 34.2107, 20.2415, -12.0157, -73.2967, 0.862232
4.24, 6, -10.8494, 34.2252, 20.3744, -12.2033, -73.6564, 0.834292
4.244, 6, -11.0364, 34.2388, 20.5091, -12.3901, -74.0169, 0.804783
4.248, 6, -11.2231, 34.2515, 20.6456, -12.576, -74.3785, 0.773704
4.252, 6, -11.4093, 34.2633, 20.7838, -12.7612, -74.7409, 0.741053
4.256, 6, -11.5952, 34.2743, 20.9238, -12.9456, -75.1043, 0.706829
4.26, 6, -11.7808, 34.2844, 21.0655, -13.1292, -75.4687, 0.671029
4.264, 6, -11.9659, 34.2937, 21.2089, -13.312, -75.8339, 0.633654
4.268, 6, -12.1506, 34.3021, 21.3541, -13.4941, -76.2, 0.594699
4.272, 6, -12.3349, 34.3097, 21.5009, -13.6755, -76.567, 0.554165
4.276, 6, -12.5188, 34.3165, 21.6494, -13.8561, -76.9349, 0.512047
4.28, 6, -12.7022, 34.3224, 21.7996, -14.036, -77.3036, 0.468345
4.284, 6, -12.8852, 34.3276, 21.9514, -14.2153, -77.6732, 0.423054
4.288, 6, -13.0678, 34.332, 22.1049, -14.3938, -78.0436, 0.376173
4.292, 6, -13.2498, 34.3356, 22.26, -14.5717, -78.4149, 0.327698
4.296, 6, -13.4312, 34.3385, 22.4167, -14.7489, -78.7869, 0.277626
4.3, 6, -13.612, 34.3405, 22.575, -14.9255, -79.1598, 0.225958
4.304, 6, -13.7919, 34.3418, 22.7349, -15.1015, -79.5333, 0.172696
4.308, 6, -13.9709, 34.3423, 22.8962, -15.2768, -79.9075, 0.117854
4.312, 6, -14.1489, 34.3419, 23.059, -15.4513, -80.2822, 0.0614513
4.316, 6, -14.3256, 34.3409, 23.2231, -15.6251, -80.6572, 0.00352184
4.32, 6, -14.5011, 34.3391, 23.3884, -15.798, -81.0323, -0.0558877
4.324, 6, -14.6751, 34.3365, 23.5546, -15.97, -81.407, -0.116715
4.328, 6, -14.8476, 34.3333, 23.7216, -16.1408, -81.7811, -0.178883
4.332, 6, -15.0182, 34.3294, 23.8892, -16.3102, -82.154, -0.242296
4.336, 6, -15.1869, 34.3248, 24.0571, -16.4782, -82.5252, -0.306838
4.34, 6, -15.3533, 34.3197, 24.225, -16.6444, -82.8941, -0.372376
4.344, 6, -15.5173, 34.3141, 24.3924, -16.8085, -83.2601, -0.438757
4.348, 6, -15.6786, 34.308, 24.5592, -16.9703, -83.6225, -0.505809
4.352, 6, -15.8373, 34.3015, 24.7248, -17.1296, -83.9804, -0.573345
4.356, 6, -15.993, 34.2946, 24.8888, -17.2859, -84.3332, -0.641171
4.36, 6, -16.1457, 34.2875, 25.051, -17.439, -84.6801, -0.709083
4.364, 6, -16.295, 34.2802, 25.2109, -17.5887, -85.0204, -0.776876
4.368, 6, -16.4408, 34.2727, 25.3681, -17.7346, -85.3533, -0.844348
4.372, 6, -16.5829, 34.2652, 25.5223, -17.8766, -85.6784, -0.911296
4.376, 6, -16.721, 34.2575, 25.6732, -18.0144, -85.9949, -0.977525
4.38, 6, -16.855, 34.2498, 25.8204, -18.1479, -86.3025, -1.04285
4.384, 6, -16.9847, 34.2422, 25.9637, -18.277, -86.6006, -1.10708
4.388, 6, -17.1099, 34.2345, 26.1028, -18.4014, -86.8888, -1.17006
4.392, 6, -17.2306, 34.227, 26.2376, -18.5211, -87.1669, -1.23163
4.396, 6, -17.3465, 34.2195, 26.3678, -18.6359, -87.4344, -1.29164
4.4, 6, -17.4575, 34.2122, 26.4932, -18.746, -87.6913, -1.34994
4.404, 6, -17.5635, 34.205, 26.6137, -18.8511, -87.9372, -1.4064
4.408, 6, -17.6644, 34.198, 26.7291, -18.9513, -88.172, -1.4609
4.412, 6, -17.7601, 34.1911, 26.8393, -19.0464, -88.3954, -1.51331
4.416, 6, -17.8506, 34.1845, 26.9441, -19.1365, -88.6074, -1.56351
4.42, 6, -17.9359, 34.1781, 27.0434, -19.2215, -88.8077, -1.61138
4.424, 6, -18.016, 34.1719, 27.1371, -19.3014, -88.9962, -1.65681
4.428, 6, -18.091, 34.1662, 27.2251, -19.3761, -89.1728, -1.69969
4.432, 6, -18.1611, 34.1607, 27.3073, -19.4456, -89.3373, -1.73995
4.436, 6, -18.2263, 34.1557, 27.3837, -19.5099, -89.4898, -1.77751
4.44, 6, -18.2868, 34.1511, 27.4542, -19.5691, -89.6302, -1.81232
4.444, 6, -18.3426, 34.147, 27.5189, -19.6232, -89.7588, -1.84437
4.448, 6, -18.3939, 34.1433, 27.5779, -19.6723, -89.8756, -1.87365
4.452, 6, -18.4407, 34.14, 27.6312, -19.7166, -89.981, -1.9002
4.456, 6, -18.4831, 34.1371, 27.6791, -19.7561, -90.0754, -1.92407
4.46, 6, -18.5215, 34.1347, 27.7217, -19.7911, -90.1591, -1.94533
4.464, 6, -18.556, 34.1326, 27.7592, -19.8219, -90.2326, -1.96408
4.468, 6, -18.5869, 34.131, 27.792, -19.8486, -90.2966, -1.98044
4.472, 6, -18.6144, 34.1298, 27.8204, -19.8715, -90.3517, -1.99456
4.476, 6, -18.6387, 34.129, 27.8446, -19.891, -90.3985, -2.0066
4.48, 6, -18.66, 34.1284, 27.865, -19.9073, -90.4379, -2.01674
4.484, 6, -18.6785, 34.128, 27.8821, -19.9209, -90.4706, -2.02518
4.488, 6, -18.6944, 34.1279, 27.8961, -19.9319, -90.4973, -2.03209
4.492, 6, -18.7078, 34.1279, 27.9075, -19.9408, -90.5189, -2.03768
4.496, 6, -18.7193, 34.128, 27.9166, -19.9478, -90.536, -2.04211
4.5, 6, -18.7291, 34.1282, 27.9237, -19.9533, -90.5493, -2.04556
4.504, 6, -18.7374, 34.1285, 27.9292, -19.9574, -90.5594, -2.04819
4.508, 6, -18.7446, 34.1289, 27.9334, -19.9604, -90.567, -2.05014
4.512, 6, -18.7506, 34.1293, 27.9364, -19.9626, -90.5724, -2.05157
4.516, 7, -18.7556, 34.1296, 27.9387, -19.9642, -90.5763, -2.05258
4.52, 7, -18.7596, 34.1299, 27.9402, -19.9653, -90.5791, -2.05328
4.524, 7, -18.7627, 34.1301, 27.9413, -19.966, -90.5809, -2.05377
4.528, 7, -18.7649, 34.1303, 27.9421, -19.9665, -90.5822, -2.0541
4.532, 7, -18.7665, 34.1304, 27.9426, -19.9668, -90.5831, -2.05432
4.536, 7, -18.7675, 34.1305, 27.943, -19.967, -90.5836, -2.05447
4.54, 7, -18.7682, 34.1305, 27.9432, -19.9672, -90.584, -2.05457
4.544, 7, -18.7687, 34.1306, 27.9433, -19.9673, -90.5843, -2.05464
4.548, 7, -18.7691, 34.1306, 27.9435, -19.9674, -90.5845, -2.05469
4.552, 7, -18.7693, 34.1306, 27.9435, -19.9674, -90.5846, -2.05472
4.556, 7, -18.7694, 34.1306, 27.9436, -19.9675, -90.5847, -2.05474
4.56, 7, -18.7695, 34.1306, 27.9436, -19.9675, -90.5847, -2.05476
4.564, 7, -18.7696, 34.1307, 27.9436, -19.9675, -90.5848, -2.05477
4.568, 7, -18.7696, 34.1307, 27.9437, -19.9675, -90.5848, -2.05478
4.572, 7, -18.7697, 34.1307, 27.9437, -19.9675, -90.5848, -2.05478
4.576, 7, -18.7697, 34.1307, 27.9437, -19.9675, -90.5848, -2.05478
4.58, 7, -18.7697, 34.1307, 27.9437, -19.9675, -90.5848, -2.05479
4.584, 7, -18.7697, 34.1307, 27.9437, -19.9675, -90.5849, -2.05479
4.588, 7, -18.7697, 34.1307, 27.9437, -19.9675, -90.5849, -2.05479
4.592, 7, -18.7697, 34.1307, 27.9437, -19.9675, -90.5849, -2.05479
4.596, 7, -18.7697, 34.1307, 27.9437, -19.9675, -90.5849, -2.05479
4.6, 7, -18.7697, 34.1307, 27.9437, -19.9675, -90.5849, -2.05479
4.604, 7, -18.7697, 34.1307, 27.9437, -19.9675, -90.5849, -2.05479
4.608, 7, -18.7697, 34.1307, 27.9437, -19.9675, -90.5849, -2.05479
4.612, 7, -18.7697, 34.1307, 27.9437, -19.9675, -90.5849, -2.05479
4.616, 7, -18.7697, 34.1307, 27.9437, -19.9675, -90.5849, -2.05479
4.62, 7, -18.7697, 34.1307, 27.9437, -19.9675, -90.5849, -2.05479
4.624, 7, -18.7697, 34.1307, 27.9437, -19.9675, -90.5849, -2.05479
4.628, 7, -18.7697, 34.1307, 27.9437, -19.9675, -90.5849, -2.05479
4.632, 7, -18.7697, 34.1307, 27.9437, -19.9675, -90.5849, -2.05479
