hehonglu123/ABB_Primitive_Study/execution/movelcl_30_car/curve_exe_v500_z1.csv
timestamp, cmd_num, J1, J2, J3, J4, J5, J6
0, -1, -13.4393, 43.6787, 12.5946, -11.6275, -87.029, 7.42441
0.002, -1, -13.4393, 43.6787, 12.5946, -11.6275, -87.029, 7.42441
0.004, -1, -13.4393, 43.6787, 12.5946, -11.6275, -87.029, 7.42441
0.008, -1, -13.4393, 43.6787, 12.5946, -11.6275, -87.029, 7.42441
0.011, -1, -13.4393, 43.6787, 12.5946, -11.6275, -87.029, 7.42441
0.016, -1, -13.4393, 43.6787, 12.5946, -11.6275, -87.029, 7.42441
0.02, -1, -13.4393, 43.6787, 12.5946, -11.6275, -87.029, 7.42441
0.024, -1, -13.4393, 43.6787, 12.5946, -11.6275, -87.029, 7.42441
0.028, -1, -13.4393, 43.6787, 12.5946, -11.6275, -87.029, 7.42441
0.032, -1, -13.4393, 43.6787, 12.5946, -11.6275, -87.029, 7.42441
0.036, -1, -13.4392, 43.6786, 12.5946, -11.6275, -87.029, 7.42441
0.04, -1, -13.439, 43.6785, 12.5946, -11.6275, -87.029, 7.42441
0.044, -1, -13.4384, 43.678, 12.5947, -11.6275, -87.029, 7.42439
0.048, -1, -13.4372, 43.6772, 12.5949, -11.6274, -87.0289, 7.42434
0.052, -1, -13.4355, 43.6758, 12.5951, -11.6273, -87.0287, 7.42422
0.056, -1, -13.433, 43.6738, 12.5955, -11.627, -87.0284, 7.42397
0.06, -1, -13.4296, 43.671, 12.5961, -11.6264, -87.0277, 7.42349
0.064, -1, -13.4254, 43.6675, 12.5969, -11.6253, -87.0264, 7.42266
0.068, -1, -13.4203, 43.6631, 12.598, -11.6236, -87.0244, 7.42132
0.072, -1, -13.4141, 43.6579, 12.5994, -11.6209, -87.0213, 7.41928
0.076, -1, -13.4066, 43.6516, 12.6011, -11.617, -87.0167, 7.4163
0.08, -1, -13.3977, 43.6442, 12.6034, -11.6115, -87.0103, 7.41213
0.084, -1, -13.3869, 43.6352, 12.6062, -11.604, -87.0016, 7.40644
0.088, -1, -13.3743, 43.6247, 12.6097, -11.5941, -86.9899, 7.39892
0.092, -1, -13.3596, 43.6124, 12.6138, -11.5812, -86.9748, 7.38918
0.096, -1, -13.3427, 43.5982, 12.6186, -11.5648, -86.9557, 7.37685
0.1, -1, -13.3235, 43.582, 12.6243, -11.5444, -86.9319, 7.36155
0.104, -1, -13.3019, 43.5636, 12.6308, -11.5196, -86.9029, 7.3429
0.108, -1, -13.2776, 43.5427, 12.6382, -11.4899, -86.868, 7.32054
0.112, -1, -13.2505, 43.5193, 12.6467, -11.4547, -86.8269, 7.29416
0.116, -1, -13.2206, 43.4932, 12.6562, -11.4137, -86.7789, 7.26346
0.12, -1, -13.1877, 43.4644, 12.6669, -11.3667, -86.7238, 7.22818
0.124, -1, -13.1519, 43.4328, 12.6786, -11.3132, -86.6612, 7.18814
0.128, -1, -13.113, 43.3984, 12.6916, -11.2532, -86.591, 7.14319
0.131, -1, -13.071, 43.3611, 12.7056, -11.1865, -86.5129, 7.09326
0.136, -1, -13.026, 43.321, 12.7209, -11.1131, -86.4269, 7.03835
0.139, -1, -12.9779, 43.2779, 12.7373, -11.0331, -86.3333, 6.9785
0.144, -1, -12.9267, 43.232, 12.7548, -10.9467, -86.2321, 6.91384
0.148, -1, -12.8726, 43.1833, 12.7734, -10.854, -86.1236, 6.84454
0.152, -1, -12.8155, 43.132, 12.7932, -10.7555, -86.0082, 6.77084
0.156, -1, -12.7557, 43.0781, 12.8139, -10.6514, -85.8863, 6.69301
0.16, -1, -12.6932, 43.0219, 12.8355, -10.5422, -85.7585, 6.61137
0.164, -1, -12.6282, 42.9633, 12.8581, -10.4284, -85.6253, 6.52627
0.168, -1, -12.5607, 42.9025, 12.8815, -10.3105, -85.4872, 6.43809
0.172, -1, -12.4909, 42.8396, 12.9056, -10.189, -85.3449, 6.34721
0.176, -1, -12.4189, 42.7749, 12.9305, -10.0644, -85.1989, 6.25399
0.18, -1, -12.345, 42.7085, 12.956, -9.93711, -85.0499, 6.15879
0.184, -1, -12.2694, 42.6406, 12.9821, -9.80765, -84.8983, 6.06194
0.188, -1, -12.1925, 42.5714, 13.0086, -9.6764, -84.7446, 5.96375
0.192, -1, -12.1142, 42.5011, 13.0356, -9.54373, -84.5892, 5.86449
0.196, -1, -12.0348, 42.4297, 13.0629, -9.40995, -84.4326, 5.76439
0.2, -1, -11.9542, 42.3573, 13.0906, -9.27534, -84.2749, 5.66366
0.204, -1, -11.8724, 42.2841, 13.1185, -9.14011, -84.1166, 5.56246
0.208, -1, -11.7897, 42.21, 13.1466, -9.00443, -83.9577, 5.46092
0.212, -1, -11.7061, 42.1354, 13.1749, -8.86843, -83.7985, 5.35913
0.216, -1, -11.6218, 42.0602, 13.2033, -8.7322, -83.6389, 5.25717
0.22, -1, -11.5371, 41.9847, 13.2318, -8.5958, -83.4792, 5.15507
0.224, -1, -11.452, 41.909, 13.2603, -8.45928, -83.3194, 5.05288
0.228, -1, -11.3667, 41.8332, 13.2889, -8.32266, -83.1594, 4.95062
0.232, -1, -11.2813, 41.7572, 13.3176, -8.18597, -82.9993, 4.8483
0.236, -1, -11.1957, 41.6811, 13.3462, -8.04922, -82.8392, 4.74595
0.24, -1, -11.11, 41.605, 13.3749, -7.91243, -82.679, 4.64355
0.244, -1, -11.0243, 41.5288, 13.4035, -7.77561, -82.5188, 4.54114
0.248, -1, -10.9386, 41.4526, 13.4322, -7.63876, -82.3586, 4.4387
0.252, -1, -10.8528, 41.3764, 13.4609, -7.50189, -82.1983, 4.33625
0.256, -1, -10.767, 41.3002, 13.4896, -7.36501, -82.0381, 4.2338
0.26, -1, -10.6811, 41.2239, 13.5183, -7.22813, -81.8778, 4.13133
0.264, -1, -10.5953, 41.1477, 13.547, -7.09125, -81.7175, 4.02887
0.268, -1, -10.5094, 41.0714, 13.5757, -6.95436, -81.5572, 3.92641
0.272, -1, -10.4236, 40.9952, 13.6044, -6.81749, -81.397, 3.82396
0.276, -1, -10.3378, 40.9189, 13.6331, -6.68063, -81.2367, 3.72151
0.28, -1, -10.252, 40.8427, 13.6618, -6.54379, -81.0765, 3.61908
0.284, -1, -10.1661, 40.7665, 13.6904, -6.40697, -80.9163, 3.51666
0.288, -1, -10.0803, 40.6903, 13.7191, -6.27017, -80.7561, 3.41427
0.292, -1, -9.99456, 40.6141, 13.7478, -6.13341, -80.596, 3.31189
0.296, -1, -9.9088, 40.538, 13.7764, -5.99668, -80.4359, 3.20955
0.3, -1, -9.82306, 40.4618, 13.8051, -5.85999, -80.2758, 3.10723
0.304, -1, -9.73734, 40.3857, 13.8337, -5.72334, -80.1158, 3.00494
0.308, -1, -9.65166, 40.3096, 13.8624, -5.58674, -79.9558, 2.90269
0.312, -1, -9.566, 40.2336, 13.891, -5.45019, -79.796, 2.80048
0.316, -1, -9.48038, 40.1575, 13.9196, -5.31369, -79.6361, 2.69831
0.32, -1, -9.3948, 40.0815, 13.9482, -5.17726, -79.4764, 2.59618
0.324, -1, -9.30925, 40.0055, 13.9768, -5.04089, -79.3167, 2.4941
0.328, -1, -9.22375, 39.9296, 14.0054, -4.90458, -79.1571, 2.39207
0.332, -1, -9.13829, 39.8537, 14.0339, -4.76835, -78.9976, 2.2901
0.336, -1, -9.05287, 39.7778, 14.0625, -4.63219, -78.8382, 2.18818
0.34, -1, -8.9675, 39.702, 14.091, -4.49612, -78.6788, 2.08632
0.344, -1, -8.88219, 39.6262, 14.1195, -4.36012, -78.5196, 1.98452
0.348, -1, -8.79692, 39.5505, 14.148, -4.22421, -78.3604, 1.88279
0.352, -1, -8.71172, 39.4748, 14.1765, -4.0884, -78.2014, 1.78113
0.356, -1, -8.62657, 39.3992, 14.2049, -3.95267, -78.0425, 1.67953
0.36, -1, -8.54148, 39.3236, 14.2334, -3.81705, -77.8837, 1.57801
0.364, -1, -8.45646, 39.2481, 14.2618, -3.68152, -77.725, 1.47657
0.368, -1, -8.3715, 39.1727, 14.2902, -3.54611, -77.5664, 1.3752
0.372, -1, -8.28661, 39.0973, 14.3185, -3.4108, -77.408, 1.27392
0.376, -1, -8.20179, 39.0219, 14.3469, -3.2756, -77.2497, 1.17272
0.38, -1, -8.11704, 38.9467, 14.3752, -3.14052, -77.0915, 1.07161
0.384, -1, -8.03237, 38.8715, 14.4035, -3.00557, -76.9335, 0.970588
0.388, -1, -7.94777, 38.7963, 14.4318, -2.87073, -76.7756, 0.869659
0.392, -1, -7.86325, 38.7212, 14.46, -2.73602, -76.6179, 0.768825
0.396, -1, -7.77881, 38.6463, 14.4882, -2.60145, -76.4603, 0.668089
0.4, -1, -7.69446, 38.5713, 14.5164, -2.467, -76.3029, 0.567454
0.404, -1, -7.61019, 38.4965, 14.5446, -2.3327, -76.1456, 0.466921
0.408, -1, -7.526, 38.4217, 14.5727, -2.19854, -75.9885, 0.366494
0.412, -1, -7.44191, 38.347, 14.6008, -2.06452, -75.8316, 0.266176
0.416, -1, -7.35791, 38.2724, 14.6288, -1.93064, -75.6748, 0.165968
0.42, -1, -7.274, 38.1979, 14.6569, -1.79692, -75.5183, 0.0658724
0.424, -1, -7.19019, 38.1235, 14.6849, -1.66336, -75.3619, -0.0341072
0.428, -1, -7.10648, 38.0491, 14.7128, -1.52995, -75.2057, -0.133969
0.432, -1, -7.02287, 37.9748, 14.7408, -1.3967, -75.0496, -0.233711
0.436, -1, -6.93935, 37.9007, 14.7687, -1.26362, -74.8938, -0.33333
0.44, -1, -6.85595, 37.8266, 14.7965, -1.1307, -74.7382, -0.432824
0.444, -1, -6.77264, 37.7526, 14.8244, -0.99795, -74.5827, -0.532191
0.448, -1, -6.68945, 37.6787, 14.8522, -0.865375, -74.4275, -0.631429
0.452, -1, -6.60636, 37.6049, 14.8799, -0.732975, -74.2725, -0.730535
0.456, -1, -6.52339, 37.5312, 14.9077, -0.600755, -74.1176, -0.829507
0.46, -1, -6.44053, 37.4576, 14.9353, -0.468716, -73.963, -0.928344
0.464, -1, -6.35778, 37.3842, 14.963, -0.336861, -73.8086, -1.02704
0.468, -1, -6.27515, 37.3108, 14.9906, -0.205193, -73.6545, -1.1256
0.472, -1, -6.19264, 37.2375, 15.0181, -0.0737153, -73.5005, -1.22402
0.476, -1, -6.11024, 37.1643, 15.0457, 0.0575699, -73.3468, -1.32229
0.48, -1, -6.02797, 37.0912, 15.0732, 0.18866, -73.1933, -1.42042
0.484, -1, -5.94582, 37.0183, 15.1006, 0.319552, -73.04, -1.51839
0.488, -1, -5.8638, 36.9454, 15.128, 0.450244, -72.887, -1.61622
0.492, -1, -5.7819, 36.8727, 15.1554, 0.580734, -72.7342, -1.7139
0.496, -1, -5.70012, 36.8001, 15.1827, 0.711018, -72.5817, -1.81142
0.5, -1, -5.61848, 36.7276, 15.2099, 0.841096, -72.4294, -1.90879
0.504, -1, -5.53697, 36.6552, 15.2372, 0.970964, -72.2773, -2.006
0.508, -1, -5.45558, 36.5829, 15.2644, 1.10062, -72.1255, -2.10306
0.512, -1, -5.37433, 36.5108, 15.2915, 1.23006, -71.9739, -2.19995
0.516, -1, -5.29321, 36.4387, 15.3186, 1.35929, -71.8226, -2.29668
0.52, -1, -5.21223, 36.3668, 15.3456, 1.4883, -71.6715, -2.39325
0.524, -1, -5.13138, 36.295, 15.3726, 1.6171, -71.5207, -2.48966
0.528, -1, -5.05067, 36.2233, 15.3996, 1.74567, -71.3702, -2.5859
0.532, -1, -4.97009, 36.1518, 15.4265, 1.87402, -71.2199, -2.68198
0.536, -1, -4.88966, 36.0803, 15.4534, 2.00215, -71.0698, -2.77789
0.54, -1, -4.80936, 36.009, 15.4802, 2.13005, -70.9201, -2.87363
0.544, -1, -4.7292, 35.9378, 15.507, 2.25773, -70.7706, -2.9692
0.548, -1, -4.64919, 35.8668, 15.5337, 2.38518, -70.6213, -3.0646
0.552, -1, -4.56931, 35.7959, 15.5604, 2.51241, -70.4724, -3.15984
0.556, -1, -4.48958, 35.725, 15.587, 2.6394, -70.3237, -3.2549
0.56, -1, -4.41, 35.6544, 15.6136, 2.76617, -70.1752, -3.34979
0.564, -1, -4.33056, 35.5838, 15.6401, 2.8927, -70.0271, -3.44451
0.568, -1, -4.25126, 35.5134, 15.6666, 3.01901, -69.8792, -3.53905
0.572, -1, -4.17211, 35.4431, 15.693, 3.14508, -69.7316, -3.63342
0.576, -1, -4.0931, 35.373, 15.7194, 3.27092, -69.5842, -3.72761
0.58, -1, -4.01424, 35.3029, 15.7458, 3.39652, -69.4372, -3.82163
0.584, -1, -3.93553, 35.233, 15.772, 3.52189, -69.2904, -3.91547
0.588, -1, -3.85696, 35.1633, 15.7983, 3.64702, -69.1438, -4.00914
0.592, -1, -3.77855, 35.0936, 15.8245, 3.77191, -68.9976, -4.10263
0.596, -1, -3.70028, 35.0241, 15.8506, 3.89657, -68.8516, -4.19594
0.6, -1, -3.62216, 34.9548, 15.8767, 4.02099, -68.7059, -4.28908
0.604, -1, -3.54419, 34.8855, 15.9027, 4.14517, -68.5605, -4.38203
0.608, -1, -3.46637, 34.8164, 15.9287, 4.26911, -68.4154, -4.47481
0.612, -1, -3.3887, 34.7474, 15.9547, 4.39281, -68.2706, -4.5674
0.616, -1, -3.31118, 34.6786, 15.9806, 4.51628, -68.126, -4.65982
0.62, -1, -3.23382, 34.6099, 16.0064, 4.63949, -67.9817, -4.75205
0.624, -1, -3.1566, 34.5413, 16.0322, 4.76247, -67.8377, -4.84411
0.628, -1, -3.07954, 34.4729, 16.0579, 4.88521, -67.694, -4.93598
0.632, -1, -3.00262, 34.4046, 16.0836, 5.0077, -67.5506, -5.02767
0.636, -1, -2.92586, 34.3364, 16.1092, 5.12995, -67.4074, -5.11918
0.64, -1, -2.84926, 34.2684, 16.1348, 5.25195, -67.2646, -5.2105
0.644, -1, -2.7728, 34.2005, 16.1604, 5.37371, -67.122, -5.30165
0.648, -1, -2.6965, 34.1328, 16.1858, 5.49523, -66.9797, -5.39261
0.652, -1, -2.62035, 34.0652, 16.2113, 5.6165, -66.8377, -5.48338
0.656, -1, -2.54436, 33.9977, 16.2366, 5.73753, -66.696, -5.57398
0.66, -1, -2.46852, 33.9303, 16.262, 5.85831, -66.5546, -5.66439
0.664, -1, -2.39283, 33.8631, 16.2872, 5.97884, -66.4135, -5.75461
0.668, -1, -2.3173, 33.7961, 16.3125, 6.09913, -66.2726, -5.84465
0.672, -1, -2.24192, 33.7291, 16.3376, 6.21917, -66.1321, -5.93451
0.676, -1, -2.1667, 33.6623, 16.3628, 6.33897, -65.9918, -6.02418
0.68, -1, -2.09163, 33.5957, 16.3878, 6.45851, -65.8518, -6.11367
0.684, -1, -2.01672, 33.5292, 16.4129, 6.57781, -65.7121, -6.20297
0.688, -1, -1.94196, 33.4628, 16.4378, 6.69687, -65.5727, -6.29208
0.692, -1, -1.86736, 33.3965, 16.4627, 6.81567, -65.4336, -6.38101
0.696, -1, -1.79291, 33.3304, 16.4876, 6.93423, -65.2948, -6.46976
0.7, -1, -1.71862, 33.2645, 16.5124, 7.05254, -65.1562, -6.55832
0.704, -1, -1.64448, 33.1986, 16.5372, 7.1706, -65.018, -6.64669
0.708, -1, -1.5705, 33.1329, 16.5619, 7.28841, -64.8801, -6.73488
0.712, -1, -1.49668, 33.0674, 16.5865, 7.40597, -64.7424, -6.82288
0.716, -1, -1.42301, 33.002, 16.6111, 7.52329, -64.605, -6.9107
0.72, -1, -1.34949, 32.9367, 16.6357, 7.64036, -64.468, -6.99833
0.724, -1, -1.27614, 32.8715, 16.6602, 7.75718, -64.3312, -7.08577
0.728, -1, -1.20293, 32.8065, 16.6846, 7.87375, -64.1947, -7.17303
0.732, -1, -1.12989, 32.7417, 16.709, 7.99007, -64.0585, -7.2601
0.736, -1, -1.057, 32.677, 16.7333, 8.10615, -63.9226, -7.34699
0.74, -1, -0.984259, 32.6124, 16.7576, 8.22197, -63.7869, -7.43369
0.744, -1, -0.911678, 32.5479, 16.7819, 8.33755, -63.6516, -7.52021
0.748, -1, -0.839252, 32.4836, 16.8061, 8.45288, -63.5166, -7.60653
0.752, -1, -0.766981, 32.4194, 16.8302, 8.56796, -63.3818, -7.69268
0.756, -1, -0.694864, 32.3554, 16.8543, 8.6828, -63.2474, -7.77864
0.76, -1, -0.622901, 32.2915, 16.8783, 8.79738, -63.1132, -7.86441
0.764, -1, -0.551092, 32.2277, 16.9023, 8.91172, -62.9793, -7.95
0.768, -1, -0.479437, 32.1641, 16.9262, 9.02582, -62.8457, -8.0354
0.772, -1, -0.407935, 32.1006, 16.9501, 9.13966, -62.7124, -8.12062
0.776, -1, -0.336586, 32.0373, 16.9739, 9.25326, -62.5794, -8.20566
0.78, -1, -0.26539, 31.9741, 16.9977, 9.36662, -62.4467, -8.29051
0.784, -1, -0.194346, 31.911, 17.0214, 9.47973, -62.3142, -8.37518
0.788, -1, -0.123455, 31.848, 17.0451, 9.5926, -62.182, -8.45966
0.792, -1, -0.0527154, 31.7852, 17.0687, 9.70522, -62.0502, -8.54397
0.796, -1, 0.0178725, 31.7226, 17.0923, 9.81761, -61.9186, -8.62809
0.8, -1, 0.0883091, 31.66, 17.1158, 9.92975, -61.7873, -8.71204
0.804, -1, 0.158595, 31.5976, 17.1393, 10.0417, -61.6562, -8.7958
0.808, -1, 0.22873, 31.5353, 17.1627, 10.1533, -61.5255, -8.87938
0.812, -1, 0.298716, 31.4732, 17.186, 10.2647, -61.395, -8.96279
0.816, -1, 0.368552, 31.4112, 17.2094, 10.3759, -61.2648, -9.04602
0.82, -1, 0.438239, 31.3493, 17.2326, 10.4869, -61.1349, -9.12907
0.824, -1, 0.507778, 31.2876, 17.2559, 10.5976, -61.0053, -9.21194
0.828, -1, 0.577169, 31.226, 17.279, 10.7081, -60.8759, -9.29464
0.832, -1, 0.646413, 31.1645, 17.3021, 10.8183, -60.7468, -9.37716
0.836, -1, 0.71551, 31.1031, 17.3252, 10.9283, -60.618, -9.45951
0.84, -1, 0.78446, 31.0419, 17.3482, 11.0381, -60.4895, -9.54168
0.844, -1, 0.853265, 30.9808, 17.3712, 11.1476, -60.3612, -9.62368
0.848, -1, 0.921925, 30.9199, 17.3941, 11.2569, -60.2332, -9.7055
0.852, -1, 0.990441, 30.859, 17.417, 11.366, -60.1055, -9.78716
0.856, -1, 1.05881, 30.7983, 17.4398, 11.4749, -59.9781, -9.86864
0.86, -1, 1.12704, 30.7378, 17.4626, 11.5835, -59.8509, -9.94995
0.864, -1, 1.19512, 30.6773, 17.4854, 11.6919, -59.7239, -10.0311
0.868, -1, 1.26307, 30.617, 17.508, 11.8001, -59.5973, -10.1121
0.872, -1, 1.33087, 30.5568, 17.5307, 11.908, -59.4709, -10.1929
0.876, -1, 1.39853, 30.4967, 17.5533, 12.0157, -59.3448, -10.2735
0.88, -1, 1.46604, 30.4368, 17.5758, 12.1232, -59.2189, -10.354
0.884, -1, 1.53342, 30.377, 17.5983, 12.2305, -59.0933, -10.4343
0.888, -1, 1.60066, 30.3173, 17.6208, 12.3375, -58.9679, -10.5144
0.892, -1, 1.66775, 30.2577, 17.6432, 12.4444, -58.8429, -10.5943
0.896, -1, 1.73471, 30.1982, 17.6655, 12.551, -58.718, -10.6741
0.9, -1, 1.80153, 30.1389, 17.6878, 12.6574, -58.5935, -10.7538
0.904, -1, 1.86821, 30.0797, 17.7101, 12.7635, -58.4692, -10.8332
0.908, -1, 1.93476, 30.0206, 17.7323, 12.8695, -58.3451, -10.9125
0.912, -1, 2.00117, 29.9617, 17.7545, 12.9752, -58.2213, -10.9917
0.916, -1, 2.06744, 29.9028, 17.7766, 13.0807, -58.0978, -11.0707
0.92, -1, 2.13357, 29.8441, 17.7987, 13.186, -57.9745, -11.1495
0.924, -1, 2.19957, 29.7855, 17.8207, 13.2911, -57.8514, -11.2281
0.928, -1, 2.26543, 29.727, 17.8427, 13.3959, -57.7287, -11.3066
0.932, -1, 2.33116, 29.6687, 17.8647, 13.5006, -57.6061, -11.385
0.936, -1, 2.39676, 29.6104, 17.8866, 13.605, -57.4838, -11.4631
0.94, -1, 2.46222, 29.5523, 17.9084, 13.7092, -57.3618, -11.5412
0.944, -1, 2.52755, 29.4943, 17.9303, 13.8133, -57.24, -11.619
0.948, -1, 2.59275, 29.4364, 17.952, 13.9171, -57.1185, -11.6967
0.952, -1, 2.65781, 29.3787, 17.9738, 14.0206, -56.9972, -11.7743
0.956, -1, 2.72274, 29.321, 17.9954, 14.124, -56.8761, -11.8516
0.96, -1, 2.78755, 29.2635, 18.0171, 14.2272, -56.7553, -11.9289
0.964, -1, 2.85222, 29.2061, 18.0387, 14.3302, -56.6348, -12.0059
0.968, -1, 2.91676, 29.1488, 18.0602, 14.4329, -56.5144, -12.0829
0.972, -1, 2.98117, 29.0916, 18.0817, 14.5355, -56.3944, -12.1596
0.976, -1, 3.04545, 29.0345, 18.1032, 14.6378, -56.2745, -12.2362
0.98, -1, 3.10961, 28.9775, 18.1246, 14.7399, -56.1549, -12.3127
0.984, -1, 3.17363, 28.9207, 18.146, 14.8419, -56.0356, -12.389
0.988, -1, 3.23753, 28.864, 18.1673, 14.9436, -55.9165, -12.4651
0.992, -1, 3.3013, 28.8074, 18.1886, 15.0451, -55.7976, -12.5411
0.996, -1, 3.36494, 28.7508, 18.2099, 15.1465, -55.6789, -12.617
1, -1, 3.42846, 28.6945, 18.2311, 15.2476, -55.5605, -12.6927
1.004, -1, 3.49185, 28.6382, 18.2523, 15.3485, -55.4423, -12.7682
1.008, -1, 3.55512, 28.582, 18.2734, 15.4492, -55.3244, -12.8436
1.012, -1, 3.61826, 28.5259, 18.2945, 15.5498, -55.2067, -12.9189
1.016, -1, 3.68127, 28.47, 18.3155, 15.6501, -55.0892, -12.994
1.02, -1, 3.74416, 28.4142, 18.3365, 15.7502, -54.972, -13.0689
1.024, -1, 3.80693, 28.3584, 18.3575, 15.8502, -54.855, -13.1437
1.027, -1, 3.86958, 28.3028, 18.3784, 15.9499, -54.7382, -13.2184
1.032, -1, 3.9321, 28.2473, 18.3993, 16.0494, -54.6216, -13.2929
1.036, -1, 3.9945, 28.1919, 18.4201, 16.1488, -54.5053, -13.3673
1.04, -1, 4.05678, 28.1366, 18.4409, 16.2479, -54.3892, -13.4415
1.044, -1, 4.11893, 28.0814, 18.4616, 16.3469, -54.2733, -13.5156
1.048, -1, 4.18097, 28.0263, 18.4824, 16.4457, -54.1577, -13.5895
1.052, -1, 4.24289, 27.9714, 18.503, 16.5442, -54.0422, -13.6633
1.055, -1, 4.30468, 27.9165, 18.5237, 16.6426, -53.927, -13.7369
1.06, -1, 4.36636, 27.8617, 18.5443, 16.7408, -53.8121, -13.8104
1.064, -1, 4.42792, 27.8071, 18.5648, 16.8388, -53.6973, -13.8838
1.068, -1, 4.48936, 27.7525, 18.5853, 16.9366, -53.5828, -13.957
1.072, -1, 4.55068, 27.6981, 18.6058, 17.0343, -53.4685, -14.0301
1.076, -1, 4.61188, 27.6438, 18.6262, 17.1317, -53.3544, -14.103
1.08, -1, 4.67297, 27.5895, 18.6466, 17.229, -53.2405, -14.1758
1.084, -1, 4.73394, 27.5354, 18.667, 17.326, -53.1268, -14.2485
1.088, -1, 4.7948, 27.4814, 18.6873, 17.4229, -53.0134, -14.321
1.091, -1, 4.85554, 27.4274, 18.7076, 17.5196, -52.9002, -14.3934
1.096, -1, 4.91617, 27.3736, 18.7278, 17.6161, -52.7871, -14.4656
1.1, -1, 4.97668, 27.3199, 18.7481, 17.7125, -52.6743, -14.5378
1.104, -1, 5.03708, 27.2663, 18.7682, 17.8086, -52.5618, -14.6097
1.108, -1, 5.09737, 27.2127, 18.7883, 17.9046, -52.4494, -14.6816
1.112, -1, 5.15754, 27.1593, 18.8084, 18.0004, -52.3372, -14.7533
1.116, -1, 5.2176, 27.106, 18.8285, 18.096, -52.2253, -14.8249
1.119, -1, 5.27755, 27.0528, 18.8485, 18.1915, -52.1135, -14.8963
1.124, -1, 5.33739, 26.9996, 18.8685, 18.2867, -52.0019, -14.9676
1.128, -1, 5.39712, 26.9466, 18.8884, 18.3818, -51.8906, -15.0388
1.132, -1, 5.45673, 26.8937, 18.9083, 18.4767, -51.7795, -15.1098
1.136, -1, 5.51624, 26.8408, 18.9282, 18.5715, -51.6685, -15.1807
1.14, -1, 5.57564, 26.7881, 18.948, 18.666, -51.5578, -15.2515
1.144, -1, 5.63493, 26.7355, 18.9678, 18.7604, -51.4473, -15.3222
1.147, -1, 5.69412, 26.6829, 18.9876, 18.8547, -51.337, -15.3927
1.152, -1, 5.75319, 26.6305, 19.0073, 18.9487, -51.2268, -15.4631
1.156, -1, 5.81216, 26.5781, 19.027, 19.0426, -51.1169, -15.5334
1.16, -1, 5.87103, 26.5259, 19.0467, 19.1363, -51.0072, -15.6035
1.164, -1, 5.92979, 26.4737, 19.0663, 19.2298, -50.8976, -15.6736
1.168, -1, 5.98844, 26.4216, 19.0859, 19.3232, -50.7883, -15.7435
1.172, -1, 6.04699, 26.3696, 19.1054, 19.4164, -50.6792, -15.8132
1.175, -1, 6.10543, 26.3177, 19.1249, 19.5095, -50.5702, -15.8829
1.18, -1, 6.16377, 26.266, 19.1444, 19.6024, -50.4614, -15.9524
1.184, -1, 6.22201, 26.2142, 19.1639, 19.6951, -50.3529, -16.0218
1.188, -1, 6.28015, 26.1626, 19.1833, 19.7876, -50.2445, -16.0911
1.192, -1, 6.33818, 26.1111, 19.2027, 19.88, -50.1363, -16.1603
1.196, -1, 6.39611, 26.0597, 19.222, 19.9723, -50.0283, -16.2293
1.2, -1, 6.45394, 26.0083, 19.2413, 20.0643, -49.9205, -16.2982
1.204, -1, 6.51167, 25.9571, 19.2606, 20.1562, -49.8129, -16.367
1.208, -1, 6.5693, 25.9059, 19.2798, 20.248, -49.7055, -16.4357
1.212, -1, 6.62683, 25.8548, 19.299, 20.3396, -49.5982, -16.5042
1.216, -1, 6.68426, 25.8038, 19.3182, 20.431, -49.4912, -16.5727
1.22, -1, 6.74159, 25.7529, 19.3374, 20.5223, -49.3843, -16.641
1.224, -1, 6.79882, 25.7021, 19.3565, 20.6134, -49.2776, -16.7092
1.228, -1, 6.85596, 25.6514, 19.3756, 20.7044, -49.1711, -16.7773
1.232, -1, 6.91299, 25.6008, 19.3946, 20.7952, -49.0648, -16.8453
1.236, -1, 6.96993, 25.5502, 19.4136, 20.8858, -48.9586, -16.9131
1.24, -1, 7.02678, 25.4997, 19.4326, 20.9763, -48.8526, -16.9809
1.244, -1, 7.08352, 25.4494, 19.4515, 21.0667, -48.7469, -17.0485
1.248, -1, 7.14018, 25.3991, 19.4705, 21.1569, -48.6413, -17.116
1.252, -1, 7.19673, 25.3488, 19.4893, 21.2469, -48.5358, -17.1834
1.256, -1, 7.25319, 25.2987, 19.5082, 21.3368, -48.4306, -17.2507
1.26, -1, 7.30956, 25.2487, 19.527, 21.4266, -48.3255, -17.3179
1.264, -1, 7.36583, 25.1987, 19.5458, 21.5161, -48.2206, -17.385
1.267, -1, 7.42201, 25.1488, 19.5646, 21.6056, -48.1158, -17.4519
1.272, -1, 7.4781, 25.099, 19.5833, 21.6949, -48.0113, -17.5188
1.276, -1, 7.53409, 25.0493, 19.602, 21.784, -47.9069, -17.5855
1.28, -1, 7.58999, 24.9997, 19.6207, 21.873, -47.8027, -17.6521
1.284, -1, 7.6458, 24.9501, 19.6393, 21.9619, -47.6986, -17.7186
1.288, -1, 7.70152, 24.9007, 19.6579, 22.0506, -47.5948, -17.785
1.292, -1, 7.75715, 24.8513, 19.6765, 22.1392, -47.4911, -17.8513
1.295, -1, 7.81268, 24.802, 19.695, 22.2276, -47.3875, -17.9175
1.3, -1, 7.86813, 24.7528, 19.7135, 22.3159, -47.2842, -17.9836
1.304, -1, 7.92348, 24.7036, 19.732, 22.404, -47.181, -18.0496
1.308, -1, 7.97875, 24.6545, 19.7505, 22.492, -47.0779, -18.1154
1.312, -1, 8.03393, 24.6055, 19.7689, 22.5798, -46.9751, -18.1812
1.316, -1, 8.08901, 24.5566, 19.7873, 22.6675, -46.8724, -18.2468
1.32, -1, 8.14401, 24.5078, 19.8057, 22.7551, -46.7699, -18.3124
1.324, -1, 8.19893, 24.4591, 19.824, 22.8425, -46.6675, -18.3778
1.328, -1, 8.25375, 24.4104, 19.8423, 22.9298, -46.5653, -18.4432
1.332, -1, 8.30849, 24.3618, 19.8606, 23.017, -46.4632, -18.5084
1.336, -1, 8.36314, 24.3133, 19.8788, 23.104, -46.3614, -18.5735
1.34, -1, 8.4177, 24.2648, 19.8971, 23.1909, -46.2596, -18.6386
1.344, -1, 8.47218, 24.2165, 19.9153, 23.2776, -46.1581, -18.7035
1.348, -1, 8.52657, 24.1682, 19.9334, 23.3642, -46.0567, -18.7683
1.352, -1, 8.58088, 24.1199, 19.9515, 23.4507, -45.9554, -18.833
1.356, -1, 8.6351, 24.0718, 19.9697, 23.537, -45.8543, -18.8976
1.36, -1, 8.68923, 24.0237, 19.9877, 23.6232, -45.7534, -18.9622
1.364, -1, 8.74328, 23.9757, 20.0058, 23.7092, -45.6526, -19.0266
1.368, -1, 8.79725, 23.9278, 20.0238, 23.7952, -45.552, -19.0909
1.372, -1, 8.85114, 23.88, 20.0418, 23.881, -45.4516, -19.1551
1.376, -1, 8.90494, 23.8322, 20.0598, 23.9666, -45.3513, -19.2192
1.38, -1, 8.95866, 23.7845, 20.0777, 24.0521, -45.2511, -19.2833
1.384, -1, 9.01229, 23.7369, 20.0956, 24.1375, -45.1511, -19.3472
1.388, -1, 9.06584, 23.6894, 20.1135, 24.2228, -45.0513, -19.411
1.392, -1, 9.11932, 23.6419, 20.1314, 24.3079, -44.9516, -19.4747
1.396, -1, 9.1727, 23.5945, 20.1492, 24.393, -44.8521, -19.5384
1.4, -1, 9.22601, 23.5472, 20.167, 24.4778, -44.7527, -19.6019
1.404, -1, 9.27924, 23.4999, 20.1848, 24.5626, -44.6535, -19.6653
1.408, -1, 9.33239, 23.4527, 20.2025, 24.6472, -44.5544, -19.7287
1.412, -1, 9.38546, 23.4056, 20.2202, 24.7317, -44.4554, -19.7919
1.416, -1, 9.43844, 23.3585, 20.2379, 24.8161, -44.3567, -19.8551
1.42, -1, 9.49135, 23.3116, 20.2556, 24.9003, -44.258, -19.9181
1.424, -1, 9.54418, 23.2647, 20.2732, 24.9844, -44.1595, -19.9811
1.428, -1, 9.59693, 23.2178, 20.2908, 25.0684, -44.0612, -20.044
1.432, -1, 9.6496, 23.1711, 20.3084, 25.1523, -43.963, -20.1067
1.436, -1, 9.7022, 23.1244, 20.326, 25.236, -43.865, -20.1694
1.44, -1, 9.75472, 23.0777, 20.3435, 25.3196, -43.767, -20.232
1.444, -1, 9.80716, 23.0312, 20.361, 25.4031, -43.6693, -20.2945
1.448, -1, 9.85952, 22.9847, 20.3785, 25.4865, -43.5717, -20.3569
1.452, -1, 9.91181, 22.9383, 20.396, 25.5697, -43.4742, -20.4192
1.456, -1, 9.96403, 22.8919, 20.4134, 25.6528, -43.3769, -20.4814
1.46, -1, 10.0162, 22.8456, 20.4308, 25.7358, -43.2797, -20.5436
1.464, -1, 10.0682, 22.7994, 20.4482, 25.8187, -43.1826, -20.6056
1.468, -1, 10.1202, 22.7533, 20.4656, 25.9015, -43.0857, -20.6676
1.472, -1, 10.1721, 22.7072, 20.4829, 25.9841, -42.989, -20.7294
1.476, -1, 10.224, 22.6612, 20.5002, 26.0666, -42.8923, -20.7912
1.48, -1, 10.2757, 22.6152, 20.5175, 26.149, -42.7958, -20.8529
1.484, -1, 10.3274, 22.5693, 20.5348, 26.2313, -42.6995, -20.9145
1.488, -1, 10.379, 22.5235, 20.552, 26.3135, -42.6033, -20.976
1.492, -1, 10.4306, 22.4777, 20.5692, 26.3956, -42.5072, -21.0374
1.496, -1, 10.482, 22.432, 20.5864, 26.4775, -42.4113, -21.0987
1.5, -1, 10.5334, 22.3864, 20.6035, 26.5593, -42.3154, -21.16
1.504, -1, 10.5848, 22.3408, 20.6207, 26.641, -42.2198, -21.2212
1.508, -1, 10.636, 22.2953, 20.6378, 26.7226, -42.1242, -21.2822
1.512, -1, 10.6872, 22.2499, 20.6549, 26.8041, -42.0288, -21.3432
1.516, -1, 10.7383, 22.2045, 20.6719, 26.8855, -41.9336, -21.4041
1.52, -1, 10.7893, 22.1592, 20.689, 26.9667, -41.8384, -21.4649
1.524, -1, 10.8403, 22.114, 20.706, 27.0479, -41.7434, -21.5257
1.528, -1, 10.8912, 22.0688, 20.723, 27.1289, -41.6485, -21.5863
1.532, -1, 10.942, 22.0237, 20.74, 27.2098, -41.5538, -21.6469
1.536, -1, 10.9928, 21.9786, 20.7569, 27.2906, -41.4592, -21.7074
1.54, -1, 11.0435, 21.9336, 20.7738, 27.3713, -41.3647, -21.7678
1.544, -1, 11.0941, 21.8887, 20.7908, 27.4519, -41.2703, -21.8281
1.548, -1, 11.1446, 21.8438, 20.8076, 27.5324, -41.1761, -21.8884
1.552, -1, 11.1951, 21.799, 20.8245, 27.6127, -41.082, -21.9485
1.556, -1, 11.2455, 21.7542, 20.8413, 27.693, -40.988, -22.0086
1.56, -1, 11.2959, 21.7095, 20.8581, 27.7732, -40.8941, -22.0686
1.564, -1, 11.3462, 21.6649, 20.8749, 27.8532, -40.8004, -22.1285
1.568, -1, 11.3964, 21.6203, 20.8917, 27.9331, -40.7068, -22.1884
1.572, -1, 11.4465, 21.5758, 20.9084, 28.013, -40.6133, -22.2481
1.576, -1, 11.4966, 21.5313, 20.9251, 28.0927, -40.52, -22.3078
1.58, -1, 11.5466, 21.4869, 20.9418, 28.1723, -40.4268, -22.3674
1.584, -1, 11.5965, 21.4426, 20.9585, 28.2518, -40.3336, -22.4269
1.588, -1, 11.6464, 21.3983, 20.9752, 28.3313, -40.2407, -22.4864
1.592, -1, 11.6962, 21.3541, 20.9918, 28.4106, -40.1478, -22.5457
1.596, -1, 11.746, 21.3099, 21.0084, 28.4898, -40.0551, -22.605
1.6, -1, 11.7957, 21.2658, 21.025, 28.5689, -39.9624, -22.6642
1.604, -1, 11.8453, 21.2217, 21.0416, 28.6479, -39.8699, -22.7234
1.608, -1, 11.8948, 21.1778, 21.0581, 28.7268, -39.7776, -22.7824
1.612, -1, 11.9443, 21.1338, 21.0747, 28.8055, -39.6853, -22.8414
1.616, -1, 11.9938, 21.0899, 21.0912, 28.8842, -39.5932, -22.9003
1.62, -1, 12.0431, 21.0461, 21.1076, 28.9628, -39.5011, -22.9591
1.624, -1, 12.0924, 21.0023, 21.1241, 29.0413, -39.4092, -23.0179
1.628, -1, 12.1417, 20.9586, 21.1405, 29.1197, -39.3174, -23.0765
1.632, -1, 12.1908, 20.915, 21.157, 29.198, -39.2258, -23.1352
1.636, -1, 12.2399, 20.8714, 21.1734, 29.2762, -39.1342, -23.1937
1.64, -1, 12.289, 20.8278, 21.1897, 29.3543, -39.0428, -23.2521
1.644, -1, 12.338, 20.7843, 21.2061, 29.4323, -38.9515, -23.3105
1.648, -1, 12.3869, 20.7409, 21.2224, 29.5102, -38.8603, -23.3688
1.652, -1, 12.4358, 20.6975, 21.2388, 29.588, -38.7692, -23.4271
1.656, -1, 12.4846, 20.6542, 21.2551, 29.6657, -38.6782, -23.4852
1.66, -1, 12.5333, 20.6109, 21.2713, 29.7433, -38.5873, -23.5433
1.664, -1, 12.582, 20.5677, 21.2876, 29.8208, -38.4966, -23.6013
1.668, -1, 12.6306, 20.5245, 21.3038, 29.8982, -38.4059, -23.6593
1.672, -1, 12.6792, 20.4814, 21.32, 29.9755, -38.3154, -23.7171
1.676, -1, 12.7277, 20.4384, 21.3362, 30.0527, -38.225, -23.7749
1.68, -1, 12.7761, 20.3953, 21.3524, 30.1298, -38.1347, -23.8327
1.684, -1, 12.8245, 20.3524, 21.3686, 30.2069, -38.0445, -23.8903
1.688, -1, 12.8728, 20.3095, 21.3847, 30.2838, -37.9544, -23.9479
1.692, -1, 12.9211, 20.2666, 21.4008, 30.3606, -37.8644, -24.0054
1.696, -1, 12.9693, 20.2238, 21.4169, 30.4374, -37.7746, -24.0629
1.7, -1, 13.0174, 20.1811, 21.433, 30.514, -37.6848, -24.1203
1.704, -1, 13.0655, 20.1384, 21.449, 30.5906, -37.5951, -24.1776
1.708, -1, 13.1136, 20.0958, 21.4651, 30.6671, -37.5056, -24.2348
1.712, -1, 13.1615, 20.0532, 21.4811, 30.7435, -37.4162, -24.292
1.716, -1, 13.2094, 20.0106, 21.4971, 30.8197, -37.3269, -24.3491
1.72, -1, 13.2573, 19.9681, 21.5131, 30.8959, -37.2376, -24.4061
1.724, -1, 13.3051, 19.9257, 21.529, 30.972, -37.1485, -24.4631
1.728, -1, 13.3528, 19.8833, 21.545, 31.0481, -37.0595, -24.52
1.732, -1, 13.4005, 19.841, 21.5609, 31.124, -36.9706, -24.5768
1.736, -1, 13.4482, 19.7987, 21.5768, 31.1998, -36.8818, -24.6336
1.74, -1, 13.4957, 19.7565, 21.5927, 31.2756, -36.7931, -24.6903
1.744, -1, 13.5433, 19.7143, 21.6086, 31.3512, -36.7045, -24.7469
1.748, -1, 13.5907, 19.6721, 21.6244, 31.4268, -36.6161, -24.8035
1.752, -1, 13.6381, 19.63, 21.6402, 31.5023, -36.5277, -24.86
1.756, -1, 13.6855, 19.588, 21.6561, 31.5776, -36.4394, -24.9164
1.76, -1, 13.7328, 19.546, 21.6719, 31.6529, -36.3512, -24.9728
1.764, -1, 13.78, 19.5041, 21.6876, 31.7282, -36.2632, -25.0291
1.768, -1, 13.8272, 19.4622, 21.7034, 31.8033, -36.1752, -25.0853
1.772, -1, 13.8743, 19.4203, 21.7191, 31.8783, -36.0873, -25.1415
1.776, -1, 13.9214, 19.3785, 21.7348, 31.9533, -35.9996, -25.1976
1.78, -1, 13.9684, 19.3368, 21.7505, 32.0281, -35.9119, -25.2536
1.784, -1, 14.0154, 19.2951, 21.7662, 32.1029, -35.8243, -25.3096
1.788, -1, 14.0623, 19.2534, 21.7819, 32.1776, -35.7369, -25.3655
1.792, -1, 14.1092, 19.2118, 21.7975, 32.2522, -35.6495, -25.4214
1.796, -1, 14.156, 19.1703, 21.8132, 32.3268, -35.5622, -25.4772
1.8, -1, 14.2027, 19.1288, 21.8288, 32.4012, -35.4751, -25.5329
1.804, -1, 14.2494, 19.0873, 21.8444, 32.4756, -35.388, -25.5886
1.808, -1, 14.2961, 19.0459, 21.86, 32.5498, -35.301, -25.6442
1.812, -1, 14.3427, 19.0045, 21.8755, 32.624, -35.2142, -25.6997
1.816, -1, 14.3892, 18.9632, 21.8911, 32.6981, -35.1274, -25.7552
1.82, -1, 14.4357, 18.9219, 21.9066, 32.7722, -35.0407, -25.8106
1.824, -1, 14.4822, 18.8807, 21.9221, 32.8461, -34.9541, -25.8659
1.828, -1, 14.5286, 18.8395, 21.9376, 32.92, -34.8676, -25.9212
1.832, -1, 14.5749, 18.7983, 21.9531, 32.9938, -34.7813, -25.9764
1.836, -1, 14.6212, 18.7572, 21.9685, 33.0675, -34.695, -26.0316
1.84, -1, 14.6674, 18.7162, 21.984, 33.1411, -34.6088, -26.0867
1.844, -1, 14.7136, 18.6752, 21.9994, 33.2146, -34.5227, -26.1418
1.848, -1, 14.7598, 18.6342, 22.0148, 33.2881, -34.4367, -26.1967
1.852, -1, 14.8058, 18.5933, 22.0302, 33.3614, -34.3507, -26.2517
1.856, -1, 14.8519, 18.5524, 22.0456, 33.4347, -34.2649, -26.3065
1.86, -1, 14.8979, 18.5116, 22.0609, 33.5079, -34.1792, -26.3613
1.864, -1, 14.9438, 18.4708, 22.0762, 33.5811, -34.0936, -26.4161
1.868, -1, 14.9897, 18.4301, 22.0916, 33.6541, -34.008, -26.4708
1.872, -1, 15.0355, 18.3894, 22.1069, 33.7271, -33.9226, -26.5254
1.876, -1, 15.0813, 18.3487, 22.1222, 33.8, -33.8372, -26.58
1.88, -1, 15.127, 18.3081, 22.1374, 33.8728, -33.7519, -26.6345
1.884, -1, 15.1727, 18.2676, 22.1527, 33.9456, -33.6668, -26.6889
1.888, -1, 15.2184, 18.227, 22.1679, 34.0182, -33.5817, -26.7433
1.892, -1, 15.264, 18.1866, 22.1832, 34.0908, -33.4967, -26.7976
1.896, -1, 15.3095, 18.1461, 22.1984, 34.1633, -33.4118, -26.8519
1.9, -1, 15.355, 18.1057, 22.2136, 34.2358, -33.3269, -26.9062
1.904, -1, 15.4004, 18.0654, 22.2287, 34.3081, -33.2422, -26.9603
1.908, -1, 15.4458, 18.0251, 22.2439, 34.3804, -33.1576, -27.0144
1.912, -1, 15.4912, 17.9848, 22.259, 34.4526, -33.073, -27.0685
1.916, -1, 15.5365, 17.9446, 22.2742, 34.5248, -32.9886, -27.1225
1.92, -1, 15.5818, 17.9044, 22.2893, 34.5968, -32.9042, -27.1764
1.924, -1, 15.627, 17.8643, 22.3044, 34.6688, -32.8199, -27.2303
1.928, -1, 15.6721, 17.8242, 22.3195, 34.7407, -32.7357, -27.2841
1.932, -1, 15.7173, 17.7841, 22.3345, 34.8126, -32.6516, -27.3379
1.936, -1, 15.7623, 17.7441, 22.3496, 34.8843, -32.5676, -27.3916
1.94, -1, 15.8073, 17.7041, 22.3646, 34.956, -32.4836, -27.4453
1.944, -1, 15.8523, 17.6642, 22.3796, 35.0276, -32.3997, -27.4989
1.948, -1, 15.8973, 17.6243, 22.3946, 35.0992, -32.316, -27.5524
1.952, -1, 15.9422, 17.5844, 22.4096, 35.1707, -32.2323, -27.6059
1.956, -1, 15.987, 17.5446, 22.4246, 35.2421, -32.1487, -27.6594
1.96, -1, 16.0318, 17.5048, 22.4396, 35.3134, -32.0652, -27.7128
1.964, -1, 16.0765, 17.4651, 22.4545, 35.3846, -31.9817, -27.7661
1.968, -1, 16.1212, 17.4254, 22.4694, 35.4558, -31.8984, -27.8194
1.972, -1, 16.1659, 17.3858, 22.4844, 35.5269, -31.8151, -27.8726
1.976, -1, 16.2105, 17.3461, 22.4993, 35.598, -31.7319, -27.9258
1.98, -1, 16.2551, 17.3066, 22.5141, 35.6689, -31.6488, -27.9789
1.984, -1, 16.2996, 17.267, 22.529, 35.7398, -31.5658, -28.032
1.988, -1, 16.3441, 17.2275, 22.5439, 35.8107, -31.4829, -28.085
1.992, -1, 16.3886, 17.1881, 22.5587, 35.8814, -31.4, -28.138
1.996, -1, 16.433, 17.1487, 22.5735, 35.9521, -31.3173, -28.1909
1.999, -1, 16.4773, 17.1093, 22.5883, 36.0228, -31.2346, -28.2438
2.004, -1, 16.5216, 17.0699, 22.6031, 36.0933, -31.1519, -28.2966
2.008, -1, 16.5659, 17.0306, 22.6179, 36.1638, -31.0694, -28.3493
2.012, -1, 16.6101, 16.9914, 22.6327, 36.2342, -30.987, -28.4021
2.015, -1, 16.6543, 16.9521, 22.6474, 36.3046, -30.9046, -28.4547
2.019, -1, 16.6984, 16.9129, 22.6622, 36.3748, -30.8223, -28.5073
2.024, -1, 16.7425, 16.8738, 22.6769, 36.445, -30.7401, -28.5599
2.028, -1, 16.7866, 16.8347, 22.6916, 36.5152, -30.658, -28.6124
2.031, -1, 16.8306, 16.7956, 22.7063, 36.5853, -30.5759, -28.6648
2.036, -1, 16.8746, 16.7566, 22.721, 36.6553, -30.4939, -28.7172
2.04, -1, 16.9185, 16.7176, 22.7357, 36.7252, -30.412, -28.7696
2.044, -1, 16.9624, 16.6786, 22.7503, 36.7951, -30.3302, -28.8219
2.048, -1, 17.0062, 16.6397, 22.765, 36.8649, -30.2485, -28.8742
2.051, -1, 17.05, 16.6008, 22.7796, 36.9346, -30.1668, -28.9264
2.055, -1, 17.0938, 16.5619, 22.7942, 37.0043, -30.0852, -28.9785
2.06, -1, 17.1375, 16.5231, 22.8088, 37.0739, -30.0037, -29.0306
2.064, -1, 17.1811, 16.4844, 22.8234, 37.1435, -29.9223, -29.0827
2.068, -1, 17.2244, 16.4458, 22.8379, 37.2129, -29.841, -29.1347
2.071, -1, 17.2671, 16.4077, 22.8523, 37.2823, -29.7597, -29.1866
2.076, -1, 17.3088, 16.3701, 22.8666, 37.3515, -29.6787, -29.2384
2.08, -1, 17.3495, 16.3335, 22.8807, 37.4204, -29.5981, -29.29
2.084, -1, 17.3888, 16.2979, 22.8945, 37.4888, -29.518, -29.3412
2.087, -1, 17.4267, 16.2635, 22.9079, 37.5564, -29.4389, -29.3918
2.092, -1, 17.4632, 16.2306, 22.921, 37.6229, -29.3611, -29.4417
2.096, -1, 17.4983, 16.1992, 22.9337, 37.6879, -29.2851, -29.4903
2.1, -1, 17.5321, 16.1694, 22.9459, 37.7508, -29.2115, -29.5374
2.104, -1, 17.5644, 16.1411, 22.9576, 37.8112, -29.1408, -29.5827
2.107, -1, 17.5951, 16.1145, 22.9686, 37.8686, -29.0737, -29.6257
2.111, -1, 17.624, 16.0896, 22.9791, 37.9226, -29.0106, -29.6661
2.116, -1, 17.6513, 16.0662, 22.9888, 37.9726, -28.9521, -29.7035
2.12, -1, 17.6768, 16.044, 22.9978, 38.0183, -28.8986, -29.7378
2.124, -1, 17.7009, 16.023, 23.0061, 38.0595, -28.8504, -29.7686
2.127, -1, 17.7234, 16.0029, 23.0136, 38.0959, -28.8078, -29.7958
2.132, -1, 17.7446, 15.9838, 23.0205, 38.1275, -28.7707, -29.8195
2.136, -1, 17.7642, 15.9657, 23.0267, 38.1546, -28.739, -29.8397
2.14, -1, 17.7823, 15.9489, 23.0321, 38.1772, -28.7125, -29.8566
2.143, -1, 17.7986, 15.9337, 23.0368, 38.1957, -28.6907, -29.8705
2.148, -1, 17.8131, 15.9202, 23.0409, 38.2106, -28.6732, -29.8816
2.152, -1, 17.8259, 15.9085, 23.0443, 38.2223, -28.6594, -29.8904
2.156, -1, 17.8371, 15.8987, 23.0471, 38.2313, -28.6488, -29.8971
2.16, -1, 17.8467, 15.8905, 23.0494, 38.2381, -28.6409, -29.9021
2.163, -1, 17.855, 15.8838, 23.0513, 38.243, -28.635, -29.9058
2.168, -1, 17.8619, 15.8785, 23.0527, 38.2465, -28.6308, -29.9084
2.172, -1, 17.8674, 15.8744, 23.0538, 38.249, -28.6279, -29.9103
2.176, 2, 17.8716, 15.8714, 23.0546, 38.2507, -28.6258, -29.9115
2.179, 2, 17.8747, 15.8692, 23.0552, 38.2519, -28.6245, -29.9124
2.184, 2, 17.8769, 15.8677, 23.0556, 38.2527, -28.6235, -29.913
2.188, 2, 17.8784, 15.8667, 23.0558, 38.2532, -28.6229, -29.9134
2.192, 2, 17.8794, 15.866, 23.056, 38.2536, -28.6224, -29.9137
2.196, 2, 17.8801, 15.8655, 23.0561, 38.2538, -28.6221, -29.9138
2.199, 2, 17.8806, 15.8652, 23.0562, 38.254, -28.6219, -29.914
2.204, 2, 17.8809, 15.865, 23.0563, 38.2541, -28.6218, -29.9141
2.208, 2, 17.8811, 15.8649, 23.0563, 38.2542, -28.6217, -29.9141
2.212, 2, 17.8813, 15.8648, 23.0563, 38.2543, -28.6217, -29.9141
2.216, 2, 17.8814, 15.8647, 23.0564, 38.2543, -28.6216, -29.9142
2.219, 2, 17.8814, 15.8646, 23.0564, 38.2543, -28.6216, -29.9142
2.224, 2, 17.8815, 15.8646, 23.0564, 38.2543, -28.6216, -29.9142
2.228, 2, 17.8815, 15.8646, 23.0564, 38.2543, -28.6215, -29.9142
2.232, 2, 17.8815, 15.8646, 23.0564, 38.2543, -28.6215, -29.9142
2.235, 2, 17.8815, 15.8646, 23.0564, 38.2544, -28.6215, -29.9142
2.24, 2, 17.8815, 15.8646, 23.0564, 38.2544, -28.6215, -29.9142
2.244, 2, 17.8816, 15.8646, 23.0564, 38.2544, -28.6215, -29.9142
2.248, 2, 17.8816, 15.8646, 23.0564, 38.2544, -28.6215, -29.9142
2.252, 2, 17.8816, 15.8646, 23.0564, 38.2544, -28.6215, -29.9142
2.255, 2, 17.8816, 15.8646, 23.0564, 38.2544, -28.6215, -29.9142
2.259, 2, 17.8816, 15.8646, 23.0564, 38.2544, -28.6215, -29.9142
2.264, 2, 17.8816, 15.8645, 23.0564, 38.2544, -28.6215, -29.9142
2.268, 2, 17.8816, 15.8645, 23.0564, 38.2544, -28.6215, -29.9142
2.272, 2, 17.8816, 15.8645, 23.0564, 38.2544, -28.6215, -29.9142
2.275, 2, 17.8816, 15.8645, 23.0564, 38.2544, -28.6215, -29.9142
2.28, 2, 17.8816, 15.8645, 23.0564, 38.2544, -28.6215, -29.9142
2.284, 2, 17.8816, 15.8645, 23.0564, 38.2544, -28.6215, -29.9142
2.288, 2, 17.8816, 15.8645, 23.0564, 38.2544, -28.6215, -29.9142
2.291, 2, 17.8816, 15.8645, 23.0564, 38.2544, -28.6215, -29.9142
2.296, 2, 17.8816, 15.8645, 23.0564, 38.2544, -28.6215, -29.9142
2.3, 2, 17.8816, 15.8645, 23.0564, 38.2544, -28.6215, -29.9142
2.304, 2, 17.8816, 15.8645, 23.0564, 38.2544, -28.6215, -29.9142
2.308, 2, 17.8816, 15.8645, 23.0564, 38.2544, -28.6215, -29.9142
2.311, 2, 17.8816, 15.8645, 23.0564, 38.2544, -28.6215, -29.9142
2.316, 2, 17.8816, 15.8645, 23.0564, 38.2544, -28.6215, -29.9142
2.32, 2, 17.8816, 15.8645, 23.0564, 38.2544, -28.6215, -29.9142
2.324, 2, 17.8816, 15.8645, 23.0564, 38.2544, -28.6215, -29.9142
2.328, 2, 17.8816, 15.8645, 23.0564, 38.2544, -28.6215, -29.9142
2.331, 2, 17.8816, 15.8645, 23.0564, 38.2544, -28.6215, -29.9142
2.336, 2, 17.8816, 15.8645, 23.0564, 38.2544, -28.6215, -29.9142
2.34, 2, 17.8816, 15.8645, 23.0564, 38.2544, -28.6215, -29.9142
2.344, 2, 17.8816, 15.8645, 23.0564, 38.2544, -28.6215, -29.9142
2.347, 2, 17.8816, 15.8645, 23.0564, 38.2544, -28.6215, -29.9142
2.352, 2, 17.8816, 15.8645, 23.0564, 38.2544, -28.6215, -29.9142
2.356, 2, 17.8816, 15.8645, 23.0564, 38.2544, -28.6215, -29.9142
2.36, 2, 17.8816, 15.8645, 23.0564, 38.2544, -28.6215, -29.9142
2.364, 2, 17.8816, 15.8645, 23.0564, 38.2544, -28.6215, -29.9142
2.367, 2, 17.8816, 15.8645, 23.0564, 38.2544, -28.6215, -29.9142
2.372, 2, 17.8816, 15.8645, 23.0564, 38.2544, -28.6215, -29.9142
2.376, 2, 17.8816, 15.8645, 23.0564, 38.2544, -28.6215, -29.9142
2.38, 2, 17.8816, 15.8645, 23.0564, 38.2544, -28.6215, -29.9142
2.383, 2, 17.8816, 15.8645, 23.0564, 38.2544, -28.6215, -29.9142
2.388, 2, 17.8816, 15.8645, 23.0564, 38.2544, -28.6215, -29.9142
2.392, 2, 17.8816, 15.8645, 23.0564, 38.2544, -28.6215, -29.9142
2.396, 2, 17.8816, 15.8645, 23.0564, 38.2544, -28.6215, -29.9142
2.4, 2, 17.8816, 15.8645, 23.0564, 38.2544, -28.6215, -29.9142
2.403, 2, 17.8816, 15.8645, 23.0564, 38.2544, -28.6215, -29.9142
2.408, 2, 17.8816, 15.8645, 23.0564, 38.2544, -28.6215, -29.9142
2.412, 2, 17.8816, 15.8645, 23.0564, 38.2544, -28.6215, -29.9142
2.416, 2, 17.8816, 15.8645, 23.0564, 38.2544, -28.6215, -29.9142
2.42, 2, 17.8816, 15.8645, 23.0564, 38.2544, -28.6215, -29.9142
2.423, 2, 17.8816, 15.8645, 23.0564, 38.2544, -28.6215, -29.9142
2.428, 2, 17.8816, 15.8645, 23.0564, 38.2544, -28.6215, -29.9142
2.432, 2, 17.8816, 15.8645, 23.0564, 38.2544, -28.6215, -29.9142
2.436, 2, 17.8816, 15.8645, 23.0564, 38.2544, -28.6215, -29.9142
2.439, 2, 17.8816, 15.8645, 23.0564, 38.2544, -28.6215, -29.9142
2.444, 2, 17.8816, 15.8645, 23.0564, 38.2544, -28.6215, -29.9142
2.448, 2, 17.8816, 15.8645, 23.0564, 38.2544, -28.6215, -29.9142
2.452, 2, 17.8816, 15.8645, 23.0564, 38.2544, -28.6215, -29.9142
2.456, 2, 17.8816, 15.8645, 23.0564, 38.2544, -28.6215, -29.9142
2.459, 2, 17.8816, 15.8645, 23.0564, 38.2544, -28.6215, -29.9142
2.464, 2, 17.8816, 15.8645, 23.0564, 38.2544, -28.6215, -29.9142
2.468, 2, 17.8816, 15.8645, 23.0564, 38.2544, -28.6215, -29.9142
2.472, 2, 17.8816, 15.8645, 23.0564, 38.2544, -28.6215, -29.9142
2.476, 2, 17.8816, 15.8645, 23.0564, 38.2544, -28.6215, -29.9142
2.479, 2, 17.8816, 15.8645, 23.0564, 38.2544, -28.6215, -29.9142
2.484, 2, 17.8816, 15.8645, 23.0564, 38.2544, -28.6215, -29.9142
2.488, 2, 17.8816, 15.8645, 23.0564, 38.2544, -28.6215, -29.9142
2.492, 2, 17.8816, 15.8645, 23.0564, 38.2544, -28.6215, -29.9142
2.495, 2, 17.8816, 15.8645, 23.0564, 38.2544, -28.6215, -29.9142
2.5, 2, 17.8816, 15.8645, 23.0564, 38.2544, -28.6215, -29.9142
2.504, 2, 17.8816, 15.8645, 23.0564, 38.2544, -28.6215, -29.9142
2.508, 2, 17.8816, 15.8645, 23.0564, 38.2544, -28.6215, -29.9142
2.512, 2, 17.8816, 15.8645, 23.0564, 38.2544, -28.6215, -29.9142
2.515, 2, 17.8816, 15.8645, 23.0564, 38.2544, -28.6215, -29.9142
2.52, 2, 17.8816, 15.8645, 23.0564, 38.2544, -28.6215, -29.9142
2.524, 2, 17.8816, 15.8645, 23.0564, 38.2544, -28.6215, -29.9142
2.528, 2, 17.8816, 15.8645, 23.0564, 38.2544, -28.6215, -29.9142
2.531, 2, 17.8816, 15.8645, 23.0564, 38.2544, -28.6215, -29.9142
2.536, 2, 17.8816, 15.8645, 23.0564, 38.2544, -28.6215, -29.9142
2.54, 2, 17.8816, 15.8645, 23.0564, 38.2544, -28.6215, -29.9142
2.544, 2, 17.8816, 15.8645, 23.0564, 38.2544, -28.6215, -29.9142
2.548, 2, 17.8816, 15.8645, 23.0564, 38.2544, -28.6215, -29.9142
2.551, 2, 17.8816, 15.8645, 23.0564, 38.2544, -28.6215, -29.9142
2.556, 2, 17.8816, 15.8645, 23.0564, 38.2544, -28.6215, -29.9142
2.56, 2, 17.8816, 15.8645, 23.0564, 38.2544, -28.6215, -29.9142
2.564, 2, 17.8816, 15.8645, 23.0564, 38.2544, -28.6215, -29.9142
2.568, 2, 17.8816, 15.8645, 23.0564, 38.2544, -28.6215, -29.9142
2.571, 2, 17.8816, 15.8645, 23.0564, 38.2544, -28.6215, -29.9142
2.576, 2, 17.8816, 15.8645, 23.0564, 38.2544, -28.6215, -29.9142
2.58, 2, 17.8816, 15.8645, 23.0564, 38.2544, -28.6215, -29.9142
2.584, 2, 17.8816, 15.8645, 23.0564, 38.2544, -28.6215, -29.9142
2.587, 2, 17.8816, 15.8645, 23.0564, 38.2544, -28.6215, -29.9142
2.592, 2, 17.8816, 15.8645, 23.0564, 38.2544, -28.6215, -29.9142
2.596, 2, 17.8816, 15.8645, 23.0564, 38.2544, -28.6215, -29.9142
2.6, 2, 17.8816, 15.8645, 23.0564, 38.2544, -28.6215, -29.9142
2.604, 2, 17.8816, 15.8645, 23.0564, 38.2544, -28.6215, -29.9142
2.607, 2, 17.8816, 15.8645, 23.0564, 38.2544, -28.6215, -29.9142
2.612, 2, 17.8816, 15.8645, 23.0564, 38.2544, -28.6215, -29.9142
2.616, 2, 17.8816, 15.8645, 23.0564, 38.2544, -28.6215, -29.9142
2.62, 2, 17.8816, 15.8645, 23.0564, 38.2544, -28.6215, -29.9142
2.624, 2, 17.8816, 15.8645, 23.0564, 38.2544, -28.6215, -29.9142
2.627, 2, 17.8816, 15.8645, 23.0564, 38.2544, -28.6215, -29.9142
2.632, 2, 17.8816, 15.8645, 23.0564, 38.2544, -28.6215, -29.9142
2.636, 2, 17.8816, 15.8645, 23.0564, 38.2544, -28.6215, -29.9142
2.64, 2, 17.8816, 15.8645, 23.0564, 38.2544, -28.6215, -29.9142
2.643, 2, 17.8816, 15.8645, 23.0564, 38.2544, -28.6215, -29.9142
2.648, 2, 17.8816, 15.8645, 23.0564, 38.2544, -28.6215, -29.9142
2.652, 2, 17.8816, 15.8645, 23.0564, 38.2544, -28.6215, -29.9142
2.656, 2, 17.8816, 15.8645, 23.0564, 38.2544, -28.6215, -29.9142
2.66, 2, 17.8816, 15.8645, 23.0564, 38.2544, -28.6215, -29.9142
2.663, 2, 17.8816, 15.8645, 23.0564, 38.2544, -28.6215, -29.9142
2.668, 2, 17.8816, 15.8645, 23.0564, 38.2544, -28.6215, -29.9142
2.672, 2, 17.8816, 15.8645, 23.0564, 38.2544, -28.6215, -29.9142
2.676, 2, 17.8816, 15.8645, 23.0564, 38.2544, -28.6215, -29.9142
2.679, 2, 17.8816, 15.8645, 23.0564, 38.2544, -28.6215, -29.9142
2.684, 2, 17.8816, 15.8645, 23.0564, 38.2544, -28.6215, -29.9142
2.688, 2, 17.8816, 15.8645, 23.0564, 38.2544, -28.6215, -29.9142
2.692, 2, 17.8816, 15.8645, 23.0564, 38.2544, -28.6215, -29.9142
2.696, 2, 17.8816, 15.8645, 23.0564, 38.2544, -28.6215, -29.9142
2.699, 2, 17.8816, 15.8645, 23.0564, 38.2544, -28.6215, -29.9142
2.704, 2, 17.8816, 15.8645, 23.0564, 38.2544, -28.6215, -29.9142
2.708, 2, 17.8816, 15.8645, 23.0564, 38.2544, -28.6215, -29.9142
2.712, 2, 17.8816, 15.8645, 23.0564, 38.2544, -28.6215, -29.9142
2.716, 2, 17.8816, 15.8645, 23.0564, 38.2544, -28.6215, -29.9142
2.719, 2, 17.8816, 15.8645, 23.0564, 38.2544, -28.6215, -29.9142
2.724, 2, 17.8816, 15.8645, 23.0564, 38.2544, -28.6215, -29.9142
2.728, 2, 17.8816, 15.8645, 23.0564, 38.2544, -28.6215, -29.9142
2.732, 2, 17.8816, 15.8645, 23.0564, 38.2544, -28.6215, -29.9142
2.735, 2, 17.8816, 15.8645, 23.0564, 38.2544, -28.6215, -29.9142
2.74, 2, 17.8816, 15.8645, 23.0564, 38.2544, -28.6215, -29.9142
2.744, 2, 17.8816, 15.8645, 23.0564, 38.2544, -28.6215, -29.9142
2.748, 2, 17.8816, 15.8645, 23.0564, 38.2544, -28.6215, -29.9142
2.752, 2, 17.8816, 15.8645, 23.0564, 38.2544, -28.6215, -29.9142
2.755, 2, 17.8816, 15.8645, 23.0564, 38.2544, -28.6215, -29.9142
2.76, 2, 17.8816, 15.8645, 23.0564, 38.2544, -28.6215, -29.9142
2.764, 2, 17.8816, 15.8645, 23.0564, 38.2544, -28.6215, -29.9142
2.768, 2, 17.8816, 15.8645, 23.0564, 38.2544, -28.6215, -29.9142
2.772, 2, 17.8816, 15.8645, 23.0564, 38.2544, -28.6215, -29.9142
2.775, 2, 17.8816, 15.8645, 23.0564, 38.2544, -28.6215, -29.9142
2.78, 2, 17.8816, 15.8645, 23.0564, 38.2544, -28.6215, -29.9142
2.784, 2, 17.8816, 15.8645, 23.0564, 38.2544, -28.6215, -29.9142
2.788, 2, 17.8816, 15.8645, 23.0564, 38.2544, -28.6215, -29.9142
2.791, 2, 17.8816, 15.8645, 23.0564, 38.2544, -28.6215, -29.9142
2.796, 2, 17.8816, 15.8645, 23.0564, 38.2544, -28.6215, -29.9142
2.8, 2, 17.8816, 15.8645, 23.0564, 38.2544, -28.6215, -29.9142
2.804, 2, 17.8816, 15.8645, 23.0564, 38.2544, -28.6215, -29.9142
2.808, 2, 17.8816, 15.8645, 23.0564, 38.2544, -28.6215, -29.9142
2.811, 2, 17.8816, 15.8645, 23.0564, 38.2544, -28.6215, -29.9142
2.816, 2, 17.8816, 15.8645, 23.0564, 38.2544, -28.6215, -29.9142
2.82, 2, 17.8816, 15.8645, 23.0564, 38.2544, -28.6215, -29.9142
2.824, 2, 17.8816, 15.8645, 23.0564, 38.2544, -28.6215, -29.9142
2.828, 2, 17.8816, 15.8645, 23.0564, 38.2544, -28.6215, -29.9142
2.831, 2, 17.8816, 15.8645, 23.0564, 38.2544, -28.6215, -29.9142
2.836, 2, 17.8816, 15.8645, 23.0564, 38.2544, -28.6215, -29.9142
2.84, 2, 17.8816, 15.8645, 23.0564, 38.2544, -28.6215, -29.9142
2.844, 2, 17.8816, 15.8645, 23.0564, 38.2544, -28.6215, -29.9142
2.847, 2, 17.8816, 15.8645, 23.0564, 38.2544, -28.6215, -29.9142
2.852, 2, 17.8816, 15.8645, 23.0564, 38.2544, -28.6215, -29.9142
2.856, 2, 17.8816, 15.8645, 23.0564, 38.2544, -28.6215, -29.9142
2.86, 2, 17.8816, 15.8645, 23.0564, 38.2544, -28.6215, -29.9142
2.864, 2, 17.8816, 15.8645, 23.0564, 38.2544, -28.6215, -29.9142
2.867, 2, 17.8816, 15.8645, 23.0564, 38.2544, -28.6215, -29.9142
2.872, 2, 17.8816, 15.8645, 23.0564, 38.2544, -28.6215, -29.9142
2.876, 2, 17.8816, 15.8645, 23.0564, 38.2544, -28.6215, -29.9142
2.88, 2, 17.8816, 15.8645, 23.0564, 38.2544, -28.6215, -29.9142
2.883, 2, 17.8816, 15.8645, 23.0564, 38.2544, -28.6215, -29.9142
2.888, 2, 17.8816, 15.8645, 23.0564, 38.2544, -28.6215, -29.9142
2.892, 2, 17.8816, 15.8645, 23.0564, 38.2544, -28.6215, -29.9142
2.896, 2, 17.8816, 15.8645, 23.0564, 38.2544, -28.6215, -29.9142
2.9, 2, 17.8816, 15.8645, 23.0564, 38.2544, -28.6215, -29.9142
2.903, 2, 17.8816, 15.8645, 23.0564, 38.2544, -28.6215, -29.9142
2.908, 2, 17.8816, 15.8645, 23.0564, 38.2544, -28.6215, -29.9142
2.912, 2, 17.8816, 15.8645, 23.0564, 38.2544, -28.6215, -29.9142
2.916, 2, 17.8816, 15.8645, 23.0564, 38.2544, -28.6215, -29.9142
2.92, 2, 17.8816, 15.8645, 23.0564, 38.2544, -28.6215, -29.9142
2.923, 2, 17.8816, 15.8645, 23.0564, 38.2544, -28.6215, -29.9142
2.928, 2, 17.8816, 15.8645, 23.0564, 38.2544, -28.6215, -29.9142
2.932, 2, 17.8816, 15.8645, 23.0564, 38.2544, -28.6215, -29.9142
2.936, 2, 17.8816, 15.8645, 23.0564, 38.2544, -28.6215, -29.9142
2.939, 2, 17.8816, 15.8645, 23.0564, 38.2544, -28.6215, -29.9142
2.944, 2, 17.8816, 15.8645, 23.0564, 38.2544, -28.6215, -29.9142
2.948, 2, 17.8816, 15.8645, 23.0564, 38.2544, -28.6215, -29.9142
2.952, 2, 17.8816, 15.8645, 23.0564, 38.2544, -28.6215, -29.9142
2.956, 2, 17.8816, 15.8645, 23.0564, 38.2544, -28.6215, -29.9142
2.959, 2, 17.8816, 15.8645, 23.0564, 38.2544, -28.6215, -29.9142
2.964, 2, 17.8816, 15.8645, 23.0564, 38.2544, -28.6215, -29.9142
2.968, 2, 17.8816, 15.8645, 23.0564, 38.2544, -28.6215, -29.9142
2.972, 2, 17.8816, 15.8645, 23.0564, 38.2544, -28.6215, -29.9142
2.976, 2, 17.8816, 15.8645, 23.0564, 38.2544, -28.6215, -29.9142
2.98, 2, 17.8816, 15.8645, 23.0564, 38.2544, -28.6215, -29.9142
2.984, 2, 17.8816, 15.8645, 23.0564, 38.2544, -28.6215, -29.9142
2.988, 2, 17.8816, 15.8645, 23.0564, 38.2544, -28.6215, -29.9142
2.992, 2, 17.8816, 15.8645, 23.0564, 38.2544, -28.6215, -29.9142
2.995, 2, 17.8816, 15.8645, 23.0564, 38.2544, -28.6215, -29.9142
3, 2, 17.8816, 15.8645, 23.0564, 38.2544, -28.6215, -29.9142
3.004, 2, 17.8816, 15.8645, 23.0564, 38.2544, -28.6215, -29.9142
3.008, 2, 17.8816, 15.8645, 23.0564, 38.2544, -28.6215, -29.9142
3.012, 2, 17.8816, 15.8645, 23.0564, 38.2544, -28.6215, -29.9142
3.015, 2, 17.8816, 15.8645, 23.0564, 38.2544, -28.6215, -29.9142
3.02, 2, 17.8816, 15.8645, 23.0564, 38.2544, -28.6215, -29.9142
3.024, 2, 17.8816, 15.8645, 23.0564, 38.2544, -28.6215, -29.9142
3.028, 2, 17.8816, 15.8645, 23.0564, 38.2544, -28.6215, -29.9142
3.031, 2, 17.8816, 15.8645, 23.0564, 38.2544, -28.6215, -29.9142
3.036, 2, 17.8816, 15.8645, 23.0564, 38.2544, -28.6215, -29.9142
3.04, 2, 17.8816, 15.8645, 23.0564, 38.2544, -28.6215, -29.9142
3.044, 2, 17.8816, 15.8645, 23.0564, 38.2544, -28.6215, -29.9142
3.048, 2, 17.8816, 15.8645, 23.0564, 38.2544, -28.6215, -29.9142
3.051, 2, 17.8816, 15.8645, 23.0564, 38.2544, -28.6215, -29.9142
3.056, 2, 17.8816, 15.8645, 23.0564, 38.2544, -28.6215, -29.9142
3.06, 2, 17.8816, 15.8645, 23.0564, 38.2544, -28.6215, -29.9142
3.064, 2, 17.8816, 15.8645, 23.0564, 38.2544, -28.6215, -29.9142
3.068, 2, 17.8816, 15.8645, 23.0564, 38.2544, -28.6215, -29.9142
3.071, 2, 17.8816, 15.8645, 23.0564, 38.2544, -28.6215, -29.9142
3.076, 2, 17.8816, 15.8645, 23.0564, 38.2544, -28.6215, -29.9142
3.08, 2, 17.8816, 15.8645, 23.0564, 38.2544, -28.6215, -29.9142
3.084, 2, 17.8816, 15.8645, 23.0564, 38.2544, -28.6215, -29.9142
3.087, 2, 17.8816, 15.8645, 23.0564, 38.2544, -28.6215, -29.9142
3.092, 2, 17.8816, 15.8645, 23.0564, 38.2544, -28.6215, -29.9142
3.096, 2, 17.8816, 15.8645, 23.0564, 38.2544, -28.6215, -29.9142
3.1, 2, 17.8816, 15.8645, 23.0564, 38.2544, -28.6215, -29.9142
3.104, 2, 17.8816, 15.8645, 23.0564, 38.2544, -28.6215, -29.9142
3.107, 2, 17.8816, 15.8645, 23.0564, 38.2544, -28.6215, -29.9142
3.112, 2, 17.8816, 15.8645, 23.0564, 38.2544, -28.6215, -29.9142
3.116, 2, 17.8816, 15.8645, 23.0564, 38.2544, -28.6215, -29.9142
3.12, 2, 17.8816, 15.8645, 23.0564, 38.2544, -28.6215, -29.9142
3.124, 2, 17.8816, 15.8645, 23.0564, 38.2544, -28.6215, -29.9142
3.128, 2, 17.8816, 15.8645, 23.0564, 38.2544, -28.6215, -29.9142
3.132, 2, 17.8816, 15.8645, 23.0564, 38.2544, -28.6215, -29.9142
3.136, 2, 17.8816, 15.8645, 23.0564, 38.2544, -28.6215, -29.9142
3.14, 2, 17.8816, 15.8645, 23.0564, 38.2544, -28.6215, -29.9142
3.143, 2, 17.8816, 15.8645, 23.0564, 38.2544, -28.6215, -29.9142
3.148, 2, 17.8816, 15.8645, 23.0564, 38.2544, -28.6215, -29.9142
3.152, 2, 17.8816, 15.8645, 23.0564, 38.2544, -28.6215, -29.9142
3.156, 2, 17.8816, 15.8645, 23.0564, 38.2544, -28.6215, -29.9142
3.16, 2, 17.8816, 15.8645, 23.0564, 38.2544, -28.6215, -29.9142
3.163, 2, 17.8816, 15.8645, 23.0564, 38.2544, -28.6215, -29.9142
3.168, 2, 17.8816, 15.8645, 23.0564, 38.2544, -28.6215, -29.9142
3.172, 2, 17.8816, 15.8645, 23.0564, 38.2544, -28.6215, -29.9142
3.176, 2, 17.8816, 15.8645, 23.0564, 38.2544, -28.6215, -29.9142
3.179, 2, 17.8816, 15.8645, 23.0564, 38.2544, -28.6215, -29.9142
3.184, 2, 17.8816, 15.8645, 23.0564, 38.2544, -28.6215, -29.9142
3.188, 2, 17.8816, 15.8645, 23.0564, 38.2544, -28.6215, -29.9142
3.192, 2, 17.8816, 15.8645, 23.0564, 38.2544, -28.6215, -29.9142
3.196, 2, 17.8816, 15.8645, 23.0564, 38.2544, -28.6215, -29.9142
3.199, 2, 17.8816, 15.8645, 23.0564, 38.2544, -28.6215, -29.9142
3.204, 2, 17.8816, 15.8645, 23.0564, 38.2544, -28.6215, -29.9142
3.208, 2, 17.8816, 15.8645, 23.0564, 38.2544, -28.6215, -29.9142
3.212, 2, 17.8816, 15.8645, 23.0564, 38.2544, -28.6215, -29.9142
3.216, 2, 17.8816, 15.8645, 23.0564, 38.2544, -28.6215, -29.9142
3.22, 2, 17.8816, 15.8645, 23.0564, 38.2544, -28.6215, -29.9142
3.224, 2, 17.8816, 15.8645, 23.0564, 38.2544, -28.6215, -29.9142
3.228, 2, 17.8816, 15.8645, 23.0564, 38.2544, -28.6215, -29.9142
3.232, 2, 17.8816, 15.8645, 23.0564, 38.2544, -28.6215, -29.9142
3.235, 2, 17.8816, 15.8645, 23.0564, 38.2544, -28.6215, -29.9142
3.24, 2, 17.8816, 15.8645, 23.0564, 38.2544, -28.6215, -29.9142
3.244, 2, 17.8816, 15.8645, 23.0564, 38.2544, -28.6215, -29.9142
3.248, 4, 17.8816, 15.8645, 23.0564, 38.2544, -28.6215, -29.9142
3.252, 4, 17.8816, 15.8645, 23.0564, 38.2544, -28.6215, -29.9142
3.255, 4, 17.8816, 15.8645, 23.0564, 38.2544, -28.6215, -29.9142
3.26, 4, 17.8816, 15.8645, 23.0564, 38.2544, -28.6215, -29.9142
3.264, 4, 17.8816, 15.8645, 23.0564, 38.2544, -28.6215, -29.9142
3.268, 4, 17.8816, 15.8645, 23.0564, 38.2544, -28.6215, -29.9142
3.272, 4, 17.8816, 15.8645, 23.0564, 38.2544, -28.6215, -29.9142
3.276, 4, 17.8816, 15.8645, 23.0564, 38.2544, -28.6215, -29.9142
3.28, 4, 17.8816, 15.8645, 23.0564, 38.2544, -28.6215, -29.9142
3.284, 4, 17.8816, 15.8645, 23.0564, 38.2544, -28.6215, -29.9142
3.288, 4, 17.8816, 15.8645, 23.0564, 38.2544, -28.6215, -29.9142
3.291, 4, 17.8816, 15.8645, 23.0564, 38.2544, -28.6215, -29.9142
3.296, 4, 17.8816, 15.8645, 23.0564, 38.2544, -28.6215, -29.9142
3.3, 4, 17.8816, 15.8645, 23.0564, 38.2544, -28.6215, -29.9142
3.304, 4, 17.8816, 15.8645, 23.0564, 38.2544, -28.6215, -29.9142
3.308, 4, 17.8816, 15.8645, 23.0564, 38.2544, -28.6215, -29.9142
3.312, 4, 17.8816, 15.8645, 23.0564, 38.2544, -28.6215, -29.9142
3.316, 4, 17.8816, 15.8645, 23.0564, 38.2544, -28.6215, -29.9142
3.32, 4, 17.8816, 15.8645, 23.0564, 38.2544, -28.6215, -29.9142
3.324, 4, 17.8816, 15.8645, 23.0564, 38.2544, -28.6215, -29.9142
3.328, 4, 17.8816, 15.8645, 23.0564, 38.2544, -28.6215, -29.9142
3.332, 4, 17.8816, 15.8645, 23.0564, 38.2544, -28.6215, -29.9142
3.336, 4, 17.8816, 15.8645, 23.0564, 38.2544, -28.6215, -29.9142
3.34, 4, 17.8816, 15.8645, 23.0564, 38.2544, -28.6215, -29.9142
3.344, 4, 17.8816, 15.8645, 23.0564, 38.2544, -28.6215, -29.9142
3.347, 4, 17.8816, 15.8645, 23.0564, 38.2544, -28.6215, -29.9142
3.352, 4, 17.8816, 15.8645, 23.0564, 38.2544, -28.6215, -29.9142
3.356, 4, 17.8816, 15.8645, 23.0564, 38.2544, -28.6215, -29.9142
3.36, 4, 17.8816, 15.8645, 23.0564, 38.2544, -28.6215, -29.9142
3.364, 4, 17.8816, 15.8645, 23.0564, 38.2544, -28.6215, -29.9142
3.368, 4, 17.8816, 15.8645, 23.0564, 38.2544, -28.6215, -29.9142
3.372, 4, 17.8816, 15.8645, 23.0564, 38.2544, -28.6215, -29.9142
3.376, 4, 17.8816, 15.8645, 23.0564, 38.2544, -28.6215, -29.9142
3.38, 4, 17.8815, 15.8645, 23.0564, 38.2544, -28.6215, -29.9142
3.383, 4, 17.8812, 15.8645, 23.0564, 38.2543, -28.6215, -29.9142
3.388, 4, 17.8806, 15.8645, 23.0565, 38.2542, -28.6216, -29.9141
3.392, 4, 17.8793, 15.8645, 23.0566, 38.2539, -28.6217, -29.9139
3.396, 4, 17.8773, 15.8644, 23.0569, 38.2532, -28.6219, -29.9133
3.4, 4, 17.8745, 15.8643, 23.0576, 38.2517, -28.6225, -29.912
3.403, 4, 17.8706, 15.864, 23.0586, 38.2489, -28.6235, -29.9095
3.408, 4, 17.8657, 15.8636, 23.0603, 38.2441, -28.6252, -29.9053
3.412, 4, 17.8595, 15.863, 23.063, 38.2364, -28.628, -29.8984
3.416, 4, 17.8519, 15.862, 23.067, 38.2246, -28.6323, -29.8881
3.42, 4, 17.8425, 15.8607, 23.0726, 38.2075, -28.6384, -29.873
3.424, 5, 17.8311, 15.8589, 23.0804, 38.1837, -28.647, -29.852
3.428, 5, 17.8174, 15.8565, 23.0908, 38.1514, -28.6586, -29.8234
3.432, 5, 17.801, 15.8533, 23.1043, 38.1089, -28.674, -29.7858
3.436, 5, 17.7821, 15.8494, 23.1216, 38.0544, -28.6938, -29.7376
3.439, 5, 17.7607, 15.8444, 23.143, 37.986, -28.7187, -29.6771
3.444, 5, 17.7368, 15.8384, 23.169, 37.9022, -28.7493, -29.603
3.448, 5, 17.7105, 15.8313, 23.2001, 37.8019, -28.7861, -29.5142
3.452, 5, 17.6816, 15.823, 23.2364, 37.6842, -28.8295, -29.4101
3.456, 5, 17.6501, 15.8135, 23.278, 37.5489, -28.8796, -29.2903
3.46, 5, 17.6158, 15.8028, 23.3249, 37.3961, -28.9365, -29.1552
3.464, 5, 17.5787, 15.7909, 23.3769, 37.2264, -29.0001, -29.0052
3.468, 5, 17.5388, 15.778, 23.4339, 37.041, -29.07, -28.8413
3.472, 5, 17.4962, 15.7642, 23.4953, 36.841, -29.1458, -28.6647
3.476, 5, 17.4511, 15.7495, 23.5608, 36.6281, -29.2271, -28.4767
3.48, 5, 17.4038, 15.7341, 23.6297, 36.404, -29.3133, -28.279
3.484, 5, 17.3544, 15.7181, 23.7017, 36.1708, -29.4036, -28.0734
3.488, 5, 17.3028, 15.7018, 23.7761, 35.9303, -29.4976, -27.8615
3.492, 5, 17.249, 15.6851, 23.8523, 35.6845, -29.5945, -27.645
3.495, 5, 17.1932, 15.6683, 23.93, 35.4349, -29.6937, -27.4255
3.5, 5, 17.1353, 15.6514, 24.0086, 35.183, -29.7948, -27.2041
3.504, 5, 17.0757, 15.6346, 24.0879, 34.9299, -29.8974, -26.9818
3.508, 5, 17.0146, 15.6179, 24.1676, 34.6765, -30.0011, -26.7594
3.512, 5, 16.9523, 15.6013, 24.2474, 34.4233, -30.1058, -26.5374
3.516, 5, 16.8892, 15.5849, 24.3273, 34.1707, -30.2112, -26.3162
3.52, 5, 16.8256, 15.5687, 24.4071, 33.9191, -30.3173, -26.0959
3.524, 5, 16.7615, 15.5528, 24.4867, 33.6685, -30.4241, -25.8768
3.528, 5, 16.697, 15.5371, 24.5662, 33.4191, -30.5314, -25.659
3.531, 5, 16.6324, 15.5217, 24.6455, 33.171, -30.6392, -25.4425
3.536, 5, 16.5675, 15.5065, 24.7245, 32.9243, -30.7476, -25.2274
3.54, 5, 16.5025, 15.4916, 24.8033, 32.6789, -30.8564, -25.0136
3.544, 5, 16.4373, 15.4769, 24.8819, 32.4349, -30.9657, -24.8013
3.548, 5, 16.372, 15.4625, 24.9601, 32.1922, -31.0754, -24.5903
3.552, 5, 16.3066, 15.4484, 25.0381, 31.951, -31.1857, -24.3808
3.556, 5, 16.2411, 15.4346, 25.1159, 31.7112, -31.2963, -24.1727
3.56, 5, 16.1755, 15.421, 25.1933, 31.4727, -31.4074, -23.9661
3.564, 5, 16.1098, 15.4077, 25.2705, 31.2357, -31.5189, -23.7608
3.568, 5, 16.044, 15.3946, 25.3474, 31, -31.6309, -23.5569
3.572, 5, 15.9781, 15.3819, 25.4241, 30.7657, -31.7433, -23.3544
3.576, 5, 15.9122, 15.3694, 25.5004, 30.5328, -31.8561, -23.1533
3.58, 5, 15.8461, 15.3572, 25.5765, 30.3012, -31.9693, -22.9536
3.584, 5, 15.7799, 15.3452, 25.6523, 30.071, -32.0829, -22.7552
3.587, 5, 15.7137, 15.3335, 25.7278, 29.8421, -32.197, -22.5582
3.592, 5, 15.6473, 15.3221, 25.803, 29.6145, -32.3114, -22.3626
3.596, 5, 15.5809, 15.311, 25.878, 29.3882, -32.4263, -22.1682
3.6, 5, 15.5144, 15.3002, 25.9526, 29.1633, -32.5415, -21.9752
3.604, 5, 15.4478, 15.2896, 26.027, 28.9397, -32.6571, -21.7836
3.608, 5, 15.3811, 15.2793, 26.1011, 28.7173, -32.7732, -21.5932
3.612, 5, 15.3143, 15.2693, 26.1749, 28.4963, -32.8896, -21.4042
3.616, 5, 15.2474, 15.2595, 26.2485, 28.2765, -33.0064, -21.2164
3.62, 5, 15.1805, 15.25, 26.3218, 28.058, -33.1235, -21.03
3.624, 5, 15.1134, 15.2408, 26.3947, 27.8407, -33.2411, -20.8448
3.628, 5, 15.0463, 15.2319, 26.4674, 27.6247, -33.359, -20.6609
3.632, 5, 14.9791, 15.2233, 26.5399, 27.41, -33.4773, -20.4782
3.636, 5, 14.9118, 15.2149, 26.612, 27.1964, -33.5959, -20.2968
3.64, 5, 14.8444, 15.2068, 26.6839, 26.9841, -33.7149, -20.1166
3.644, 5, 14.7769, 15.1989, 26.7555, 26.773, -33.8343, -19.9377
3.648, 5, 14.7093, 15.1914, 26.8268, 26.5632, -33.954, -19.76
3.652, 5, 14.6417, 15.1841, 26.8978, 26.3545, -34.0741, -19.5835
3.656, 5, 14.5739, 15.1771, 26.9686, 26.147, -34.1946, -19.4083
3.66, 5, 14.5061, 15.1703, 27.039, 25.9407, -34.3153, -19.2342
3.664, 5, 14.4382, 15.1639, 27.1092, 25.7356, -34.4365, -19.0613
3.668, 5, 14.3702, 15.1577, 27.1791, 25.5316, -34.5579, -18.8896
3.672, 5, 14.3021, 15.1518, 27.2488, 25.3288, -34.6797, -18.7191
3.676, 5, 14.234, 15.1461, 27.3181, 25.1271, -34.8018, -18.5498
3.679, 5, 14.1657, 15.1408, 27.3872, 24.9266, -34.9243, -18.3816
3.684, 5, 14.0974, 15.1357, 27.456, 24.7272, -35.0471, -18.2146
3.688, 5, 14.029, 15.1309, 27.5245, 24.529, -35.1702, -18.0487
3.692, 5, 13.9605, 15.1263, 27.5927, 24.3318, -35.2937, -17.884
3.696, 5, 13.8919, 15.1221, 27.6607, 24.1358, -35.4174, -17.7203
3.7, 5, 13.8233, 15.1181, 27.7284, 23.9409, -35.5415, -17.5578
3.704, 5, 13.7545, 15.1143, 27.7957, 23.747, -35.6659, -17.3964
3.708, 5, 13.6857, 15.1109, 27.8628, 23.5543, -35.7906, -17.2362
3.712, 5, 13.6168, 15.1078, 27.9297, 23.3626, -35.9156, -17.077
3.716, 5, 13.5478, 15.1049, 27.9962, 23.1719, -36.0409, -16.9188
3.72, 5, 13.4788, 15.1023, 28.0624, 22.9824, -36.1665, -16.7618
3.724, 5, 13.4096, 15.0999, 28.1284, 22.7938, -36.2924, -16.6058
3.728, 5, 13.3404, 15.0979, 28.1941, 22.6063, -36.4187, -16.4509
3.732, 5, 13.2711, 15.0961, 28.2595, 22.4198, -36.5451, -16.297
3.735, 5, 13.2017, 15.0946, 28.3246, 22.2344, -36.6719, -16.1441
3.74, 5, 13.1323, 15.0934, 28.3894, 22.0499, -36.799, -15.9923
3.744, 5, 13.0627, 15.0925, 28.4539, 21.8665, -36.9263, -15.8415
3.748, 5, 12.9931, 15.0919, 28.5181, 21.684, -37.054, -15.6917
3.752, 5, 12.9234, 15.0915, 28.5821, 21.5025, -37.1819, -15.5429
3.756, 5, 12.8537, 15.0914, 28.6457, 21.322, -37.31, -15.3951
3.76, 5, 12.7838, 15.0916, 28.7091, 21.1425, -37.4385, -15.2483
3.764, 5, 12.7139, 15.0921, 28.7722, 20.9639, -37.5672, -15.1025
3.768, 5, 12.6439, 15.0928, 28.835, 20.7863, -37.6962, -14.9577
3.772, 5, 12.5738, 15.0939, 28.8975, 20.6097, -37.8254, -14.8138
3.776, 5, 12.5037, 15.0952, 28.9597, 20.4339, -37.9549, -14.6709
3.78, 5, 12.4334, 15.0968, 29.0216, 20.2591, -38.0847, -14.5289
3.784, 5, 12.3631, 15.0987, 29.0832, 20.0853, -38.2147, -14.3879
3.788, 5, 12.2928, 15.1008, 29.1445, 19.9123, -38.345, -14.2478
3.792, 5, 12.2223, 15.1033, 29.2056, 19.7403, -38.4755, -14.1086
3.796, 5, 12.1518, 15.106, 29.2663, 19.5691, -38.6063, -13.9704
3.8, 5, 12.0812, 15.109, 29.3268, 19.3989, -38.7373, -13.8331
3.804, 5, 12.0105, 15.1123, 29.3869, 19.2295, -38.8686, -13.6967
3.808, 5, 11.9397, 15.1158, 29.4468, 19.0611, -39.0001, -13.5612
3.812, 5, 11.8689, 15.1197, 29.5064, 18.8935, -39.1319, -13.4266
3.816, 5, 11.798, 15.1238, 29.5657, 18.7268, -39.2638, -13.2929
3.82, 5, 11.7271, 15.1282, 29.6247, 18.5609, -39.3961, -13.1601
3.824, 5, 11.656, 15.1329, 29.6834, 18.3959, -39.5285, -13.0282
3.828, 5, 11.5849, 15.1379, 29.7418, 18.2318, -39.6612, -12.8971
3.832, 5, 11.5137, 15.1431, 29.7999, 18.0685, -39.7942, -12.7669
3.836, 5, 11.4425, 15.1487, 29.8577, 17.9061, -39.9273, -12.6376
3.84, 5, 11.3711, 15.1545, 29.9153, 17.7445, -40.0607, -12.5091
3.844, 5, 11.2997, 15.1606, 29.9725, 17.5837, -40.1943, -12.3815
3.848, 5, 11.2283, 15.167, 30.0295, 17.4238, -40.3282, -12.2547
3.852, 5, 11.1567, 15.1736, 30.0861, 17.2646, -40.4622, -12.1288
3.856, 5, 11.0851, 15.1806, 30.1425, 17.1063, -40.5965, -12.0037
3.86, 5, 11.0134, 15.1878, 30.1986, 16.9488, -40.731, -11.8794
3.864, 5, 10.9417, 15.1953, 30.2543, 16.7921, -40.8657, -11.7559
3.868, 5, 10.8699, 15.2031, 30.3098, 16.6362, -41.0006, -11.6333
3.872, 5, 10.798, 15.2112, 30.365, 16.4811, -41.1358, -11.5115
3.876, 5, 10.726, 15.2195, 30.4199, 16.3267, -41.2711, -11.3905
3.88, 5, 10.654, 15.2282, 30.4745, 16.1732, -41.4067, -11.2703
3.884, 5, 10.5819, 15.2371, 30.5288, 16.0204, -41.5424, -11.1508
3.888, 5, 10.5097, 15.2463, 30.5828, 15.8684, -41.6784, -11.0322
3.892, 5, 10.4375, 15.2558, 30.6365, 15.7172, -41.8145, -10.9144
3.896, 5, 10.3652, 15.2655, 30.6899, 15.5667, -41.9509, -10.7973
3.9, 5, 10.2929, 15.2756, 30.743, 15.4169, -42.0875, -10.681
3.904, 5, 10.2205, 15.2859, 30.7958, 15.2679, -42.2242, -10.5654
3.908, 5, 10.148, 15.2965, 30.8483, 15.1196, -42.3612, -10.4506
3.912, 5, 10.0754, 15.3074, 30.9006, 14.9721, -42.4983, -10.3366
3.916, 5, 10.0028, 15.3186, 30.9525, 14.8252, -42.6356, -10.2232
3.92, 5, 9.93015, 15.33, 31.0041, 14.6791, -42.7731, -10.1107
3.924, 5, 9.85742, 15.3418, 31.0554, 14.5337, -42.9108, -9.99881
3.928, 5, 9.78462, 15.3538, 31.1064, 14.389, -43.0487, -9.88768
3.932, 5, 9.71175, 15.3661, 31.1571, 14.245, -43.1867, -9.77726
3.936, 5, 9.63883, 15.3787, 31.2076, 14.1017, -43.3249, -9.66755
3.94, 5, 9.56585, 15.3916, 31.2577, 13.959, -43.4633, -9.55854
3.944, 5, 9.49281, 15.4047, 31.3075, 13.817, -43.6019, -9.45023
3.948, 5, 9.4197, 15.4181, 31.357, 13.6757, -43.7406, -9.34261
3.952, 5, 9.34654, 15.4319, 31.4062, 13.5351, -43.8795, -9.23568
3.956, 5, 9.27332, 15.4458, 31.4551, 13.3951, -44.0186, -9.12942
3.96, 5, 9.20004, 15.4601, 31.5038, 13.2558, -44.1578, -9.02384
3.964, 5, 9.1267, 15.4747, 31.5521, 13.1171, -44.2972, -8.91893
3.968, 5, 9.0533, 15.4895, 31.6001, 12.9791, -44.4367, -8.81468
3.972, 5, 8.97985, 15.5046, 31.6478, 12.8417, -44.5764, -8.71108
3.976, 5, 8.90634, 15.52, 31.6952, 12.705, -44.7163, -8.60815
3.98, 5, 8.83278, 15.5357, 31.7423, 12.5688, -44.8563, -8.50586
3.984, 5, 8.75916, 15.5516, 31.7891, 12.4333, -44.9964, -8.40421
3.988, 5, 8.68549, 15.5678, 31.8356, 12.2985, -45.1367, -8.3032
3.992, 5, 8.61176, 15.5843, 31.8818, 12.1642, -45.2772, -8.20283
3.996, 5, 8.53797, 15.6011, 31.9277, 12.0305, -45.4178, -8.10308
3.999, 5, 8.46414, 15.6182, 31.9732, 11.8975, -45.5585, -8.00396
4.004, 5, 8.39025, 15.6355, 32.0185, 11.765, -45.6994, -7.90546
4.008, 5, 8.3163, 15.6531, 32.0635, 11.6331, -45.8405, -7.80757
4.012, 5, 8.24231, 15.671, 32.1082, 11.5019, -45.9816, -7.7103
4.016, 5, 8.16826, 15.6892, 32.1525, 11.3712, -46.1229, -7.61363
4.02, 5, 8.09416, 15.7077, 32.1966, 11.2411, -46.2644, -7.51756
4.024, 5, 8.02001, 15.7264, 32.2403, 11.1116, -46.4059, -7.4221
4.028, 5, 7.94581, 15.7454, 32.2838, 10.9826, -46.5476, -7.32723
4.032, 5, 7.87155, 15.7647, 32.3269, 10.8543, -46.6895, -7.23294
4.036, 5, 7.79725, 15.7843, 32.3698, 10.7265, -46.8314, -7.13925
4.04, 5, 7.7229, 15.8041, 32.4123, 10.5992, -46.9735, -7.04614
4.044, 5, 7.64849, 15.8242, 32.4545, 10.4725, -47.1158, -6.95361
4.048, 5, 7.57404, 15.8446, 32.4964, 10.3464, -47.2581, -6.86165
4.052, 5, 7.49954, 15.8653, 32.538, 10.2208, -47.4006, -6.77026
4.056, 5, 7.42499, 15.8863, 32.5793, 10.0958, -47.5432, -6.67944
4.06, 5, 7.35039, 15.9075, 32.6203, 9.97132, -47.6859, -6.58919
4.064, 5, 7.27575, 15.929, 32.661, 9.84738, -47.8287, -6.4995
4.068, 5, 7.20106, 15.9508, 32.7013, 9.72398, -47.9717, -6.41036
4.072, 5, 7.12632, 15.9729, 32.7414, 9.60111, -48.1147, -6.32178
4.076, 5, 7.05153, 15.9952, 32.7811, 9.47878, -48.2579, -6.23375
4.08, 5, 6.9767, 16.0178, 32.8206, 9.35697, -48.4012, -6.14626
4.084, 5, 6.90182, 16.0407, 32.8597, 9.23568, -48.5446, -6.05932
4.088, 5, 6.8269, 16.0639, 32.8985, 9.11492, -48.6882, -5.97292
4.092, 5, 6.75193, 16.0874, 32.937, 8.99467, -48.8318, -5.88706
4.096, 5, 6.67692, 16.1111, 32.9752, 8.87494, -48.9756, -5.80173
4.1, 5, 6.60187, 16.1351, 33.0131, 8.75572, -49.1194, -5.71692
4.104, 5, 6.52677, 16.1594, 33.0506, 8.637, -49.2634, -5.63265
4.108, 5, 6.45163, 16.184, 33.0879, 8.51879, -49.4074, -5.54889
4.112, 5, 6.37645, 16.2088, 33.1248, 8.40107, -49.5516, -5.46565
4.116, 5, 6.30122, 16.234, 33.1614, 8.28385, -49.6959, -5.38293
4.12, 5, 6.22596, 16.2594, 33.1977, 8.16712, -49.8402, -5.30071
4.124, 5, 6.15065, 16.285, 33.2337, 8.05087, -49.9847, -5.219
4.128, 5, 6.07531, 16.311, 33.2694, 7.93511, -50.1292, -5.13779
4.132, 5, 5.99992, 16.3372, 33.3048, 7.81982, -50.2739, -5.05708
4.136, 5, 5.9245, 16.3637, 33.3399, 7.70501, -50.4186, -4.97686
4.14, 5, 5.84903, 16.3905, 33.3746, 7.59067, -50.5634, -4.89712
4.144, 5, 5.77353, 16.4175, 33.409, 7.4768, -50.7084, -4.81788
4.148, 5, 5.69799, 16.4448, 33.4431, 7.36339, -50.8534, -4.73911
4.152, 5, 5.62241, 16.4724, 33.4769, 7.25043, -50.9985, -4.66082
4.156, 5, 5.5468, 16.5003, 33.5104, 7.13794, -51.1436, -4.583
4.16, 5, 5.47115, 16.5284, 33.5436, 7.02589, -51.2889, -4.50566
4.164, 5, 5.39546, 16.5568, 33.5764, 6.9143, -51.4342, -4.42878
4.168, 5, 5.31974, 16.5855, 33.609, 6.80315, -51.5796, -4.35236
4.172, 5, 5.24399, 16.6144, 33.6412, 6.69244, -51.7251, -4.2764
4.176, 5, 5.1682, 16.6436, 33.6731, 6.58217, -51.8706, -4.2009
4.18, 5, 5.09238, 16.6731, 33.7047, 6.47234, -52.0163, -4.12585
4.184, 5, 5.01652, 16.7028, 33.736, 6.36294, -52.162, -4.05125
4.188, 5, 4.94064, 16.7329, 33.7669, 6.25397, -52.3077, -3.9771
4.192, 5, 4.86472, 16.7632, 33.7975, 6.14542, -52.4536, -3.90339
4.196, 5, 4.78877, 16.7937, 33.8279, 6.0373, -52.5994, -3.83012
4.2, 5, 4.71279, 16.8245, 33.8579, 5.9296, -52.7454, -3.75729
4.204, 5, 4.63678, 16.8556, 33.8876, 5.82231, -52.8914, -3.68489
4.208, 5, 4.56074, 16.887, 33.9169, 5.71544, -53.0375, -3.61292
4.212, 5, 4.48467, 16.9186, 33.946, 5.60898, -53.1837, -3.54137
4.216, 5, 4.40857, 16.9505, 33.9747, 5.50293, -53.3299, -3.47026
4.22, 5, 4.33245, 16.9826, 34.0031, 5.39729, -53.4761, -3.39956
4.224, 5, 4.25629, 17.0151, 34.0312, 5.29205, -53.6224, -3.32929
4.228, 5, 4.18011, 17.0477, 34.059, 5.1872, -53.7688, -3.25942
4.232, 5, 4.10391, 17.0807, 34.0864, 5.08276, -53.9152, -3.18998
4.236, 5, 4.02767, 17.1139, 34.1136, 4.97871, -54.0617, -3.12094
4.24, 5, 3.95141, 17.1474, 34.1404, 4.87506, -54.2082, -3.05231
4.244, 5, 3.87513, 17.1811, 34.1669, 4.77179, -54.3548, -2.98409
4.248, 5, 3.79882, 17.2151, 34.1931, 4.66891, -54.5014, -2.91627
4.252, 5, 3.72249, 17.2494, 34.2189, 4.56641, -54.6481, -2.84884
4.256, 5, 3.64613, 17.2839, 34.2445, 4.4643, -54.7948, -2.78182
4.26, 5, 3.56975, 17.3187, 34.2697, 4.36257, -54.9415, -2.71519
4.264, 5, 3.49335, 17.3537, 34.2946, 4.26121, -55.0883, -2.64895
4.268, 5, 3.41693, 17.3891, 34.3191, 4.16022, -55.2352, -2.5831
4.272, 5, 3.34048, 17.4246, 34.3434, 4.05961, -55.382, -2.51763
4.276, 5, 3.26402, 17.4605, 34.3673, 3.95937, -55.5289, -2.45255
4.28, 5, 3.18753, 17.4966, 34.3909, 3.85949, -55.6759, -2.38785
4.284, 5, 3.11102, 17.5329, 34.4142, 3.75998, -55.8229, -2.32353
4.288, 5, 3.0345, 17.5695, 34.4371, 3.66083, -55.9699, -2.25958
4.292, 5, 2.95796, 17.6064, 34.4598, 3.56204, -56.1169, -2.19601
4.296, 5, 2.88139, 17.6435, 34.4821, 3.4636, -56.264, -2.1328
4.3, 5, 2.80481, 17.6809, 34.5041, 3.36552, -56.4111, -2.06997
4.304, 5, 2.72822, 17.7186, 34.5257, 3.26779, -56.5582, -2.00749
4.308, 5, 2.6516, 17.7565, 34.5471, 3.17041, -56.7054, -1.94538
4.312, 5, 2.57497, 17.7946, 34.5681, 3.07337, -56.8525, -1.88363
4.316, 5, 2.49833, 17.833, 34.5888, 2.97668, -56.9997, -1.82224
4.32, 5, 2.42167, 17.8717, 34.6091, 2.88033, -57.1469, -1.7612
4.324, 5, 2.34499, 17.9106, 34.6292, 2.78432, -57.2942, -1.70051
4.328, 5, 2.2683, 17.9498, 34.6489, 2.68865, -57.4414, -1.64017
4.332, 5, 2.1916, 17.9892, 34.6683, 2.59331, -57.5887, -1.58018
4.336, 5, 2.11489, 18.0289, 34.6873, 2.49831, -57.736, -1.52053
4.34, 5, 2.03816, 18.0688, 34.7061, 2.40363, -57.8832, -1.46122
4.344, 5, 1.96142, 18.109, 34.7245, 2.30929, -58.0305, -1.40225
4.348, 5, 1.88467, 18.1494, 34.7426, 2.21527, -58.1778, -1.34362
4.352, 5, 1.80791, 18.1901, 34.7604, 2.12158, -58.3252, -1.28533
4.356, 5, 1.73114, 18.231, 34.7778, 2.0282, -58.4725, -1.22736
4.36, 5, 1.65436, 18.2722, 34.7949, 1.93515, -58.6198, -1.16973
4.364, 5, 1.57757, 18.3136, 34.8117, 1.84241, -58.7672, -1.11242
4.368, 5, 1.50077, 18.3553, 34.8282, 1.75, -58.9145, -1.05544
4.372, 5, 1.42401, 18.3972, 34.8443, 1.65789, -59.0618, -0.998779
4.376, 5, 1.34741, 18.4392, 34.8602, 1.5661, -59.2091, -0.942443
4.38, 5, 1.27121, 18.4814, 34.8757, 1.47463, -59.3565, -0.886435
4.384, 5, 1.19571, 18.5235, 34.8909, 1.3835, -59.5037, -0.83077
4.388, 5, 1.12121, 18.5653, 34.9059, 1.29279, -59.6507, -0.775488
4.392, 5, 1.04793, 18.6067, 34.9206, 1.20259, -59.7974, -0.720653
4.396, 5, 0.976085, 18.6476, 34.9351, 1.11309, -59.9434, -0.666371
4.4, 5, 0.905793, 18.6876, 34.9492, 1.02453, -60.0883, -0.612787
4.404, 5, 0.837109, 18.7269, 34.963, 0.937228, -60.2315, -0.560085
4.408, 5, 0.770028, 18.7654, 34.9764, 0.85157, -60.3724, -0.508486
4.412, 5, 0.70455, 18.8031, 34.9892, 0.767975, -60.5103, -0.458231
4.416, 5, 0.64072, 18.8403, 35.0013, 0.686881, -60.6445, -0.409574
4.42, 5, 0.578603, 18.8772, 35.0125, 0.608714, -60.7741, -0.362758
4.424, 5, 0.518207, 18.9139, 35.0226, 0.533869, -60.8986, -0.318007
4.428, 6, 0.459429, 18.9508, 35.0313, 0.462678, -61.0174, -0.275506
4.432, 6, 0.402072, 18.988, 35.0384, 0.395378, -61.13, -0.235383
4.436, 6, 0.345897, 19.0261, 35.0435, 0.33208, -61.2364, -0.197689
4.44, 7, 0.290611, 19.0653, 35.0465, 0.272739, -61.3365, -0.162387
4.444, 7, 0.235877, 19.1059, 35.0469, 0.217141, -61.4308, -0.129341
4.448, 7, 0.181412, 19.1483, 35.0446, 0.164902, -61.5199, -0.0983162
4.452, 7, 0.127131, 19.1927, 35.0394, 0.115475, -61.6045, -0.068987
4.456, 7, 0.0731619, 19.239, 35.0309, 0.0681853, -61.6859, -0.0409546
4.46, 7, 0.0197342, 19.2873, 35.0192, 0.022276, -61.7653, -0.0137745
4.464, 7, -0.0329333, 19.3373, 35.0041, -0.0230363, -61.844, 0.0130127
4.468, 7, -0.0846986, 19.3888, 34.9856, -0.0685101, -61.9233, 0.0398519
4.472, 7, -0.135551, 19.4419, 34.9638, -0.114838, -62.0042, 0.0671485
4.476, 7, -0.18565, 19.4968, 34.9387, -0.162613, -62.088, 0.0952489
4.48, 7, -0.235305, 19.5537, 34.9103, -0.212308, -62.1752, 0.124427
4.484, 7, -0.284887, 19.6129, 34.8787, -0.264256, -62.2664, 0.154877
4.488, 7, -0.334742, 19.6746, 34.8442, -0.318651, -62.362, 0.186709
4.492, 7, -0.38513, 19.7387, 34.807, -0.375554, -62.4621, 0.219957
4.496, 7, -0.436237, 19.8053, 34.7671, -0.434901, -62.5666, 0.254583
4.5, 7, -0.48824, 19.8742, 34.7249, -0.49652, -62.6753, 0.290484
4.504, 7, -0.541345, 19.9455, 34.6806, -0.560155, -62.7877, 0.327514
4.508, 7, -0.595755, 20.0193, 34.6344, -0.625498, -62.9033, 0.365493
4.512, 7, -0.651599, 20.0956, 34.5864, -0.692225, -63.0216, 0.404234
4.516, 7, -0.708905, 20.1745, 34.537, -0.760017, -63.142, 0.443552
4.52, 7, -0.767612, 20.2558, 34.4862, -0.828587, -63.2641, 0.483279
4.524, 7, -0.827587, 20.3392, 34.4343, -0.89769, -63.3875, 0.523273
4.528, 7, -0.888634, 20.4245, 34.3814, -0.967123, -63.5117, 0.563415
4.532, 7, -0.950535, 20.5113, 34.3277, -1.03673, -63.6366, 0.603614
4.536, 7, -1.0131, 20.5992, 34.2733, -1.10639, -63.7619, 0.643799
4.54, 7, -1.07617, 20.6879, 34.2183, -1.176, -63.8874, 0.683914
4.544, 7, -1.13965, 20.7774, 34.1627, -1.2455, -64.0131, 0.72392
4.548, 7, -1.20345, 20.8673, 34.1067, -1.31484, -64.1388, 0.763787
4.552, 7, -1.26748, 20.9577, 34.0502, -1.38398, -64.2645, 0.803494
4.556, 7, -1.33166, 21.0485, 33.9933, -1.45289, -64.3901, 0.843029
4.56, 7, -1.3959, 21.1395, 33.9361, -1.52156, -64.5155, 0.882381
4.564, 7, -1.46017, 21.2307, 33.8785, -1.58998, -64.6409, 0.921546
4.568, 7, -1.52441, 21.3221, 33.8205, -1.65813, -64.7661, 0.96052
4.572, 7, -1.58861, 21.4136, 33.7623, -1.72602, -64.8912, 0.999303
4.576, 7, -1.65275, 21.5053, 33.7036, -1.79364, -65.0161, 1.03789
4.58, 7, -1.71681, 21.5971, 33.6447, -1.861, -65.1408, 1.07629
4.584, 7, -1.7808, 21.689, 33.5854, -1.92808, -65.2653, 1.1145
4.588, 7, -1.8447, 21.781, 33.5258, -1.9949, -65.3897, 1.15251
4.592, 7, -1.90851, 21.8732, 33.4659, -2.06145, -65.5139, 1.19034
4.596, 7, -1.97223, 21.9654, 33.4057, -2.12773, -65.6379, 1.22798
4.6, 7, -2.03586, 22.0578, 33.3451, -2.19374, -65.7617, 1.26544
4.604, 7, -2.09939, 22.1502, 33.2842, -2.25949, -65.8853, 1.30271
4.608, 7, -2.16282, 22.2428, 33.223, -2.32498, -66.0088, 1.33981
4.612, 7, -2.22616, 22.3354, 33.1615, -2.3902, -66.132, 1.37672
4.616, 7, -2.28941, 22.4282, 33.0996, -2.45516, -66.2551, 1.41345
4.62, 7, -2.35255, 22.521, 33.0375, -2.51986, -66.378, 1.45001
4.624, 7, -2.4156, 22.6139, 32.975, -2.5843, -66.5007, 1.48639
4.628, 7, -2.47855, 22.707, 32.9122, -2.64848, -66.6232, 1.5226
4.632, 7, -2.54141, 22.8001, 32.849, -2.71241, -66.7455, 1.55864
4.636, 7, -2.60416, 22.8933, 32.7856, -2.77608, -66.8676, 1.59451
4.64, 7, -2.66682, 22.9866, 32.7218, -2.83949, -66.9896, 1.63021
4.644, 7, -2.72938, 23.08, 32.6577, -2.90266, -67.1113, 1.66574
4.648, 7, -2.79184, 23.1735, 32.5933, -2.96557, -67.2328, 1.70112
4.652, 7, -2.85421, 23.2671, 32.5286, -3.02823, -67.3542, 1.73633
4.656, 7, -2.91647, 23.3608, 32.4635, -3.09064, -67.4753, 1.77138
4.66, 7, -2.97864, 23.4546, 32.3982, -3.1528, -67.5963, 1.80627
4.664, 7, -3.04071, 23.5484, 32.3325, -3.21471, -67.717, 1.841
4.668, 7, -3.10268, 23.6424, 32.2665, -3.27638, -67.8376, 1.87558
4.672, 7, -3.16455, 23.7364, 32.2001, -3.33781, -67.9579, 1.91001
4.676, 7, -3.22632, 23.8305, 32.1335, -3.39899, -68.078, 1.94428
4.68, 7, -3.28799, 23.9248, 32.0665, -3.45993, -68.198, 1.97841
4.684, 7, -3.34956, 24.0191, 31.9992, -3.52063, -68.3177, 2.01238
4.688, 7, -3.41104, 24.1134, 31.9316, -3.58108, -68.4372, 2.04621
4.692, 7, -3.47241, 24.2079, 31.8637, -3.6413, -68.5565, 2.0799
4.696, 7, -3.53368, 24.3025, 31.7955, -3.70128, -68.6756, 2.11344
4.7, 7, -3.59486, 24.3971, 31.7269, -3.76103, -68.7945, 2.14684
4.704, 7, -3.65593, 24.4918, 31.658, -3.82053, -68.9132, 2.1801
4.708, 7, -3.7169, 24.5866, 31.5888, -3.87981, -69.0317, 2.21322
4.712, 7, -3.77777, 24.6815, 31.5193, -3.93885, -69.15, 2.2462
4.716, 7, -3.83854, 24.7764, 31.4494, -3.99766, -69.268, 2.27905
4.72, 7, -3.89922, 24.8715, 31.3792, -4.05623, -69.3859, 2.31177
4.724, 7, -3.95979, 24.9666, 31.3088, -4.11458, -69.5035, 2.34435
4.728, 7, -4.02025, 25.0618, 31.2379, -4.1727, -69.6209, 2.3768
4.732, 7, -4.08062, 25.1571, 31.1668, -4.23059, -69.7381, 2.40913
4.736, 7, -4.14089, 25.2525, 31.0954, -4.28825, -69.8551, 2.44133
4.74, 7, -4.20105, 25.3479, 31.0236, -4.34569, -69.9718, 2.4734
4.744, 7, -4.26112, 25.4434, 30.9515, -4.4029, -70.0884, 2.50535
4.748, 7, -4.32108, 25.539, 30.8791, -4.45989, -70.2047, 2.53717
4.752, 7, -4.38094, 25.6347, 30.8063, -4.51665, -70.3208, 2.56888
4.756, 7, -4.44069, 25.7304, 30.7333, -4.57319, -70.4367, 2.60046
4.76, 7, -4.50035, 25.8262, 30.6599, -4.62951, -70.5523, 2.63193
4.764, 7, -4.5599, 25.9221, 30.5862, -4.68562, -70.6678, 2.66328
4.768, 7, -4.61935, 26.0181, 30.5122, -4.7415, -70.783, 2.69452
4.772, 7, -4.6787, 26.1141, 30.4379, -4.79717, -70.8979, 2.72565
4.776, 7, -4.73795, 26.2102, 30.3632, -4.85261, -71.0127, 2.75666
4.78, 7, -4.79709, 26.3064, 30.2882, -4.90785, -71.1272, 2.78756
4.784, 7, -4.85612, 26.4027, 30.2129, -4.96287, -71.2415, 2.81836
4.788, 7, -4.91506, 26.499, 30.1373, -5.01767, -71.3556, 2.84904
4.792, 7, -4.97389, 26.5954, 30.0613, -5.07226, -71.4694, 2.87963
4.796, 7, -5.03261, 26.6919, 29.985, -5.12664, -71.583, 2.9101
4.8, 7, -5.09123, 26.7884, 29.9085, -5.18081, -71.6964, 2.94048
4.804, 7, -5.14975, 26.885, 29.8315, -5.23477, -71.8095, 2.97076
4.808, 7, -5.20817, 26.9817, 29.7543, -5.28851, -71.9224, 3.00093
4.812, 7, -5.26648, 27.0784, 29.6767, -5.34205, -72.035, 3.03101
4.816, 7, -5.32468, 27.1752, 29.5988, -5.39538, -72.1475, 3.06099
4.82, 7, -5.38279, 27.2721, 29.5206, -5.4485, -72.2597, 3.09088
4.824, 7, -5.44079, 27.3691, 29.4421, -5.50142, -72.3716, 3.12067
4.828, 7, -5.49869, 27.4661, 29.3633, -5.55412, -72.4833, 3.15037
4.832, 7, -5.55648, 27.5631, 29.2841, -5.60663, -72.5948, 3.17997
4.836, 7, -5.61417, 27.6603, 29.2046, -5.65892, -72.706, 3.20949
4.84, 7, -5.67176, 27.7575, 29.1248, -5.71101, -72.817, 3.23892
4.844, 7, -5.72924, 27.8548, 29.0446, -5.7629, -72.9278, 3.26826
4.848, 7, -5.78662, 27.9521, 28.9642, -5.81458, -73.0383, 3.29752
4.852, 7, -5.84389, 28.0495, 28.8834, -5.86607, -73.1486, 3.32669
4.856, 7, -5.90106, 28.147, 28.8023, -5.91734, -73.2586, 3.35578
4.86, 7, -5.95813, 28.2445, 28.7208, -5.96842, -73.3684, 3.38478
4.864, 7, -6.01509, 28.3421, 28.6391, -6.0193, -73.478, 3.4137
4.868, 7, -6.07195, 28.4397, 28.557, -6.06997, -73.5873, 3.44255
4.872, 7, -6.1287, 28.5374, 28.4746, -6.12045, -73.6963, 3.47131
4.876, 7, -6.18536, 28.6352, 28.3919, -6.17072, -73.8052, 3.49999
4.88, 7, -6.2419, 28.733, 28.3089, -6.2208, -73.9138, 3.5286
4.884, 7, -6.29835, 28.8309, 28.2255, -6.27068, -74.0221, 3.55713
4.888, 7, -6.35469, 28.9289, 28.1419, -6.32036, -74.1302, 3.58559
4.892, 7, -6.41092, 29.0269, 28.0579, -6.36985, -74.2381, 3.61397
4.896, 7, -6.46706, 29.125, 27.9736, -6.41914, -74.3457, 3.64228
4.9, 7, -6.52309, 29.2231, 27.8889, -6.46823, -74.453, 3.67052
4.904, 7, -6.57902, 29.3213, 27.804, -6.51712, -74.5602, 3.69869
4.908, 7, -6.63484, 29.4196, 27.7187, -6.56583, -74.6671, 3.7268
4.912, 7, -6.69056, 29.5179, 27.6331, -6.61433, -74.7737, 3.75483
4.916, 7, -6.74618, 29.6163, 27.5472, -6.66265, -74.8801, 3.78279
4.92, 7, -6.8017, 29.7147, 27.461, -6.71077, -74.9862, 3.81069
4.924, 7, -6.85711, 29.8132, 27.3744, -6.7587, -75.0921, 3.83853
4.928, 7, -6.91242, 29.9118, 27.2875, -6.80643, -75.1978, 3.8663
4.932, 7, -6.96762, 30.0104, 27.2003, -6.85398, -75.3032, 3.89401
4.936, 7, -7.02273, 30.1091, 27.1128, -6.90133, -75.4083, 3.92166
4.94, 7, -7.07773, 30.2078, 27.025, -6.94849, -75.5133, 3.94925
4.944, 7, -7.13263, 30.3066, 26.9368, -6.99547, -75.6179, 3.97677
4.948, 7, -7.18742, 30.4054, 26.8484, -7.04225, -75.7224, 4.00424
4.952, 7, -7.24212, 30.5043, 26.7596, -7.08884, -75.8265, 4.03166
4.956, 7, -7.29671, 30.6033, 26.6705, -7.13525, -75.9304, 4.05901
4.96, 7, -7.35119, 30.7023, 26.581, -7.18147, -76.0341, 4.08632
4.964, 7, -7.40558, 30.8014, 26.4913, -7.2275, -76.1375, 4.11356
4.968, 7, -7.45986, 30.9005, 26.4012, -7.27334, -76.2407, 4.14076
4.972, 7, -7.51404, 30.9997, 26.3108, -7.31899, -76.3436, 4.1679
4.976, 7, -7.56812, 31.0989, 26.2201, -7.36446, -76.4463, 4.195
4.98, 7, -7.6221, 31.1982, 26.1291, -7.40974, -76.5487, 4.22204
4.984, 7, -7.67597, 31.2976, 26.0378, -7.45484, -76.6509, 4.24903
4.988, 7, -7.72974, 31.397, 25.9461, -7.49975, -76.7528, 4.27598
4.992, 7, -7.78341, 31.4964, 25.8541, -7.54448, -76.8545, 4.30288
4.996, 7, -7.83698, 31.5959, 25.7618, -7.58903, -76.9559, 4.32974
5, 7, -7.89044, 31.6955, 25.6692, -7.63338, -77.0571, 4.35655
5.004, 7, -7.9438, 31.7951, 25.5762, -7.67756, -77.158, 4.38331
5.008, 7, -7.99706, 31.8948, 25.4829, -7.72155, -77.2586, 4.41004
5.012, 7, -8.05022, 31.9945, 25.3893, -7.76537, -77.359, 4.43672
5.016, 7, -8.10327, 32.0943, 25.2954, -7.80899, -77.4592, 4.46337
5.02, 7, -8.15622, 32.1941, 25.2012, -7.85244, -77.5591, 4.48997
5.024, 7, -8.20907, 32.294, 25.1066, -7.89571, -77.6587, 4.51654
5.028, 7, -8.26182, 32.394, 25.0118, -7.93879, -77.7581, 4.54307
5.032, 7, -8.31446, 32.494, 24.9166, -7.9817, -77.8572, 4.56956
5.036, 7, -8.36701, 32.594, 24.821, -8.02442, -77.9561, 4.59602
5.04, 7, -8.41944, 32.6941, 24.7252, -8.06697, -78.0547, 4.62244
5.044, 7, -8.47178, 32.7943, 24.629, -8.10933, -78.153, 4.64883
5.048, 7, -8.52402, 32.8945, 24.5325, -8.15152, -78.2511, 4.67519
5.052, 7, -8.57615, 32.9948, 24.4357, -8.19353, -78.349, 4.70152
5.056, 7, -8.62818, 33.0951, 24.3386, -8.23535, -78.4465, 4.72781
5.06, 7, -8.6801, 33.1954, 24.2411, -8.27701, -78.5438, 4.75408
5.064, 7, -8.73193, 33.2958, 24.1434, -8.31848, -78.6409, 4.78032
5.068, 7, -8.78365, 33.3963, 24.0453, -8.35978, -78.7377, 4.80654
5.072, 7, -8.83527, 33.4968, 23.9468, -8.40089, -78.8342, 4.83272
5.076, 7, -8.88678, 33.5974, 23.8481, -8.44184, -78.9305, 4.85889
5.08, 7, -8.9382, 33.698, 23.749, -8.4826, -79.0265, 4.88502
5.084, 7, -8.9895, 33.7987, 23.6496, -8.52319, -79.1222, 4.91114
5.088, 7, -9.04071, 33.8994, 23.5499, -8.56361, -79.2177, 4.93723
5.092, 7, -9.09182, 34.0002, 23.4498, -8.60385, -79.3129, 4.96331
5.096, 7, -9.14282, 34.101, 23.3495, -8.64391, -79.4078, 4.98936
5.1, 7, -9.19371, 34.2019, 23.2488, -8.6838, -79.5025, 5.0154
5.104, 7, -9.24451, 34.3028, 23.1477, -8.72352, -79.5969, 5.04141
5.108, 7, -9.2952, 34.4037, 23.0464, -8.76306, -79.691, 5.06741
5.112, 7, -9.34579, 34.5048, 22.9447, -8.80243, -79.7849, 5.0934
5.116, 7, -9.39628, 34.6058, 22.8427, -8.84162, -79.8785, 5.11937
5.12, 7, -9.44667, 34.7069, 22.7404, -8.88064, -79.9719, 5.14532
5.124, 7, -9.49695, 34.8081, 22.6377, -8.91949, -80.0649, 5.17126
5.128, 7, -9.54713, 34.9093, 22.5347, -8.95817, -80.1577, 5.19719
5.132, 7, -9.59721, 35.0106, 22.4314, -8.99667, -80.2503, 5.22311
5.136, 7, -9.64718, 35.1119, 22.3278, -9.035, -80.3425, 5.24902
5.14, 7, -9.69706, 35.2133, 22.2238, -9.07316, -80.4345, 5.27492
5.144, 7, -9.74683, 35.3147, 22.1195, -9.11114, -80.5262, 5.30081
5.148, 7, -9.7965, 35.4161, 22.0149, -9.14896, -80.6177, 5.32669
5.152, 7, -9.84607, 35.5176, 21.9099, -9.1866, -80.7089, 5.35257
5.156, 7, -9.89553, 35.6192, 21.8046, -9.22407, -80.7998, 5.37844
5.16, 7, -9.94489, 35.7208, 21.699, -9.26137, -80.8904, 5.4043
5.164, 7, -9.99415, 35.8225, 21.5931, -9.2985, -80.9808, 5.43016
5.168, 7, -10.0433, 35.9242, 21.4868, -9.33545, -81.0709, 5.45602
5.172, 7, -10.0924, 36.0259, 21.3802, -9.37224, -81.1607, 5.48187
5.176, 7, -10.1413, 36.1278, 21.2733, -9.40886, -81.2502, 5.50771
5.18, 7, -10.1902, 36.2296, 21.166, -9.4453, -81.3395, 5.53356
5.184, 7, -10.2389, 36.3315, 21.0584, -9.48158, -81.4285, 5.5594
5.188, 7, -10.2876, 36.4335, 20.9505, -9.51769, -81.5173, 5.58525
5.192, 7, -10.3361, 36.5355, 20.8422, -9.55362, -81.6057, 5.61109
5.196, 7, -10.3846, 36.6376, 20.7337, -9.58939, -81.6939, 5.63693
5.2, 7, -10.4329, 36.7397, 20.6248, -9.62499, -81.7819, 5.66278
5.204, 7, -10.4812, 36.8419, 20.5155, -9.66042, -81.8695, 5.68862
5.208, 7, -10.5293, 36.9441, 20.4059, -9.69568, -81.9569, 5.71447
5.212, 7, -10.5774, 37.0463, 20.296, -9.73077, -82.044, 5.74032
5.216, 7, -10.6253, 37.1487, 20.1858, -9.7657, -82.1309, 5.76617
5.22, 7, -10.6732, 37.251, 20.0752, -9.80045, -82.2174, 5.79203
5.224, 7, -10.7209, 37.3534, 19.9643, -9.83504, -82.3037, 5.8179
5.228, 7, -10.7686, 37.4559, 19.8531, -9.86946, -82.3898, 5.84376
5.232, 7, -10.8161, 37.5584, 19.7415, -9.90371, -82.4755, 5.86964
5.236, 7, -10.8636, 37.661, 19.6296, -9.9378, -82.561, 5.89552
5.24, 7, -10.9109, 37.7637, 19.5174, -9.97171, -82.6462, 5.92141
5.244, 7, -10.9582, 37.8663, 19.4049, -10.0055, -82.7312, 5.94731
5.248, 7, -11.0053, 37.9691, 19.292, -10.039, -82.8158, 5.97322
5.252, 7, -11.0524, 38.0719, 19.1787, -10.0725, -82.9002, 5.99914
5.256, 7, -11.0993, 38.1747, 19.0652, -10.1057, -82.9843, 6.02507
5.26, 7, -11.1462, 38.2776, 18.9513, -10.1388, -83.0682, 6.05101
5.264, 7, -11.1929, 38.3805, 18.8371, -10.1717, -83.1518, 6.07696
5.268, 7, -11.2396, 38.4836, 18.7225, -10.2045, -83.2351, 6.10292
5.272, 7, -11.2861, 38.5866, 18.6076, -10.2371, -83.3181, 6.1289
5.276, 7, -11.3326, 38.6897, 18.4923, -10.2695, -83.4008, 6.15489
5.28, 7, -11.379, 38.7929, 18.3768, -10.3017, -83.4833, 6.1809
5.284, 7, -11.4252, 38.8961, 18.2609, -10.3338, -83.5655, 6.20692
5.288, 7, -11.4714, 38.9994, 18.1446, -10.3657, -83.6474, 6.23296
5.292, 7, -11.5175, 39.1027, 18.028, -10.3975, -83.7291, 6.25901
5.296, 7, -11.5634, 39.2061, 17.9111, -10.4291, -83.8104, 6.28509
5.3, 7, -11.6093, 39.3095, 17.7938, -10.4605, -83.8915, 6.31118
5.304, 7, -11.6551, 39.413, 17.6762, -10.4918, -83.9724, 6.33729
5.308, 7, -11.7007, 39.5166, 17.5583, -10.5229, -84.0529, 6.36341
5.312, 7, -11.7463, 39.6202, 17.44, -10.5538, -84.1332, 6.38956
5.316, 7, -11.7918, 39.7238, 17.3214, -10.5846, -84.2131, 6.41573
5.32, 7, -11.8372, 39.8275, 17.2024, -10.6152, -84.2928, 6.44193
5.324, 7, -11.8825, 39.9313, 17.0831, -10.6456, -84.3723, 6.46814
5.328, 7, -11.9276, 40.0351, 16.9635, -10.6759, -84.4514, 6.49438
5.332, 7, -11.9727, 40.139, 16.8435, -10.706, -84.5303, 6.52064
5.336, 7, -12.0177, 40.243, 16.7232, -10.7359, -84.6089, 6.54693
5.34, 7, -12.0626, 40.347, 16.6025, -10.7657, -84.6872, 6.57324
5.344, 7, -12.1074, 40.451, 16.4815, -10.7953, -84.7652, 6.59957
5.348, 7, -12.1521, 40.5551, 16.3601, -10.8247, -84.843, 6.62594
5.352, 7, -12.1967, 40.6593, 16.2384, -10.854, -84.9204, 6.65233
5.356, 7, -12.2412, 40.7635, 16.1163, -10.8831, -84.9976, 6.67875
5.36, 7, -12.2856, 40.8678, 15.9939, -10.9121, -85.0745, 6.7052
5.364, 7, -12.3299, 40.9722, 15.8712, -10.9409, -85.1511, 6.73168
5.368, 7, -12.3741, 41.0766, 15.7481, -10.9695, -85.2275, 6.75819
5.372, 7, -12.4182, 41.181, 15.6246, -10.998, -85.3035, 6.78472
5.376, 7, -12.4621, 41.2854, 15.5009, -11.0263, -85.3793, 6.81129
5.38, 7, -12.5058, 41.3897, 15.3768, -11.0544, -85.4548, 6.83789
5.384, 7, -12.5491, 41.4937, 15.2524, -11.0823, -85.53, 6.86451
5.388, 7, -12.5921, 41.5975, 15.1279, -11.1101, -85.6048, 6.89116
5.392, 7, -12.6347, 41.7008, 15.0031, -11.1377, -85.6794, 6.91781
5.396, 7, -12.6769, 41.8037, 14.8783, -11.1651, -85.7535, 6.94446
5.4, 7, -12.7185, 41.906, 14.7536, -11.1923, -85.8273, 6.97109
5.404, 7, -12.7596, 42.0075, 14.629, -11.2193, -85.9005, 6.99766
5.408, 7, -12.8, 42.108, 14.5049, -11.2459, -85.9732, 7.02415
5.412, 7, -12.8396, 42.2073, 14.3816, -11.2723, -86.0452, 7.05051
5.416, 7, -12.8782, 42.305, 14.2593, -11.2983, -86.1163, 7.07666
5.42, 7, -12.9156, 42.4008, 14.1385, -11.3239, -86.1864, 7.10254
5.424, 7, -12.9519, 42.4943, 14.0195, -11.3489, -86.2551, 7.12805
5.428, 7, -12.9869, 42.5855, 13.903, -11.3733, -86.3223, 7.15307
5.432, 7, -13.0207, 42.6739, 13.7893, -11.397, -86.3876, 7.1775
5.436, 7, -13.0532, 42.7594, 13.679, -11.4198, -86.4507, 7.20118
5.44, 7, -13.0843, 42.8416, 13.5726, -11.4417, -86.5113, 7.224
5.444, 7, -13.1141, 42.9202, 13.4709, -11.4625, -86.569, 7.24583
5.448, 7, -13.1425, 42.995, 13.3741, -11.4821, -86.6235, 7.26654
5.452, 7, -13.1695, 43.0659, 13.2829, -11.5005, -86.6746, 7.28601
5.456, 7, -13.1952, 43.1326, 13.1975, -11.5175, -86.722, 7.30416
5.46, 7, -13.2195, 43.1951, 13.1184, -11.5332, -86.7656, 7.3209
5.464, 7, -13.2424, 43.2532, 13.0457, -11.5474, -86.8052, 7.33618
5.468, 7, -13.264, 43.307, 12.9796, -11.5601, -86.8409, 7.34998
5.472, 7, -13.2842, 43.3563, 12.92, -11.5715, -86.8726, 7.3623
5.476, 7, -13.303, 43.4012, 12.8669, -11.5814, -86.9004, 7.37317
5.48, 7, -13.3204, 43.4418, 12.8201, -11.5901, -86.9246, 7.38263
5.484, 7, -13.3364, 43.4781, 12.7793, -11.5975, -86.9453, 7.39077
5.488, 7, -13.3509, 43.5104, 12.7441, -11.6037, -86.9628, 7.39767
5.492, 7, -13.3641, 43.5387, 12.7142, -11.609, -86.9773, 7.40345
5.496, 7, -13.3758, 43.5633, 12.6891, -11.6132, -86.9893, 7.40821
5.5, 7, -13.3861, 43.5843, 12.6683, -11.6167, -86.9989, 7.41208
5.504, 7, -13.3951, 43.6022, 12.6513, -11.6194, -87.0066, 7.41518
5.508, 7, -13.403, 43.6172, 12.6376, -11.6216, -87.0126, 7.41761
5.512, 7, -13.4098, 43.6299, 12.6268, -11.6233, -87.0173, 7.41949
5.516, 7, -13.4158, 43.6405, 12.6183, -11.6245, -87.0207, 7.4209
5.52, 7, -13.4209, 43.6494, 12.6118, -11.6254, -87.0232, 7.42195
5.524, 7, -13.4253, 43.6568, 12.6069, -11.6261, -87.025, 7.42271
5.528, 7, -13.429, 43.6627, 12.6032, -11.6265, -87.0263, 7.42324
5.532, 8, -13.4319, 43.6674, 12.6006, -11.6268, -87.0272, 7.42362
5.536, 8, -13.4342, 43.6709, 12.5987, -11.6271, -87.0277, 7.42387
5.54, 8, -13.4358, 43.6733, 12.5974, -11.6272, -87.0282, 7.42405
5.544, 8, -13.4369, 43.675, 12.5965, -11.6273, -87.0284, 7.42416
5.548, 8, -13.4377, 43.6762, 12.5959, -11.6274, -87.0286, 7.42424
5.552, 8, -13.4382, 43.677, 12.5955, -11.6274, -87.0287, 7.4243
5.556, 8, -13.4386, 43.6775, 12.5952, -11.6274, -87.0288, 7.42433
5.56, 8, -13.4388, 43.6779, 12.595, -11.6275, -87.0289, 7.42436
5.564, 8, -13.439, 43.6781, 12.5949, -11.6275, -87.0289, 7.42438
5.568, 8, -13.4391, 43.6783, 12.5948, -11.6275, -87.0289, 7.42439
5.572, 8, -13.4391, 43.6784, 12.5947, -11.6275, -87.0289, 7.42439
5.576, 8, -13.4392, 43.6785, 12.5947, -11.6275, -87.029, 7.4244
5.58, 8, -13.4392, 43.6785, 12.5947, -11.6275, -87.029, 7.4244
5.584, 8, -13.4392, 43.6786, 12.5946, -11.6275, -87.029, 7.42441
5.588, 8, -13.4393, 43.6786, 12.5946, -11.6275, -87.029, 7.42441
5.592, 8, -13.4393, 43.6786, 12.5946, -11.6275, -87.029, 7.42441
5.596, 8, -13.4393, 43.6786, 12.5946, -11.6275, -87.029, 7.42441
5.6, 8, -13.4393, 43.6786, 12.5946, -11.6275, -87.029, 7.42441
5.604, 8, -13.4393, 43.6786, 12.5946, -11.6275, -87.029, 7.42441
5.608, 8, -13.4393, 43.6786, 12.5946, -11.6275, -87.029, 7.42441
5.612, 8, -13.4393, 43.6787, 12.5946, -11.6275, -87.029, 7.42441
5.616, 8, -13.4393, 43.6787, 12.5946, -11.6275, -87.029, 7.42441
5.62, 8, -13.4393, 43.6787, 12.5946, -11.6275, -87.029, 7.42441
5.624, 8, -13.4393, 43.6787, 12.5946, -11.6275, -87.029, 7.42441
5.628, 8, -13.4393, 43.6787, 12.5946, -11.6275, -87.029, 7.42441
5.632, 8, -13.4393, 43.6787, 12.5946, -11.6275, -87.029, 7.42441
5.636, 8, -13.4393, 43.6787, 12.5946, -11.6275, -87.029, 7.42441
5.64, 8, -13.4393, 43.6787, 12.5946, -11.6275, -87.029, 7.42441
5.644, 8, -13.4393, 43.6787, 12.5946, -11.6275, -87.029, 7.42441
5.648, 8, -13.4393, 43.6787, 12.5946, -11.6275, -87.029, 7.42441
