hehonglu123/ABB_Primitive_Study/execution/movelcl_30_car/curve_exe_v300_z10.csv
timestamp, cmd_num, J1, J2, J3, J4, J5, J6
0, -1, -13.4393, 43.6787, 12.5946, -11.6275, -87.029, 7.42441
0.002, -1, -13.4393, 43.6787, 12.5946, -11.6275, -87.029, 7.42441
0.007, -1, -13.4393, 43.6787, 12.5946, -11.6275, -87.029, 7.42441
0.008, -1, -13.4393, 43.6787, 12.5946, -11.6275, -87.029, 7.42441
0.011, -1, -13.4393, 43.6787, 12.5946, -11.6275, -87.029, 7.42441
0.016, -1, -13.4393, 43.6787, 12.5946, -11.6275, -87.029, 7.42441
0.02, -1, -13.4393, 43.6787, 12.5946, -11.6275, -87.029, 7.42441
0.024, -1, -13.4393, 43.6787, 12.5946, -11.6275, -87.029, 7.42441
0.028, -1, -13.4393, 43.6787, 12.5946, -11.6275, -87.029, 7.42441
0.032, -1, -13.4393, 43.6787, 12.5946, -11.6275, -87.029, 7.42441
0.036, -1, -13.4393, 43.6787, 12.5946, -11.6275, -87.029, 7.42441
0.04, -1, -13.4392, 43.6786, 12.5946, -11.6275, -87.029, 7.42441
0.044, -1, -13.439, 43.6785, 12.5946, -11.6275, -87.029, 7.42441
0.048, -1, -13.4384, 43.678, 12.5947, -11.6275, -87.029, 7.42439
0.052, -1, -13.4372, 43.6772, 12.5949, -11.6274, -87.0289, 7.42434
0.056, -1, -13.4355, 43.6758, 12.5951, -11.6273, -87.0287, 7.42422
0.06, -1, -13.433, 43.6738, 12.5955, -11.627, -87.0284, 7.42397
0.064, -1, -13.4296, 43.671, 12.5961, -11.6264, -87.0277, 7.42349
0.068, -1, -13.4254, 43.6675, 12.5969, -11.6253, -87.0264, 7.42266
0.072, -1, -13.4203, 43.6631, 12.598, -11.6236, -87.0244, 7.42132
0.076, -1, -13.4141, 43.6579, 12.5994, -11.6209, -87.0213, 7.41928
0.08, -1, -13.4066, 43.6516, 12.6011, -11.617, -87.0167, 7.4163
0.084, -1, -13.3977, 43.6442, 12.6034, -11.6115, -87.0103, 7.41213
0.088, -1, -13.3869, 43.6352, 12.6062, -11.604, -87.0016, 7.40644
0.092, -1, -13.3743, 43.6247, 12.6097, -11.5941, -86.9899, 7.39892
0.096, -1, -13.3596, 43.6124, 12.6138, -11.5812, -86.9748, 7.38918
0.1, -1, -13.3427, 43.5982, 12.6186, -11.5648, -86.9557, 7.37685
0.104, -1, -13.3235, 43.582, 12.6243, -11.5444, -86.9319, 7.36155
0.108, -1, -13.3019, 43.5636, 12.6308, -11.5196, -86.9029, 7.3429
0.112, -1, -13.2776, 43.5427, 12.6382, -11.4899, -86.868, 7.32054
0.116, -1, -13.2505, 43.5193, 12.6467, -11.4547, -86.8269, 7.29416
0.12, -1, -13.2206, 43.4932, 12.6562, -11.4137, -86.7789, 7.26346
0.124, -1, -13.1877, 43.4644, 12.6669, -11.3667, -86.7238, 7.22818
0.128, -1, -13.1519, 43.4328, 12.6786, -11.3132, -86.6612, 7.18814
0.131, -1, -13.113, 43.3984, 12.6916, -11.2532, -86.591, 7.14319
0.136, -1, -13.071, 43.3611, 12.7056, -11.1865, -86.5129, 7.09326
0.139, -1, -13.026, 43.321, 12.7209, -11.1131, -86.4269, 7.03835
0.144, -1, -12.9779, 43.2779, 12.7373, -11.0331, -86.3333, 6.9785
0.148, -1, -12.9267, 43.232, 12.7548, -10.9467, -86.2321, 6.91384
0.152, -1, -12.8726, 43.1833, 12.7734, -10.854, -86.1236, 6.84454
0.156, -1, -12.8155, 43.132, 12.7932, -10.7555, -86.0082, 6.77084
0.16, -1, -12.7557, 43.0781, 12.8139, -10.6514, -85.8863, 6.69301
0.164, -1, -12.6932, 43.0219, 12.8355, -10.5422, -85.7585, 6.61137
0.168, -1, -12.6282, 42.9633, 12.8581, -10.4284, -85.6253, 6.52627
0.172, -1, -12.5607, 42.9025, 12.8815, -10.3105, -85.4872, 6.43809
0.176, -1, -12.4909, 42.8396, 12.9056, -10.189, -85.3449, 6.34721
0.18, -1, -12.4189, 42.7749, 12.9305, -10.0644, -85.1989, 6.25399
0.184, -1, -12.345, 42.7085, 12.956, -9.93711, -85.0499, 6.15879
0.188, -1, -12.2694, 42.6406, 12.9821, -9.80765, -84.8983, 6.06194
0.192, -1, -12.1925, 42.5714, 13.0086, -9.6764, -84.7446, 5.96375
0.196, -1, -12.1142, 42.5011, 13.0356, -9.54373, -84.5892, 5.86449
0.2, -1, -12.0348, 42.4297, 13.0629, -9.40995, -84.4326, 5.76439
0.204, -1, -11.9542, 42.3573, 13.0906, -9.27534, -84.2749, 5.66366
0.208, -1, -11.8724, 42.2841, 13.1185, -9.14011, -84.1166, 5.56246
0.212, -1, -11.7897, 42.21, 13.1466, -9.00443, -83.9577, 5.46092
0.216, -1, -11.7061, 42.1354, 13.1749, -8.86843, -83.7985, 5.35913
0.22, -1, -11.6218, 42.0602, 13.2033, -8.7322, -83.6389, 5.25717
0.224, -1, -11.5371, 41.9847, 13.2318, -8.5958, -83.4792, 5.15507
0.228, -1, -11.452, 41.909, 13.2603, -8.45928, -83.3194, 5.05288
0.232, -1, -11.3667, 41.8332, 13.2889, -8.32266, -83.1594, 4.95062
0.236, -1, -11.2813, 41.7572, 13.3176, -8.18597, -82.9993, 4.8483
0.24, -1, -11.1957, 41.6811, 13.3462, -8.04922, -82.8392, 4.74595
0.244, -1, -11.11, 41.605, 13.3749, -7.91243, -82.679, 4.64355
0.248, -1, -11.0243, 41.5288, 13.4035, -7.77561, -82.5188, 4.54114
0.252, -1, -10.9386, 41.4526, 13.4322, -7.63876, -82.3586, 4.4387
0.256, -1, -10.8528, 41.3764, 13.4609, -7.50189, -82.1983, 4.33625
0.26, -1, -10.767, 41.3002, 13.4896, -7.36501, -82.0381, 4.2338
0.264, -1, -10.6811, 41.2239, 13.5183, -7.22813, -81.8778, 4.13133
0.268, -1, -10.5953, 41.1477, 13.547, -7.09125, -81.7175, 4.02887
0.272, -1, -10.5094, 41.0714, 13.5757, -6.95436, -81.5572, 3.92641
0.276, -1, -10.4236, 40.9952, 13.6044, -6.81749, -81.397, 3.82396
0.28, -1, -10.3378, 40.9189, 13.6331, -6.68063, -81.2367, 3.72151
0.284, -1, -10.252, 40.8427, 13.6618, -6.54379, -81.0765, 3.61908
0.288, -1, -10.1661, 40.7665, 13.6904, -6.40697, -80.9163, 3.51666
0.292, -1, -10.0803, 40.6903, 13.7191, -6.27017, -80.7561, 3.41427
0.296, -1, -9.99456, 40.6141, 13.7478, -6.13341, -80.596, 3.31189
0.3, -1, -9.9088, 40.538, 13.7764, -5.99668, -80.4359, 3.20955
0.304, -1, -9.82306, 40.4618, 13.8051, -5.85999, -80.2758, 3.10723
0.308, -1, -9.73734, 40.3857, 13.8337, -5.72334, -80.1158, 3.00494
0.312, -1, -9.65166, 40.3096, 13.8624, -5.58674, -79.9558, 2.90269
0.316, -1, -9.566, 40.2336, 13.891, -5.45019, -79.796, 2.80048
0.32, -1, -9.48038, 40.1575, 13.9196, -5.31369, -79.6361, 2.69831
0.324, -1, -9.3948, 40.0815, 13.9482, -5.17726, -79.4764, 2.59618
0.328, -1, -9.30925, 40.0055, 13.9768, -5.04089, -79.3167, 2.4941
0.332, -1, -9.22375, 39.9296, 14.0054, -4.90458, -79.1571, 2.39207
0.336, -1, -9.13829, 39.8537, 14.0339, -4.76835, -78.9976, 2.2901
0.34, -1, -9.05287, 39.7778, 14.0625, -4.63219, -78.8382, 2.18818
0.344, -1, -8.9675, 39.702, 14.091, -4.49612, -78.6788, 2.08632
0.348, -1, -8.88219, 39.6262, 14.1195, -4.36012, -78.5196, 1.98452
0.352, -1, -8.79693, 39.5505, 14.148, -4.22421, -78.3604, 1.88279
0.356, -1, -8.71172, 39.4748, 14.1765, -4.0884, -78.2014, 1.78113
0.36, -1, -8.62657, 39.3992, 14.2049, -3.95267, -78.0425, 1.67953
0.364, -1, -8.54148, 39.3236, 14.2334, -3.81705, -77.8837, 1.57801
0.368, -1, -8.45646, 39.2481, 14.2618, -3.68152, -77.725, 1.47657
0.372, -1, -8.3715, 39.1727, 14.2902, -3.54611, -77.5664, 1.3752
0.376, -1, -8.28661, 39.0973, 14.3185, -3.4108, -77.408, 1.27392
0.38, -1, -8.20179, 39.0219, 14.3469, -3.2756, -77.2497, 1.17272
0.384, -1, -8.11704, 38.9467, 14.3752, -3.14052, -77.0915, 1.07161
0.388, -1, -8.03237, 38.8715, 14.4035, -3.00557, -76.9335, 0.970588
0.392, -1, -7.94777, 38.7963, 14.4318, -2.87073, -76.7756, 0.869659
0.396, -1, -7.86325, 38.7212, 14.46, -2.73602, -76.6179, 0.768825
0.4, -1, -7.77881, 38.6463, 14.4882, -2.60145, -76.4603, 0.668089
0.404, -1, -7.69446, 38.5713, 14.5164, -2.467, -76.3029, 0.567454
0.408, -1, -7.61019, 38.4965, 14.5446, -2.3327, -76.1456, 0.466921
0.412, -1, -7.526, 38.4217, 14.5727, -2.19854, -75.9885, 0.366494
0.416, -1, -7.44191, 38.347, 14.6008, -2.06452, -75.8316, 0.266176
0.42, -1, -7.35791, 38.2724, 14.6288, -1.93064, -75.6748, 0.165968
0.424, -1, -7.274, 38.1979, 14.6569, -1.79692, -75.5183, 0.0658724
0.428, -1, -7.19019, 38.1235, 14.6849, -1.66336, -75.3619, -0.0341072
0.432, -1, -7.10648, 38.0491, 14.7128, -1.52995, -75.2057, -0.133969
0.436, -1, -7.02287, 37.9748, 14.7408, -1.3967, -75.0496, -0.233711
0.44, -1, -6.93935, 37.9007, 14.7687, -1.26362, -74.8938, -0.33333
0.444, -1, -6.85595, 37.8266, 14.7965, -1.1307, -74.7382, -0.432824
0.448, -1, -6.77264, 37.7526, 14.8244, -0.99795, -74.5827, -0.532191
0.452, -1, -6.68945, 37.6787, 14.8522, -0.865375, -74.4275, -0.631429
0.456, -1, -6.60636, 37.6049, 14.8799, -0.732975, -74.2725, -0.730535
0.46, -1, -6.52339, 37.5312, 14.9077, -0.600755, -74.1176, -0.829507
0.464, -1, -6.44053, 37.4576, 14.9353, -0.468716, -73.963, -0.928344
0.468, -1, -6.35778, 37.3842, 14.963, -0.336861, -73.8086, -1.02704
0.472, -1, -6.27515, 37.3108, 14.9906, -0.205193, -73.6545, -1.1256
0.476, -1, -6.19264, 37.2375, 15.0181, -0.0737153, -73.5005, -1.22402
0.48, -1, -6.11024, 37.1643, 15.0457, 0.0575699, -73.3468, -1.32229
0.484, -1, -6.02797, 37.0912, 15.0732, 0.18866, -73.1933, -1.42042
0.488, -1, -5.94582, 37.0183, 15.1006, 0.319552, -73.04, -1.51839
0.492, -1, -5.8638, 36.9454, 15.128, 0.450244, -72.887, -1.61622
0.496, -1, -5.7819, 36.8727, 15.1554, 0.580734, -72.7342, -1.7139
0.5, -1, -5.70012, 36.8001, 15.1827, 0.711018, -72.5817, -1.81142
0.504, -1, -5.61848, 36.7276, 15.2099, 0.841096, -72.4294, -1.90879
0.508, -1, -5.53697, 36.6552, 15.2372, 0.970964, -72.2773, -2.006
0.512, -1, -5.45558, 36.5829, 15.2644, 1.10062, -72.1255, -2.10306
0.516, -1, -5.37433, 36.5108, 15.2915, 1.23006, -71.9739, -2.19995
0.52, -1, -5.29321, 36.4387, 15.3186, 1.35929, -71.8226, -2.29668
0.524, -1, -5.21223, 36.3668, 15.3456, 1.4883, -71.6715, -2.39325
0.528, -1, -5.13138, 36.295, 15.3726, 1.6171, -71.5207, -2.48966
0.532, -1, -5.05067, 36.2233, 15.3996, 1.74567, -71.3702, -2.5859
0.536, -1, -4.97009, 36.1518, 15.4265, 1.87402, -71.2199, -2.68198
0.54, -1, -4.88966, 36.0803, 15.4534, 2.00215, -71.0698, -2.77789
0.544, -1, -4.80936, 36.009, 15.4802, 2.13005, -70.9201, -2.87363
0.548, -1, -4.7292, 35.9378, 15.507, 2.25773, -70.7706, -2.9692
0.552, -1, -4.64919, 35.8668, 15.5337, 2.38518, -70.6213, -3.0646
0.556, -1, -4.56931, 35.7959, 15.5604, 2.51241, -70.4724, -3.15984
0.56, -1, -4.48958, 35.725, 15.587, 2.6394, -70.3237, -3.2549
0.564, -1, -4.41, 35.6544, 15.6136, 2.76617, -70.1752, -3.34979
0.568, -1, -4.33056, 35.5838, 15.6401, 2.8927, -70.0271, -3.44451
0.572, -1, -4.25126, 35.5134, 15.6666, 3.01901, -69.8792, -3.53905
0.576, -1, -4.17211, 35.4431, 15.693, 3.14508, -69.7316, -3.63342
0.58, -1, -4.0931, 35.373, 15.7194, 3.27092, -69.5842, -3.72761
0.584, -1, -4.01424, 35.3029, 15.7458, 3.39652, -69.4372, -3.82163
0.588, -1, -3.93553, 35.233, 15.772, 3.52189, -69.2904, -3.91547
0.592, -1, -3.85696, 35.1633, 15.7983, 3.64702, -69.1438, -4.00914
0.596, -1, -3.77855, 35.0936, 15.8245, 3.77191, -68.9976, -4.10263
0.6, -1, -3.70028, 35.0241, 15.8506, 3.89657, -68.8516, -4.19594
0.604, -1, -3.62216, 34.9548, 15.8767, 4.02099, -68.7059, -4.28908
0.608, -1, -3.54419, 34.8855, 15.9027, 4.14517, -68.5605, -4.38203
0.612, -1, -3.46637, 34.8164, 15.9287, 4.26911, -68.4154, -4.47481
0.616, -1, -3.3887, 34.7474, 15.9547, 4.39281, -68.2706, -4.5674
0.62, -1, -3.31118, 34.6786, 15.9806, 4.51628, -68.126, -4.65982
0.624, -1, -3.23382, 34.6099, 16.0064, 4.63949, -67.9817, -4.75205
0.628, -1, -3.1566, 34.5413, 16.0322, 4.76247, -67.8377, -4.84411
0.632, -1, -3.07954, 34.4729, 16.0579, 4.88521, -67.694, -4.93598
0.636, -1, -3.00262, 34.4046, 16.0836, 5.0077, -67.5506, -5.02767
0.64, -1, -2.92586, 34.3364, 16.1092, 5.12995, -67.4074, -5.11918
0.644, -1, -2.84926, 34.2684, 16.1348, 5.25195, -67.2646, -5.2105
0.648, -1, -2.7728, 34.2005, 16.1604, 5.37371, -67.122, -5.30165
0.652, -1, -2.6965, 34.1328, 16.1858, 5.49523, -66.9797, -5.39261
0.656, -1, -2.62035, 34.0652, 16.2113, 5.6165, -66.8377, -5.48338
0.66, -1, -2.54436, 33.9977, 16.2366, 5.73753, -66.696, -5.57398
0.664, -1, -2.46852, 33.9303, 16.262, 5.85831, -66.5546, -5.66439
0.668, -1, -2.39283, 33.8631, 16.2872, 5.97884, -66.4135, -5.75461
0.672, -1, -2.3173, 33.7961, 16.3125, 6.09913, -66.2726, -5.84465
0.676, -1, -2.24192, 33.7291, 16.3376, 6.21917, -66.1321, -5.93451
0.68, -1, -2.1667, 33.6623, 16.3628, 6.33897, -65.9918, -6.02418
0.684, -1, -2.09163, 33.5957, 16.3878, 6.45851, -65.8518, -6.11367
0.688, -1, -2.01672, 33.5292, 16.4129, 6.57781, -65.7121, -6.20297
0.692, -1, -1.94196, 33.4628, 16.4378, 6.69687, -65.5727, -6.29208
0.696, -1, -1.86736, 33.3965, 16.4627, 6.81567, -65.4336, -6.38101
0.7, -1, -1.79291, 33.3304, 16.4876, 6.93423, -65.2948, -6.46976
0.704, -1, -1.71862, 33.2645, 16.5124, 7.05254, -65.1562, -6.55832
0.708, -1, -1.64448, 33.1986, 16.5372, 7.1706, -65.018, -6.64669
0.712, -1, -1.5705, 33.1329, 16.5619, 7.28841, -64.8801, -6.73488
0.716, -1, -1.49668, 33.0674, 16.5865, 7.40597, -64.7424, -6.82288
0.72, -1, -1.42301, 33.002, 16.6111, 7.52329, -64.605, -6.9107
0.724, -1, -1.34949, 32.9367, 16.6357, 7.64036, -64.468, -6.99833
0.728, -1, -1.27614, 32.8715, 16.6602, 7.75718, -64.3312, -7.08577
0.732, -1, -1.20293, 32.8065, 16.6846, 7.87375, -64.1947, -7.17303
0.736, -1, -1.12989, 32.7417, 16.709, 7.99007, -64.0585, -7.2601
0.74, -1, -1.057, 32.677, 16.7333, 8.10615, -63.9226, -7.34699
0.744, -1, -0.984259, 32.6124, 16.7576, 8.22197, -63.7869, -7.43369
0.748, -1, -0.911678, 32.5479, 16.7819, 8.33755, -63.6516, -7.52021
0.752, -1, -0.839252, 32.4836, 16.8061, 8.45288, -63.5166, -7.60653
0.756, -1, -0.766981, 32.4194, 16.8302, 8.56796, -63.3818, -7.69268
0.76, -1, -0.694864, 32.3554, 16.8543, 8.6828, -63.2474, -7.77864
0.764, -1, -0.622901, 32.2915, 16.8783, 8.79738, -63.1132, -7.86441
0.768, -1, -0.551092, 32.2277, 16.9023, 8.91172, -62.9793, -7.95
0.772, -1, -0.479437, 32.1641, 16.9262, 9.02582, -62.8457, -8.0354
0.776, -1, -0.407935, 32.1006, 16.9501, 9.13966, -62.7124, -8.12062
0.78, -1, -0.336586, 32.0373, 16.9739, 9.25326, -62.5794, -8.20566
0.784, -1, -0.26539, 31.9741, 16.9977, 9.36662, -62.4467, -8.29051
0.788, -1, -0.194346, 31.911, 17.0214, 9.47973, -62.3142, -8.37518
0.792, -1, -0.123455, 31.848, 17.0451, 9.5926, -62.182, -8.45966
0.796, -1, -0.0527154, 31.7852, 17.0687, 9.70522, -62.0502, -8.54397
0.8, -1, 0.0178725, 31.7226, 17.0923, 9.81761, -61.9186, -8.62809
0.804, -1, 0.0883091, 31.66, 17.1158, 9.92975, -61.7873, -8.71204
0.808, -1, 0.158595, 31.5976, 17.1393, 10.0417, -61.6562, -8.7958
0.812, -1, 0.22873, 31.5353, 17.1627, 10.1533, -61.5255, -8.87938
0.816, -1, 0.298716, 31.4732, 17.186, 10.2647, -61.395, -8.96279
0.82, -1, 0.368552, 31.4112, 17.2094, 10.3759, -61.2648, -9.04602
0.824, -1, 0.438239, 31.3493, 17.2326, 10.4869, -61.1349, -9.12907
0.828, -1, 0.507778, 31.2876, 17.2559, 10.5976, -61.0053, -9.21194
0.832, -1, 0.577169, 31.226, 17.279, 10.7081, -60.8759, -9.29464
0.836, -1, 0.646413, 31.1645, 17.3021, 10.8183, -60.7468, -9.37716
0.84, -1, 0.71551, 31.1031, 17.3252, 10.9283, -60.618, -9.45951
0.844, -1, 0.78446, 31.0419, 17.3482, 11.0381, -60.4895, -9.54168
0.848, -1, 0.853266, 30.9808, 17.3712, 11.1476, -60.3612, -9.62368
0.852, -1, 0.921925, 30.9199, 17.3941, 11.2569, -60.2332, -9.7055
0.856, -1, 0.990441, 30.859, 17.417, 11.366, -60.1055, -9.78716
0.86, -1, 1.05881, 30.7983, 17.4398, 11.4749, -59.9781, -9.86864
0.864, -1, 1.12704, 30.7378, 17.4626, 11.5835, -59.8509, -9.94995
0.868, -1, 1.19512, 30.6773, 17.4854, 11.6919, -59.7239, -10.0311
0.872, -1, 1.26307, 30.617, 17.508, 11.8001, -59.5973, -10.1121
0.876, -1, 1.33087, 30.5568, 17.5307, 11.908, -59.4709, -10.1929
0.88, -1, 1.39853, 30.4967, 17.5533, 12.0157, -59.3448, -10.2735
0.884, -1, 1.46604, 30.4368, 17.5758, 12.1232, -59.2189, -10.354
0.888, -1, 1.53342, 30.377, 17.5983, 12.2305, -59.0933, -10.4343
0.892, -1, 1.60066, 30.3173, 17.6208, 12.3375, -58.9679, -10.5144
0.896, -1, 1.66775, 30.2577, 17.6432, 12.4444, -58.8429, -10.5943
0.9, -1, 1.73471, 30.1982, 17.6655, 12.551, -58.718, -10.6741
0.904, -1, 1.80153, 30.1389, 17.6878, 12.6574, -58.5935, -10.7538
0.908, -1, 1.86821, 30.0797, 17.7101, 12.7635, -58.4692, -10.8332
0.912, -1, 1.93476, 30.0206, 17.7323, 12.8695, -58.3451, -10.9125
0.916, -1, 2.00117, 29.9617, 17.7545, 12.9752, -58.2213, -10.9917
0.92, -1, 2.06744, 29.9028, 17.7766, 13.0807, -58.0978, -11.0707
0.924, -1, 2.13357, 29.8441, 17.7987, 13.186, -57.9745, -11.1495
0.928, -1, 2.19957, 29.7855, 17.8207, 13.2911, -57.8514, -11.2281
0.932, -1, 2.26543, 29.727, 17.8427, 13.3959, -57.7287, -11.3066
0.936, -1, 2.33116, 29.6687, 17.8647, 13.5006, -57.6061, -11.385
0.94, -1, 2.39676, 29.6104, 17.8866, 13.605, -57.4838, -11.4631
0.944, -1, 2.46222, 29.5523, 17.9084, 13.7092, -57.3618, -11.5412
0.948, -1, 2.52755, 29.4943, 17.9303, 13.8133, -57.24, -11.619
0.952, -1, 2.59275, 29.4364, 17.952, 13.9171, -57.1185, -11.6967
0.956, -1, 2.65781, 29.3787, 17.9738, 14.0206, -56.9972, -11.7743
0.96, -1, 2.72274, 29.321, 17.9954, 14.124, -56.8761, -11.8516
0.964, -1, 2.78755, 29.2635, 18.0171, 14.2272, -56.7553, -11.9289
0.968, -1, 2.85222, 29.2061, 18.0387, 14.3302, -56.6348, -12.0059
0.972, -1, 2.91676, 29.1488, 18.0602, 14.4329, -56.5144, -12.0829
0.976, -1, 2.98117, 29.0916, 18.0817, 14.5355, -56.3944, -12.1596
0.98, -1, 3.04545, 29.0345, 18.1032, 14.6378, -56.2745, -12.2362
0.984, -1, 3.10961, 28.9775, 18.1246, 14.7399, -56.1549, -12.3127
0.988, -1, 3.17363, 28.9207, 18.146, 14.8419, -56.0356, -12.389
0.992, -1, 3.23753, 28.864, 18.1673, 14.9436, -55.9165, -12.4651
0.996, -1, 3.3013, 28.8074, 18.1886, 15.0451, -55.7976, -12.5411
1, -1, 3.36494, 28.7508, 18.2099, 15.1465, -55.6789, -12.617
1.004, -1, 3.42846, 28.6945, 18.2311, 15.2476, -55.5605, -12.6927
1.008, -1, 3.49185, 28.6382, 18.2523, 15.3485, -55.4423, -12.7682
1.012, -1, 3.55512, 28.582, 18.2734, 15.4492, -55.3244, -12.8436
1.016, -1, 3.61826, 28.5259, 18.2945, 15.5498, -55.2067, -12.9189
1.02, -1, 3.68127, 28.47, 18.3155, 15.6501, -55.0892, -12.994
1.024, -1, 3.74416, 28.4142, 18.3365, 15.7502, -54.972, -13.0689
1.027, -1, 3.80693, 28.3584, 18.3575, 15.8502, -54.855, -13.1437
1.032, -1, 3.86958, 28.3028, 18.3784, 15.9499, -54.7382, -13.2184
1.036, -1, 3.9321, 28.2473, 18.3993, 16.0494, -54.6216, -13.2929
1.04, -1, 3.9945, 28.1919, 18.4201, 16.1488, -54.5053, -13.3673
1.044, -1, 4.05678, 28.1366, 18.4409, 16.2479, -54.3892, -13.4415
1.048, -1, 4.11893, 28.0814, 18.4616, 16.3469, -54.2733, -13.5156
1.052, -1, 4.18097, 28.0263, 18.4824, 16.4457, -54.1577, -13.5895
1.055, -1, 4.24289, 27.9714, 18.503, 16.5442, -54.0422, -13.6633
1.06, -1, 4.30468, 27.9165, 18.5237, 16.6426, -53.927, -13.7369
1.064, -1, 4.36636, 27.8617, 18.5443, 16.7408, -53.8121, -13.8104
1.068, -1, 4.42792, 27.8071, 18.5648, 16.8388, -53.6973, -13.8838
1.072, -1, 4.48936, 27.7525, 18.5853, 16.9366, -53.5828, -13.957
1.076, -1, 4.55068, 27.6981, 18.6058, 17.0343, -53.4685, -14.0301
1.08, -1, 4.61188, 27.6438, 18.6262, 17.1317, -53.3544, -14.103
1.084, -1, 4.67297, 27.5895, 18.6466, 17.229, -53.2405, -14.1758
1.088, -1, 4.73394, 27.5354, 18.667, 17.326, -53.1268, -14.2485
1.091, -1, 4.7948, 27.4814, 18.6873, 17.4229, -53.0134, -14.321
1.096, -1, 4.85554, 27.4274, 18.7076, 17.5196, -52.9002, -14.3934
1.1, -1, 4.91617, 27.3736, 18.7278, 17.6161, -52.7871, -14.4656
1.104, -1, 4.97668, 27.3199, 18.7481, 17.7125, -52.6743, -14.5378
1.108, -1, 5.03708, 27.2663, 18.7682, 17.8086, -52.5618, -14.6097
1.112, -1, 5.09737, 27.2127, 18.7883, 17.9046, -52.4494, -14.6816
1.116, -1, 5.15754, 27.1593, 18.8084, 18.0004, -52.3372, -14.7533
1.119, -1, 5.2176, 27.106, 18.8285, 18.096, -52.2253, -14.8249
1.124, -1, 5.27755, 27.0528, 18.8485, 18.1915, -52.1135, -14.8963
1.128, -1, 5.33739, 26.9996, 18.8685, 18.2867, -52.0019, -14.9676
1.132, -1, 5.39712, 26.9466, 18.8884, 18.3818, -51.8906, -15.0388
1.136, -1, 5.45673, 26.8937, 18.9083, 18.4767, -51.7795, -15.1098
1.14, -1, 5.51624, 26.8408, 18.9282, 18.5715, -51.6685, -15.1807
1.144, -1, 5.57564, 26.7881, 18.948, 18.666, -51.5578, -15.2515
1.147, -1, 5.63493, 26.7355, 18.9678, 18.7604, -51.4473, -15.3222
1.152, -1, 5.69412, 26.6829, 18.9876, 18.8547, -51.337, -15.3927
1.156, -1, 5.75319, 26.6305, 19.0073, 18.9487, -51.2268, -15.4631
1.16, -1, 5.81216, 26.5781, 19.027, 19.0426, -51.1169, -15.5334
1.164, -1, 5.87103, 26.5259, 19.0467, 19.1363, -51.0072, -15.6035
1.168, -1, 5.92979, 26.4737, 19.0663, 19.2298, -50.8976, -15.6736
1.172, -1, 5.98844, 26.4216, 19.0859, 19.3232, -50.7883, -15.7435
1.175, -1, 6.04699, 26.3696, 19.1054, 19.4164, -50.6792, -15.8132
1.18, -1, 6.10543, 26.3177, 19.1249, 19.5095, -50.5702, -15.8829
1.184, -1, 6.16377, 26.266, 19.1444, 19.6024, -50.4614, -15.9524
1.188, -1, 6.22201, 26.2142, 19.1639, 19.6951, -50.3529, -16.0218
1.192, -1, 6.28015, 26.1626, 19.1833, 19.7876, -50.2445, -16.0911
1.196, -1, 6.33818, 26.1111, 19.2027, 19.88, -50.1363, -16.1603
1.2, -1, 6.39611, 26.0597, 19.222, 19.9723, -50.0283, -16.2293
1.204, -1, 6.45394, 26.0083, 19.2413, 20.0643, -49.9205, -16.2982
1.208, -1, 6.51167, 25.9571, 19.2606, 20.1562, -49.8129, -16.367
1.212, -1, 6.5693, 25.9059, 19.2798, 20.248, -49.7055, -16.4357
1.216, -1, 6.62683, 25.8548, 19.299, 20.3396, -49.5982, -16.5042
1.22, -1, 6.68426, 25.8038, 19.3182, 20.431, -49.4912, -16.5727
1.224, -1, 6.74159, 25.7529, 19.3374, 20.5223, -49.3843, -16.641
1.228, -1, 6.79882, 25.7021, 19.3565, 20.6134, -49.2776, -16.7092
1.232, -1, 6.85596, 25.6514, 19.3756, 20.7044, -49.1711, -16.7773
1.236, -1, 6.91299, 25.6008, 19.3946, 20.7952, -49.0648, -16.8453
1.24, -1, 6.96993, 25.5502, 19.4136, 20.8858, -48.9586, -16.9131
1.244, -1, 7.02678, 25.4997, 19.4326, 20.9763, -48.8526, -16.9809
1.248, -1, 7.08352, 25.4494, 19.4515, 21.0667, -48.7469, -17.0485
1.252, -1, 7.14018, 25.3991, 19.4705, 21.1569, -48.6413, -17.116
1.256, -1, 7.19673, 25.3488, 19.4893, 21.2469, -48.5358, -17.1834
1.26, -1, 7.25319, 25.2987, 19.5082, 21.3368, -48.4306, -17.2507
1.264, -1, 7.30956, 25.2487, 19.527, 21.4266, -48.3255, -17.3179
1.267, -1, 7.36583, 25.1987, 19.5458, 21.5161, -48.2206, -17.385
1.272, -1, 7.42201, 25.1488, 19.5646, 21.6056, -48.1158, -17.4519
1.276, -1, 7.4781, 25.099, 19.5833, 21.6949, -48.0113, -17.5188
1.28, -1, 7.53409, 25.0493, 19.602, 21.784, -47.9069, -17.5855
1.284, -1, 7.58999, 24.9997, 19.6207, 21.873, -47.8027, -17.6521
1.288, -1, 7.6458, 24.9501, 19.6393, 21.9619, -47.6986, -17.7186
1.292, -1, 7.70152, 24.9007, 19.6579, 22.0506, -47.5948, -17.785
1.295, -1, 7.75715, 24.8513, 19.6765, 22.1392, -47.4911, -17.8513
1.3, -1, 7.81268, 24.802, 19.695, 22.2276, -47.3875, -17.9175
1.304, -1, 7.86813, 24.7528, 19.7135, 22.3159, -47.2842, -17.9836
1.308, -1, 7.92348, 24.7036, 19.732, 22.404, -47.181, -18.0496
1.312, -1, 7.97875, 24.6545, 19.7505, 22.492, -47.0779, -18.1154
1.316, -1, 8.03393, 24.6055, 19.7689, 22.5798, -46.9751, -18.1812
1.32, -1, 8.08901, 24.5566, 19.7873, 22.6675, -46.8724, -18.2468
1.324, -1, 8.14401, 24.5078, 19.8057, 22.7551, -46.7699, -18.3124
1.328, -1, 8.19893, 24.4591, 19.824, 22.8425, -46.6675, -18.3778
1.332, -1, 8.25375, 24.4104, 19.8423, 22.9298, -46.5653, -18.4432
1.336, -1, 8.30849, 24.3618, 19.8606, 23.017, -46.4632, -18.5084
1.34, -1, 8.36314, 24.3133, 19.8788, 23.104, -46.3614, -18.5735
1.344, -1, 8.4177, 24.2648, 19.8971, 23.1909, -46.2596, -18.6386
1.348, -1, 8.47218, 24.2165, 19.9153, 23.2776, -46.1581, -18.7035
1.352, -1, 8.52657, 24.1682, 19.9334, 23.3642, -46.0567, -18.7683
1.356, -1, 8.58088, 24.1199, 19.9515, 23.4507, -45.9554, -18.833
1.36, -1, 8.6351, 24.0718, 19.9697, 23.537, -45.8543, -18.8976
1.364, -1, 8.68923, 24.0237, 19.9877, 23.6232, -45.7534, -18.9622
1.368, -1, 8.74328, 23.9757, 20.0058, 23.7092, -45.6526, -19.0266
1.372, -1, 8.79725, 23.9278, 20.0238, 23.7952, -45.552, -19.0909
1.376, -1, 8.85114, 23.88, 20.0418, 23.881, -45.4516, -19.1551
1.38, -1, 8.90494, 23.8322, 20.0598, 23.9666, -45.3513, -19.2192
1.384, -1, 8.95866, 23.7845, 20.0777, 24.0521, -45.2511, -19.2833
1.388, -1, 9.01229, 23.7369, 20.0956, 24.1375, -45.1511, -19.3472
1.392, -1, 9.06584, 23.6894, 20.1135, 24.2228, -45.0513, -19.411
1.396, -1, 9.11932, 23.6419, 20.1314, 24.3079, -44.9516, -19.4747
1.4, -1, 9.1727, 23.5945, 20.1492, 24.393, -44.8521, -19.5384
1.404, -1, 9.22601, 23.5472, 20.167, 24.4778, -44.7527, -19.6019
1.408, -1, 9.27924, 23.4999, 20.1848, 24.5626, -44.6535, -19.6653
1.412, -1, 9.33239, 23.4527, 20.2025, 24.6472, -44.5544, -19.7287
1.416, -1, 9.38546, 23.4056, 20.2202, 24.7317, -44.4554, -19.7919
1.42, -1, 9.43844, 23.3585, 20.2379, 24.8161, -44.3567, -19.8551
1.424, -1, 9.49135, 23.3116, 20.2556, 24.9003, -44.258, -19.9181
1.428, -1, 9.54418, 23.2647, 20.2732, 24.9844, -44.1595, -19.9811
1.432, -1, 9.59693, 23.2178, 20.2908, 25.0684, -44.0612, -20.044
1.436, -1, 9.6496, 23.1711, 20.3084, 25.1523, -43.963, -20.1067
1.44, -1, 9.7022, 23.1244, 20.326, 25.236, -43.865, -20.1694
1.444, -1, 9.75472, 23.0777, 20.3435, 25.3196, -43.767, -20.232
1.448, -1, 9.80716, 23.0312, 20.361, 25.4031, -43.6693, -20.2945
1.452, -1, 9.85952, 22.9847, 20.3785, 25.4865, -43.5717, -20.3569
1.456, -1, 9.91181, 22.9383, 20.396, 25.5697, -43.4742, -20.4192
1.46, -1, 9.96403, 22.8919, 20.4134, 25.6528, -43.3769, -20.4814
1.464, -1, 10.0162, 22.8456, 20.4308, 25.7358, -43.2797, -20.5436
1.468, -1, 10.0682, 22.7994, 20.4482, 25.8187, -43.1826, -20.6056
1.472, -1, 10.1202, 22.7533, 20.4656, 25.9015, -43.0857, -20.6676
1.476, -1, 10.1721, 22.7072, 20.4829, 25.9841, -42.989, -20.7294
1.48, -1, 10.224, 22.6612, 20.5002, 26.0666, -42.8923, -20.7912
1.484, -1, 10.2757, 22.6152, 20.5175, 26.149, -42.7958, -20.8529
1.488, -1, 10.3274, 22.5693, 20.5348, 26.2313, -42.6995, -20.9145
1.492, -1, 10.379, 22.5235, 20.552, 26.3135, -42.6033, -20.976
1.496, -1, 10.4306, 22.4777, 20.5692, 26.3956, -42.5072, -21.0374
1.5, -1, 10.482, 22.432, 20.5864, 26.4775, -42.4113, -21.0987
1.504, -1, 10.5334, 22.3864, 20.6035, 26.5593, -42.3154, -21.16
1.508, -1, 10.5848, 22.3408, 20.6207, 26.641, -42.2198, -21.2212
1.512, -1, 10.636, 22.2953, 20.6378, 26.7226, -42.1242, -21.2822
1.516, -1, 10.6872, 22.2499, 20.6549, 26.8041, -42.0288, -21.3432
1.52, -1, 10.7383, 22.2045, 20.6719, 26.8855, -41.9336, -21.4041
1.524, -1, 10.7893, 22.1592, 20.689, 26.9667, -41.8384, -21.4649
1.528, -1, 10.8403, 22.114, 20.706, 27.0479, -41.7434, -21.5257
1.532, -1, 10.8912, 22.0688, 20.723, 27.1289, -41.6485, -21.5863
1.536, -1, 10.942, 22.0237, 20.74, 27.2098, -41.5538, -21.6469
1.54, -1, 10.9928, 21.9786, 20.7569, 27.2906, -41.4592, -21.7074
1.544, -1, 11.0435, 21.9336, 20.7738, 27.3713, -41.3647, -21.7678
1.548, -1, 11.0941, 21.8887, 20.7908, 27.4519, -41.2703, -21.8281
1.552, -1, 11.1446, 21.8438, 20.8076, 27.5324, -41.1761, -21.8884
1.556, -1, 11.1951, 21.799, 20.8245, 27.6127, -41.082, -21.9485
1.56, -1, 11.2455, 21.7542, 20.8413, 27.693, -40.988, -22.0086
1.564, -1, 11.2959, 21.7095, 20.8581, 27.7732, -40.8941, -22.0686
1.568, -1, 11.3462, 21.6649, 20.8749, 27.8532, -40.8004, -22.1285
1.572, -1, 11.3964, 21.6203, 20.8917, 27.9331, -40.7068, -22.1884
1.576, -1, 11.4465, 21.5758, 20.9084, 28.013, -40.6133, -22.2481
1.58, -1, 11.4966, 21.5313, 20.9251, 28.0927, -40.52, -22.3078
1.584, -1, 11.5466, 21.4869, 20.9418, 28.1723, -40.4268, -22.3674
1.588, -1, 11.5965, 21.4426, 20.9585, 28.2518, -40.3336, -22.4269
1.592, -1, 11.6464, 21.3983, 20.9752, 28.3313, -40.2407, -22.4864
1.596, -1, 11.6962, 21.3541, 20.9918, 28.4106, -40.1478, -22.5457
1.6, -1, 11.746, 21.3099, 21.0084, 28.4898, -40.0551, -22.605
1.604, -1, 11.7957, 21.2658, 21.025, 28.5689, -39.9624, -22.6642
1.608, -1, 11.8453, 21.2217, 21.0416, 28.6479, -39.8699, -22.7234
1.612, -1, 11.8948, 21.1778, 21.0581, 28.7268, -39.7776, -22.7824
1.616, -1, 11.9443, 21.1338, 21.0747, 28.8055, -39.6853, -22.8414
1.62, -1, 11.9938, 21.0899, 21.0912, 28.8842, -39.5932, -22.9003
1.624, -1, 12.0431, 21.0461, 21.1076, 28.9628, -39.5011, -22.9591
1.628, -1, 12.0924, 21.0023, 21.1241, 29.0413, -39.4092, -23.0179
1.632, -1, 12.1417, 20.9586, 21.1405, 29.1197, -39.3174, -23.0765
1.636, -1, 12.1908, 20.915, 21.157, 29.198, -39.2258, -23.1352
1.64, -1, 12.2399, 20.8714, 21.1734, 29.2762, -39.1342, -23.1937
1.644, -1, 12.289, 20.8278, 21.1897, 29.3543, -39.0428, -23.2521
1.648, -1, 12.338, 20.7843, 21.2061, 29.4323, -38.9515, -23.3105
1.652, -1, 12.3869, 20.7409, 21.2224, 29.5102, -38.8603, -23.3688
1.656, -1, 12.4358, 20.6975, 21.2388, 29.588, -38.7692, -23.4271
1.66, -1, 12.4846, 20.6542, 21.2551, 29.6657, -38.6782, -23.4852
1.664, -1, 12.5333, 20.6109, 21.2713, 29.7433, -38.5873, -23.5433
1.668, -1, 12.582, 20.5677, 21.2876, 29.8208, -38.4966, -23.6013
1.672, -1, 12.6306, 20.5245, 21.3038, 29.8982, -38.4059, -23.6593
1.676, -1, 12.6792, 20.4814, 21.32, 29.9755, -38.3154, -23.7171
1.68, -1, 12.7277, 20.4384, 21.3362, 30.0527, -38.225, -23.7749
1.684, -1, 12.7761, 20.3953, 21.3524, 30.1298, -38.1347, -23.8327
1.688, -1, 12.8245, 20.3524, 21.3686, 30.2069, -38.0445, -23.8903
1.692, -1, 12.8728, 20.3095, 21.3847, 30.2838, -37.9544, -23.9479
1.696, -1, 12.9211, 20.2666, 21.4008, 30.3606, -37.8644, -24.0054
1.7, -1, 12.9693, 20.2238, 21.4169, 30.4374, -37.7746, -24.0629
1.704, -1, 13.0174, 20.1811, 21.433, 30.514, -37.6848, -24.1203
1.708, -1, 13.0655, 20.1384, 21.449, 30.5906, -37.5951, -24.1776
1.712, -1, 13.1136, 20.0958, 21.4651, 30.6671, -37.5056, -24.2348
1.716, -1, 13.1615, 20.0532, 21.4811, 30.7435, -37.4162, -24.292
1.72, -1, 13.2094, 20.0106, 21.4971, 30.8197, -37.3269, -24.3491
1.724, -1, 13.2573, 19.9681, 21.5131, 30.8959, -37.2376, -24.4061
1.728, -1, 13.3051, 19.9257, 21.529, 30.972, -37.1485, -24.4631
1.732, -1, 13.3528, 19.8833, 21.545, 31.0481, -37.0595, -24.52
1.736, -1, 13.4005, 19.841, 21.5609, 31.124, -36.9706, -24.5768
1.74, -1, 13.4482, 19.7987, 21.5768, 31.1998, -36.8818, -24.6336
1.744, -1, 13.4957, 19.7565, 21.5927, 31.2756, -36.7931, -24.6903
1.748, -1, 13.5433, 19.7143, 21.6086, 31.3512, -36.7045, -24.7469
1.752, -1, 13.5907, 19.6721, 21.6244, 31.4268, -36.6161, -24.8035
1.756, -1, 13.6381, 19.63, 21.6402, 31.5023, -36.5277, -24.86
1.76, -1, 13.6855, 19.588, 21.6561, 31.5776, -36.4394, -24.9164
1.764, -1, 13.7328, 19.546, 21.6719, 31.6529, -36.3512, -24.9728
1.768, -1, 13.78, 19.5041, 21.6876, 31.7282, -36.2632, -25.0291
1.772, -1, 13.8272, 19.4622, 21.7034, 31.8033, -36.1752, -25.0853
1.776, -1, 13.8743, 19.4203, 21.7191, 31.8783, -36.0873, -25.1415
1.78, -1, 13.9214, 19.3785, 21.7348, 31.9533, -35.9996, -25.1976
1.784, -1, 13.9684, 19.3368, 21.7505, 32.0281, -35.9119, -25.2536
1.788, -1, 14.0154, 19.2951, 21.7662, 32.1029, -35.8243, -25.3096
1.792, -1, 14.0623, 19.2534, 21.7819, 32.1776, -35.7369, -25.3655
1.796, -1, 14.1092, 19.2118, 21.7975, 32.2522, -35.6495, -25.4214
1.8, -1, 14.156, 19.1703, 21.8132, 32.3268, -35.5622, -25.4772
1.804, -1, 14.2027, 19.1288, 21.8288, 32.4012, -35.4751, -25.5329
1.808, -1, 14.2494, 19.0873, 21.8444, 32.4756, -35.388, -25.5886
1.812, -1, 14.2961, 19.0459, 21.86, 32.5498, -35.301, -25.6442
1.816, -1, 14.3427, 19.0045, 21.8755, 32.624, -35.2142, -25.6997
1.82, -1, 14.3892, 18.9632, 21.8911, 32.6981, -35.1274, -25.7552
1.824, -1, 14.4357, 18.9219, 21.9066, 32.7722, -35.0407, -25.8106
1.828, -1, 14.4822, 18.8807, 21.9221, 32.8461, -34.9541, -25.8659
1.832, -1, 14.5286, 18.8395, 21.9376, 32.92, -34.8676, -25.9212
1.836, -1, 14.5749, 18.7983, 21.9531, 32.9938, -34.7813, -25.9764
1.84, -1, 14.6212, 18.7572, 21.9685, 33.0675, -34.695, -26.0316
1.844, -1, 14.6674, 18.7162, 21.984, 33.1411, -34.6088, -26.0867
1.848, -1, 14.7136, 18.6752, 21.9994, 33.2146, -34.5227, -26.1418
1.852, -1, 14.7598, 18.6342, 22.0148, 33.2881, -34.4367, -26.1967
1.856, -1, 14.8058, 18.5933, 22.0302, 33.3614, -34.3507, -26.2517
1.86, -1, 14.8519, 18.5524, 22.0456, 33.4347, -34.2649, -26.3065
1.864, -1, 14.8979, 18.5116, 22.0609, 33.5079, -34.1792, -26.3613
1.868, -1, 14.9438, 18.4708, 22.0762, 33.5811, -34.0936, -26.4161
1.872, -1, 14.9897, 18.4301, 22.0916, 33.6541, -34.008, -26.4708
1.876, -1, 15.0355, 18.3894, 22.1069, 33.7271, -33.9226, -26.5254
1.88, -1, 15.0813, 18.3487, 22.1222, 33.8, -33.8372, -26.58
1.884, -1, 15.127, 18.3081, 22.1374, 33.8728, -33.7519, -26.6345
1.888, -1, 15.1727, 18.2676, 22.1527, 33.9456, -33.6668, -26.6889
1.892, -1, 15.2184, 18.227, 22.1679, 34.0182, -33.5817, -26.7433
1.896, -1, 15.264, 18.1866, 22.1832, 34.0908, -33.4967, -26.7976
1.9, -1, 15.3095, 18.1461, 22.1984, 34.1633, -33.4118, -26.8519
1.904, -1, 15.355, 18.1057, 22.2136, 34.2358, -33.3269, -26.9062
1.908, -1, 15.4004, 18.0654, 22.2287, 34.3081, -33.2422, -26.9603
1.912, -1, 15.4458, 18.0251, 22.2439, 34.3804, -33.1576, -27.0144
1.916, -1, 15.4912, 17.9848, 22.259, 34.4526, -33.073, -27.0685
1.92, -1, 15.5365, 17.9446, 22.2742, 34.5248, -32.9886, -27.1225
1.924, -1, 15.5818, 17.9044, 22.2893, 34.5968, -32.9042, -27.1764
1.928, -1, 15.627, 17.8643, 22.3044, 34.6688, -32.8199, -27.2303
1.932, -1, 15.6721, 17.8242, 22.3195, 34.7407, -32.7357, -27.2841
1.936, -1, 15.7173, 17.7841, 22.3345, 34.8126, -32.6516, -27.3379
1.94, -1, 15.7623, 17.7441, 22.3496, 34.8843, -32.5676, -27.3916
1.944, -1, 15.8073, 17.7041, 22.3646, 34.956, -32.4836, -27.4453
1.948, -1, 15.8523, 17.6642, 22.3796, 35.0276, -32.3997, -27.4989
1.952, -1, 15.8973, 17.6243, 22.3946, 35.0992, -32.316, -27.5524
1.956, -1, 15.9422, 17.5844, 22.4096, 35.1707, -32.2323, -27.6059
1.96, -1, 15.987, 17.5446, 22.4246, 35.2421, -32.1487, -27.6594
1.964, -1, 16.0318, 17.5048, 22.4396, 35.3134, -32.0652, -27.7128
1.968, -1, 16.0765, 17.4651, 22.4545, 35.3846, -31.9817, -27.7661
1.972, -1, 16.1212, 17.4254, 22.4694, 35.4558, -31.8984, -27.8194
1.976, -1, 16.1659, 17.3858, 22.4844, 35.5269, -31.8151, -27.8726
1.98, -1, 16.2105, 17.3461, 22.4993, 35.598, -31.7319, -27.9258
1.984, -1, 16.2551, 17.3066, 22.5141, 35.6689, -31.6488, -27.9789
1.988, -1, 16.2996, 17.267, 22.529, 35.7398, -31.5658, -28.032
1.992, -1, 16.3441, 17.2275, 22.5439, 35.8107, -31.4829, -28.085
1.996, -1, 16.3886, 17.1881, 22.5587, 35.8814, -31.4, -28.138
1.999, -1, 16.433, 17.1487, 22.5735, 35.9521, -31.3173, -28.1909
2.004, -1, 16.4773, 17.1093, 22.5883, 36.0228, -31.2346, -28.2438
2.008, -1, 16.5216, 17.0699, 22.6031, 36.0933, -31.1519, -28.2966
2.012, -1, 16.5659, 17.0306, 22.6179, 36.1638, -31.0694, -28.3493
2.015, -1, 16.6101, 16.9914, 22.6327, 36.2342, -30.987, -28.4021
2.019, -1, 16.6543, 16.9521, 22.6474, 36.3046, -30.9046, -28.4547
2.024, -1, 16.6984, 16.9129, 22.6622, 36.3748, -30.8223, -28.5073
2.028, -1, 16.7425, 16.8738, 22.6769, 36.445, -30.7401, -28.5599
2.031, -1, 16.7866, 16.8347, 22.6916, 36.5152, -30.658, -28.6124
2.036, -1, 16.8306, 16.7956, 22.7063, 36.5853, -30.5759, -28.6648
2.04, -1, 16.8746, 16.7566, 22.721, 36.6553, -30.4939, -28.7172
2.044, -1, 16.9185, 16.7176, 22.7357, 36.7252, -30.412, -28.7696
2.048, -1, 16.9624, 16.6786, 22.7503, 36.7951, -30.3302, -28.8219
2.051, -1, 17.0062, 16.6397, 22.765, 36.8649, -30.2485, -28.8742
2.055, -1, 17.05, 16.6008, 22.7796, 36.9346, -30.1668, -28.9264
2.06, -1, 17.0938, 16.5619, 22.7942, 37.0043, -30.0852, -28.9785
2.064, -1, 17.1375, 16.5231, 22.8088, 37.0739, -30.0037, -29.0306
2.068, -1, 17.1811, 16.4844, 22.8234, 37.1435, -29.9223, -29.0827
2.071, -1, 17.2244, 16.4458, 22.8379, 37.2129, -29.841, -29.1347
2.076, -1, 17.2671, 16.4077, 22.8523, 37.2823, -29.7597, -29.1866
2.08, -1, 17.3088, 16.3701, 22.8666, 37.3515, -29.6787, -29.2384
2.084, -1, 17.3495, 16.3335, 22.8807, 37.4204, -29.5981, -29.29
2.087, -1, 17.3888, 16.2979, 22.8945, 37.4888, -29.518, -29.3412
2.092, -1, 17.4267, 16.2635, 22.9079, 37.5564, -29.4389, -29.3918
2.096, -1, 17.4632, 16.2306, 22.921, 37.6229, -29.3611, -29.4417
2.1, -1, 17.4983, 16.1992, 22.9337, 37.6879, -29.2851, -29.4903
2.104, -1, 17.5321, 16.1694, 22.9459, 37.7508, -29.2115, -29.5374
2.107, -1, 17.5644, 16.1411, 22.9576, 37.8112, -29.1408, -29.5827
2.111, -1, 17.5951, 16.1145, 22.9686, 37.8686, -29.0737, -29.6257
2.116, -1, 17.624, 16.0896, 22.9791, 37.9226, -29.0106, -29.6661
2.12, -1, 17.6513, 16.0662, 22.9888, 37.9726, -28.9521, -29.7035
2.124, -1, 17.6768, 16.044, 22.9978, 38.0183, -28.8986, -29.7378
2.127, -1, 17.7009, 16.023, 23.0061, 38.0595, -28.8504, -29.7686
2.132, -1, 17.7234, 16.0029, 23.0136, 38.0959, -28.8078, -29.7958
2.136, -1, 17.7446, 15.9838, 23.0205, 38.1275, -28.7707, -29.8195
2.14, -1, 17.7642, 15.9657, 23.0267, 38.1546, -28.739, -29.8397
2.143, -1, 17.7823, 15.9489, 23.0321, 38.1772, -28.7125, -29.8566
2.148, -1, 17.7986, 15.9337, 23.0368, 38.1957, -28.6907, -29.8705
2.152, -1, 17.8131, 15.9202, 23.0409, 38.2106, -28.6732, -29.8816
2.156, -1, 17.8259, 15.9085, 23.0443, 38.2223, -28.6594, -29.8904
2.16, -1, 17.8371, 15.8987, 23.0471, 38.2313, -28.6488, -29.8971
2.163, -1, 17.8467, 15.8905, 23.0494, 38.2381, -28.6409, -29.9021
2.168, -1, 17.855, 15.8838, 23.0513, 38.243, -28.635, -29.9058
2.172, -1, 17.8619, 15.8785, 23.0527, 38.2465, -28.6308, -29.9084
2.176, -1, 17.8674, 15.8744, 23.0538, 38.249, -28.6279, -29.9103
2.179, 2, 17.8716, 15.8714, 23.0546, 38.2507, -28.6258, -29.9115
2.184, 2, 17.8747, 15.8692, 23.0552, 38.2519, -28.6245, -29.9124
2.188, 2, 17.8769, 15.8677, 23.0556, 38.2527, -28.6235, -29.913
2.192, 2, 17.8784, 15.8667, 23.0558, 38.2532, -28.6229, -29.9134
2.196, 2, 17.8794, 15.866, 23.056, 38.2536, -28.6224, -29.9137
2.199, 2, 17.8801, 15.8655, 23.0561, 38.2538, -28.6221, -29.9138
2.204, 2, 17.8806, 15.8652, 23.0562, 38.254, -28.6219, -29.914
2.208, 2, 17.8809, 15.865, 23.0563, 38.2541, -28.6218, -29.9141
2.212, 2, 17.8811, 15.8649, 23.0563, 38.2542, -28.6217, -29.9141
2.216, 2, 17.8813, 15.8648, 23.0563, 38.2543, -28.6217, -29.9141
2.219, 2, 17.8814, 15.8647, 23.0564, 38.2543, -28.6216, -29.9142
2.224, 2, 17.8814, 15.8646, 23.0564, 38.2543, -28.6216, -29.9142
2.228, 2, 17.8815, 15.8646, 23.0564, 38.2543, -28.6216, -29.9142
2.232, 2, 17.8815, 15.8646, 23.0564, 38.2543, -28.6215, -29.9142
2.235, 2, 17.8815, 15.8646, 23.0564, 38.2543, -28.6215, -29.9142
2.24, 2, 17.8815, 15.8646, 23.0564, 38.2544, -28.6215, -29.9142
2.244, 2, 17.8815, 15.8646, 23.0564, 38.2544, -28.6215, -29.9142
2.248, 2, 17.8816, 15.8646, 23.0564, 38.2544, -28.6215, -29.9142
2.252, 2, 17.8816, 15.8646, 23.0564, 38.2544, -28.6215, -29.9142
2.255, 2, 17.8816, 15.8646, 23.0564, 38.2544, -28.6215, -29.9142
2.259, 2, 17.8816, 15.8646, 23.0564, 38.2544, -28.6215, -29.9142
2.264, 2, 17.8816, 15.8646, 23.0564, 38.2544, -28.6215, -29.9142
2.268, 2, 17.8816, 15.8645, 23.0564, 38.2544, -28.6215, -29.9142
2.272, 2, 17.8816, 15.8645, 23.0564, 38.2544, -28.6215, -29.9142
2.275, 2, 17.8816, 15.8645, 23.0564, 38.2544, -28.6215, -29.9142
2.28, 2, 17.8816, 15.8645, 23.0564, 38.2544, -28.6215, -29.9142
2.284, 2, 17.8816, 15.8645, 23.0564, 38.2544, -28.6215, -29.9142
2.288, 2, 17.8816, 15.8645, 23.0564, 38.2544, -28.6215, -29.9142
2.291, 2, 17.8816, 15.8645, 23.0564, 38.2544, -28.6215, -29.9142
2.296, 2, 17.8816, 15.8645, 23.0564, 38.2544, -28.6215, -29.9142
2.3, 2, 17.8816, 15.8645, 23.0564, 38.2544, -28.6215, -29.9142
2.304, 2, 17.8816, 15.8645, 23.0564, 38.2544, -28.6215, -29.9142
2.308, 2, 17.8816, 15.8645, 23.0564, 38.2544, -28.6215, -29.9142
2.311, 2, 17.8816, 15.8645, 23.0564, 38.2544, -28.6215, -29.9142
2.316, 2, 17.8816, 15.8645, 23.0564, 38.2544, -28.6215, -29.9142
2.32, 2, 17.8816, 15.8645, 23.0564, 38.2544, -28.6215, -29.9142
2.324, 2, 17.8816, 15.8645, 23.0564, 38.2544, -28.6215, -29.9142
2.328, 2, 17.8816, 15.8645, 23.0564, 38.2544, -28.6215, -29.9142
2.331, 2, 17.8816, 15.8645, 23.0564, 38.2544, -28.6215, -29.9142
2.336, 2, 17.8816, 15.8645, 23.0564, 38.2544, -28.6215, -29.9142
2.34, 2, 17.8816, 15.8645, 23.0564, 38.2544, -28.6215, -29.9142
2.344, 2, 17.8816, 15.8645, 23.0564, 38.2544, -28.6215, -29.9142
2.347, 2, 17.8816, 15.8645, 23.0564, 38.2544, -28.6215, -29.9142
2.352, 2, 17.8816, 15.8645, 23.0564, 38.2544, -28.6215, -29.9142
2.356, 2, 17.8816, 15.8645, 23.0564, 38.2544, -28.6215, -29.9142
2.36, 2, 17.8816, 15.8645, 23.0564, 38.2544, -28.6215, -29.9142
2.364, 2, 17.8816, 15.8645, 23.0564, 38.2544, -28.6215, -29.9142
2.367, 2, 17.8816, 15.8645, 23.0564, 38.2544, -28.6215, -29.9142
2.372, 2, 17.8816, 15.8645, 23.0564, 38.2544, -28.6215, -29.9142
2.376, 2, 17.8816, 15.8645, 23.0564, 38.2544, -28.6215, -29.9142
2.38, 2, 17.8816, 15.8645, 23.0564, 38.2544, -28.6215, -29.9142
2.383, 2, 17.8816, 15.8645, 23.0564, 38.2544, -28.6215, -29.9142
2.388, 2, 17.8816, 15.8645, 23.0564, 38.2544, -28.6215, -29.9142
2.392, 2, 17.8816, 15.8645, 23.0564, 38.2544, -28.6215, -29.9142
2.396, 2, 17.8816, 15.8645, 23.0564, 38.2544, -28.6215, -29.9142
2.4, 2, 17.8816, 15.8645, 23.0564, 38.2544, -28.6215, -29.9142
2.403, 2, 17.8816, 15.8645, 23.0564, 38.2544, -28.6215, -29.9142
2.408, 2, 17.8816, 15.8645, 23.0564, 38.2544, -28.6215, -29.9142
2.412, 2, 17.8816, 15.8645, 23.0564, 38.2544, -28.6215, -29.9142
2.416, 2, 17.8816, 15.8645, 23.0564, 38.2544, -28.6215, -29.9142
2.42, 2, 17.8816, 15.8645, 23.0564, 38.2544, -28.6215, -29.9142
2.423, 2, 17.8816, 15.8645, 23.0564, 38.2544, -28.6215, -29.9142
2.428, 2, 17.8816, 15.8645, 23.0564, 38.2544, -28.6215, -29.9142
2.432, 2, 17.8816, 15.8645, 23.0564, 38.2544, -28.6215, -29.9142
2.436, 2, 17.8816, 15.8645, 23.0564, 38.2544, -28.6215, -29.9142
2.439, 2, 17.8816, 15.8645, 23.0564, 38.2544, -28.6215, -29.9142
2.444, 2, 17.8816, 15.8645, 23.0564, 38.2544, -28.6215, -29.9142
2.448, 2, 17.8816, 15.8645, 23.0564, 38.2544, -28.6215, -29.9142
2.452, 2, 17.8816, 15.8645, 23.0564, 38.2544, -28.6215, -29.9142
2.456, 2, 17.8816, 15.8645, 23.0564, 38.2544, -28.6215, -29.9142
2.459, 2, 17.8816, 15.8645, 23.0564, 38.2544, -28.6215, -29.9142
2.464, 2, 17.8816, 15.8645, 23.0564, 38.2544, -28.6215, -29.9142
2.468, 2, 17.8816, 15.8645, 23.0564, 38.2544, -28.6215, -29.9142
2.472, 2, 17.8816, 15.8645, 23.0564, 38.2544, -28.6215, -29.9142
2.476, 2, 17.8816, 15.8645, 23.0564, 38.2544, -28.6215, -29.9142
2.479, 2, 17.8816, 15.8645, 23.0564, 38.2544, -28.6215, -29.9142
2.484, 2, 17.8816, 15.8645, 23.0564, 38.2544, -28.6215, -29.9142
2.488, 2, 17.8816, 15.8645, 23.0564, 38.2544, -28.6215, -29.9142
2.492, 2, 17.8816, 15.8645, 23.0564, 38.2544, -28.6215, -29.9142
2.495, 2, 17.8816, 15.8645, 23.0564, 38.2544, -28.6215, -29.9142
2.5, 2, 17.8816, 15.8645, 23.0564, 38.2544, -28.6215, -29.9142
2.504, 2, 17.8816, 15.8645, 23.0564, 38.2544, -28.6215, -29.9142
2.508, 2, 17.8816, 15.8645, 23.0564, 38.2544, -28.6215, -29.9142
2.512, 2, 17.8816, 15.8645, 23.0564, 38.2544, -28.6215, -29.9142
2.515, 2, 17.8816, 15.8645, 23.0564, 38.2544, -28.6215, -29.9142
2.52, 2, 17.8816, 15.8645, 23.0564, 38.2544, -28.6215, -29.9142
2.524, 2, 17.8816, 15.8645, 23.0564, 38.2544, -28.6215, -29.9142
2.528, 2, 17.8816, 15.8645, 23.0564, 38.2544, -28.6215, -29.9142
2.531, 2, 17.8816, 15.8645, 23.0564, 38.2544, -28.6215, -29.9142
2.536, 2, 17.8816, 15.8645, 23.0564, 38.2544, -28.6215, -29.9142
2.54, 2, 17.8816, 15.8645, 23.0564, 38.2544, -28.6215, -29.9142
2.544, 2, 17.8816, 15.8645, 23.0564, 38.2544, -28.6215, -29.9142
2.548, 2, 17.8816, 15.8645, 23.0564, 38.2544, -28.6215, -29.9142
2.551, 2, 17.8816, 15.8645, 23.0564, 38.2544, -28.6215, -29.9142
2.556, 2, 17.8816, 15.8645, 23.0564, 38.2544, -28.6215, -29.9142
2.56, 2, 17.8816, 15.8645, 23.0564, 38.2544, -28.6215, -29.9142
2.564, 2, 17.8816, 15.8645, 23.0564, 38.2544, -28.6215, -29.9142
2.568, 2, 17.8816, 15.8645, 23.0564, 38.2544, -28.6215, -29.9142
2.571, 2, 17.8816, 15.8645, 23.0564, 38.2544, -28.6215, -29.9142
2.576, 2, 17.8816, 15.8645, 23.0564, 38.2544, -28.6215, -29.9142
2.58, 2, 17.8816, 15.8645, 23.0564, 38.2544, -28.6215, -29.9142
2.584, 2, 17.8816, 15.8645, 23.0564, 38.2544, -28.6215, -29.9142
2.587, 2, 17.8816, 15.8645, 23.0564, 38.2544, -28.6215, -29.9142
2.592, 2, 17.8816, 15.8645, 23.0564, 38.2544, -28.6215, -29.9142
2.596, 2, 17.8816, 15.8645, 23.0564, 38.2544, -28.6215, -29.9142
2.6, 2, 17.8816, 15.8645, 23.0564, 38.2544, -28.6215, -29.9142
2.604, 2, 17.8816, 15.8645, 23.0564, 38.2544, -28.6215, -29.9142
2.607, 2, 17.8816, 15.8645, 23.0564, 38.2544, -28.6215, -29.9142
2.612, 2, 17.8816, 15.8645, 23.0564, 38.2544, -28.6215, -29.9142
2.616, 2, 17.8816, 15.8645, 23.0564, 38.2544, -28.6215, -29.9142
2.62, 2, 17.8816, 15.8645, 23.0564, 38.2544, -28.6215, -29.9142
2.624, 2, 17.8816, 15.8645, 23.0564, 38.2544, -28.6215, -29.9142
2.627, 2, 17.8816, 15.8645, 23.0564, 38.2544, -28.6215, -29.9142
2.632, 2, 17.8816, 15.8645, 23.0564, 38.2544, -28.6215, -29.9142
2.636, 2, 17.8816, 15.8645, 23.0564, 38.2544, -28.6215, -29.9142
2.64, 2, 17.8816, 15.8645, 23.0564, 38.2544, -28.6215, -29.9142
2.643, 2, 17.8816, 15.8645, 23.0564, 38.2544, -28.6215, -29.9142
2.648, 2, 17.8816, 15.8645, 23.0564, 38.2544, -28.6215, -29.9142
2.652, 2, 17.8816, 15.8645, 23.0564, 38.2544, -28.6215, -29.9142
2.656, 2, 17.8816, 15.8645, 23.0564, 38.2544, -28.6215, -29.9142
2.66, 2, 17.8816, 15.8645, 23.0564, 38.2544, -28.6215, -29.9142
2.663, 2, 17.8816, 15.8645, 23.0564, 38.2544, -28.6215, -29.9142
2.668, 2, 17.8816, 15.8645, 23.0564, 38.2544, -28.6215, -29.9142
2.672, 2, 17.8816, 15.8645, 23.0564, 38.2544, -28.6215, -29.9142
2.676, 2, 17.8816, 15.8645, 23.0564, 38.2544, -28.6215, -29.9142
2.679, 2, 17.8816, 15.8645, 23.0564, 38.2544, -28.6215, -29.9142
2.684, 2, 17.8816, 15.8645, 23.0564, 38.2544, -28.6215, -29.9142
2.688, 2, 17.8816, 15.8645, 23.0564, 38.2544, -28.6215, -29.9142
2.692, 2, 17.8816, 15.8645, 23.0564, 38.2544, -28.6215, -29.9142
2.696, 2, 17.8816, 15.8645, 23.0564, 38.2544, -28.6215, -29.9142
2.699, 2, 17.8816, 15.8645, 23.0564, 38.2544, -28.6215, -29.9142
2.704, 2, 17.8816, 15.8645, 23.0564, 38.2544, -28.6215, -29.9142
2.708, 2, 17.8816, 15.8645, 23.0564, 38.2544, -28.6215, -29.9142
2.712, 2, 17.8816, 15.8645, 23.0564, 38.2544, -28.6215, -29.9142
2.716, 2, 17.8816, 15.8645, 23.0564, 38.2544, -28.6215, -29.9142
2.719, 2, 17.8816, 15.8645, 23.0564, 38.2544, -28.6215, -29.9142
2.724, 2, 17.8816, 15.8645, 23.0564, 38.2544, -28.6215, -29.9142
2.728, 2, 17.8816, 15.8645, 23.0564, 38.2544, -28.6215, -29.9142
2.732, 2, 17.8816, 15.8645, 23.0564, 38.2544, -28.6215, -29.9142
2.735, 2, 17.8816, 15.8645, 23.0564, 38.2544, -28.6215, -29.9142
2.74, 2, 17.8816, 15.8645, 23.0564, 38.2544, -28.6215, -29.9142
2.744, 2, 17.8816, 15.8645, 23.0564, 38.2544, -28.6215, -29.9142
2.748, 2, 17.8816, 15.8645, 23.0564, 38.2544, -28.6215, -29.9142
2.752, 2, 17.8816, 15.8645, 23.0564, 38.2544, -28.6215, -29.9142
2.755, 2, 17.8816, 15.8645, 23.0564, 38.2544, -28.6215, -29.9142
2.76, 2, 17.8816, 15.8645, 23.0564, 38.2544, -28.6215, -29.9142
2.764, 2, 17.8816, 15.8645, 23.0564, 38.2544, -28.6215, -29.9142
2.768, 2, 17.8816, 15.8645, 23.0564, 38.2544, -28.6215, -29.9142
2.772, 2, 17.8816, 15.8645, 23.0564, 38.2544, -28.6215, -29.9142
2.775, 2, 17.8816, 15.8645, 23.0564, 38.2544, -28.6215, -29.9142
2.78, 2, 17.8816, 15.8645, 23.0564, 38.2544, -28.6215, -29.9142
2.784, 2, 17.8816, 15.8645, 23.0564, 38.2544, -28.6215, -29.9142
2.788, 2, 17.8816, 15.8645, 23.0564, 38.2544, -28.6215, -29.9142
2.791, 2, 17.8816, 15.8645, 23.0564, 38.2544, -28.6215, -29.9142
2.796, 2, 17.8816, 15.8645, 23.0564, 38.2544, -28.6215, -29.9142
2.8, 2, 17.8816, 15.8645, 23.0564, 38.2544, -28.6215, -29.9142
2.804, 2, 17.8816, 15.8645, 23.0564, 38.2544, -28.6215, -29.9142
2.808, 2, 17.8816, 15.8645, 23.0564, 38.2544, -28.6215, -29.9142
2.811, 2, 17.8816, 15.8645, 23.0564, 38.2544, -28.6215, -29.9142
2.816, 2, 17.8816, 15.8645, 23.0564, 38.2544, -28.6215, -29.9142
2.82, 2, 17.8816, 15.8645, 23.0564, 38.2544, -28.6215, -29.9142
2.824, 2, 17.8816, 15.8645, 23.0564, 38.2544, -28.6215, -29.9142
2.828, 2, 17.8816, 15.8645, 23.0564, 38.2544, -28.6215, -29.9142
2.831, 2, 17.8816, 15.8645, 23.0564, 38.2544, -28.6215, -29.9142
2.836, 2, 17.8816, 15.8645, 23.0564, 38.2544, -28.6215, -29.9142
2.84, 2, 17.8816, 15.8645, 23.0564, 38.2544, -28.6215, -29.9142
2.844, 2, 17.8816, 15.8645, 23.0564, 38.2544, -28.6215, -29.9142
2.847, 2, 17.8816, 15.8645, 23.0564, 38.2544, -28.6215, -29.9142
2.852, 2, 17.8816, 15.8645, 23.0564, 38.2544, -28.6215, -29.9142
2.856, 2, 17.8816, 15.8645, 23.0564, 38.2544, -28.6215, -29.9142
2.86, 2, 17.8816, 15.8645, 23.0564, 38.2544, -28.6215, -29.9142
2.864, 2, 17.8816, 15.8645, 23.0564, 38.2544, -28.6215, -29.9142
2.867, 2, 17.8816, 15.8645, 23.0564, 38.2544, -28.6215, -29.9142
2.872, 2, 17.8816, 15.8645, 23.0564, 38.2544, -28.6215, -29.9142
2.876, 2, 17.8816, 15.8645, 23.0564, 38.2544, -28.6215, -29.9142
2.88, 2, 17.8816, 15.8645, 23.0564, 38.2544, -28.6215, -29.9142
2.883, 2, 17.8816, 15.8645, 23.0564, 38.2544, -28.6215, -29.9142
2.888, 2, 17.8816, 15.8645, 23.0564, 38.2544, -28.6215, -29.9142
2.892, 2, 17.8816, 15.8645, 23.0564, 38.2544, -28.6215, -29.9142
2.896, 2, 17.8816, 15.8645, 23.0564, 38.2544, -28.6215, -29.9142
2.9, 2, 17.8816, 15.8645, 23.0564, 38.2544, -28.6215, -29.9142
2.903, 2, 17.8816, 15.8645, 23.0564, 38.2544, -28.6215, -29.9142
2.908, 2, 17.8816, 15.8645, 23.0564, 38.2544, -28.6215, -29.9142
2.912, 2, 17.8816, 15.8645, 23.0564, 38.2544, -28.6215, -29.9142
2.916, 2, 17.8816, 15.8645, 23.0564, 38.2544, -28.6215, -29.9142
2.92, 2, 17.8816, 15.8645, 23.0564, 38.2544, -28.6215, -29.9142
2.923, 2, 17.8816, 15.8645, 23.0564, 38.2544, -28.6215, -29.9142
2.928, 2, 17.8816, 15.8645, 23.0564, 38.2544, -28.6215, -29.9142
2.932, 2, 17.8816, 15.8645, 23.0564, 38.2544, -28.6215, -29.9142
2.936, 2, 17.8816, 15.8645, 23.0564, 38.2544, -28.6215, -29.9142
2.939, 2, 17.8816, 15.8645, 23.0564, 38.2544, -28.6215, -29.9142
2.944, 2, 17.8816, 15.8645, 23.0564, 38.2544, -28.6215, -29.9142
2.948, 2, 17.8816, 15.8645, 23.0564, 38.2544, -28.6215, -29.9142
2.952, 2, 17.8816, 15.8645, 23.0564, 38.2544, -28.6215, -29.9142
2.956, 2, 17.8816, 15.8645, 23.0564, 38.2544, -28.6215, -29.9142
2.959, 2, 17.8816, 15.8645, 23.0564, 38.2544, -28.6215, -29.9142
2.964, 2, 17.8816, 15.8645, 23.0564, 38.2544, -28.6215, -29.9142
2.968, 2, 17.8816, 15.8645, 23.0564, 38.2544, -28.6215, -29.9142
2.972, 2, 17.8816, 15.8645, 23.0564, 38.2544, -28.6215, -29.9142
2.976, 2, 17.8816, 15.8645, 23.0564, 38.2544, -28.6215, -29.9142
2.98, 2, 17.8816, 15.8645, 23.0564, 38.2544, -28.6215, -29.9142
2.984, 2, 17.8816, 15.8645, 23.0564, 38.2544, -28.6215, -29.9142
2.988, 2, 17.8816, 15.8645, 23.0564, 38.2544, -28.6215, -29.9142
2.992, 2, 17.8816, 15.8645, 23.0564, 38.2544, -28.6215, -29.9142
2.995, 2, 17.8816, 15.8645, 23.0564, 38.2544, -28.6215, -29.9142
3, 2, 17.8816, 15.8645, 23.0564, 38.2544, -28.6215, -29.9142
3.004, 2, 17.8816, 15.8645, 23.0564, 38.2544, -28.6215, -29.9142
3.008, 2, 17.8816, 15.8645, 23.0564, 38.2544, -28.6215, -29.9142
3.012, 2, 17.8816, 15.8645, 23.0564, 38.2544, -28.6215, -29.9142
3.015, 2, 17.8816, 15.8645, 23.0564, 38.2544, -28.6215, -29.9142
3.02, 2, 17.8816, 15.8645, 23.0564, 38.2544, -28.6215, -29.9142
3.024, 2, 17.8816, 15.8645, 23.0564, 38.2544, -28.6215, -29.9142
3.028, 2, 17.8816, 15.8645, 23.0564, 38.2544, -28.6215, -29.9142
3.031, 2, 17.8816, 15.8645, 23.0564, 38.2544, -28.6215, -29.9142
3.036, 2, 17.8816, 15.8645, 23.0564, 38.2544, -28.6215, -29.9142
3.04, 2, 17.8816, 15.8645, 23.0564, 38.2544, -28.6215, -29.9142
3.044, 2, 17.8816, 15.8645, 23.0564, 38.2544, -28.6215, -29.9142
3.048, 2, 17.8816, 15.8645, 23.0564, 38.2544, -28.6215, -29.9142
3.051, 2, 17.8816, 15.8645, 23.0564, 38.2544, -28.6215, -29.9142
3.056, 2, 17.8816, 15.8645, 23.0564, 38.2544, -28.6215, -29.9142
3.06, 2, 17.8816, 15.8645, 23.0564, 38.2544, -28.6215, -29.9142
3.064, 2, 17.8816, 15.8645, 23.0564, 38.2544, -28.6215, -29.9142
3.068, 2, 17.8816, 15.8645, 23.0564, 38.2544, -28.6215, -29.9142
3.071, 2, 17.8816, 15.8645, 23.0564, 38.2544, -28.6215, -29.9142
3.076, 2, 17.8816, 15.8645, 23.0564, 38.2544, -28.6215, -29.9142
3.08, 2, 17.8816, 15.8645, 23.0564, 38.2544, -28.6215, -29.9142
3.084, 2, 17.8816, 15.8645, 23.0564, 38.2544, -28.6215, -29.9142
3.087, 2, 17.8816, 15.8645, 23.0564, 38.2544, -28.6215, -29.9142
3.092, 2, 17.8816, 15.8645, 23.0564, 38.2544, -28.6215, -29.9142
3.096, 2, 17.8816, 15.8645, 23.0564, 38.2544, -28.6215, -29.9142
3.1, 2, 17.8816, 15.8645, 23.0564, 38.2544, -28.6215, -29.9142
3.104, 2, 17.8816, 15.8645, 23.0564, 38.2544, -28.6215, -29.9142
3.107, 2, 17.8816, 15.8645, 23.0564, 38.2544, -28.6215, -29.9142
3.112, 2, 17.8816, 15.8645, 23.0564, 38.2544, -28.6215, -29.9142
3.116, 2, 17.8816, 15.8645, 23.0564, 38.2544, -28.6215, -29.9142
3.12, 2, 17.8816, 15.8645, 23.0564, 38.2544, -28.6215, -29.9142
3.124, 2, 17.8816, 15.8645, 23.0564, 38.2544, -28.6215, -29.9142
3.128, 2, 17.8816, 15.8645, 23.0564, 38.2544, -28.6215, -29.9142
3.132, 2, 17.8816, 15.8645, 23.0564, 38.2544, -28.6215, -29.9142
3.136, 2, 17.8816, 15.8645, 23.0564, 38.2544, -28.6215, -29.9142
3.14, 2, 17.8816, 15.8645, 23.0564, 38.2544, -28.6215, -29.9142
3.143, 2, 17.8816, 15.8645, 23.0564, 38.2544, -28.6215, -29.9142
3.148, 2, 17.8816, 15.8645, 23.0564, 38.2544, -28.6215, -29.9142
3.152, 2, 17.8816, 15.8645, 23.0564, 38.2544, -28.6215, -29.9142
3.156, 2, 17.8816, 15.8645, 23.0564, 38.2544, -28.6215, -29.9142
3.16, 2, 17.8816, 15.8645, 23.0564, 38.2544, -28.6215, -29.9142
3.163, 2, 17.8816, 15.8645, 23.0564, 38.2544, -28.6215, -29.9142
3.168, 2, 17.8816, 15.8645, 23.0564, 38.2544, -28.6215, -29.9142
3.172, 2, 17.8816, 15.8645, 23.0564, 38.2544, -28.6215, -29.9142
3.176, 2, 17.8816, 15.8645, 23.0564, 38.2544, -28.6215, -29.9142
3.179, 2, 17.8816, 15.8645, 23.0564, 38.2544, -28.6215, -29.9142
3.184, 2, 17.8816, 15.8645, 23.0564, 38.2544, -28.6215, -29.9142
3.188, 2, 17.8816, 15.8645, 23.0564, 38.2544, -28.6215, -29.9142
3.192, 2, 17.8816, 15.8645, 23.0564, 38.2544, -28.6215, -29.9142
3.196, 2, 17.8816, 15.8645, 23.0564, 38.2544, -28.6215, -29.9142
3.199, 2, 17.8816, 15.8645, 23.0564, 38.2544, -28.6215, -29.9142
3.204, 2, 17.8816, 15.8645, 23.0564, 38.2544, -28.6215, -29.9142
3.208, 2, 17.8816, 15.8645, 23.0564, 38.2544, -28.6215, -29.9142
3.212, 2, 17.8816, 15.8645, 23.0564, 38.2544, -28.6215, -29.9142
3.216, 2, 17.8816, 15.8645, 23.0564, 38.2544, -28.6215, -29.9142
3.22, 2, 17.8816, 15.8645, 23.0564, 38.2544, -28.6215, -29.9142
3.224, 2, 17.8816, 15.8645, 23.0564, 38.2544, -28.6215, -29.9142
3.228, 2, 17.8816, 15.8645, 23.0564, 38.2544, -28.6215, -29.9142
3.232, 2, 17.8816, 15.8645, 23.0564, 38.2544, -28.6215, -29.9142
3.235, 2, 17.8816, 15.8645, 23.0564, 38.2544, -28.6215, -29.9142
3.24, 2, 17.8816, 15.8645, 23.0564, 38.2544, -28.6215, -29.9142
3.244, 2, 17.8816, 15.8645, 23.0564, 38.2544, -28.6215, -29.9142
3.248, 2, 17.8816, 15.8645, 23.0564, 38.2544, -28.6215, -29.9142
3.252, 4, 17.8816, 15.8645, 23.0564, 38.2544, -28.6215, -29.9142
3.255, 4, 17.8816, 15.8645, 23.0564, 38.2544, -28.6215, -29.9142
3.26, 4, 17.8816, 15.8645, 23.0564, 38.2544, -28.6215, -29.9142
3.264, 4, 17.8816, 15.8645, 23.0564, 38.2544, -28.6215, -29.9142
3.268, 4, 17.8816, 15.8645, 23.0564, 38.2544, -28.6215, -29.9142
3.272, 4, 17.8816, 15.8645, 23.0564, 38.2544, -28.6215, -29.9142
3.276, 4, 17.8816, 15.8645, 23.0564, 38.2544, -28.6215, -29.9142
3.28, 4, 17.8816, 15.8645, 23.0564, 38.2544, -28.6215, -29.9142
3.284, 4, 17.8816, 15.8645, 23.0564, 38.2544, -28.6215, -29.9142
3.288, 4, 17.8816, 15.8645, 23.0564, 38.2544, -28.6215, -29.9142
3.291, 4, 17.8816, 15.8645, 23.0564, 38.2544, -28.6215, -29.9142
3.296, 4, 17.8816, 15.8645, 23.0564, 38.2544, -28.6215, -29.9142
3.3, 4, 17.8816, 15.8645, 23.0564, 38.2544, -28.6215, -29.9142
3.304, 4, 17.8816, 15.8645, 23.0564, 38.2544, -28.6215, -29.9142
3.308, 4, 17.8816, 15.8645, 23.0564, 38.2544, -28.6215, -29.9142
3.312, 4, 17.8816, 15.8645, 23.0564, 38.2544, -28.6215, -29.9142
3.316, 4, 17.8816, 15.8645, 23.0564, 38.2544, -28.6215, -29.9142
3.32, 4, 17.8816, 15.8645, 23.0564, 38.2544, -28.6215, -29.9142
3.324, 4, 17.8816, 15.8645, 23.0564, 38.2544, -28.6215, -29.9142
3.328, 4, 17.8816, 15.8645, 23.0564, 38.2544, -28.6215, -29.9142
3.332, 4, 17.8816, 15.8645, 23.0564, 38.2544, -28.6215, -29.9142
3.336, 4, 17.8816, 15.8645, 23.0564, 38.2544, -28.6215, -29.9142
3.34, 4, 17.8816, 15.8645, 23.0564, 38.2544, -28.6215, -29.9142
3.344, 4, 17.8816, 15.8645, 23.0564, 38.2544, -28.6215, -29.9142
3.347, 4, 17.8816, 15.8645, 23.0564, 38.2544, -28.6215, -29.9142
3.352, 4, 17.8816, 15.8645, 23.0564, 38.2544, -28.6215, -29.9142
3.356, 4, 17.8816, 15.8645, 23.0564, 38.2544, -28.6215, -29.9142
3.36, 4, 17.8816, 15.8645, 23.0564, 38.2544, -28.6215, -29.9142
3.364, 4, 17.8816, 15.8645, 23.0564, 38.2544, -28.6215, -29.9142
3.368, 4, 17.8816, 15.8645, 23.0564, 38.2544, -28.6215, -29.9142
3.372, 4, 17.8816, 15.8645, 23.0564, 38.2544, -28.6215, -29.9142
3.376, 4, 17.8816, 15.8645, 23.0564, 38.2544, -28.6215, -29.9142
3.38, 4, 17.8816, 15.8645, 23.0564, 38.2544, -28.6215, -29.9142
3.383, 4, 17.8815, 15.8645, 23.0564, 38.2544, -28.6215, -29.9142
3.388, 4, 17.8812, 15.8645, 23.0564, 38.2543, -28.6215, -29.9142
3.392, 4, 17.8806, 15.8645, 23.0565, 38.2542, -28.6216, -29.9141
3.396, 4, 17.8793, 15.8645, 23.0566, 38.2539, -28.6217, -29.9139
3.4, 4, 17.8773, 15.8644, 23.0569, 38.2532, -28.6219, -29.9133
3.403, 4, 17.8745, 15.8643, 23.0576, 38.2517, -28.6225, -29.912
3.408, 4, 17.8707, 15.864, 23.0586, 38.2489, -28.6235, -29.9095
3.412, 4, 17.8659, 15.8636, 23.0603, 38.2441, -28.6252, -29.9053
3.416, 4, 17.8601, 15.863, 23.0629, 38.2365, -28.628, -29.8986
3.42, 4, 17.8533, 15.8621, 23.0667, 38.225, -28.6321, -29.8885
3.424, 5, 17.8454, 15.8608, 23.072, 38.2087, -28.6379, -29.874
3.428, 5, 17.8363, 15.8592, 23.0792, 38.1865, -28.6459, -29.8544
3.432, 5, 17.8257, 15.857, 23.0884, 38.1572, -28.6565, -29.8284
3.436, 5, 17.8136, 15.8542, 23.1001, 38.1198, -28.6699, -29.7953
3.439, 5, 17.8, 15.8508, 23.1146, 38.0734, -28.6867, -29.7542
3.444, 5, 17.7848, 15.8467, 23.132, 38.0171, -28.7071, -29.7044
3.448, 5, 17.7681, 15.8419, 23.1525, 37.9503, -28.7313, -29.6453
3.452, 5, 17.75, 15.8363, 23.1763, 37.8728, -28.7594, -29.5766
3.456, 5, 17.7303, 15.83, 23.2033, 37.7846, -28.7916, -29.4984
3.46, 5, 17.7091, 15.823, 23.2334, 37.6858, -28.8278, -29.4109
3.464, 5, 17.6863, 15.8152, 23.2666, 37.577, -28.8677, -29.3147
3.468, 5, 17.6618, 15.8069, 23.3025, 37.4592, -28.9111, -29.2103
3.472, 5, 17.6358, 15.7979, 23.341, 37.3331, -28.9578, -29.0987
3.476, 5, 17.6082, 15.7885, 23.3817, 37.1998, -29.0073, -28.9808
3.48, 5, 17.5792, 15.7787, 23.4244, 37.0604, -29.0593, -28.8576
3.484, 5, 17.549, 15.7685, 23.4687, 36.916, -29.1135, -28.7299
3.488, 5, 17.5176, 15.7581, 23.5143, 36.7675, -29.1695, -28.5987
3.492, 5, 17.4851, 15.7475, 23.5609, 36.616, -29.227, -28.4649
3.495, 5, 17.4516, 15.7367, 23.6083, 36.4622, -29.2856, -28.3292
3.5, 5, 17.4171, 15.7259, 23.6563, 36.307, -29.3452, -28.1922
3.504, 5, 17.3816, 15.7151, 23.7047, 36.1508, -29.4055, -28.0544
3.508, 5, 17.3453, 15.7042, 23.7534, 35.9941, -29.4663, -27.9163
3.512, 5, 17.3083, 15.6935, 23.8022, 35.8372, -29.5276, -27.7782
3.516, 5, 17.2708, 15.6827, 23.851, 35.6805, -29.5892, -27.6401
3.52, 5, 17.233, 15.672, 23.8999, 35.5239, -29.6511, -27.5024
3.524, 5, 17.1949, 15.6614, 23.9488, 35.3677, -29.7133, -27.365
3.528, 5, 17.1567, 15.6509, 23.9976, 35.2119, -29.7757, -27.228
3.531, 5, 17.1183, 15.6405, 24.0464, 35.0565, -29.8383, -27.0916
3.536, 5, 17.0798, 15.6301, 24.095, 34.9017, -29.9012, -26.9556
3.54, 5, 17.0413, 15.6199, 24.1436, 34.7473, -29.9642, -26.8201
3.544, 5, 17.0027, 15.6097, 24.1922, 34.5934, -30.0274, -26.6851
3.548, 5, 16.964, 15.5997, 24.2406, 34.4401, -30.0908, -26.5507
3.552, 5, 16.9253, 15.5897, 24.2889, 34.2873, -30.1544, -26.4168
3.556, 5, 16.8865, 15.5798, 24.3372, 34.135, -30.2181, -26.2834
3.56, 5, 16.8477, 15.5701, 24.3853, 33.9832, -30.2821, -26.1506
3.564, 5, 16.8089, 15.5604, 24.4333, 33.832, -30.3462, -26.0183
3.568, 5, 16.77, 15.5508, 24.4813, 33.6813, -30.4104, -25.8866
3.572, 5, 16.7311, 15.5413, 24.5291, 33.5311, -30.4749, -25.7554
3.576, 5, 16.6921, 15.5319, 24.5769, 33.3815, -30.5395, -25.6247
3.58, 5, 16.6532, 15.5226, 24.6246, 33.2324, -30.6042, -25.4946
3.584, 5, 16.6142, 15.5134, 24.6721, 33.0838, -30.6692, -25.365
3.587, 5, 16.5751, 15.5043, 24.7196, 32.9357, -30.7343, -25.2359
3.592, 5, 16.536, 15.4953, 24.7669, 32.7882, -30.7996, -25.1074
3.596, 5, 16.4969, 15.4864, 24.8142, 32.6412, -30.865, -24.9794
3.6, 5, 16.4578, 15.4775, 24.8614, 32.4947, -30.9306, -24.8519
3.604, 5, 16.4186, 15.4688, 24.9084, 32.3487, -30.9963, -24.7249
3.608, 5, 16.3794, 15.4602, 24.9554, 32.2032, -31.0622, -24.5984
3.612, 5, 16.3401, 15.4517, 25.0023, 32.0583, -31.1283, -24.4725
3.616, 5, 16.3009, 15.4432, 25.049, 31.9138, -31.1946, -24.3471
3.62, 5, 16.2616, 15.4349, 25.0957, 31.7699, -31.2609, -24.2222
3.624, 5, 16.2222, 15.4267, 25.1422, 31.6264, -31.3275, -24.0978
3.628, 5, 16.1828, 15.4185, 25.1887, 31.4835, -31.3942, -23.9739
3.632, 5, 16.1434, 15.4105, 25.2351, 31.3411, -31.4611, -23.8506
3.636, 5, 16.104, 15.4026, 25.2813, 31.1992, -31.5281, -23.7277
3.64, 5, 16.0645, 15.3947, 25.3275, 31.0577, -31.5952, -23.6053
3.644, 5, 16.025, 15.387, 25.3736, 30.9168, -31.6626, -23.4835
3.648, 5, 15.9855, 15.3793, 25.4195, 30.7763, -31.73, -23.3621
3.652, 5, 15.9459, 15.3718, 25.4654, 30.6364, -31.7977, -23.2413
3.656, 5, 15.9063, 15.3643, 25.5111, 30.4969, -31.8654, -23.1209
3.66, 5, 15.8667, 15.357, 25.5568, 30.358, -31.9334, -23.0011
3.664, 5, 15.827, 15.3497, 25.6023, 30.2195, -32.0014, -22.8817
3.668, 5, 15.7873, 15.3426, 25.6478, 30.0815, -32.0696, -22.7628
3.672, 5, 15.7476, 15.3355, 25.6932, 29.944, -32.138, -22.6444
3.676, 5, 15.7078, 15.3286, 25.7384, 29.8069, -32.2065, -22.5265
3.679, 5, 15.668, 15.3217, 25.7836, 29.6703, -32.2752, -22.4091
3.684, 5, 15.6282, 15.315, 25.8286, 29.5343, -32.344, -22.2922
3.688, 5, 15.5883, 15.3083, 25.8736, 29.3987, -32.4129, -22.1757
3.692, 5, 15.5484, 15.3018, 25.9184, 29.2635, -32.482, -22.0597
3.696, 5, 15.5085, 15.2953, 25.9631, 29.1288, -32.5512, -21.9442
3.7, 5, 15.4685, 15.289, 26.0078, 28.9946, -32.6206, -21.8292
3.704, 5, 15.4286, 15.2827, 26.0523, 28.8609, -32.6901, -21.7147
3.708, 5, 15.3885, 15.2765, 26.0968, 28.7276, -32.7598, -21.6006
3.712, 5, 15.3485, 15.2705, 26.1411, 28.5948, -32.8296, -21.487
3.716, 5, 15.3084, 15.2645, 26.1854, 28.4625, -32.8995, -21.3738
3.72, 5, 15.2683, 15.2587, 26.2295, 28.3306, -32.9696, -21.2612
3.724, 5, 15.2281, 15.2529, 26.2735, 28.1992, -33.0398, -21.149
3.728, 5, 15.188, 15.2472, 26.3175, 28.0682, -33.1101, -21.0372
3.732, 5, 15.1478, 15.2417, 26.3613, 27.9377, -33.1806, -20.9259
3.735, 5, 15.1075, 15.2362, 26.405, 27.8076, -33.2512, -20.8151
3.74, 5, 15.0672, 15.2308, 26.4487, 27.678, -33.3219, -20.7047
3.744, 5, 15.0269, 15.2256, 26.4922, 27.5488, -33.3928, -20.5948
3.748, 5, 14.9866, 15.2204, 26.5356, 27.4201, -33.4638, -20.4853
3.752, 5, 14.9462, 15.2153, 26.579, 27.2918, -33.5349, -20.3763
3.756, 5, 14.9059, 15.2103, 26.6222, 27.164, -33.6062, -20.2678
3.76, 5, 14.8654, 15.2055, 26.6653, 27.0366, -33.6776, -20.1596
3.764, 5, 14.825, 15.2007, 26.7084, 26.9096, -33.7491, -20.052
3.768, 5, 14.7845, 15.196, 26.7513, 26.7831, -33.8208, -19.9447
3.772, 5, 14.744, 15.1914, 26.7941, 26.657, -33.8926, -19.838
3.776, 5, 14.7034, 15.1869, 26.8368, 26.5313, -33.9645, -19.7316
3.78, 5, 14.6628, 15.1826, 26.8795, 26.4061, -34.0365, -19.6257
3.784, 5, 14.6222, 15.1783, 26.922, 26.2813, -34.1087, -19.5202
3.788, 5, 14.5816, 15.1741, 26.9644, 26.1569, -34.181, -19.4152
3.792, 5, 14.5409, 15.17, 27.0068, 26.033, -34.2534, -19.3106
3.796, 5, 14.5002, 15.166, 27.049, 25.9095, -34.3259, -19.2064
3.8, 5, 14.4595, 15.1621, 27.0911, 25.7864, -34.3986, -19.1027
3.804, 5, 14.4187, 15.1583, 27.1331, 25.6637, -34.4713, -18.9993
3.808, 5, 14.3779, 15.1546, 27.1751, 25.5414, -34.5442, -18.8964
3.812, 5, 14.3371, 15.151, 27.2169, 25.4196, -34.6173, -18.794
3.816, 5, 14.2962, 15.1475, 27.2586, 25.2982, -34.6904, -18.6919
3.82, 5, 14.2553, 15.1441, 27.3003, 25.1772, -34.7637, -18.5903
3.824, 5, 14.2144, 15.1408, 27.3418, 25.0566, -34.8371, -18.4891
3.828, 5, 14.1735, 15.1376, 27.3832, 24.9364, -34.9106, -18.3883
3.832, 5, 14.1325, 15.1345, 27.4245, 24.8166, -34.9842, -18.288
3.836, 5, 14.0915, 15.1315, 27.4658, 24.6972, -35.058, -18.188
3.84, 5, 14.0505, 15.1286, 27.5069, 24.5783, -35.1318, -18.0885
3.844, 5, 14.0094, 15.1258, 27.5479, 24.4597, -35.2058, -17.9893
3.848, 5, 13.9683, 15.1231, 27.5888, 24.3415, -35.2799, -17.8906
3.852, 5, 13.9272, 15.1205, 27.6297, 24.2238, -35.3541, -17.7923
3.856, 5, 13.886, 15.1179, 27.6704, 24.1064, -35.4284, -17.6944
3.86, 5, 13.8448, 15.1155, 27.711, 23.9895, -35.5029, -17.5969
3.864, 5, 13.8036, 15.1132, 27.7515, 23.8729, -35.5774, -17.4998
3.868, 5, 13.7624, 15.111, 27.7919, 23.7567, -35.6521, -17.403
3.872, 5, 13.7211, 15.1089, 27.8322, 23.6409, -35.7269, -17.3067
3.876, 5, 13.6798, 15.1069, 27.8724, 23.5255, -35.8018, -17.2108
3.88, 5, 13.6385, 15.105, 27.9125, 23.4105, -35.8768, -17.1153
3.884, 5, 13.5971, 15.1032, 27.9525, 23.2958, -35.9519, -17.0201
3.888, 5, 13.5557, 15.1014, 27.9924, 23.1816, -36.0271, -16.9254
3.892, 5, 13.5143, 15.0998, 28.0322, 23.0677, -36.1024, -16.831
3.896, 5, 13.4729, 15.0983, 28.0719, 22.9542, -36.1778, -16.737
3.9, 5, 13.4314, 15.0969, 28.1115, 22.841, -36.2534, -16.6434
3.904, 5, 13.3899, 15.0956, 28.151, 22.7283, -36.329, -16.5502
3.908, 5, 13.3484, 15.0944, 28.1904, 22.6159, -36.4047, -16.4573
3.912, 5, 13.3068, 15.0933, 28.2297, 22.5039, -36.4806, -16.3649
3.916, 5, 13.2652, 15.0923, 28.2689, 22.3922, -36.5565, -16.2728
3.92, 5, 13.2236, 15.0913, 28.3079, 22.2809, -36.6326, -16.1811
3.924, 5, 13.1819, 15.0905, 28.3469, 22.17, -36.7088, -16.0897
3.928, 5, 13.1403, 15.0898, 28.3858, 22.0595, -36.785, -15.9987
3.932, 5, 13.0986, 15.0892, 28.4245, 21.9493, -36.8614, -15.9081
3.936, 5, 13.0568, 15.0887, 28.4632, 21.8394, -36.9379, -15.8179
3.94, 5, 13.0151, 15.0883, 28.5018, 21.7299, -37.0144, -15.728
3.944, 5, 12.9733, 15.088, 28.5402, 21.6208, -37.0911, -15.6384
3.948, 5, 12.9315, 15.0878, 28.5786, 21.512, -37.1679, -15.5493
3.952, 5, 12.8896, 15.0877, 28.6168, 21.4036, -37.2447, -15.4605
3.956, 5, 12.8477, 15.0877, 28.6549, 21.2955, -37.3217, -15.372
3.96, 5, 12.8058, 15.0878, 28.693, 21.1878, -37.3987, -15.2839
3.964, 5, 12.7639, 15.088, 28.7309, 21.0804, -37.4759, -15.1962
3.968, 5, 12.722, 15.0883, 28.7687, 20.9734, -37.5531, -15.1088
3.972, 5, 12.68, 15.0887, 28.8065, 20.8667, -37.6305, -15.0218
3.976, 5, 12.638, 15.0892, 28.8441, 20.7603, -37.7079, -14.9351
3.98, 5, 12.5959, 15.0898, 28.8816, 20.6543, -37.7855, -14.8487
3.984, 5, 12.5539, 15.0905, 28.919, 20.5486, -37.8631, -14.7627
3.988, 5, 12.5118, 15.0913, 28.9563, 20.4433, -37.9408, -14.6771
3.992, 5, 12.4697, 15.0922, 28.9935, 20.3383, -38.0187, -14.5918
3.996, 5, 12.4275, 15.0933, 29.0306, 20.2336, -38.0966, -14.5068
3.999, 5, 12.3853, 15.0944, 29.0676, 20.1293, -38.1746, -14.4222
4.004, 5, 12.3431, 15.0956, 29.1045, 20.0253, -38.2527, -14.3379
4.008, 5, 12.3009, 15.0969, 29.1412, 19.9216, -38.3308, -14.2539
4.012, 5, 12.2587, 15.0983, 29.1779, 19.8183, -38.4091, -14.1703
4.016, 5, 12.2164, 15.0998, 29.2145, 19.7153, -38.4875, -14.087
4.02, 5, 12.1741, 15.1014, 29.2509, 19.6126, -38.5659, -14.0041
4.024, 5, 12.1317, 15.1032, 29.2873, 19.5102, -38.6445, -13.9215
4.028, 5, 12.0894, 15.105, 29.3236, 19.4081, -38.7231, -13.8392
4.032, 5, 12.047, 15.1069, 29.3597, 19.3064, -38.8018, -13.7572
4.036, 5, 12.0046, 15.1089, 29.3958, 19.205, -38.8807, -13.6756
4.04, 5, 11.9621, 15.1111, 29.4317, 19.1039, -38.9596, -13.5943
4.044, 5, 11.9197, 15.1133, 29.4675, 19.0031, -39.0385, -13.5133
4.048, 5, 11.8772, 15.1156, 29.5032, 18.9027, -39.1176, -13.4326
4.052, 5, 11.8346, 15.118, 29.5389, 18.8025, -39.1968, -13.3523
4.056, 5, 11.7921, 15.1206, 29.5744, 18.7027, -39.276, -13.2722
4.06, 5, 11.7495, 15.1232, 29.6098, 18.6032, -39.3553, -13.1925
4.064, 5, 11.7069, 15.1259, 29.6451, 18.504, -39.4347, -13.1131
4.068, 5, 11.6643, 15.1288, 29.6803, 18.4051, -39.5142, -13.0341
4.072, 5, 11.6217, 15.1317, 29.7154, 18.3065, -39.5938, -12.9553
4.076, 5, 11.579, 15.1347, 29.7504, 18.2082, -39.6735, -12.8769
4.08, 5, 11.5363, 15.1379, 29.7853, 18.1102, -39.7532, -12.7987
4.084, 5, 11.4936, 15.1411, 29.8201, 18.0125, -39.8331, -12.7209
4.088, 5, 11.4508, 15.1444, 29.8547, 17.9151, -39.913, -12.6434
4.092, 5, 11.408, 15.1479, 29.8893, 17.8181, -39.993, -12.5662
4.096, 5, 11.3652, 15.1514, 29.9238, 17.7213, -40.073, -12.4893
4.1, 5, 11.3224, 15.1551, 29.9581, 17.6248, -40.1532, -12.4127
4.104, 5, 11.2795, 15.1588, 29.9924, 17.5286, -40.2334, -12.3364
4.108, 5, 11.2367, 15.1627, 30.0265, 17.4327, -40.3137, -12.2604
4.112, 5, 11.1938, 15.1666, 30.0606, 17.3372, -40.3941, -12.1848
4.116, 5, 11.1508, 15.1706, 30.0945, 17.2419, -40.4746, -12.1094
4.12, 5, 11.1079, 15.1748, 30.1284, 17.1469, -40.5552, -12.0343
4.124, 5, 11.0649, 15.179, 30.1621, 17.0521, -40.6358, -11.9595
4.128, 5, 11.0219, 15.1834, 30.1957, 16.9577, -40.7165, -11.8851
4.132, 5, 10.9788, 15.1878, 30.2292, 16.8636, -40.7973, -11.8109
4.136, 5, 10.9358, 15.1924, 30.2626, 16.7698, -40.8782, -11.737
4.14, 5, 10.8927, 15.1971, 30.2959, 16.6762, -40.9591, -11.6634
4.144, 5, 10.8496, 15.2018, 30.3291, 16.5829, -41.0401, -11.5901
4.148, 5, 10.8065, 15.2067, 30.3622, 16.49, -41.1212, -11.5171
4.152, 5, 10.7633, 15.2116, 30.3952, 16.3973, -41.2024, -11.4444
4.156, 5, 10.7201, 15.2167, 30.4281, 16.3048, -41.2836, -11.3719
4.16, 5, 10.6769, 15.2219, 30.4609, 16.2127, -41.365, -11.2998
4.164, 5, 10.6337, 15.2271, 30.4935, 16.1208, -41.4464, -11.228
4.168, 5, 10.5904, 15.2325, 30.5261, 16.0293, -41.5278, -11.1564
4.172, 5, 10.5472, 15.238, 30.5586, 15.938, -41.6094, -11.0851
4.176, 5, 10.5039, 15.2435, 30.5909, 15.8469, -41.691, -11.0141
4.18, 5, 10.4605, 15.2492, 30.6231, 15.7562, -41.7727, -10.9434
4.184, 5, 10.4172, 15.255, 30.6553, 15.6657, -41.8544, -10.8729
4.188, 5, 10.3738, 15.2609, 30.6873, 15.5755, -41.9363, -10.8028
4.192, 5, 10.3304, 15.2668, 30.7192, 15.4855, -42.0182, -10.7329
4.196, 5, 10.287, 15.2729, 30.751, 15.3959, -42.1002, -10.6633
4.2, 5, 10.2435, 15.2791, 30.7827, 15.3064, -42.1822, -10.5939
4.204, 5, 10.2001, 15.2854, 30.8143, 15.2173, -42.2643, -10.5249
4.208, 5, 10.1566, 15.2918, 30.8458, 15.1284, -42.3465, -10.4561
4.212, 5, 10.1131, 15.2983, 30.8772, 15.0398, -42.4288, -10.3875
4.216, 5, 10.0695, 15.3049, 30.9085, 14.9514, -42.5111, -10.3193
4.22, 5, 10.026, 15.3116, 30.9396, 14.8633, -42.5935, -10.2513
4.224, 5, 9.98238, 15.3184, 30.9707, 14.7755, -42.6759, -10.1835
4.228, 5, 9.93877, 15.3252, 31.0017, 14.6879, -42.7584, -10.1161
4.232, 5, 9.89514, 15.3322, 31.0325, 14.6005, -42.841, -10.0489
4.236, 5, 9.85148, 15.3393, 31.0632, 14.5135, -42.9237, -9.98192
4.24, 5, 9.80781, 15.3465, 31.0939, 14.4266, -43.0064, -9.91523
4.244, 5, 9.76411, 15.3538, 31.1244, 14.34, -43.0892, -9.8488
4.248, 5, 9.72039, 15.3613, 31.1548, 14.2537, -43.172, -9.78262
4.252, 5, 9.67665, 15.3688, 31.1851, 14.1676, -43.2549, -9.7167
4.256, 5, 9.63288, 15.3764, 31.2153, 14.0818, -43.3379, -9.65104
4.26, 5, 9.5891, 15.3841, 31.2454, 13.9962, -43.4209, -9.58562
4.264, 5, 9.54529, 15.3919, 31.2754, 13.9108, -43.504, -9.52046
4.268, 5, 9.50146, 15.3998, 31.3052, 13.8257, -43.5871, -9.45554
4.272, 5, 9.45761, 15.4078, 31.335, 13.7409, -43.6703, -9.39088
4.276, 5, 9.41374, 15.4159, 31.3647, 13.6562, -43.7536, -9.32646
4.28, 5, 9.36984, 15.4241, 31.3942, 13.5718, -43.837, -9.26229
4.284, 5, 9.32593, 15.4324, 31.4236, 13.4877, -43.9203, -9.19836
4.288, 5, 9.28199, 15.4408, 31.453, 13.4038, -44.0038, -9.13468
4.292, 5, 9.23804, 15.4493, 31.4822, 13.3201, -44.0873, -9.07124
4.296, 5, 9.19406, 15.458, 31.5113, 13.2367, -44.1709, -9.00804
4.3, 5, 9.15006, 15.4667, 31.5403, 13.1534, -44.2545, -8.94508
4.304, 5, 9.10604, 15.4755, 31.5692, 13.0705, -44.3382, -8.88236
4.308, 5, 9.062, 15.4844, 31.598, 12.9877, -44.4219, -8.81988
4.312, 5, 9.01795, 15.4934, 31.6267, 12.9052, -44.5057, -8.75763
4.316, 5, 8.97387, 15.5025, 31.6552, 12.8229, -44.5896, -8.69562
4.32, 5, 8.92977, 15.5118, 31.6837, 12.7408, -44.6735, -8.63385
4.324, 5, 8.88565, 15.5211, 31.712, 12.659, -44.7574, -8.5723
4.328, 5, 8.84151, 15.5305, 31.7403, 12.5774, -44.8415, -8.51099
4.332, 5, 8.79735, 15.54, 31.7684, 12.496, -44.9255, -8.44992
4.336, 5, 8.75317, 15.5496, 31.7964, 12.4148, -45.0097, -8.38907
4.34, 5, 8.70897, 15.5594, 31.8244, 12.3339, -45.0938, -8.32845
4.344, 5, 8.66475, 15.5692, 31.8522, 12.2532, -45.1781, -8.26806
4.348, 5, 8.62051, 15.5791, 31.8799, 12.1727, -45.2624, -8.2079
4.352, 5, 8.57625, 15.5891, 31.9074, 12.0924, -45.3467, -8.14796
4.356, 5, 8.53197, 15.5992, 31.9349, 12.0123, -45.4311, -8.08825
4.36, 5, 8.48768, 15.6095, 31.9623, 11.9325, -45.5155, -8.02877
4.364, 5, 8.44336, 15.6198, 31.9895, 11.8529, -45.6, -7.96951
4.368, 5, 8.39903, 15.6302, 32.0167, 11.7735, -45.6846, -7.91047
4.372, 5, 8.35467, 15.6407, 32.0437, 11.6943, -45.7691, -7.85165
4.376, 5, 8.3103, 15.6513, 32.0707, 11.6153, -45.8538, -7.79305
4.38, 5, 8.26591, 15.6621, 32.0975, 11.5365, -45.9385, -7.73467
4.384, 5, 8.2215, 15.6729, 32.1242, 11.4579, -46.0232, -7.67651
4.388, 5, 8.17707, 15.6838, 32.1508, 11.3796, -46.108, -7.61857
4.392, 5, 8.13262, 15.6948, 32.1773, 11.3014, -46.1929, -7.56084
4.396, 5, 8.08815, 15.706, 32.2037, 11.2235, -46.2778, -7.50333
4.4, 5, 8.04367, 15.7172, 32.2299, 11.1458, -46.3627, -7.44604
4.404, 5, 7.99917, 15.7285, 32.2561, 11.0683, -46.4477, -7.38896
4.408, 5, 7.95464, 15.7399, 32.2821, 10.991, -46.5327, -7.33209
4.412, 5, 7.91011, 15.7515, 32.3081, 10.9139, -46.6178, -7.27544
4.416, 5, 7.86555, 15.7631, 32.3339, 10.837, -46.7029, -7.219
4.42, 5, 7.82097, 15.7748, 32.3596, 10.7603, -46.7881, -7.16277
4.424, 5, 7.77638, 15.7866, 32.3852, 10.6838, -46.8733, -7.10675
4.428, 5, 7.73177, 15.7985, 32.4107, 10.6075, -46.9586, -7.05093
4.432, 5, 7.68714, 15.8106, 32.4361, 10.5314, -47.0439, -6.99533
4.436, 5, 7.64249, 15.8227, 32.4614, 10.4555, -47.1293, -6.93993
4.44, 5, 7.59783, 15.8349, 32.4866, 10.3798, -47.2147, -6.88474
4.444, 5, 7.55314, 15.8472, 32.5116, 10.3043, -47.3001, -6.82976
4.448, 5, 7.50845, 15.8597, 32.5365, 10.229, -47.3856, -6.77498
4.452, 5, 7.46373, 15.8722, 32.5614, 10.1539, -47.4711, -6.72041
4.456, 5, 7.41899, 15.8848, 32.5861, 10.079, -47.5567, -6.66604
4.46, 5, 7.37424, 15.8975, 32.6107, 10.0043, -47.6424, -6.61187
4.464, 5, 7.32947, 15.9104, 32.6352, 9.92983, -47.728, -6.55791
4.468, 5, 7.28469, 15.9233, 32.6596, 9.85552, -47.8137, -6.50414
4.472, 5, 7.23988, 15.9363, 32.6839, 9.7814, -47.8995, -6.45058
4.476, 5, 7.19506, 15.9494, 32.708, 9.70747, -47.9853, -6.39721
4.48, 5, 7.15023, 15.9627, 32.7321, 9.63374, -48.0711, -6.34405
4.486, 5, 7.10537, 15.976, 32.756, 9.5602, -48.157, -6.29108
4.488, 5, 7.0605, 15.9894, 32.7799, 9.48684, -48.2429, -6.23832
4.492, 5, 7.01561, 16.0029, 32.8036, 9.41368, -48.3289, -6.18574
4.496, 5, 6.97071, 16.0166, 32.8272, 9.34071, -48.4149, -6.13337
4.5, 5, 6.92579, 16.0303, 32.8507, 9.26793, -48.5009, -6.08119
4.504, 5, 6.88085, 16.0441, 32.8741, 9.19533, -48.587, -6.02921
4.508, 5, 6.8359, 16.058, 32.8973, 9.12292, -48.6731, -5.97742
4.512, 5, 6.79093, 16.0721, 32.9205, 9.0507, -48.7593, -5.92582
4.516, 5, 6.74594, 16.0862, 32.9435, 8.97867, -48.8455, -5.87441
4.52, 5, 6.70094, 16.1004, 32.9665, 8.90682, -48.9318, -5.8232
4.524, 5, 6.65592, 16.1148, 32.9893, 8.83515, -49.018, -5.77218
4.528, 5, 6.61089, 16.1292, 33.012, 8.76367, -49.1044, -5.72135
4.532, 5, 6.56584, 16.1437, 33.0346, 8.69237, -49.1907, -5.67071
4.536, 5, 6.52077, 16.1583, 33.0571, 8.62125, -49.2771, -5.62026
4.54, 5, 6.47569, 16.1731, 33.0794, 8.55031, -49.3635, -5.57
4.544, 5, 6.4306, 16.1879, 33.1017, 8.47956, -49.45, -5.51992
4.548, 5, 6.38548, 16.2028, 33.1238, 8.40898, -49.5365, -5.47003
4.552, 5, 6.34036, 16.2178, 33.1459, 8.33858, -49.6231, -5.42032
4.556, 5, 6.29522, 16.233, 33.1678, 8.26836, -49.7097, -5.3708
4.56, 5, 6.25006, 16.2482, 33.1896, 8.19831, -49.7963, -5.32146
4.564, 5, 6.20489, 16.2635, 33.2113, 8.12844, -49.8829, -5.27231
4.568, 5, 6.1597, 16.2789, 33.2329, 8.05874, -49.9696, -5.22333
4.572, 5, 6.1145, 16.2945, 33.2543, 7.98922, -50.0563, -5.17454
4.576, 5, 6.06928, 16.3101, 33.2757, 7.91987, -50.1431, -5.12592
4.58, 5, 6.02406, 16.3258, 33.2969, 7.85069, -50.2299, -5.07748
4.584, 5, 5.97881, 16.3416, 33.3181, 7.78168, -50.3167, -5.02922
4.588, 5, 5.93355, 16.3575, 33.3391, 7.71284, -50.4036, -4.98114
4.592, 5, 5.88828, 16.3735, 33.36, 7.64417, -50.4904, -4.93323
4.596, 5, 5.84299, 16.3897, 33.3808, 7.57567, -50.5774, -4.88549
4.6, 5, 5.79769, 16.4059, 33.4014, 7.50734, -50.6643, -4.83793
4.604, 5, 5.75238, 16.4222, 33.422, 7.43917, -50.7513, -4.79055
4.608, 5, 5.70705, 16.4386, 33.4425, 7.37117, -50.8383, -4.74333
4.612, 5, 5.66171, 16.4551, 33.4628, 7.30333, -50.9253, -4.69629
4.616, 5, 5.61636, 16.4717, 33.483, 7.23566, -51.0124, -4.64942
4.62, 5, 5.57099, 16.4884, 33.5031, 7.16815, -51.0995, -4.60272
4.624, 5, 5.52561, 16.5052, 33.5231, 7.10081, -51.1866, -4.55619
4.628, 5, 5.48022, 16.5221, 33.543, 7.03363, -51.2738, -4.50982
4.632, 5, 5.43481, 16.5391, 33.5628, 6.9666, -51.361, -4.46363
4.636, 5, 5.38939, 16.5562, 33.5824, 6.89974, -51.4482, -4.4176
4.64, 5, 5.34396, 16.5734, 33.602, 6.83304, -51.5354, -4.37174
4.644, 5, 5.29852, 16.5907, 33.6214, 6.7665, -51.6227, -4.32604
4.648, 5, 5.25307, 16.6081, 33.6407, 6.70012, -51.71, -4.28051
4.652, 5, 5.2076, 16.6255, 33.6599, 6.6339, -51.7973, -4.23514
4.656, 5, 5.16212, 16.6431, 33.679, 6.56783, -51.8847, -4.18994
4.66, 5, 5.11663, 16.6608, 33.698, 6.50192, -51.972, -4.1449
4.664, 5, 5.07113, 16.6786, 33.7168, 6.43617, -52.0594, -4.10002
4.668, 5, 5.02561, 16.6964, 33.7356, 6.37057, -52.1469, -4.0553
4.672, 5, 4.98009, 16.7144, 33.7542, 6.30512, -52.2343, -4.01074
4.676, 5, 4.93455, 16.7325, 33.7727, 6.23983, -52.3218, -3.96635
4.68, 5, 4.889, 16.7506, 33.7911, 6.17469, -52.4093, -3.92211
4.684, 5, 4.84344, 16.7689, 33.8094, 6.10971, -52.4968, -3.87803
4.688, 5, 4.79787, 16.7872, 33.8276, 6.04488, -52.5844, -3.83411
4.692, 5, 4.75229, 16.8057, 33.8456, 5.98019, -52.6719, -3.79034
4.696, 5, 4.70669, 16.8242, 33.8636, 5.91566, -52.7595, -3.74674
4.7, 5, 4.66109, 16.8429, 33.8814, 5.85128, -52.8471, -3.70328
4.704, 5, 4.61547, 16.8616, 33.8991, 5.78705, -52.9348, -3.65999
4.708, 5, 4.56985, 16.8804, 33.9167, 5.72297, -53.0224, -3.61685
4.712, 5, 4.52421, 16.8994, 33.9342, 5.65903, -53.1101, -3.57386
4.716, 5, 4.47857, 16.9184, 33.9516, 5.59525, -53.1978, -3.53102
4.72, 5, 4.43291, 16.9375, 33.9689, 5.53161, -53.2855, -3.48834
4.724, 5, 4.38724, 16.9567, 33.986, 5.46811, -53.3733, -3.44581
4.728, 5, 4.34157, 16.976, 34.003, 5.40477, -53.461, -3.40344
4.732, 5, 4.29588, 16.9954, 34.0199, 5.34156, -53.5488, -3.36121
4.736, 5, 4.25018, 17.0149, 34.0367, 5.27851, -53.6366, -3.31913
4.74, 5, 4.20448, 17.0345, 34.0534, 5.21559, -53.7244, -3.27721
4.744, 5, 4.15876, 17.0542, 34.07, 5.15282, -53.8123, -3.23543
4.748, 5, 4.11304, 17.074, 34.0865, 5.09019, -53.9002, -3.1938
4.752, 5, 4.0673, 17.0939, 34.1028, 5.02771, -53.988, -3.15232
4.756, 5, 4.02156, 17.1139, 34.119, 4.96536, -54.0759, -3.11098
4.76, 5, 3.9758, 17.1339, 34.1351, 4.90316, -54.1638, -3.0698
4.764, 5, 3.93004, 17.1541, 34.1511, 4.8411, -54.2518, -3.02876
4.768, 5, 3.88427, 17.1744, 34.167, 4.77918, -54.3397, -2.98786
4.772, 5, 3.83849, 17.1947, 34.1828, 4.71739, -54.4277, -2.94711
4.776, 5, 3.7927, 17.2152, 34.1984, 4.65575, -54.5157, -2.9065
4.78, 5, 3.7469, 17.2357, 34.214, 4.59424, -54.6037, -2.86604
4.784, 5, 3.70109, 17.2564, 34.2294, 4.53288, -54.6917, -2.82572
4.788, 5, 3.65528, 17.2771, 34.2447, 4.47165, -54.7797, -2.78555
4.792, 5, 3.60945, 17.2979, 34.2598, 4.41055, -54.8678, -2.74551
4.796, 5, 3.56362, 17.3189, 34.2749, 4.34959, -54.9559, -2.70562
4.8, 5, 3.51778, 17.3399, 34.2899, 4.28877, -55.0439, -2.66587
4.804, 5, 3.47193, 17.361, 34.3047, 4.22808, -55.132, -2.62626
4.808, 5, 3.42608, 17.3822, 34.3194, 4.16753, -55.2201, -2.58678
4.812, 5, 3.38021, 17.4035, 34.334, 4.10711, -55.3083, -2.54745
4.816, 5, 3.33434, 17.4249, 34.3485, 4.04683, -55.3964, -2.50826
4.82, 5, 3.28846, 17.4464, 34.3629, 3.98667, -55.4845, -2.4692
4.824, 5, 3.24257, 17.468, 34.3772, 3.92665, -55.5727, -2.43028
4.828, 5, 3.19668, 17.4897, 34.3913, 3.86676, -55.6609, -2.3915
4.832, 5, 3.15078, 17.5114, 34.4053, 3.807, -55.7491, -2.35285
4.836, 5, 3.10487, 17.5333, 34.4192, 3.74737, -55.8373, -2.31434
4.84, 5, 3.05895, 17.5553, 34.433, 3.68787, -55.9255, -2.27596
4.844, 5, 3.01303, 17.5773, 34.4467, 3.6285, -56.0137, -2.23772
4.848, 5, 2.9671, 17.5995, 34.4603, 3.56926, -56.1019, -2.19961
4.852, 5, 2.92117, 17.6217, 34.4737, 3.51015, -56.1902, -2.16164
4.856, 5, 2.87523, 17.644, 34.487, 3.45116, -56.2784, -2.12379
4.86, 5, 2.82928, 17.6664, 34.5002, 3.39231, -56.3667, -2.08608
4.864, 5, 2.78332, 17.689, 34.5133, 3.33357, -56.4549, -2.0485
4.868, 5, 2.73736, 17.7116, 34.5263, 3.27497, -56.5432, -2.01105
4.872, 5, 2.69139, 17.7343, 34.5392, 3.21649, -56.6315, -1.97373
4.876, 5, 2.64542, 17.7571, 34.5519, 3.15813, -56.7198, -1.93655
4.88, 5, 2.59944, 17.7799, 34.5645, 3.09991, -56.8081, -1.89949
4.884, 5, 2.55346, 17.8029, 34.577, 3.0418, -56.8964, -1.86255
4.888, 5, 2.50747, 17.826, 34.5894, 2.98382, -56.9848, -1.82575
4.892, 5, 2.46147, 17.8491, 34.6017, 2.92596, -57.0731, -1.78907
4.896, 5, 2.41547, 17.8724, 34.6139, 2.86822, -57.1614, -1.75252
4.9, 5, 2.36947, 17.8957, 34.6259, 2.81061, -57.2498, -1.7161
4.904, 5, 2.32346, 17.9192, 34.6379, 2.75311, -57.3381, -1.6798
4.908, 5, 2.27744, 17.9427, 34.6497, 2.69574, -57.4265, -1.64363
4.912, 5, 2.23142, 17.9663, 34.6614, 2.63849, -57.5148, -1.60758
4.916, 5, 2.1854, 17.99, 34.6729, 2.58136, -57.6032, -1.57166
4.92, 5, 2.13937, 18.0138, 34.6844, 2.52435, -57.6916, -1.53586
4.924, 5, 2.09333, 18.0377, 34.6958, 2.46745, -57.7799, -1.50019
4.928, 5, 2.04729, 18.0616, 34.707, 2.41068, -57.8683, -1.46463
4.932, 5, 2.00125, 18.0857, 34.7181, 2.35403, -57.9567, -1.4292
4.936, 5, 1.9552, 18.1099, 34.7291, 2.29749, -58.0451, -1.39389
4.94, 5, 1.90915, 18.1341, 34.74, 2.24107, -58.1335, -1.3587
4.944, 5, 1.8631, 18.1584, 34.7507, 2.18476, -58.2219, -1.32363
4.948, 5, 1.81704, 18.1829, 34.7614, 2.12858, -58.3103, -1.28869
4.952, 5, 1.77098, 18.2074, 34.7719, 2.07251, -58.3986, -1.25386
4.956, 5, 1.72491, 18.232, 34.7823, 2.01655, -58.487, -1.21915
4.96, 5, 1.67885, 18.2567, 34.7926, 1.96071, -58.5755, -1.18456
4.964, 5, 1.63277, 18.2814, 34.8028, 1.90498, -58.6638, -1.15009
4.968, 5, 1.5867, 18.3063, 34.8128, 1.84937, -58.7523, -1.11573
4.972, 5, 1.54062, 18.3313, 34.8228, 1.79387, -58.8407, -1.08149
4.976, 5, 1.49454, 18.3563, 34.8326, 1.73849, -58.9291, -1.04737
4.98, 5, 1.44845, 18.3815, 34.8423, 1.68322, -59.0175, -1.01337
4.984, 5, 1.40237, 18.4067, 34.8519, 1.62806, -59.1059, -0.979478
4.988, 5, 1.35628, 18.432, 34.8614, 1.57301, -59.1943, -0.945704
4.992, 5, 1.31019, 18.4574, 34.8707, 1.51807, -59.2827, -0.912045
4.996, 5, 1.26409, 18.4829, 34.88, 1.46325, -59.3711, -0.8785
5, 5, 1.21799, 18.5085, 34.8891, 1.40853, -59.4595, -0.845069
5.004, 5, 1.1719, 18.5341, 34.8981, 1.35393, -59.5479, -0.811751
5.008, 5, 1.1258, 18.5599, 34.907, 1.29943, -59.6363, -0.778546
5.012, 5, 1.07969, 18.5857, 34.9157, 1.24505, -59.7247, -0.745453
5.016, 5, 1.03359, 18.6117, 34.9244, 1.19077, -59.8131, -0.712473
5.02, 5, 0.987481, 18.6377, 34.9329, 1.1366, -59.9015, -0.679604
5.024, 5, 0.941374, 18.6638, 34.9413, 1.08255, -59.9898, -0.646846
5.028, 5, 0.895279, 18.69, 34.9496, 1.02859, -60.0782, -0.614199
5.032, 5, 0.849248, 18.7162, 34.9578, 0.97475, -60.1666, -0.581662
5.036, 5, 0.80339, 18.7425, 34.9659, 0.921016, -60.255, -0.549239
5.04, 5, 0.757844, 18.7688, 34.9738, 0.867402, -60.3433, -0.516933
5.044, 5, 0.712742, 18.7949, 34.9817, 0.813928, -60.4316, -0.484759
5.048, 5, 0.668186, 18.8209, 34.9895, 0.760634, -60.5197, -0.452741
5.052, 5, 0.624248, 18.8467, 34.9972, 0.707585, -60.6076, -0.420917
5.056, 5, 0.58096, 18.8722, 35.0047, 0.654872, -60.6951, -0.38934
5.06, 5, 0.538297, 18.8975, 35.0122, 0.602611, -60.782, -0.358079
5.064, 5, 0.496195, 18.9226, 35.0194, 0.550944, -60.8681, -0.327216
5.068, 5, 0.454596, 18.9478, 35.0264, 0.500025, -60.9531, -0.296841
5.072, 5, 0.413466, 18.9732, 35.0328, 0.450015, -61.0367, -0.267048
5.076, 5, 0.372781, 18.999, 35.0387, 0.401073, -61.1187, -0.237928
5.08, 6, 0.332508, 19.0255, 35.0437, 0.35334, -61.1989, -0.209562
5.084, 6, 0.292603, 19.0527, 35.0478, 0.306935, -61.2771, -0.182016
5.088, 6, 0.253012, 19.0808, 35.0505, 0.261931, -61.3533, -0.155328
5.092, 7, 0.213665, 19.1098, 35.0518, 0.218353, -61.4273, -0.129508
5.096, 7, 0.174464, 19.1399, 35.0515, 0.176164, -61.4993, -0.104529
5.1, 7, 0.135304, 19.1713, 35.0492, 0.135263, -61.5694, -0.0803296
5.104, 7, 0.0961377, 19.2041, 35.0449, 0.0954883, -61.6379, -0.0568135
5.108, 7, 0.0570122, 19.2384, 35.0383, 0.0566297, -61.7051, -0.0338561
5.112, 7, 0.0180424, 19.2741, 35.0293, 0.0184424, -61.7714, -0.011314
5.116, 7, -0.0206329, 19.311, 35.018, -0.0193325, -61.8371, 0.0109651
5.12, 7, -0.0588667, 19.3488, 35.0042, -0.0569513, -61.9028, 0.0331321
5.124, 7, -0.0965235, 19.3872, 34.9882, -0.0946531, -61.9688, 0.0553276
5.128, 7, -0.133538, 19.4263, 34.97, -0.132647, -62.0355, 0.0776735
5.132, 7, -0.16996, 19.4661, 34.9498, -0.1711, -62.1029, 0.100267
5.136, 7, -0.205934, 19.5069, 34.9277, -0.210131, -62.1714, 0.123176
5.14, 7, -0.241623, 19.549, 34.9039, -0.249809, -62.241, 0.146441
5.144, 7, -0.277167, 19.5926, 34.8786, -0.290154, -62.3118, 0.17007
5.148, 7, -0.312691, 19.6377, 34.852, -0.331139, -62.3837, 0.194048
5.152, 7, -0.348316, 19.6845, 34.8243, -0.372701, -62.4566, 0.21834
5.156, 7, -0.384168, 19.7325, 34.7956, -0.414753, -62.5304, 0.242895
5.16, 7, -0.420359, 19.7818, 34.7661, -0.457193, -62.605, 0.267656
5.164, 7, -0.456967, 19.832, 34.736, -0.49992, -62.6801, 0.292563
5.168, 7, -0.494042, 19.8832, 34.7054, -0.54284, -62.7557, 0.317565
5.172, 7, -0.531604, 19.9351, 34.6743, -0.585872, -62.8316, 0.342613
5.176, 7, -0.56963, 19.9876, 34.6429, -0.628953, -62.9077, 0.367672
5.18, 7, -0.608047, 20.0406, 34.6112, -0.672034, -62.9839, 0.392711
5.184, 7, -0.646751, 20.094, 34.5793, -0.71508, -63.0602, 0.417713
5.188, 7, -0.685647, 20.1476, 34.5471, -0.75807, -63.1365, 0.442663
5.192, 7, -0.724662, 20.2014, 34.5148, -0.800987, -63.2128, 0.467551
5.196, 7, -0.763747, 20.2554, 34.4823, -0.84382, -63.2891, 0.492373
5.2, 7, -0.802868, 20.3095, 34.4497, -0.886563, -63.3653, 0.517124
5.204, 7, -0.842002, 20.3636, 34.4169, -0.929211, -63.4415, 0.541801
5.208, 7, -0.881134, 20.4178, 34.384, -0.971761, -63.5176, 0.566403
5.212, 7, -0.920254, 20.4721, 34.351, -1.01421, -63.5937, 0.59093
5.216, 7, -0.959355, 20.5265, 34.3178, -1.05656, -63.6698, 0.615379
5.22, 7, -0.998432, 20.5809, 34.2846, -1.09881, -63.7458, 0.639752
5.224, 7, -1.03748, 20.6353, 34.2512, -1.14095, -63.8217, 0.664049
5.228, 7, -1.0765, 20.6898, 34.2177, -1.18299, -63.8975, 0.688269
5.232, 7, -1.11549, 20.7443, 34.1841, -1.22493, -63.9733, 0.712413
5.236, 7, -1.15445, 20.7989, 34.1503, -1.26677, -64.0491, 0.736481
5.24, 7, -1.19337, 20.8535, 34.1165, -1.30851, -64.1248, 0.760473
5.244, 7, -1.23226, 20.9082, 34.0825, -1.35014, -64.2004, 0.78439
5.248, 7, -1.27112, 20.9628, 34.0484, -1.39167, -64.2759, 0.808233
5.252, 7, -1.30994, 21.0176, 34.0142, -1.4331, -64.3514, 0.832001
5.256, 7, -1.34873, 21.0723, 33.9799, -1.47443, -64.4269, 0.855695
5.26, 7, -1.38748, 21.1271, 33.9455, -1.51566, -64.5022, 0.879315
5.264, 7, -1.4262, 21.182, 33.9109, -1.55678, -64.5775, 0.902863
5.268, 7, -1.46489, 21.2369, 33.8763, -1.59781, -64.6528, 0.926337
5.272, 7, -1.50354, 21.2918, 33.8415, -1.63874, -64.728, 0.94974
5.276, 7, -1.54215, 21.3468, 33.8066, -1.67957, -64.8031, 0.97307
5.28, 7, -1.58074, 21.4018, 33.7716, -1.72029, -64.8781, 0.996329
5.284, 7, -1.61928, 21.4568, 33.7365, -1.76092, -64.9531, 1.01952
5.288, 7, -1.6578, 21.5119, 33.7012, -1.80145, -65.028, 1.04263
5.292, 7, -1.69628, 21.567, 33.6659, -1.84188, -65.1029, 1.06568
5.296, 7, -1.73472, 21.6221, 33.6304, -1.88222, -65.1777, 1.08866
5.3, 7, -1.77313, 21.6773, 33.5948, -1.92245, -65.2524, 1.11157
5.304, 7, -1.8115, 21.7325, 33.5591, -1.96259, -65.3271, 1.13441
5.308, 7, -1.84984, 21.7878, 33.5233, -2.00263, -65.4017, 1.15718
5.312, 7, -1.88815, 21.843, 33.4874, -2.04257, -65.4762, 1.17988
5.316, 7, -1.92642, 21.8984, 33.4513, -2.08242, -65.5507, 1.20251
5.32, 7, -1.96466, 21.9537, 33.4151, -2.12217, -65.6251, 1.22508
5.324, 7, -2.00286, 22.0091, 33.3789, -2.16182, -65.6994, 1.24758
5.328, 7, -2.04102, 22.0646, 33.3425, -2.20138, -65.7737, 1.27002
5.332, 7, -2.07915, 22.12, 33.306, -2.24084, -65.8479, 1.29239
5.336, 7, -2.11725, 22.1756, 33.2693, -2.28021, -65.922, 1.31469
5.34, 7, -2.15531, 22.2311, 33.2326, -2.31948, -65.9961, 1.33692
5.344, 7, -2.19334, 22.2867, 33.1957, -2.35866, -66.0701, 1.3591
5.348, 7, -2.23133, 22.3423, 33.1588, -2.39774, -66.144, 1.3812
5.352, 7, -2.26929, 22.3979, 33.1217, -2.43673, -66.2178, 1.40325
5.356, 7, -2.30721, 22.4536, 33.0845, -2.47562, -66.2916, 1.42523
5.36, 7, -2.3451, 22.5093, 33.0471, -2.51442, -66.3654, 1.44715
5.364, 7, -2.38295, 22.5651, 33.0097, -2.55313, -66.439, 1.469
5.368, 7, -2.42076, 22.6209, 32.9722, -2.59174, -66.5126, 1.49079
5.372, 7, -2.45854, 22.6767, 32.9345, -2.63026, -66.5861, 1.51252
5.376, 7, -2.49629, 22.7325, 32.8967, -2.66869, -66.6596, 1.53419
5.38, 7, -2.534, 22.7884, 32.8588, -2.70703, -66.733, 1.55579
5.384, 7, -2.57168, 22.8443, 32.8208, -2.74527, -66.8063, 1.57734
5.388, 7, -2.60932, 22.9003, 32.7827, -2.78342, -66.8795, 1.59882
5.392, 7, -2.64692, 22.9563, 32.7445, -2.82149, -66.9527, 1.62025
5.396, 7, -2.68449, 23.0123, 32.7061, -2.85946, -67.0258, 1.64161
5.4, 7, -2.72203, 23.0684, 32.6676, -2.89733, -67.0988, 1.66292
5.404, 7, -2.75953, 23.1244, 32.629, -2.93512, -67.1718, 1.68416
5.408, 7, -2.79699, 23.1806, 32.5903, -2.97282, -67.2447, 1.70535
5.412, 7, -2.83442, 23.2367, 32.5515, -3.01043, -67.3175, 1.72648
5.416, 7, -2.87181, 23.2929, 32.5126, -3.04794, -67.3903, 1.74755
5.42, 7, -2.90917, 23.3491, 32.4735, -3.08537, -67.463, 1.76856
5.424, 7, -2.94649, 23.4054, 32.4344, -3.12271, -67.5356, 1.78952
5.428, 7, -2.98378, 23.4617, 32.3951, -3.15996, -67.6081, 1.81042
5.432, 7, -3.02103, 23.518, 32.3557, -3.19712, -67.6806, 1.83126
5.436, 7, -3.05825, 23.5743, 32.3162, -3.23419, -67.7529, 1.85205
5.44, 7, -3.09543, 23.6307, 32.2766, -3.27117, -67.8253, 1.87278
5.444, 7, -3.13257, 23.6871, 32.2369, -3.30807, -67.8975, 1.89346
5.448, 7, -3.16968, 23.7435, 32.197, -3.34488, -67.9697, 1.91408
5.452, 7, -3.20676, 23.8, 32.157, -3.3816, -68.0418, 1.93465
5.456, 7, -3.24379, 23.8565, 32.117, -3.41823, -68.1138, 1.95516
5.46, 7, -3.2808, 23.9131, 32.0768, -3.45477, -68.1858, 1.97562
5.464, 7, -3.31776, 23.9696, 32.0364, -3.49123, -68.2576, 1.99603
5.468, 7, -3.35469, 24.0262, 31.996, -3.5276, -68.3295, 2.01638
5.472, 7, -3.39159, 24.0828, 31.9555, -3.56389, -68.4012, 2.03668
5.476, 7, -3.42844, 24.1395, 31.9148, -3.60009, -68.4728, 2.05693
5.48, 7, -3.46527, 24.1962, 31.874, -3.6362, -68.5444, 2.07712
5.484, 7, -3.50205, 24.2529, 31.8332, -3.67223, -68.6159, 2.09727
5.488, 7, -3.53881, 24.3097, 31.7921, -3.70817, -68.6874, 2.11736
5.492, 7, -3.57552, 24.3664, 31.751, -3.74403, -68.7587, 2.1374
5.496, 7, -3.6122, 24.4232, 31.7098, -3.7798, -68.83, 2.15739
5.5, 7, -3.64884, 24.4801, 31.6684, -3.81549, -68.9012, 2.17733
5.504, 7, -3.68545, 24.5369, 31.627, -3.85109, -68.9723, 2.19722
5.508, 7, -3.72202, 24.5938, 31.5854, -3.88661, -69.0434, 2.21706
5.512, 7, -3.75855, 24.6508, 31.5437, -3.92204, -69.1144, 2.23686
5.516, 7, -3.79505, 24.7077, 31.5019, -3.95739, -69.1853, 2.2566
5.52, 7, -3.83151, 24.7647, 31.46, -3.99266, -69.2561, 2.2763
5.524, 7, -3.86794, 24.8217, 31.4179, -4.02785, -69.3269, 2.29594
5.528, 7, -3.90433, 24.8788, 31.3758, -4.06295, -69.3975, 2.31554
5.532, 7, -3.94068, 24.9359, 31.3335, -4.09797, -69.4681, 2.33509
5.536, 7, -3.977, 24.993, 31.2911, -4.1329, -69.5386, 2.3546
5.54, 7, -4.01328, 25.0501, 31.2486, -4.16775, -69.6091, 2.37406
5.544, 7, -4.04953, 25.1072, 31.206, -4.20253, -69.6794, 2.39347
5.548, 7, -4.08573, 25.1644, 31.1633, -4.23722, -69.7497, 2.41283
5.552, 7, -4.1219, 25.2216, 31.1204, -4.27182, -69.8199, 2.43215
5.556, 7, -4.15804, 25.2789, 31.0774, -4.30635, -69.8901, 2.45143
5.56, 7, -4.19414, 25.3362, 31.0344, -4.34079, -69.9601, 2.47066
5.564, 7, -4.2302, 25.3935, 30.9912, -4.37516, -70.0301, 2.48984
5.568, 7, -4.26623, 25.4508, 30.9479, -4.40944, -70.1, 2.50898
5.572, 7, -4.30221, 25.5081, 30.9044, -4.44364, -70.1698, 2.52808
5.576, 7, -4.33817, 25.5655, 30.8609, -4.47777, -70.2395, 2.54713
5.58, 7, -4.37408, 25.6229, 30.8172, -4.51181, -70.3092, 2.56614
5.584, 7, -4.40996, 25.6804, 30.7735, -4.54577, -70.3787, 2.58511
5.588, 7, -4.4458, 25.7378, 30.7296, -4.57965, -70.4482, 2.60403
5.592, 7, -4.48161, 25.7953, 30.6856, -4.61346, -70.5176, 2.62292
5.596, 7, -4.51737, 25.8528, 30.6415, -4.64718, -70.587, 2.64176
5.6, 7, -4.55311, 25.9104, 30.5972, -4.68083, -70.6562, 2.66055
5.604, 7, -4.5888, 25.9679, 30.5529, -4.71439, -70.7254, 2.67931
5.608, 7, -4.62446, 26.0255, 30.5084, -4.74788, -70.7945, 2.69803
5.612, 7, -4.66008, 26.0832, 30.4638, -4.78129, -70.8635, 2.7167
5.616, 7, -4.69566, 26.1408, 30.4191, -4.81462, -70.9324, 2.73534
5.62, 7, -4.73121, 26.1985, 30.3743, -4.84788, -71.0012, 2.75393
5.624, 7, -4.76672, 26.2562, 30.3294, -4.88105, -71.07, 2.77249
5.628, 7, -4.80219, 26.3139, 30.2843, -4.91415, -71.1387, 2.791
5.632, 7, -4.83762, 26.3717, 30.2392, -4.94717, -71.2073, 2.80948
5.636, 7, -4.87302, 26.4295, 30.1939, -4.98012, -71.2758, 2.82792
5.64, 7, -4.90838, 26.4873, 30.1485, -5.01298, -71.3442, 2.84632
5.644, 7, -4.94371, 26.5451, 30.103, -5.04577, -71.4125, 2.86468
5.648, 7, -4.97899, 26.6029, 30.0574, -5.07849, -71.4808, 2.88301
5.652, 7, -5.01424, 26.6608, 30.0116, -5.11112, -71.549, 2.90129
5.656, 7, -5.04945, 26.7187, 29.9658, -5.14369, -71.6171, 2.91954
5.66, 7, -5.08462, 26.7767, 29.9198, -5.17617, -71.6851, 2.93776
5.664, 7, -5.11976, 26.8346, 29.8737, -5.20858, -71.753, 2.95594
5.668, 7, -5.15486, 26.8926, 29.8275, -5.24092, -71.8209, 2.97408
5.672, 7, -5.18992, 26.9506, 29.7812, -5.27318, -71.8886, 2.99218
5.676, 7, -5.22494, 27.0086, 29.7347, -5.30536, -71.9563, 3.01025
5.68, 7, -5.25993, 27.0667, 29.6882, -5.33747, -72.0239, 3.02829
5.684, 7, -5.29488, 27.1248, 29.6415, -5.3695, -72.0914, 3.04629
5.688, 7, -5.32979, 27.1829, 29.5947, -5.40146, -72.1588, 3.06425
5.692, 7, -5.36466, 27.241, 29.5478, -5.43334, -72.2261, 3.08218
5.696, 7, -5.3995, 27.2991, 29.5008, -5.46515, -72.2934, 3.10008
5.7, 7, -5.4343, 27.3573, 29.4537, -5.49689, -72.3605, 3.11794
5.704, 7, -5.46906, 27.4155, 29.4064, -5.52855, -72.4276, 3.13578
5.708, 7, -5.50378, 27.4737, 29.3591, -5.56014, -72.4946, 3.15357
5.712, 7, -5.53847, 27.532, 29.3116, -5.59165, -72.5615, 3.17134
5.716, 7, -5.57312, 27.5902, 29.264, -5.62309, -72.6283, 3.18907
5.72, 7, -5.60773, 27.6485, 29.2163, -5.65445, -72.695, 3.20677
5.724, 7, -5.64231, 27.7068, 29.1684, -5.68574, -72.7617, 3.22444
5.728, 7, -5.67684, 27.7652, 29.1205, -5.71696, -72.8282, 3.24208
5.732, 7, -5.71134, 27.8235, 29.0724, -5.7481, -72.8947, 3.25968
5.736, 7, -5.7458, 27.8819, 29.0242, -5.77917, -72.9611, 3.27726
5.74, 7, -5.78023, 27.9403, 28.9759, -5.81017, -73.0274, 3.2948
5.744, 7, -5.81461, 27.9988, 28.9275, -5.84109, -73.0936, 3.31231
5.748, 7, -5.84896, 28.0572, 28.879, -5.87194, -73.1597, 3.32979
5.752, 7, -5.88327, 28.1157, 28.8304, -5.90272, -73.2258, 3.34725
5.756, 7, -5.91755, 28.1742, 28.7816, -5.93343, -73.2917, 3.36467
5.76, 7, -5.95178, 28.2327, 28.7327, -5.96406, -73.3576, 3.38206
5.764, 7, -5.98598, 28.2912, 28.6838, -5.99462, -73.4234, 3.39943
5.768, 7, -6.02014, 28.3498, 28.6346, -6.02511, -73.4891, 3.41676
5.772, 7, -6.05427, 28.4084, 28.5854, -6.05552, -73.5547, 3.43407
5.776, 7, -6.08835, 28.467, 28.5361, -6.08587, -73.6202, 3.45134
5.78, 7, -6.1224, 28.5256, 28.4866, -6.11614, -73.6856, 3.46859
5.784, 7, -6.15642, 28.5843, 28.4371, -6.14634, -73.751, 3.48581
5.788, 7, -6.19039, 28.643, 28.3874, -6.17647, -73.8162, 3.503
5.792, 7, -6.22433, 28.7017, 28.3376, -6.20653, -73.8814, 3.52017
5.796, 7, -6.25823, 28.7604, 28.2877, -6.23651, -73.9465, 3.5373
5.8, 7, -6.29209, 28.8191, 28.2376, -6.26643, -74.0115, 3.55441
5.804, 7, -6.32592, 28.8779, 28.1875, -6.29627, -74.0764, 3.5715
5.808, 7, -6.35971, 28.9367, 28.1372, -6.32604, -74.1412, 3.58855
5.812, 7, -6.39346, 28.9955, 28.0869, -6.35574, -74.2059, 3.60558
5.816, 7, -6.42717, 29.0543, 28.0364, -6.38537, -74.2706, 3.62259
5.82, 7, -6.46085, 29.1132, 27.9858, -6.41493, -74.3351, 3.63957
5.824, 7, -6.49449, 29.172, 27.9351, -6.44442, -74.3996, 3.65652
5.828, 7, -6.52809, 29.2309, 27.8842, -6.47384, -74.464, 3.67344
5.832, 7, -6.56166, 29.2898, 27.8333, -6.50319, -74.5283, 3.69035
5.836, 7, -6.59519, 29.3488, 27.7822, -6.53247, -74.5925, 3.70722
5.84, 7, -6.62868, 29.4077, 27.731, -6.56168, -74.6566, 3.72407
5.844, 7, -6.66213, 29.4667, 27.6797, -6.59082, -74.7206, 3.7409
5.848, 7, -6.69555, 29.5257, 27.6283, -6.61989, -74.7845, 3.7577
5.852, 7, -6.72893, 29.5848, 27.5768, -6.64888, -74.8484, 3.77448
5.856, 7, -6.76228, 29.6438, 27.5252, -6.67781, -74.9122, 3.79124
5.86, 7, -6.79558, 29.7029, 27.4734, -6.70667, -74.9758, 3.80797
5.864, 7, -6.82885, 29.762, 27.4215, -6.73547, -75.0394, 3.82468
5.868, 7, -6.86208, 29.8211, 27.3695, -6.76419, -75.1029, 3.84136
5.872, 7, -6.89528, 29.8802, 27.3174, -6.79284, -75.1663, 3.85803
5.876, 7, -6.92844, 29.9393, 27.2652, -6.82142, -75.2297, 3.87467
5.88, 7, -6.96156, 29.9985, 27.2129, -6.84994, -75.2929, 3.89128
5.884, 7, -6.99464, 30.0577, 27.1604, -6.87838, -75.356, 3.90788
5.888, 7, -7.02769, 30.1169, 27.1079, -6.90676, -75.4191, 3.92445
5.892, 7, -7.0607, 30.1762, 27.0552, -6.93507, -75.4821, 3.941
5.896, 7, -7.09367, 30.2354, 27.0024, -6.96331, -75.5449, 3.95753
5.9, 7, -7.12661, 30.2947, 26.9495, -6.99148, -75.6077, 3.97404
5.904, 7, -7.15951, 30.354, 26.8965, -7.01958, -75.6704, 3.99053
5.908, 7, -7.19237, 30.4133, 26.8434, -7.04762, -75.733, 4.007
5.912, 7, -7.2252, 30.4726, 26.7901, -7.07558, -75.7956, 4.02344
5.916, 7, -7.25799, 30.532, 26.7367, -7.10348, -75.858, 4.03987
5.92, 7, -7.29074, 30.5914, 26.6833, -7.13131, -75.9203, 4.05628
5.924, 7, -7.32345, 30.6508, 26.6297, -7.15908, -75.9826, 4.07266
5.928, 7, -7.35613, 30.7102, 26.5759, -7.18677, -76.0447, 4.08903
5.932, 7, -7.38877, 30.7696, 26.5221, -7.2144, -76.1068, 4.10538
5.936, 7, -7.42138, 30.8291, 26.4682, -7.24196, -76.1688, 4.12171
5.94, 7, -7.45395, 30.8886, 26.4141, -7.26945, -76.2307, 4.13802
5.944, 7, -7.48648, 30.9481, 26.3599, -7.29688, -76.2925, 4.15431
5.948, 7, -7.51897, 31.0076, 26.3057, -7.32424, -76.3542, 4.17058
5.952, 7, -7.55143, 31.0671, 26.2513, -7.35153, -76.4158, 4.18683
