hehonglu123/ABB_Primitive_Study/execution/movelcl_30_car/curve_exe_v300_z20.csv
timestamp, cmd_num, J1, J2, J3, J4, J5, J6
0, -1, -13.4393, 43.6787, 12.5946, -11.6275, -87.029, 7.42441
0.003, -1, -13.4393, 43.6787, 12.5946, -11.6275, -87.029, 7.42441
0.006, -1, -13.4393, 43.6787, 12.5946, -11.6275, -87.029, 7.42441
0.008, -1, -13.4393, 43.6787, 12.5946, -11.6275, -87.029, 7.42441
0.011, -1, -13.4393, 43.6787, 12.5946, -11.6275, -87.029, 7.42441
0.016, -1, -13.4393, 43.6787, 12.5946, -11.6275, -87.029, 7.42441
0.02, -1, -13.4393, 43.6787, 12.5946, -11.6275, -87.029, 7.42441
0.024, -1, -13.4393, 43.6787, 12.5946, -11.6275, -87.029, 7.42441
0.028, -1, -13.4393, 43.6787, 12.5946, -11.6275, -87.029, 7.42441
0.032, -1, -13.4393, 43.6787, 12.5946, -11.6275, -87.029, 7.42441
0.036, -1, -13.4392, 43.6786, 12.5946, -11.6275, -87.029, 7.42441
0.04, -1, -13.439, 43.6785, 12.5946, -11.6275, -87.029, 7.42441
0.044, -1, -13.4384, 43.678, 12.5947, -11.6275, -87.029, 7.42439
0.048, -1, -13.4372, 43.6772, 12.5949, -11.6274, -87.0289, 7.42434
0.052, -1, -13.4355, 43.6758, 12.5951, -11.6273, -87.0287, 7.42422
0.056, -1, -13.433, 43.6738, 12.5955, -11.627, -87.0284, 7.42397
0.06, -1, -13.4296, 43.671, 12.5961, -11.6264, -87.0277, 7.42349
0.064, -1, -13.4254, 43.6675, 12.5969, -11.6253, -87.0264, 7.42266
0.068, -1, -13.4203, 43.6631, 12.598, -11.6236, -87.0244, 7.42132
0.072, -1, -13.4141, 43.6579, 12.5994, -11.6209, -87.0213, 7.41928
0.076, -1, -13.4066, 43.6516, 12.6011, -11.617, -87.0167, 7.4163
0.08, -1, -13.3977, 43.6442, 12.6034, -11.6115, -87.0103, 7.41213
0.084, -1, -13.3869, 43.6352, 12.6062, -11.604, -87.0016, 7.40644
0.088, -1, -13.3743, 43.6247, 12.6097, -11.5941, -86.9899, 7.39892
0.092, -1, -13.3596, 43.6124, 12.6138, -11.5812, -86.9748, 7.38918
0.096, -1, -13.3427, 43.5982, 12.6186, -11.5648, -86.9557, 7.37685
0.1, -1, -13.3235, 43.582, 12.6243, -11.5444, -86.9319, 7.36155
0.104, -1, -13.3019, 43.5636, 12.6308, -11.5196, -86.9029, 7.3429
0.108, -1, -13.2776, 43.5427, 12.6382, -11.4899, -86.868, 7.32054
0.112, -1, -13.2505, 43.5193, 12.6467, -11.4547, -86.8269, 7.29416
0.116, -1, -13.2206, 43.4932, 12.6562, -11.4137, -86.7789, 7.26346
0.12, -1, -13.1877, 43.4644, 12.6669, -11.3667, -86.7238, 7.22818
0.124, -1, -13.1519, 43.4328, 12.6786, -11.3132, -86.6612, 7.18814
0.128, -1, -13.113, 43.3984, 12.6916, -11.2532, -86.591, 7.14319
0.131, -1, -13.071, 43.3611, 12.7056, -11.1865, -86.5129, 7.09326
0.136, -1, -13.026, 43.321, 12.7209, -11.1131, -86.4269, 7.03835
0.139, -1, -12.9779, 43.2779, 12.7373, -11.0331, -86.3333, 6.9785
0.144, -1, -12.9267, 43.232, 12.7548, -10.9467, -86.2321, 6.91384
0.148, -1, -12.8726, 43.1833, 12.7734, -10.854, -86.1236, 6.84454
0.152, -1, -12.8155, 43.132, 12.7932, -10.7555, -86.0082, 6.77084
0.156, -1, -12.7557, 43.0781, 12.8139, -10.6514, -85.8863, 6.69301
0.16, -1, -12.6932, 43.0219, 12.8355, -10.5422, -85.7585, 6.61137
0.164, -1, -12.6282, 42.9633, 12.8581, -10.4284, -85.6253, 6.52627
0.168, -1, -12.5607, 42.9025, 12.8815, -10.3105, -85.4872, 6.43809
0.172, -1, -12.4909, 42.8396, 12.9056, -10.189, -85.3449, 6.34721
0.176, -1, -12.4189, 42.7749, 12.9305, -10.0644, -85.1989, 6.25399
0.18, -1, -12.345, 42.7085, 12.956, -9.93711, -85.0499, 6.15879
0.184, -1, -12.2694, 42.6406, 12.9821, -9.80765, -84.8983, 6.06194
0.188, -1, -12.1925, 42.5714, 13.0086, -9.6764, -84.7446, 5.96375
0.192, -1, -12.1142, 42.5011, 13.0356, -9.54373, -84.5892, 5.86449
0.196, -1, -12.0348, 42.4297, 13.0629, -9.40995, -84.4326, 5.76439
0.2, -1, -11.9542, 42.3573, 13.0906, -9.27534, -84.2749, 5.66366
0.204, -1, -11.8724, 42.2841, 13.1185, -9.14011, -84.1166, 5.56246
0.208, -1, -11.7897, 42.21, 13.1466, -9.00443, -83.9577, 5.46092
0.212, -1, -11.7061, 42.1354, 13.1749, -8.86843, -83.7985, 5.35913
0.216, -1, -11.6218, 42.0602, 13.2033, -8.7322, -83.6389, 5.25717
0.22, -1, -11.5371, 41.9847, 13.2318, -8.5958, -83.4792, 5.15507
0.224, -1, -11.452, 41.909, 13.2603, -8.45928, -83.3194, 5.05288
0.228, -1, -11.3667, 41.8332, 13.2889, -8.32266, -83.1594, 4.95062
0.232, -1, -11.2813, 41.7572, 13.3176, -8.18597, -82.9993, 4.8483
0.236, -1, -11.1957, 41.6811, 13.3462, -8.04922, -82.8392, 4.74595
0.24, -1, -11.11, 41.605, 13.3749, -7.91243, -82.679, 4.64355
0.244, -1, -11.0243, 41.5288, 13.4035, -7.77561, -82.5188, 4.54114
0.248, -1, -10.9386, 41.4526, 13.4322, -7.63876, -82.3586, 4.4387
0.252, -1, -10.8528, 41.3764, 13.4609, -7.50189, -82.1983, 4.33625
0.256, -1, -10.767, 41.3002, 13.4896, -7.36501, -82.0381, 4.2338
0.26, -1, -10.6811, 41.2239, 13.5183, -7.22813, -81.8778, 4.13133
0.264, -1, -10.5953, 41.1477, 13.547, -7.09125, -81.7175, 4.02887
0.268, -1, -10.5094, 41.0714, 13.5757, -6.95436, -81.5572, 3.92641
0.272, -1, -10.4236, 40.9952, 13.6044, -6.81749, -81.397, 3.82396
0.276, -1, -10.3378, 40.9189, 13.6331, -6.68063, -81.2367, 3.72151
0.28, -1, -10.252, 40.8427, 13.6618, -6.54379, -81.0765, 3.61908
0.284, -1, -10.1661, 40.7665, 13.6904, -6.40697, -80.9163, 3.51666
0.288, -1, -10.0803, 40.6903, 13.7191, -6.27017, -80.7561, 3.41427
0.292, -1, -9.99456, 40.6141, 13.7478, -6.13341, -80.596, 3.31189
0.296, -1, -9.9088, 40.538, 13.7764, -5.99668, -80.4359, 3.20955
0.3, -1, -9.82306, 40.4618, 13.8051, -5.85999, -80.2758, 3.10723
0.304, -1, -9.73734, 40.3857, 13.8337, -5.72334, -80.1158, 3.00494
0.308, -1, -9.65166, 40.3096, 13.8624, -5.58674, -79.9558, 2.90269
0.312, -1, -9.566, 40.2336, 13.891, -5.45019, -79.796, 2.80048
0.316, -1, -9.48038, 40.1575, 13.9196, -5.31369, -79.6361, 2.69831
0.32, -1, -9.3948, 40.0815, 13.9482, -5.17726, -79.4764, 2.59618
0.324, -1, -9.30925, 40.0055, 13.9768, -5.04089, -79.3167, 2.4941
0.328, -1, -9.22375, 39.9296, 14.0054, -4.90458, -79.1571, 2.39207
0.332, -1, -9.13829, 39.8537, 14.0339, -4.76835, -78.9976, 2.2901
0.336, -1, -9.05287, 39.7778, 14.0625, -4.63219, -78.8382, 2.18818
0.34, -1, -8.9675, 39.702, 14.091, -4.49612, -78.6788, 2.08632
0.344, -1, -8.88219, 39.6262, 14.1195, -4.36012, -78.5196, 1.98452
0.348, -1, -8.79692, 39.5505, 14.148, -4.22421, -78.3604, 1.88279
0.352, -1, -8.71172, 39.4748, 14.1765, -4.0884, -78.2014, 1.78113
0.356, -1, -8.62657, 39.3992, 14.2049, -3.95267, -78.0425, 1.67953
0.36, -1, -8.54148, 39.3236, 14.2334, -3.81705, -77.8837, 1.57801
0.364, -1, -8.45646, 39.2481, 14.2618, -3.68152, -77.725, 1.47657
0.368, -1, -8.3715, 39.1727, 14.2902, -3.54611, -77.5664, 1.3752
0.372, -1, -8.28661, 39.0973, 14.3185, -3.4108, -77.408, 1.27392
0.376, -1, -8.20179, 39.0219, 14.3469, -3.2756, -77.2497, 1.17272
0.38, -1, -8.11704, 38.9467, 14.3752, -3.14052, -77.0915, 1.07161
0.384, -1, -8.03237, 38.8715, 14.4035, -3.00557, -76.9335, 0.970588
0.388, -1, -7.94777, 38.7963, 14.4318, -2.87073, -76.7756, 0.869659
0.392, -1, -7.86325, 38.7212, 14.46, -2.73602, -76.6179, 0.768825
0.396, -1, -7.77881, 38.6463, 14.4882, -2.60145, -76.4603, 0.668089
0.4, -1, -7.69446, 38.5713, 14.5164, -2.467, -76.3029, 0.567454
0.404, -1, -7.61019, 38.4965, 14.5446, -2.3327, -76.1456, 0.466921
0.408, -1, -7.526, 38.4217, 14.5727, -2.19854, -75.9885, 0.366494
0.412, -1, -7.44191, 38.347, 14.6008, -2.06452, -75.8316, 0.266176
0.416, -1, -7.35791, 38.2724, 14.6288, -1.93064, -75.6748, 0.165968
0.42, -1, -7.274, 38.1979, 14.6569, -1.79692, -75.5183, 0.0658724
0.424, -1, -7.19019, 38.1235, 14.6849, -1.66336, -75.3619, -0.0341072
0.428, -1, -7.10648, 38.0491, 14.7128, -1.52995, -75.2057, -0.133969
0.432, -1, -7.02287, 37.9748, 14.7408, -1.3967, -75.0496, -0.233711
0.436, -1, -6.93935, 37.9007, 14.7687, -1.26362, -74.8938, -0.33333
0.44, -1, -6.85595, 37.8266, 14.7965, -1.1307, -74.7382, -0.432824
0.444, -1, -6.77264, 37.7526, 14.8244, -0.99795, -74.5827, -0.532191
0.448, -1, -6.68945, 37.6787, 14.8522, -0.865375, -74.4275, -0.631429
0.452, -1, -6.60636, 37.6049, 14.8799, -0.732975, -74.2725, -0.730535
0.456, -1, -6.52339, 37.5312, 14.9077, -0.600755, -74.1176, -0.829507
0.46, -1, -6.44053, 37.4576, 14.9353, -0.468716, -73.963, -0.928344
0.464, -1, -6.35778, 37.3842, 14.963, -0.336861, -73.8086, -1.02704
0.468, -1, -6.27515, 37.3108, 14.9906, -0.205193, -73.6545, -1.1256
0.472, -1, -6.19264, 37.2375, 15.0181, -0.0737153, -73.5005, -1.22402
0.476, -1, -6.11024, 37.1643, 15.0457, 0.0575699, -73.3468, -1.32229
0.48, -1, -6.02797, 37.0912, 15.0732, 0.18866, -73.1933, -1.42042
0.484, -1, -5.94582, 37.0183, 15.1006, 0.319552, -73.04, -1.51839
0.488, -1, -5.8638, 36.9454, 15.128, 0.450244, -72.887, -1.61622
0.492, -1, -5.7819, 36.8727, 15.1554, 0.580734, -72.7342, -1.7139
0.496, -1, -5.70012, 36.8001, 15.1827, 0.711018, -72.5817, -1.81142
0.5, -1, -5.61848, 36.7276, 15.2099, 0.841096, -72.4294, -1.90879
0.504, -1, -5.53697, 36.6552, 15.2372, 0.970964, -72.2773, -2.006
0.508, -1, -5.45558, 36.5829, 15.2644, 1.10062, -72.1255, -2.10306
0.512, -1, -5.37433, 36.5108, 15.2915, 1.23006, -71.9739, -2.19995
0.516, -1, -5.29321, 36.4387, 15.3186, 1.35929, -71.8226, -2.29668
0.52, -1, -5.21223, 36.3668, 15.3456, 1.4883, -71.6715, -2.39325
0.524, -1, -5.13138, 36.295, 15.3726, 1.6171, -71.5207, -2.48966
0.528, -1, -5.05067, 36.2233, 15.3996, 1.74567, -71.3702, -2.5859
0.532, -1, -4.97009, 36.1518, 15.4265, 1.87402, -71.2199, -2.68198
0.536, -1, -4.88966, 36.0803, 15.4534, 2.00215, -71.0698, -2.77789
0.54, -1, -4.80936, 36.009, 15.4802, 2.13005, -70.9201, -2.87363
0.544, -1, -4.7292, 35.9378, 15.507, 2.25773, -70.7706, -2.9692
0.548, -1, -4.64919, 35.8668, 15.5337, 2.38518, -70.6213, -3.0646
0.552, -1, -4.56931, 35.7959, 15.5604, 2.51241, -70.4724, -3.15984
0.556, -1, -4.48958, 35.725, 15.587, 2.6394, -70.3237, -3.2549
0.56, -1, -4.41, 35.6544, 15.6136, 2.76617, -70.1752, -3.34979
0.564, -1, -4.33056, 35.5838, 15.6401, 2.8927, -70.0271, -3.44451
0.568, -1, -4.25126, 35.5134, 15.6666, 3.01901, -69.8792, -3.53905
0.572, -1, -4.17211, 35.4431, 15.693, 3.14508, -69.7316, -3.63342
0.576, -1, -4.0931, 35.373, 15.7194, 3.27092, -69.5842, -3.72761
0.58, -1, -4.01424, 35.3029, 15.7458, 3.39652, -69.4372, -3.82163
0.584, -1, -3.93553, 35.233, 15.772, 3.52189, -69.2904, -3.91547
0.588, -1, -3.85696, 35.1633, 15.7983, 3.64702, -69.1438, -4.00914
0.592, -1, -3.77855, 35.0936, 15.8245, 3.77191, -68.9976, -4.10263
0.596, -1, -3.70028, 35.0241, 15.8506, 3.89657, -68.8516, -4.19594
0.6, -1, -3.62216, 34.9548, 15.8767, 4.02099, -68.7059, -4.28908
0.604, -1, -3.54419, 34.8855, 15.9027, 4.14517, -68.5605, -4.38203
0.608, -1, -3.46637, 34.8164, 15.9287, 4.26911, -68.4154, -4.47481
0.612, -1, -3.3887, 34.7474, 15.9547, 4.39281, -68.2706, -4.5674
0.616, -1, -3.31118, 34.6786, 15.9806, 4.51628, -68.126, -4.65982
0.62, -1, -3.23382, 34.6099, 16.0064, 4.63949, -67.9817, -4.75205
0.624, -1, -3.1566, 34.5413, 16.0322, 4.76247, -67.8377, -4.84411
0.628, -1, -3.07954, 34.4729, 16.0579, 4.88521, -67.694, -4.93598
0.632, -1, -3.00262, 34.4046, 16.0836, 5.0077, -67.5506, -5.02767
0.636, -1, -2.92586, 34.3364, 16.1092, 5.12995, -67.4074, -5.11918
0.64, -1, -2.84926, 34.2684, 16.1348, 5.25195, -67.2646, -5.2105
0.644, -1, -2.7728, 34.2005, 16.1604, 5.37371, -67.122, -5.30165
0.648, -1, -2.6965, 34.1328, 16.1858, 5.49523, -66.9797, -5.39261
0.652, -1, -2.62035, 34.0652, 16.2113, 5.6165, -66.8377, -5.48338
0.656, -1, -2.54436, 33.9977, 16.2366, 5.73753, -66.696, -5.57398
0.66, -1, -2.46852, 33.9303, 16.262, 5.85831, -66.5546, -5.66439
0.664, -1, -2.39283, 33.8631, 16.2872, 5.97884, -66.4135, -5.75461
0.668, -1, -2.3173, 33.7961, 16.3125, 6.09913, -66.2726, -5.84465
0.672, -1, -2.24192, 33.7291, 16.3376, 6.21917, -66.1321, -5.93451
0.676, -1, -2.1667, 33.6623, 16.3628, 6.33897, -65.9918, -6.02418
0.68, -1, -2.09163, 33.5957, 16.3878, 6.45851, -65.8518, -6.11367
0.684, -1, -2.01672, 33.5292, 16.4129, 6.57781, -65.7121, -6.20297
0.688, -1, -1.94196, 33.4628, 16.4378, 6.69687, -65.5727, -6.29208
0.692, -1, -1.86736, 33.3965, 16.4627, 6.81567, -65.4336, -6.38101
0.696, -1, -1.79291, 33.3304, 16.4876, 6.93423, -65.2948, -6.46976
0.7, -1, -1.71862, 33.2645, 16.5124, 7.05254, -65.1562, -6.55832
0.704, -1, -1.64448, 33.1986, 16.5372, 7.1706, -65.018, -6.64669
0.708, -1, -1.5705, 33.1329, 16.5619, 7.28841, -64.8801, -6.73488
0.712, -1, -1.49668, 33.0674, 16.5865, 7.40597, -64.7424, -6.82288
0.716, -1, -1.42301, 33.002, 16.6111, 7.52329, -64.605, -6.9107
0.72, -1, -1.34949, 32.9367, 16.6357, 7.64036, -64.468, -6.99833
0.724, -1, -1.27614, 32.8715, 16.6602, 7.75718, -64.3312, -7.08577
0.728, -1, -1.20293, 32.8065, 16.6846, 7.87375, -64.1947, -7.17303
0.732, -1, -1.12989, 32.7417, 16.709, 7.99007, -64.0585, -7.2601
0.736, -1, -1.057, 32.677, 16.7333, 8.10615, -63.9226, -7.34699
0.74, -1, -0.984259, 32.6124, 16.7576, 8.22197, -63.7869, -7.43369
0.744, -1, -0.911678, 32.5479, 16.7819, 8.33755, -63.6516, -7.52021
0.748, -1, -0.839252, 32.4836, 16.8061, 8.45288, -63.5166, -7.60653
0.752, -1, -0.766981, 32.4194, 16.8302, 8.56796, -63.3818, -7.69268
0.756, -1, -0.694864, 32.3554, 16.8543, 8.6828, -63.2474, -7.77864
0.76, -1, -0.622901, 32.2915, 16.8783, 8.79738, -63.1132, -7.86441
0.764, -1, -0.551092, 32.2277, 16.9023, 8.91172, -62.9793, -7.95
0.768, -1, -0.479437, 32.1641, 16.9262, 9.02582, -62.8457, -8.0354
0.772, -1, -0.407935, 32.1006, 16.9501, 9.13966, -62.7124, -8.12062
0.776, -1, -0.336586, 32.0373, 16.9739, 9.25326, -62.5794, -8.20566
0.78, -1, -0.26539, 31.9741, 16.9977, 9.36662, -62.4467, -8.29051
0.784, -1, -0.194346, 31.911, 17.0214, 9.47973, -62.3142, -8.37518
0.788, -1, -0.123455, 31.848, 17.0451, 9.5926, -62.182, -8.45966
0.792, -1, -0.0527154, 31.7852, 17.0687, 9.70522, -62.0502, -8.54397
0.796, -1, 0.0178725, 31.7226, 17.0923, 9.81761, -61.9186, -8.62809
0.8, -1, 0.0883091, 31.66, 17.1158, 9.92975, -61.7873, -8.71204
0.804, -1, 0.158595, 31.5976, 17.1393, 10.0417, -61.6562, -8.7958
0.808, -1, 0.22873, 31.5353, 17.1627, 10.1533, -61.5255, -8.87938
0.812, -1, 0.298716, 31.4732, 17.186, 10.2647, -61.395, -8.96279
0.816, -1, 0.368552, 31.4112, 17.2094, 10.3759, -61.2648, -9.04602
0.82, -1, 0.438239, 31.3493, 17.2326, 10.4869, -61.1349, -9.12907
0.824, -1, 0.507778, 31.2876, 17.2559, 10.5976, -61.0053, -9.21194
0.828, -1, 0.577169, 31.226, 17.279, 10.7081, -60.8759, -9.29464
0.832, -1, 0.646413, 31.1645, 17.3021, 10.8183, -60.7468, -9.37716
0.836, -1, 0.71551, 31.1031, 17.3252, 10.9283, -60.618, -9.45951
0.84, -1, 0.78446, 31.0419, 17.3482, 11.0381, -60.4895, -9.54168
0.844, -1, 0.853265, 30.9808, 17.3712, 11.1476, -60.3612, -9.62368
0.848, -1, 0.921925, 30.9199, 17.3941, 11.2569, -60.2332, -9.7055
0.852, -1, 0.990441, 30.859, 17.417, 11.366, -60.1055, -9.78716
0.856, -1, 1.05881, 30.7983, 17.4398, 11.4749, -59.9781, -9.86864
0.86, -1, 1.12704, 30.7378, 17.4626, 11.5835, -59.8509, -9.94995
0.864, -1, 1.19512, 30.6773, 17.4854, 11.6919, -59.7239, -10.0311
0.868, -1, 1.26307, 30.617, 17.508, 11.8001, -59.5973, -10.1121
0.872, -1, 1.33087, 30.5568, 17.5307, 11.908, -59.4709, -10.1929
0.876, -1, 1.39853, 30.4967, 17.5533, 12.0157, -59.3448, -10.2735
0.88, -1, 1.46604, 30.4368, 17.5758, 12.1232, -59.2189, -10.354
0.884, -1, 1.53342, 30.377, 17.5983, 12.2305, -59.0933, -10.4343
0.888, -1, 1.60066, 30.3173, 17.6208, 12.3375, -58.9679, -10.5144
0.892, -1, 1.66775, 30.2577, 17.6432, 12.4444, -58.8429, -10.5943
0.896, -1, 1.73471, 30.1982, 17.6655, 12.551, -58.718, -10.6741
0.9, -1, 1.80153, 30.1389, 17.6878, 12.6574, -58.5935, -10.7538
0.904, -1, 1.86821, 30.0797, 17.7101, 12.7635, -58.4692, -10.8332
0.908, -1, 1.93476, 30.0206, 17.7323, 12.8695, -58.3451, -10.9125
0.912, -1, 2.00117, 29.9617, 17.7545, 12.9752, -58.2213, -10.9917
0.916, -1, 2.06744, 29.9028, 17.7766, 13.0807, -58.0978, -11.0707
0.92, -1, 2.13357, 29.8441, 17.7987, 13.186, -57.9745, -11.1495
0.924, -1, 2.19957, 29.7855, 17.8207, 13.2911, -57.8514, -11.2281
0.928, -1, 2.26543, 29.727, 17.8427, 13.3959, -57.7287, -11.3066
0.932, -1, 2.33116, 29.6687, 17.8647, 13.5006, -57.6061, -11.385
0.936, -1, 2.39676, 29.6104, 17.8866, 13.605, -57.4838, -11.4631
0.94, -1, 2.46222, 29.5523, 17.9084, 13.7092, -57.3618, -11.5412
0.944, -1, 2.52755, 29.4943, 17.9303, 13.8133, -57.24, -11.619
0.948, -1, 2.59275, 29.4364, 17.952, 13.9171, -57.1185, -11.6967
0.952, -1, 2.65781, 29.3787, 17.9738, 14.0206, -56.9972, -11.7743
0.956, -1, 2.72274, 29.321, 17.9954, 14.124, -56.8761, -11.8516
0.96, -1, 2.78755, 29.2635, 18.0171, 14.2272, -56.7553, -11.9289
0.964, -1, 2.85222, 29.2061, 18.0387, 14.3302, -56.6348, -12.0059
0.968, -1, 2.91676, 29.1488, 18.0602, 14.4329, -56.5144, -12.0829
0.972, -1, 2.98117, 29.0916, 18.0817, 14.5355, -56.3944, -12.1596
0.976, -1, 3.04545, 29.0345, 18.1032, 14.6378, -56.2745, -12.2362
0.98, -1, 3.10961, 28.9775, 18.1246, 14.7399, -56.1549, -12.3127
0.984, -1, 3.17363, 28.9207, 18.146, 14.8419, -56.0356, -12.389
0.988, -1, 3.23753, 28.864, 18.1673, 14.9436, -55.9165, -12.4651
0.992, -1, 3.3013, 28.8074, 18.1886, 15.0451, -55.7976, -12.5411
0.996, -1, 3.36494, 28.7508, 18.2099, 15.1465, -55.6789, -12.617
1, -1, 3.42846, 28.6945, 18.2311, 15.2476, -55.5605, -12.6927
1.004, -1, 3.49185, 28.6382, 18.2523, 15.3485, -55.4423, -12.7682
1.008, -1, 3.55512, 28.582, 18.2734, 15.4492, -55.3244, -12.8436
1.012, -1, 3.61826, 28.5259, 18.2945, 15.5498, -55.2067, -12.9189
1.016, -1, 3.68127, 28.47, 18.3155, 15.6501, -55.0892, -12.994
1.02, -1, 3.74416, 28.4142, 18.3365, 15.7502, -54.972, -13.0689
1.024, -1, 3.80693, 28.3584, 18.3575, 15.8502, -54.855, -13.1437
1.027, -1, 3.86958, 28.3028, 18.3784, 15.9499, -54.7382, -13.2184
1.032, -1, 3.9321, 28.2473, 18.3993, 16.0494, -54.6216, -13.2929
1.036, -1, 3.9945, 28.1919, 18.4201, 16.1488, -54.5053, -13.3673
1.04, -1, 4.05678, 28.1366, 18.4409, 16.2479, -54.3892, -13.4415
1.044, -1, 4.11893, 28.0814, 18.4616, 16.3469, -54.2733, -13.5156
1.048, -1, 4.18097, 28.0263, 18.4824, 16.4457, -54.1577, -13.5895
1.052, -1, 4.24289, 27.9714, 18.503, 16.5442, -54.0422, -13.6633
1.055, -1, 4.30468, 27.9165, 18.5237, 16.6426, -53.927, -13.7369
1.06, -1, 4.36636, 27.8617, 18.5443, 16.7408, -53.8121, -13.8104
1.064, -1, 4.42792, 27.8071, 18.5648, 16.8388, -53.6973, -13.8838
1.068, -1, 4.48936, 27.7525, 18.5853, 16.9366, -53.5828, -13.957
1.072, -1, 4.55068, 27.6981, 18.6058, 17.0343, -53.4685, -14.0301
1.076, -1, 4.61188, 27.6438, 18.6262, 17.1317, -53.3544, -14.103
1.08, -1, 4.67297, 27.5895, 18.6466, 17.229, -53.2405, -14.1758
1.084, -1, 4.73394, 27.5354, 18.667, 17.326, -53.1268, -14.2485
1.088, -1, 4.7948, 27.4814, 18.6873, 17.4229, -53.0134, -14.321
1.091, -1, 4.85554, 27.4274, 18.7076, 17.5196, -52.9002, -14.3934
1.096, -1, 4.91617, 27.3736, 18.7278, 17.6161, -52.7871, -14.4656
1.1, -1, 4.97668, 27.3199, 18.7481, 17.7125, -52.6743, -14.5378
1.104, -1, 5.03708, 27.2663, 18.7682, 17.8086, -52.5618, -14.6097
1.108, -1, 5.09737, 27.2127, 18.7883, 17.9046, -52.4494, -14.6816
1.112, -1, 5.15754, 27.1593, 18.8084, 18.0004, -52.3372, -14.7533
1.116, -1, 5.2176, 27.106, 18.8285, 18.096, -52.2253, -14.8249
1.119, -1, 5.27755, 27.0528, 18.8485, 18.1915, -52.1135, -14.8963
1.124, -1, 5.33739, 26.9996, 18.8685, 18.2867, -52.0019, -14.9676
1.128, -1, 5.39712, 26.9466, 18.8884, 18.3818, -51.8906, -15.0388
1.132, -1, 5.45673, 26.8937, 18.9083, 18.4767, -51.7795, -15.1098
1.136, -1, 5.51624, 26.8408, 18.9282, 18.5715, -51.6685, -15.1807
1.14, -1, 5.57564, 26.7881, 18.948, 18.666, -51.5578, -15.2515
1.144, -1, 5.63493, 26.7355, 18.9678, 18.7604, -51.4473, -15.3222
1.147, -1, 5.69412, 26.6829, 18.9876, 18.8547, -51.337, -15.3927
1.152, -1, 5.75319, 26.6305, 19.0073, 18.9487, -51.2268, -15.4631
1.156, -1, 5.81216, 26.5781, 19.027, 19.0426, -51.1169, -15.5334
1.16, -1, 5.87103, 26.5259, 19.0467, 19.1363, -51.0072, -15.6035
1.164, -1, 5.92979, 26.4737, 19.0663, 19.2298, -50.8976, -15.6736
1.168, -1, 5.98844, 26.4216, 19.0859, 19.3232, -50.7883, -15.7435
1.172, -1, 6.04699, 26.3696, 19.1054, 19.4164, -50.6792, -15.8132
1.175, -1, 6.10543, 26.3177, 19.1249, 19.5095, -50.5702, -15.8829
1.18, -1, 6.16377, 26.266, 19.1444, 19.6024, -50.4614, -15.9524
1.184, -1, 6.22201, 26.2142, 19.1639, 19.6951, -50.3529, -16.0218
1.188, -1, 6.28015, 26.1626, 19.1833, 19.7876, -50.2445, -16.0911
1.192, -1, 6.33818, 26.1111, 19.2027, 19.88, -50.1363, -16.1603
1.196, -1, 6.39611, 26.0597, 19.222, 19.9723, -50.0283, -16.2293
1.2, -1, 6.45394, 26.0083, 19.2413, 20.0643, -49.9205, -16.2982
1.204, -1, 6.51167, 25.9571, 19.2606, 20.1562, -49.8129, -16.367
1.208, -1, 6.5693, 25.9059, 19.2798, 20.248, -49.7055, -16.4357
1.212, -1, 6.62683, 25.8548, 19.299, 20.3396, -49.5982, -16.5042
1.216, -1, 6.68426, 25.8038, 19.3182, 20.431, -49.4912, -16.5727
1.22, -1, 6.74159, 25.7529, 19.3374, 20.5223, -49.3843, -16.641
1.224, -1, 6.79882, 25.7021, 19.3565, 20.6134, -49.2776, -16.7092
1.228, -1, 6.85596, 25.6514, 19.3756, 20.7044, -49.1711, -16.7773
1.232, -1, 6.91299, 25.6008, 19.3946, 20.7952, -49.0648, -16.8453
1.236, -1, 6.96993, 25.5502, 19.4136, 20.8858, -48.9586, -16.9131
1.24, -1, 7.02678, 25.4997, 19.4326, 20.9763, -48.8526, -16.9809
1.244, -1, 7.08352, 25.4494, 19.4515, 21.0667, -48.7469, -17.0485
1.248, -1, 7.14018, 25.3991, 19.4705, 21.1569, -48.6413, -17.116
1.252, -1, 7.19673, 25.3488, 19.4893, 21.2469, -48.5358, -17.1834
1.256, -1, 7.25319, 25.2987, 19.5082, 21.3368, -48.4306, -17.2507
1.26, -1, 7.30956, 25.2487, 19.527, 21.4266, -48.3255, -17.3179
1.264, -1, 7.36583, 25.1987, 19.5458, 21.5161, -48.2206, -17.385
1.267, -1, 7.42201, 25.1488, 19.5646, 21.6056, -48.1158, -17.4519
1.272, -1, 7.4781, 25.099, 19.5833, 21.6949, -48.0113, -17.5188
1.276, -1, 7.53409, 25.0493, 19.602, 21.784, -47.9069, -17.5855
1.28, -1, 7.58999, 24.9997, 19.6207, 21.873, -47.8027, -17.6521
1.284, -1, 7.6458, 24.9501, 19.6393, 21.9619, -47.6986, -17.7186
1.288, -1, 7.70152, 24.9007, 19.6579, 22.0506, -47.5948, -17.785
1.292, -1, 7.75715, 24.8513, 19.6765, 22.1392, -47.4911, -17.8513
1.295, -1, 7.81268, 24.802, 19.695, 22.2276, -47.3875, -17.9175
1.3, -1, 7.86813, 24.7528, 19.7135, 22.3159, -47.2842, -17.9836
1.304, -1, 7.92348, 24.7036, 19.732, 22.404, -47.181, -18.0496
1.308, -1, 7.97875, 24.6545, 19.7505, 22.492, -47.0779, -18.1154
1.312, -1, 8.03393, 24.6055, 19.7689, 22.5798, -46.9751, -18.1812
1.316, -1, 8.08901, 24.5566, 19.7873, 22.6675, -46.8724, -18.2468
1.32, -1, 8.14401, 24.5078, 19.8057, 22.7551, -46.7699, -18.3124
1.324, -1, 8.19893, 24.4591, 19.824, 22.8425, -46.6675, -18.3778
1.328, -1, 8.25375, 24.4104, 19.8423, 22.9298, -46.5653, -18.4432
1.332, -1, 8.30849, 24.3618, 19.8606, 23.017, -46.4632, -18.5084
1.336, -1, 8.36314, 24.3133, 19.8788, 23.104, -46.3614, -18.5735
1.34, -1, 8.4177, 24.2648, 19.8971, 23.1909, -46.2596, -18.6386
1.344, -1, 8.47218, 24.2165, 19.9153, 23.2776, -46.1581, -18.7035
1.348, -1, 8.52657, 24.1682, 19.9334, 23.3642, -46.0567, -18.7683
1.352, -1, 8.58088, 24.1199, 19.9515, 23.4507, -45.9554, -18.833
1.356, -1, 8.6351, 24.0718, 19.9697, 23.537, -45.8543, -18.8976
1.36, -1, 8.68923, 24.0237, 19.9877, 23.6232, -45.7534, -18.9622
1.364, -1, 8.74328, 23.9757, 20.0058, 23.7092, -45.6526, -19.0266
1.368, -1, 8.79725, 23.9278, 20.0238, 23.7952, -45.552, -19.0909
1.372, -1, 8.85114, 23.88, 20.0418, 23.881, -45.4516, -19.1551
1.376, -1, 8.90494, 23.8322, 20.0598, 23.9666, -45.3513, -19.2192
1.38, -1, 8.95866, 23.7845, 20.0777, 24.0521, -45.2511, -19.2833
1.384, -1, 9.01229, 23.7369, 20.0956, 24.1375, -45.1511, -19.3472
1.388, -1, 9.06584, 23.6894, 20.1135, 24.2228, -45.0513, -19.411
1.392, -1, 9.11932, 23.6419, 20.1314, 24.3079, -44.9516, -19.4747
1.396, -1, 9.1727, 23.5945, 20.1492, 24.393, -44.8521, -19.5384
1.4, -1, 9.22601, 23.5472, 20.167, 24.4778, -44.7527, -19.6019
1.404, -1, 9.27924, 23.4999, 20.1848, 24.5626, -44.6535, -19.6653
1.408, -1, 9.33239, 23.4527, 20.2025, 24.6472, -44.5544, -19.7287
1.412, -1, 9.38546, 23.4056, 20.2202, 24.7317, -44.4554, -19.7919
1.416, -1, 9.43844, 23.3585, 20.2379, 24.8161, -44.3567, -19.8551
1.42, -1, 9.49135, 23.3116, 20.2556, 24.9003, -44.258, -19.9181
1.424, -1, 9.54418, 23.2647, 20.2732, 24.9844, -44.1595, -19.9811
1.428, -1, 9.59693, 23.2178, 20.2908, 25.0684, -44.0612, -20.044
1.432, -1, 9.6496, 23.1711, 20.3084, 25.1523, -43.963, -20.1067
1.436, -1, 9.7022, 23.1244, 20.326, 25.236, -43.865, -20.1694
1.44, -1, 9.75472, 23.0777, 20.3435, 25.3196, -43.767, -20.232
1.444, -1, 9.80716, 23.0312, 20.361, 25.4031, -43.6693, -20.2945
1.448, -1, 9.85952, 22.9847, 20.3785, 25.4865, -43.5717, -20.3569
1.452, -1, 9.91181, 22.9383, 20.396, 25.5697, -43.4742, -20.4192
1.456, -1, 9.96403, 22.8919, 20.4134, 25.6528, -43.3769, -20.4814
1.46, -1, 10.0162, 22.8456, 20.4308, 25.7358, -43.2797, -20.5436
1.464, -1, 10.0682, 22.7994, 20.4482, 25.8187, -43.1826, -20.6056
1.468, -1, 10.1202, 22.7533, 20.4656, 25.9015, -43.0857, -20.6676
1.472, -1, 10.1721, 22.7072, 20.4829, 25.9841, -42.989, -20.7294
1.476, -1, 10.224, 22.6612, 20.5002, 26.0666, -42.8923, -20.7912
1.48, -1, 10.2757, 22.6152, 20.5175, 26.149, -42.7958, -20.8529
1.484, -1, 10.3274, 22.5693, 20.5348, 26.2313, -42.6995, -20.9145
1.488, -1, 10.379, 22.5235, 20.552, 26.3135, -42.6033, -20.976
1.492, -1, 10.4306, 22.4777, 20.5692, 26.3956, -42.5072, -21.0374
1.496, -1, 10.482, 22.432, 20.5864, 26.4775, -42.4113, -21.0987
1.5, -1, 10.5334, 22.3864, 20.6035, 26.5593, -42.3154, -21.16
1.504, -1, 10.5848, 22.3408, 20.6207, 26.641, -42.2198, -21.2212
1.508, -1, 10.636, 22.2953, 20.6378, 26.7226, -42.1242, -21.2822
1.512, -1, 10.6872, 22.2499, 20.6549, 26.8041, -42.0288, -21.3432
1.516, -1, 10.7383, 22.2045, 20.6719, 26.8855, -41.9336, -21.4041
1.52, -1, 10.7893, 22.1592, 20.689, 26.9667, -41.8384, -21.4649
1.524, -1, 10.8403, 22.114, 20.706, 27.0479, -41.7434, -21.5257
1.528, -1, 10.8912, 22.0688, 20.723, 27.1289, -41.6485, -21.5863
1.532, -1, 10.942, 22.0237, 20.74, 27.2098, -41.5538, -21.6469
1.536, -1, 10.9928, 21.9786, 20.7569, 27.2906, -41.4592, -21.7074
1.54, -1, 11.0435, 21.9336, 20.7738, 27.3713, -41.3647, -21.7678
1.544, -1, 11.0941, 21.8887, 20.7908, 27.4519, -41.2703, -21.8281
1.548, -1, 11.1446, 21.8438, 20.8076, 27.5324, -41.1761, -21.8884
1.552, -1, 11.1951, 21.799, 20.8245, 27.6127, -41.082, -21.9485
1.556, -1, 11.2455, 21.7542, 20.8413, 27.693, -40.988, -22.0086
1.56, -1, 11.2959, 21.7095, 20.8581, 27.7732, -40.8941, -22.0686
1.564, -1, 11.3462, 21.6649, 20.8749, 27.8532, -40.8004, -22.1285
1.568, -1, 11.3964, 21.6203, 20.8917, 27.9331, -40.7068, -22.1884
1.572, -1, 11.4465, 21.5758, 20.9084, 28.013, -40.6133, -22.2481
1.576, -1, 11.4966, 21.5313, 20.9251, 28.0927, -40.52, -22.3078
1.58, -1, 11.5466, 21.4869, 20.9418, 28.1723, -40.4268, -22.3674
1.584, -1, 11.5965, 21.4426, 20.9585, 28.2518, -40.3336, -22.4269
1.588, -1, 11.6464, 21.3983, 20.9752, 28.3313, -40.2407, -22.4864
1.592, -1, 11.6962, 21.3541, 20.9918, 28.4106, -40.1478, -22.5457
1.596, -1, 11.746, 21.3099, 21.0084, 28.4898, -40.0551, -22.605
1.6, -1, 11.7957, 21.2658, 21.025, 28.5689, -39.9624, -22.6642
1.604, -1, 11.8453, 21.2217, 21.0416, 28.6479, -39.8699, -22.7234
1.608, -1, 11.8948, 21.1778, 21.0581, 28.7268, -39.7776, -22.7824
1.612, -1, 11.9443, 21.1338, 21.0747, 28.8055, -39.6853, -22.8414
1.616, -1, 11.9938, 21.0899, 21.0912, 28.8842, -39.5932, -22.9003
1.62, -1, 12.0431, 21.0461, 21.1076, 28.9628, -39.5011, -22.9591
1.624, -1, 12.0924, 21.0023, 21.1241, 29.0413, -39.4092, -23.0179
1.628, -1, 12.1417, 20.9586, 21.1405, 29.1197, -39.3174, -23.0765
1.632, -1, 12.1908, 20.915, 21.157, 29.198, -39.2258, -23.1352
1.636, -1, 12.2399, 20.8714, 21.1734, 29.2762, -39.1342, -23.1937
1.64, -1, 12.289, 20.8278, 21.1897, 29.3543, -39.0428, -23.2521
1.644, -1, 12.338, 20.7843, 21.2061, 29.4323, -38.9515, -23.3105
1.648, -1, 12.3869, 20.7409, 21.2224, 29.5102, -38.8603, -23.3688
1.652, -1, 12.4358, 20.6975, 21.2388, 29.588, -38.7692, -23.4271
1.656, -1, 12.4846, 20.6542, 21.2551, 29.6657, -38.6782, -23.4852
1.66, -1, 12.5333, 20.6109, 21.2713, 29.7433, -38.5873, -23.5433
1.664, -1, 12.582, 20.5677, 21.2876, 29.8208, -38.4966, -23.6013
1.668, -1, 12.6306, 20.5245, 21.3038, 29.8982, -38.4059, -23.6593
1.672, -1, 12.6792, 20.4814, 21.32, 29.9755, -38.3154, -23.7171
1.676, -1, 12.7277, 20.4384, 21.3362, 30.0527, -38.225, -23.7749
1.68, -1, 12.7761, 20.3953, 21.3524, 30.1298, -38.1347, -23.8327
1.684, -1, 12.8245, 20.3524, 21.3686, 30.2069, -38.0445, -23.8903
1.688, -1, 12.8728, 20.3095, 21.3847, 30.2838, -37.9544, -23.9479
1.692, -1, 12.9211, 20.2666, 21.4008, 30.3606, -37.8644, -24.0054
1.696, -1, 12.9693, 20.2238, 21.4169, 30.4374, -37.7746, -24.0629
1.7, -1, 13.0174, 20.1811, 21.433, 30.514, -37.6848, -24.1203
1.704, -1, 13.0655, 20.1384, 21.449, 30.5906, -37.5951, -24.1776
1.708, -1, 13.1136, 20.0958, 21.4651, 30.6671, -37.5056, -24.2348
1.712, -1, 13.1615, 20.0532, 21.4811, 30.7435, -37.4162, -24.292
1.716, -1, 13.2094, 20.0106, 21.4971, 30.8197, -37.3269, -24.3491
1.72, -1, 13.2573, 19.9681, 21.5131, 30.8959, -37.2376, -24.4061
1.724, -1, 13.3051, 19.9257, 21.529, 30.972, -37.1485, -24.4631
1.728, -1, 13.3528, 19.8833, 21.545, 31.0481, -37.0595, -24.52
1.732, -1, 13.4005, 19.841, 21.5609, 31.124, -36.9706, -24.5768
1.736, -1, 13.4482, 19.7987, 21.5768, 31.1998, -36.8818, -24.6336
1.74, -1, 13.4957, 19.7565, 21.5927, 31.2756, -36.7931, -24.6903
1.744, -1, 13.5433, 19.7143, 21.6086, 31.3512, -36.7045, -24.7469
1.748, -1, 13.5907, 19.6721, 21.6244, 31.4268, -36.6161, -24.8035
1.752, -1, 13.6381, 19.63, 21.6402, 31.5023, -36.5277, -24.86
1.756, -1, 13.6855, 19.588, 21.6561, 31.5776, -36.4394, -24.9164
1.76, -1, 13.7328, 19.546, 21.6719, 31.6529, -36.3512, -24.9728
1.764, -1, 13.78, 19.5041, 21.6876, 31.7282, -36.2632, -25.0291
1.768, -1, 13.8272, 19.4622, 21.7034, 31.8033, -36.1752, -25.0853
1.772, -1, 13.8743, 19.4203, 21.7191, 31.8783, -36.0873, -25.1415
1.776, -1, 13.9214, 19.3785, 21.7348, 31.9533, -35.9996, -25.1976
1.78, -1, 13.9684, 19.3368, 21.7505, 32.0281, -35.9119, -25.2536
1.784, -1, 14.0154, 19.2951, 21.7662, 32.1029, -35.8243, -25.3096
1.788, -1, 14.0623, 19.2534, 21.7819, 32.1776, -35.7369, -25.3655
1.792, -1, 14.1092, 19.2118, 21.7975, 32.2522, -35.6495, -25.4214
1.796, -1, 14.156, 19.1703, 21.8132, 32.3268, -35.5622, -25.4772
1.8, -1, 14.2027, 19.1288, 21.8288, 32.4012, -35.4751, -25.5329
1.804, -1, 14.2494, 19.0873, 21.8444, 32.4756, -35.388, -25.5886
1.808, -1, 14.2961, 19.0459, 21.86, 32.5498, -35.301, -25.6442
1.812, -1, 14.3427, 19.0045, 21.8755, 32.624, -35.2142, -25.6997
1.816, -1, 14.3892, 18.9632, 21.8911, 32.6981, -35.1274, -25.7552
1.82, -1, 14.4357, 18.9219, 21.9066, 32.7722, -35.0407, -25.8106
1.824, -1, 14.4822, 18.8807, 21.9221, 32.8461, -34.9541, -25.8659
1.828, -1, 14.5286, 18.8395, 21.9376, 32.92, -34.8676, -25.9212
1.832, -1, 14.5749, 18.7983, 21.9531, 32.9938, -34.7813, -25.9764
1.836, -1, 14.6212, 18.7572, 21.9685, 33.0675, -34.695, -26.0316
1.84, -1, 14.6674, 18.7162, 21.984, 33.1411, -34.6088, -26.0867
1.844, -1, 14.7136, 18.6752, 21.9994, 33.2146, -34.5227, -26.1418
1.848, -1, 14.7598, 18.6342, 22.0148, 33.2881, -34.4367, -26.1967
1.852, -1, 14.8058, 18.5933, 22.0302, 33.3614, -34.3507, -26.2517
1.856, -1, 14.8519, 18.5524, 22.0456, 33.4347, -34.2649, -26.3065
1.86, -1, 14.8979, 18.5116, 22.0609, 33.5079, -34.1792, -26.3613
1.864, -1, 14.9438, 18.4708, 22.0762, 33.5811, -34.0936, -26.4161
1.868, -1, 14.9897, 18.4301, 22.0916, 33.6541, -34.008, -26.4708
1.872, -1, 15.0355, 18.3894, 22.1069, 33.7271, -33.9226, -26.5254
1.876, -1, 15.0813, 18.3487, 22.1222, 33.8, -33.8372, -26.58
1.88, -1, 15.127, 18.3081, 22.1374, 33.8728, -33.7519, -26.6345
1.884, -1, 15.1727, 18.2676, 22.1527, 33.9456, -33.6668, -26.6889
1.888, -1, 15.2184, 18.227, 22.1679, 34.0182, -33.5817, -26.7433
1.892, -1, 15.264, 18.1866, 22.1832, 34.0908, -33.4967, -26.7976
1.896, -1, 15.3095, 18.1461, 22.1984, 34.1633, -33.4118, -26.8519
1.9, -1, 15.355, 18.1057, 22.2136, 34.2358, -33.3269, -26.9062
1.904, -1, 15.4004, 18.0654, 22.2287, 34.3081, -33.2422, -26.9603
1.908, -1, 15.4458, 18.0251, 22.2439, 34.3804, -33.1576, -27.0144
1.912, -1, 15.4912, 17.9848, 22.259, 34.4526, -33.073, -27.0685
1.916, -1, 15.5365, 17.9446, 22.2742, 34.5248, -32.9886, -27.1225
1.92, -1, 15.5818, 17.9044, 22.2893, 34.5968, -32.9042, -27.1764
1.924, -1, 15.627, 17.8643, 22.3044, 34.6688, -32.8199, -27.2303
1.928, -1, 15.6721, 17.8242, 22.3195, 34.7407, -32.7357, -27.2841
1.932, -1, 15.7173, 17.7841, 22.3345, 34.8126, -32.6516, -27.3379
1.936, -1, 15.7623, 17.7441, 22.3496, 34.8843, -32.5676, -27.3916
1.94, -1, 15.8073, 17.7041, 22.3646, 34.956, -32.4836, -27.4453
1.944, -1, 15.8523, 17.6642, 22.3796, 35.0276, -32.3997, -27.4989
1.948, -1, 15.8973, 17.6243, 22.3946, 35.0992, -32.316, -27.5524
1.952, -1, 15.9422, 17.5844, 22.4096, 35.1707, -32.2323, -27.6059
1.956, -1, 15.987, 17.5446, 22.4246, 35.2421, -32.1487, -27.6594
1.96, -1, 16.0318, 17.5048, 22.4396, 35.3134, -32.0652, -27.7128
1.964, -1, 16.0765, 17.4651, 22.4545, 35.3846, -31.9817, -27.7661
1.968, -1, 16.1212, 17.4254, 22.4694, 35.4558, -31.8984, -27.8194
1.972, -1, 16.1659, 17.3858, 22.4844, 35.5269, -31.8151, -27.8726
1.976, -1, 16.2105, 17.3461, 22.4993, 35.598, -31.7319, -27.9258
1.98, -1, 16.2551, 17.3066, 22.5141, 35.6689, -31.6488, -27.9789
1.984, -1, 16.2996, 17.267, 22.529, 35.7398, -31.5658, -28.032
1.988, -1, 16.3441, 17.2275, 22.5439, 35.8107, -31.4829, -28.085
1.992, -1, 16.3886, 17.1881, 22.5587, 35.8814, -31.4, -28.138
1.996, -1, 16.433, 17.1487, 22.5735, 35.9521, -31.3173, -28.1909
1.999, -1, 16.4773, 17.1093, 22.5883, 36.0228, -31.2346, -28.2438
2.004, -1, 16.5216, 17.0699, 22.6031, 36.0933, -31.1519, -28.2966
2.008, -1, 16.5659, 17.0306, 22.6179, 36.1638, -31.0694, -28.3493
2.012, -1, 16.6101, 16.9914, 22.6327, 36.2342, -30.987, -28.4021
2.015, -1, 16.6543, 16.9521, 22.6474, 36.3046, -30.9046, -28.4547
2.019, -1, 16.6984, 16.9129, 22.6622, 36.3748, -30.8223, -28.5073
2.024, -1, 16.7425, 16.8738, 22.6769, 36.445, -30.7401, -28.5599
2.028, -1, 16.7866, 16.8347, 22.6916, 36.5152, -30.658, -28.6124
2.031, -1, 16.8306, 16.7956, 22.7063, 36.5853, -30.5759, -28.6648
2.036, -1, 16.8746, 16.7566, 22.721, 36.6553, -30.4939, -28.7172
2.04, -1, 16.9185, 16.7176, 22.7357, 36.7252, -30.412, -28.7696
2.044, -1, 16.9624, 16.6786, 22.7503, 36.7951, -30.3302, -28.8219
2.048, -1, 17.0062, 16.6397, 22.765, 36.8649, -30.2485, -28.8742
2.051, -1, 17.05, 16.6008, 22.7796, 36.9346, -30.1668, -28.9264
2.055, -1, 17.0938, 16.5619, 22.7942, 37.0043, -30.0852, -28.9785
2.06, -1, 17.1375, 16.5231, 22.8088, 37.0739, -30.0037, -29.0306
2.064, -1, 17.1811, 16.4844, 22.8234, 37.1435, -29.9223, -29.0827
2.068, -1, 17.2244, 16.4458, 22.8379, 37.2129, -29.841, -29.1347
2.071, -1, 17.2671, 16.4077, 22.8523, 37.2823, -29.7597, -29.1866
2.076, -1, 17.3088, 16.3701, 22.8666, 37.3515, -29.6787, -29.2384
2.08, -1, 17.3495, 16.3335, 22.8807, 37.4204, -29.5981, -29.29
2.084, -1, 17.3888, 16.2979, 22.8945, 37.4888, -29.518, -29.3412
2.087, -1, 17.4267, 16.2635, 22.9079, 37.5564, -29.4389, -29.3918
2.092, -1, 17.4632, 16.2306, 22.921, 37.6229, -29.3611, -29.4417
2.096, -1, 17.4983, 16.1992, 22.9337, 37.6879, -29.2851, -29.4903
2.1, -1, 17.5321, 16.1694, 22.9459, 37.7508, -29.2115, -29.5374
2.104, -1, 17.5644, 16.1411, 22.9576, 37.8112, -29.1408, -29.5827
2.107, -1, 17.5951, 16.1145, 22.9686, 37.8686, -29.0737, -29.6257
2.111, -1, 17.624, 16.0896, 22.9791, 37.9226, -29.0106, -29.6661
2.116, -1, 17.6513, 16.0662, 22.9888, 37.9726, -28.9521, -29.7035
2.12, -1, 17.6768, 16.044, 22.9978, 38.0183, -28.8986, -29.7378
2.124, -1, 17.7009, 16.023, 23.0061, 38.0595, -28.8504, -29.7686
2.127, -1, 17.7234, 16.0029, 23.0136, 38.0959, -28.8078, -29.7958
2.132, -1, 17.7446, 15.9838, 23.0205, 38.1275, -28.7707, -29.8195
2.136, -1, 17.7642, 15.9657, 23.0267, 38.1546, -28.739, -29.8397
2.14, -1, 17.7823, 15.9489, 23.0321, 38.1772, -28.7125, -29.8566
2.143, -1, 17.7986, 15.9337, 23.0368, 38.1957, -28.6907, -29.8705
2.148, -1, 17.8131, 15.9202, 23.0409, 38.2106, -28.6732, -29.8816
2.152, -1, 17.8259, 15.9085, 23.0443, 38.2223, -28.6594, -29.8904
2.156, -1, 17.8371, 15.8987, 23.0471, 38.2313, -28.6488, -29.8971
2.16, -1, 17.8467, 15.8905, 23.0494, 38.2381, -28.6409, -29.9021
2.163, -1, 17.855, 15.8838, 23.0513, 38.243, -28.635, -29.9058
2.168, -1, 17.8619, 15.8785, 23.0527, 38.2465, -28.6308, -29.9084
2.172, -1, 17.8674, 15.8744, 23.0538, 38.249, -28.6279, -29.9103
2.176, 2, 17.8716, 15.8714, 23.0546, 38.2507, -28.6258, -29.9115
2.179, 2, 17.8747, 15.8692, 23.0552, 38.2519, -28.6245, -29.9124
2.184, 2, 17.8769, 15.8677, 23.0556, 38.2527, -28.6235, -29.913
2.188, 2, 17.8784, 15.8667, 23.0558, 38.2532, -28.6229, -29.9134
2.192, 2, 17.8794, 15.866, 23.056, 38.2536, -28.6224, -29.9137
2.196, 2, 17.8801, 15.8655, 23.0561, 38.2538, -28.6221, -29.9138
2.199, 2, 17.8806, 15.8652, 23.0562, 38.254, -28.6219, -29.914
2.204, 2, 17.8809, 15.865, 23.0563, 38.2541, -28.6218, -29.9141
2.208, 2, 17.8811, 15.8649, 23.0563, 38.2542, -28.6217, -29.9141
2.212, 2, 17.8813, 15.8648, 23.0563, 38.2543, -28.6217, -29.9141
2.216, 2, 17.8814, 15.8647, 23.0564, 38.2543, -28.6216, -29.9142
2.219, 2, 17.8814, 15.8646, 23.0564, 38.2543, -28.6216, -29.9142
2.224, 2, 17.8815, 15.8646, 23.0564, 38.2543, -28.6216, -29.9142
2.228, 2, 17.8815, 15.8646, 23.0564, 38.2543, -28.6215, -29.9142
2.232, 2, 17.8815, 15.8646, 23.0564, 38.2543, -28.6215, -29.9142
2.235, 2, 17.8815, 15.8646, 23.0564, 38.2544, -28.6215, -29.9142
2.24, 2, 17.8815, 15.8646, 23.0564, 38.2544, -28.6215, -29.9142
2.244, 2, 17.8816, 15.8646, 23.0564, 38.2544, -28.6215, -29.9142
2.248, 2, 17.8816, 15.8646, 23.0564, 38.2544, -28.6215, -29.9142
2.252, 2, 17.8816, 15.8646, 23.0564, 38.2544, -28.6215, -29.9142
2.255, 2, 17.8816, 15.8646, 23.0564, 38.2544, -28.6215, -29.9142
2.259, 2, 17.8816, 15.8646, 23.0564, 38.2544, -28.6215, -29.9142
2.264, 2, 17.8816, 15.8645, 23.0564, 38.2544, -28.6215, -29.9142
2.268, 2, 17.8816, 15.8645, 23.0564, 38.2544, -28.6215, -29.9142
2.272, 2, 17.8816, 15.8645, 23.0564, 38.2544, -28.6215, -29.9142
2.275, 2, 17.8816, 15.8645, 23.0564, 38.2544, -28.6215, -29.9142
2.28, 2, 17.8816, 15.8645, 23.0564, 38.2544, -28.6215, -29.9142
2.284, 2, 17.8816, 15.8645, 23.0564, 38.2544, -28.6215, -29.9142
2.288, 2, 17.8816, 15.8645, 23.0564, 38.2544, -28.6215, -29.9142
2.291, 2, 17.8816, 15.8645, 23.0564, 38.2544, -28.6215, -29.9142
2.296, 2, 17.8816, 15.8645, 23.0564, 38.2544, -28.6215, -29.9142
2.3, 2, 17.8816, 15.8645, 23.0564, 38.2544, -28.6215, -29.9142
2.304, 2, 17.8816, 15.8645, 23.0564, 38.2544, -28.6215, -29.9142
2.308, 2, 17.8816, 15.8645, 23.0564, 38.2544, -28.6215, -29.9142
2.311, 2, 17.8816, 15.8645, 23.0564, 38.2544, -28.6215, -29.9142
2.316, 2, 17.8816, 15.8645, 23.0564, 38.2544, -28.6215, -29.9142
2.32, 2, 17.8816, 15.8645, 23.0564, 38.2544, -28.6215, -29.9142
2.324, 2, 17.8816, 15.8645, 23.0564, 38.2544, -28.6215, -29.9142
2.328, 2, 17.8816, 15.8645, 23.0564, 38.2544, -28.6215, -29.9142
2.331, 2, 17.8816, 15.8645, 23.0564, 38.2544, -28.6215, -29.9142
2.336, 2, 17.8816, 15.8645, 23.0564, 38.2544, -28.6215, -29.9142
2.34, 2, 17.8816, 15.8645, 23.0564, 38.2544, -28.6215, -29.9142
2.344, 2, 17.8816, 15.8645, 23.0564, 38.2544, -28.6215, -29.9142
2.347, 2, 17.8816, 15.8645, 23.0564, 38.2544, -28.6215, -29.9142
2.352, 2, 17.8816, 15.8645, 23.0564, 38.2544, -28.6215, -29.9142
2.356, 2, 17.8816, 15.8645, 23.0564, 38.2544, -28.6215, -29.9142
2.36, 2, 17.8816, 15.8645, 23.0564, 38.2544, -28.6215, -29.9142
2.364, 2, 17.8816, 15.8645, 23.0564, 38.2544, -28.6215, -29.9142
2.367, 2, 17.8816, 15.8645, 23.0564, 38.2544, -28.6215, -29.9142
2.372, 2, 17.8816, 15.8645, 23.0564, 38.2544, -28.6215, -29.9142
2.376, 2, 17.8816, 15.8645, 23.0564, 38.2544, -28.6215, -29.9142
2.38, 2, 17.8816, 15.8645, 23.0564, 38.2544, -28.6215, -29.9142
2.383, 2, 17.8816, 15.8645, 23.0564, 38.2544, -28.6215, -29.9142
2.388, 2, 17.8816, 15.8645, 23.0564, 38.2544, -28.6215, -29.9142
2.392, 2, 17.8816, 15.8645, 23.0564, 38.2544, -28.6215, -29.9142
2.396, 2, 17.8816, 15.8645, 23.0564, 38.2544, -28.6215, -29.9142
2.4, 2, 17.8816, 15.8645, 23.0564, 38.2544, -28.6215, -29.9142
2.403, 2, 17.8816, 15.8645, 23.0564, 38.2544, -28.6215, -29.9142
2.408, 2, 17.8816, 15.8645, 23.0564, 38.2544, -28.6215, -29.9142
2.412, 2, 17.8816, 15.8645, 23.0564, 38.2544, -28.6215, -29.9142
2.416, 2, 17.8816, 15.8645, 23.0564, 38.2544, -28.6215, -29.9142
2.42, 2, 17.8816, 15.8645, 23.0564, 38.2544, -28.6215, -29.9142
2.423, 2, 17.8816, 15.8645, 23.0564, 38.2544, -28.6215, -29.9142
2.428, 2, 17.8816, 15.8645, 23.0564, 38.2544, -28.6215, -29.9142
2.432, 2, 17.8816, 15.8645, 23.0564, 38.2544, -28.6215, -29.9142
2.436, 2, 17.8816, 15.8645, 23.0564, 38.2544, -28.6215, -29.9142
2.439, 2, 17.8816, 15.8645, 23.0564, 38.2544, -28.6215, -29.9142
2.444, 2, 17.8816, 15.8645, 23.0564, 38.2544, -28.6215, -29.9142
2.448, 2, 17.8816, 15.8645, 23.0564, 38.2544, -28.6215, -29.9142
2.452, 2, 17.8816, 15.8645, 23.0564, 38.2544, -28.6215, -29.9142
2.456, 2, 17.8816, 15.8645, 23.0564, 38.2544, -28.6215, -29.9142
2.459, 2, 17.8816, 15.8645, 23.0564, 38.2544, -28.6215, -29.9142
2.464, 2, 17.8816, 15.8645, 23.0564, 38.2544, -28.6215, -29.9142
2.468, 2, 17.8816, 15.8645, 23.0564, 38.2544, -28.6215, -29.9142
2.472, 2, 17.8816, 15.8645, 23.0564, 38.2544, -28.6215, -29.9142
2.476, 2, 17.8816, 15.8645, 23.0564, 38.2544, -28.6215, -29.9142
2.479, 2, 17.8816, 15.8645, 23.0564, 38.2544, -28.6215, -29.9142
2.484, 2, 17.8816, 15.8645, 23.0564, 38.2544, -28.6215, -29.9142
2.488, 2, 17.8816, 15.8645, 23.0564, 38.2544, -28.6215, -29.9142
2.492, 2, 17.8816, 15.8645, 23.0564, 38.2544, -28.6215, -29.9142
2.495, 2, 17.8816, 15.8645, 23.0564, 38.2544, -28.6215, -29.9142
2.5, 2, 17.8816, 15.8645, 23.0564, 38.2544, -28.6215, -29.9142
2.504, 2, 17.8816, 15.8645, 23.0564, 38.2544, -28.6215, -29.9142
2.508, 2, 17.8816, 15.8645, 23.0564, 38.2544, -28.6215, -29.9142
2.512, 2, 17.8816, 15.8645, 23.0564, 38.2544, -28.6215, -29.9142
2.515, 2, 17.8816, 15.8645, 23.0564, 38.2544, -28.6215, -29.9142
2.52, 2, 17.8816, 15.8645, 23.0564, 38.2544, -28.6215, -29.9142
2.524, 2, 17.8816, 15.8645, 23.0564, 38.2544, -28.6215, -29.9142
2.528, 2, 17.8816, 15.8645, 23.0564, 38.2544, -28.6215, -29.9142
2.531, 2, 17.8816, 15.8645, 23.0564, 38.2544, -28.6215, -29.9142
2.536, 2, 17.8816, 15.8645, 23.0564, 38.2544, -28.6215, -29.9142
2.54, 2, 17.8816, 15.8645, 23.0564, 38.2544, -28.6215, -29.9142
2.544, 2, 17.8816, 15.8645, 23.0564, 38.2544, -28.6215, -29.9142
2.548, 2, 17.8816, 15.8645, 23.0564, 38.2544, -28.6215, -29.9142
2.551, 2, 17.8816, 15.8645, 23.0564, 38.2544, -28.6215, -29.9142
2.556, 2, 17.8816, 15.8645, 23.0564, 38.2544, -28.6215, -29.9142
2.56, 2, 17.8816, 15.8645, 23.0564, 38.2544, -28.6215, -29.9142
2.564, 2, 17.8816, 15.8645, 23.0564, 38.2544, -28.6215, -29.9142
2.568, 2, 17.8816, 15.8645, 23.0564, 38.2544, -28.6215, -29.9142
2.571, 2, 17.8816, 15.8645, 23.0564, 38.2544, -28.6215, -29.9142
2.576, 2, 17.8816, 15.8645, 23.0564, 38.2544, -28.6215, -29.9142
2.58, 2, 17.8816, 15.8645, 23.0564, 38.2544, -28.6215, -29.9142
2.584, 2, 17.8816, 15.8645, 23.0564, 38.2544, -28.6215, -29.9142
2.587, 2, 17.8816, 15.8645, 23.0564, 38.2544, -28.6215, -29.9142
2.592, 2, 17.8816, 15.8645, 23.0564, 38.2544, -28.6215, -29.9142
2.596, 2, 17.8816, 15.8645, 23.0564, 38.2544, -28.6215, -29.9142
2.6, 2, 17.8816, 15.8645, 23.0564, 38.2544, -28.6215, -29.9142
2.604, 2, 17.8816, 15.8645, 23.0564, 38.2544, -28.6215, -29.9142
2.607, 2, 17.8816, 15.8645, 23.0564, 38.2544, -28.6215, -29.9142
2.612, 2, 17.8816, 15.8645, 23.0564, 38.2544, -28.6215, -29.9142
2.616, 2, 17.8816, 15.8645, 23.0564, 38.2544, -28.6215, -29.9142
2.62, 2, 17.8816, 15.8645, 23.0564, 38.2544, -28.6215, -29.9142
2.624, 2, 17.8816, 15.8645, 23.0564, 38.2544, -28.6215, -29.9142
2.627, 2, 17.8816, 15.8645, 23.0564, 38.2544, -28.6215, -29.9142
2.632, 2, 17.8816, 15.8645, 23.0564, 38.2544, -28.6215, -29.9142
2.636, 2, 17.8816, 15.8645, 23.0564, 38.2544, -28.6215, -29.9142
2.64, 2, 17.8816, 15.8645, 23.0564, 38.2544, -28.6215, -29.9142
2.643, 2, 17.8816, 15.8645, 23.0564, 38.2544, -28.6215, -29.9142
2.648, 2, 17.8816, 15.8645, 23.0564, 38.2544, -28.6215, -29.9142
2.652, 2, 17.8816, 15.8645, 23.0564, 38.2544, -28.6215, -29.9142
2.656, 2, 17.8816, 15.8645, 23.0564, 38.2544, -28.6215, -29.9142
2.66, 2, 17.8816, 15.8645, 23.0564, 38.2544, -28.6215, -29.9142
2.663, 2, 17.8816, 15.8645, 23.0564, 38.2544, -28.6215, -29.9142
2.668, 2, 17.8816, 15.8645, 23.0564, 38.2544, -28.6215, -29.9142
2.672, 2, 17.8816, 15.8645, 23.0564, 38.2544, -28.6215, -29.9142
2.676, 2, 17.8816, 15.8645, 23.0564, 38.2544, -28.6215, -29.9142
2.679, 2, 17.8816, 15.8645, 23.0564, 38.2544, -28.6215, -29.9142
2.684, 2, 17.8816, 15.8645, 23.0564, 38.2544, -28.6215, -29.9142
2.688, 2, 17.8816, 15.8645, 23.0564, 38.2544, -28.6215, -29.9142
2.692, 2, 17.8816, 15.8645, 23.0564, 38.2544, -28.6215, -29.9142
2.696, 2, 17.8816, 15.8645, 23.0564, 38.2544, -28.6215, -29.9142
2.699, 2, 17.8816, 15.8645, 23.0564, 38.2544, -28.6215, -29.9142
2.704, 2, 17.8816, 15.8645, 23.0564, 38.2544, -28.6215, -29.9142
2.708, 2, 17.8816, 15.8645, 23.0564, 38.2544, -28.6215, -29.9142
2.712, 2, 17.8816, 15.8645, 23.0564, 38.2544, -28.6215, -29.9142
2.716, 2, 17.8816, 15.8645, 23.0564, 38.2544, -28.6215, -29.9142
2.719, 2, 17.8816, 15.8645, 23.0564, 38.2544, -28.6215, -29.9142
2.724, 2, 17.8816, 15.8645, 23.0564, 38.2544, -28.6215, -29.9142
2.728, 2, 17.8816, 15.8645, 23.0564, 38.2544, -28.6215, -29.9142
2.732, 2, 17.8816, 15.8645, 23.0564, 38.2544, -28.6215, -29.9142
2.735, 2, 17.8816, 15.8645, 23.0564, 38.2544, -28.6215, -29.9142
2.74, 2, 17.8816, 15.8645, 23.0564, 38.2544, -28.6215, -29.9142
2.744, 2, 17.8816, 15.8645, 23.0564, 38.2544, -28.6215, -29.9142
2.748, 2, 17.8816, 15.8645, 23.0564, 38.2544, -28.6215, -29.9142
2.752, 2, 17.8816, 15.8645, 23.0564, 38.2544, -28.6215, -29.9142
2.755, 2, 17.8816, 15.8645, 23.0564, 38.2544, -28.6215, -29.9142
2.76, 2, 17.8816, 15.8645, 23.0564, 38.2544, -28.6215, -29.9142
2.764, 2, 17.8816, 15.8645, 23.0564, 38.2544, -28.6215, -29.9142
2.768, 2, 17.8816, 15.8645, 23.0564, 38.2544, -28.6215, -29.9142
2.772, 2, 17.8816, 15.8645, 23.0564, 38.2544, -28.6215, -29.9142
2.775, 2, 17.8816, 15.8645, 23.0564, 38.2544, -28.6215, -29.9142
2.78, 2, 17.8816, 15.8645, 23.0564, 38.2544, -28.6215, -29.9142
2.784, 2, 17.8816, 15.8645, 23.0564, 38.2544, -28.6215, -29.9142
2.788, 2, 17.8816, 15.8645, 23.0564, 38.2544, -28.6215, -29.9142
2.791, 2, 17.8816, 15.8645, 23.0564, 38.2544, -28.6215, -29.9142
2.796, 2, 17.8816, 15.8645, 23.0564, 38.2544, -28.6215, -29.9142
2.8, 2, 17.8816, 15.8645, 23.0564, 38.2544, -28.6215, -29.9142
2.804, 2, 17.8816, 15.8645, 23.0564, 38.2544, -28.6215, -29.9142
2.808, 2, 17.8816, 15.8645, 23.0564, 38.2544, -28.6215, -29.9142
2.811, 2, 17.8816, 15.8645, 23.0564, 38.2544, -28.6215, -29.9142
2.816, 2, 17.8816, 15.8645, 23.0564, 38.2544, -28.6215, -29.9142
2.82, 2, 17.8816, 15.8645, 23.0564, 38.2544, -28.6215, -29.9142
2.824, 2, 17.8816, 15.8645, 23.0564, 38.2544, -28.6215, -29.9142
2.828, 2, 17.8816, 15.8645, 23.0564, 38.2544, -28.6215, -29.9142
2.831, 2, 17.8816, 15.8645, 23.0564, 38.2544, -28.6215, -29.9142
2.836, 2, 17.8816, 15.8645, 23.0564, 38.2544, -28.6215, -29.9142
2.84, 2, 17.8816, 15.8645, 23.0564, 38.2544, -28.6215, -29.9142
2.844, 2, 17.8816, 15.8645, 23.0564, 38.2544, -28.6215, -29.9142
2.847, 2, 17.8816, 15.8645, 23.0564, 38.2544, -28.6215, -29.9142
2.852, 2, 17.8816, 15.8645, 23.0564, 38.2544, -28.6215, -29.9142
2.856, 2, 17.8816, 15.8645, 23.0564, 38.2544, -28.6215, -29.9142
2.86, 2, 17.8816, 15.8645, 23.0564, 38.2544, -28.6215, -29.9142
2.864, 2, 17.8816, 15.8645, 23.0564, 38.2544, -28.6215, -29.9142
2.867, 2, 17.8816, 15.8645, 23.0564, 38.2544, -28.6215, -29.9142
2.872, 2, 17.8816, 15.8645, 23.0564, 38.2544, -28.6215, -29.9142
2.876, 2, 17.8816, 15.8645, 23.0564, 38.2544, -28.6215, -29.9142
2.88, 2, 17.8816, 15.8645, 23.0564, 38.2544, -28.6215, -29.9142
2.883, 2, 17.8816, 15.8645, 23.0564, 38.2544, -28.6215, -29.9142
2.888, 2, 17.8816, 15.8645, 23.0564, 38.2544, -28.6215, -29.9142
2.892, 2, 17.8816, 15.8645, 23.0564, 38.2544, -28.6215, -29.9142
2.896, 2, 17.8816, 15.8645, 23.0564, 38.2544, -28.6215, -29.9142
2.9, 2, 17.8816, 15.8645, 23.0564, 38.2544, -28.6215, -29.9142
2.903, 2, 17.8816, 15.8645, 23.0564, 38.2544, -28.6215, -29.9142
2.908, 2, 17.8816, 15.8645, 23.0564, 38.2544, -28.6215, -29.9142
2.912, 2, 17.8816, 15.8645, 23.0564, 38.2544, -28.6215, -29.9142
2.916, 2, 17.8816, 15.8645, 23.0564, 38.2544, -28.6215, -29.9142
2.92, 2, 17.8816, 15.8645, 23.0564, 38.2544, -28.6215, -29.9142
2.923, 2, 17.8816, 15.8645, 23.0564, 38.2544, -28.6215, -29.9142
2.928, 2, 17.8816, 15.8645, 23.0564, 38.2544, -28.6215, -29.9142
2.932, 2, 17.8816, 15.8645, 23.0564, 38.2544, -28.6215, -29.9142
2.936, 2, 17.8816, 15.8645, 23.0564, 38.2544, -28.6215, -29.9142
2.939, 2, 17.8816, 15.8645, 23.0564, 38.2544, -28.6215, -29.9142
2.944, 2, 17.8816, 15.8645, 23.0564, 38.2544, -28.6215, -29.9142
2.948, 2, 17.8816, 15.8645, 23.0564, 38.2544, -28.6215, -29.9142
2.952, 2, 17.8816, 15.8645, 23.0564, 38.2544, -28.6215, -29.9142
2.956, 2, 17.8816, 15.8645, 23.0564, 38.2544, -28.6215, -29.9142
2.959, 2, 17.8816, 15.8645, 23.0564, 38.2544, -28.6215, -29.9142
2.964, 2, 17.8816, 15.8645, 23.0564, 38.2544, -28.6215, -29.9142
2.968, 2, 17.8816, 15.8645, 23.0564, 38.2544, -28.6215, -29.9142
2.972, 2, 17.8816, 15.8645, 23.0564, 38.2544, -28.6215, -29.9142
2.976, 2, 17.8816, 15.8645, 23.0564, 38.2544, -28.6215, -29.9142
2.98, 2, 17.8816, 15.8645, 23.0564, 38.2544, -28.6215, -29.9142
2.984, 2, 17.8816, 15.8645, 23.0564, 38.2544, -28.6215, -29.9142
2.988, 2, 17.8816, 15.8645, 23.0564, 38.2544, -28.6215, -29.9142
2.992, 2, 17.8816, 15.8645, 23.0564, 38.2544, -28.6215, -29.9142
2.995, 2, 17.8816, 15.8645, 23.0564, 38.2544, -28.6215, -29.9142
3, 2, 17.8816, 15.8645, 23.0564, 38.2544, -28.6215, -29.9142
3.004, 2, 17.8816, 15.8645, 23.0564, 38.2544, -28.6215, -29.9142
3.008, 2, 17.8816, 15.8645, 23.0564, 38.2544, -28.6215, -29.9142
3.012, 2, 17.8816, 15.8645, 23.0564, 38.2544, -28.6215, -29.9142
3.015, 2, 17.8816, 15.8645, 23.0564, 38.2544, -28.6215, -29.9142
3.02, 2, 17.8816, 15.8645, 23.0564, 38.2544, -28.6215, -29.9142
3.024, 2, 17.8816, 15.8645, 23.0564, 38.2544, -28.6215, -29.9142
3.028, 2, 17.8816, 15.8645, 23.0564, 38.2544, -28.6215, -29.9142
3.031, 2, 17.8816, 15.8645, 23.0564, 38.2544, -28.6215, -29.9142
3.036, 2, 17.8816, 15.8645, 23.0564, 38.2544, -28.6215, -29.9142
3.04, 2, 17.8816, 15.8645, 23.0564, 38.2544, -28.6215, -29.9142
3.044, 2, 17.8816, 15.8645, 23.0564, 38.2544, -28.6215, -29.9142
3.048, 2, 17.8816, 15.8645, 23.0564, 38.2544, -28.6215, -29.9142
3.051, 2, 17.8816, 15.8645, 23.0564, 38.2544, -28.6215, -29.9142
3.056, 2, 17.8816, 15.8645, 23.0564, 38.2544, -28.6215, -29.9142
3.06, 2, 17.8816, 15.8645, 23.0564, 38.2544, -28.6215, -29.9142
3.064, 2, 17.8816, 15.8645, 23.0564, 38.2544, -28.6215, -29.9142
3.068, 2, 17.8816, 15.8645, 23.0564, 38.2544, -28.6215, -29.9142
3.071, 2, 17.8816, 15.8645, 23.0564, 38.2544, -28.6215, -29.9142
3.076, 2, 17.8816, 15.8645, 23.0564, 38.2544, -28.6215, -29.9142
3.08, 2, 17.8816, 15.8645, 23.0564, 38.2544, -28.6215, -29.9142
3.084, 2, 17.8816, 15.8645, 23.0564, 38.2544, -28.6215, -29.9142
3.087, 2, 17.8816, 15.8645, 23.0564, 38.2544, -28.6215, -29.9142
3.092, 2, 17.8816, 15.8645, 23.0564, 38.2544, -28.6215, -29.9142
3.096, 2, 17.8816, 15.8645, 23.0564, 38.2544, -28.6215, -29.9142
3.1, 2, 17.8816, 15.8645, 23.0564, 38.2544, -28.6215, -29.9142
3.104, 2, 17.8816, 15.8645, 23.0564, 38.2544, -28.6215, -29.9142
3.107, 2, 17.8816, 15.8645, 23.0564, 38.2544, -28.6215, -29.9142
3.112, 2, 17.8816, 15.8645, 23.0564, 38.2544, -28.6215, -29.9142
3.116, 2, 17.8816, 15.8645, 23.0564, 38.2544, -28.6215, -29.9142
3.12, 2, 17.8816, 15.8645, 23.0564, 38.2544, -28.6215, -29.9142
3.124, 2, 17.8816, 15.8645, 23.0564, 38.2544, -28.6215, -29.9142
3.128, 2, 17.8816, 15.8645, 23.0564, 38.2544, -28.6215, -29.9142
3.132, 2, 17.8816, 15.8645, 23.0564, 38.2544, -28.6215, -29.9142
3.136, 2, 17.8816, 15.8645, 23.0564, 38.2544, -28.6215, -29.9142
3.14, 2, 17.8816, 15.8645, 23.0564, 38.2544, -28.6215, -29.9142
3.143, 2, 17.8816, 15.8645, 23.0564, 38.2544, -28.6215, -29.9142
3.148, 2, 17.8816, 15.8645, 23.0564, 38.2544, -28.6215, -29.9142
3.152, 2, 17.8816, 15.8645, 23.0564, 38.2544, -28.6215, -29.9142
3.156, 2, 17.8816, 15.8645, 23.0564, 38.2544, -28.6215, -29.9142
3.16, 2, 17.8816, 15.8645, 23.0564, 38.2544, -28.6215, -29.9142
3.163, 2, 17.8816, 15.8645, 23.0564, 38.2544, -28.6215, -29.9142
3.168, 2, 17.8816, 15.8645, 23.0564, 38.2544, -28.6215, -29.9142
3.172, 2, 17.8816, 15.8645, 23.0564, 38.2544, -28.6215, -29.9142
3.176, 2, 17.8816, 15.8645, 23.0564, 38.2544, -28.6215, -29.9142
3.179, 2, 17.8816, 15.8645, 23.0564, 38.2544, -28.6215, -29.9142
3.184, 2, 17.8816, 15.8645, 23.0564, 38.2544, -28.6215, -29.9142
3.188, 2, 17.8816, 15.8645, 23.0564, 38.2544, -28.6215, -29.9142
3.192, 2, 17.8816, 15.8645, 23.0564, 38.2544, -28.6215, -29.9142
3.196, 2, 17.8816, 15.8645, 23.0564, 38.2544, -28.6215, -29.9142
3.199, 2, 17.8816, 15.8645, 23.0564, 38.2544, -28.6215, -29.9142
3.204, 2, 17.8816, 15.8645, 23.0564, 38.2544, -28.6215, -29.9142
3.208, 2, 17.8816, 15.8645, 23.0564, 38.2544, -28.6215, -29.9142
3.212, 2, 17.8816, 15.8645, 23.0564, 38.2544, -28.6215, -29.9142
3.216, 2, 17.8816, 15.8645, 23.0564, 38.2544, -28.6215, -29.9142
3.22, 2, 17.8816, 15.8645, 23.0564, 38.2544, -28.6215, -29.9142
3.224, 2, 17.8816, 15.8645, 23.0564, 38.2544, -28.6215, -29.9142
3.228, 2, 17.8816, 15.8645, 23.0564, 38.2544, -28.6215, -29.9142
3.232, 2, 17.8816, 15.8645, 23.0564, 38.2544, -28.6215, -29.9142
3.235, 2, 17.8816, 15.8645, 23.0564, 38.2544, -28.6215, -29.9142
3.24, 2, 17.8816, 15.8645, 23.0564, 38.2544, -28.6215, -29.9142
3.244, 2, 17.8816, 15.8645, 23.0564, 38.2544, -28.6215, -29.9142
3.248, 4, 17.8816, 15.8645, 23.0564, 38.2544, -28.6215, -29.9142
3.252, 4, 17.8816, 15.8645, 23.0564, 38.2544, -28.6215, -29.9142
3.255, 4, 17.8816, 15.8645, 23.0564, 38.2544, -28.6215, -29.9142
3.26, 4, 17.8816, 15.8645, 23.0564, 38.2544, -28.6215, -29.9142
3.264, 4, 17.8816, 15.8645, 23.0564, 38.2544, -28.6215, -29.9142
3.268, 4, 17.8816, 15.8645, 23.0564, 38.2544, -28.6215, -29.9142
3.272, 4, 17.8816, 15.8645, 23.0564, 38.2544, -28.6215, -29.9142
3.276, 4, 17.8816, 15.8645, 23.0564, 38.2544, -28.6215, -29.9142
3.28, 4, 17.8816, 15.8645, 23.0564, 38.2544, -28.6215, -29.9142
3.284, 4, 17.8816, 15.8645, 23.0564, 38.2544, -28.6215, -29.9142
3.288, 4, 17.8816, 15.8645, 23.0564, 38.2544, -28.6215, -29.9142
3.291, 4, 17.8816, 15.8645, 23.0564, 38.2544, -28.6215, -29.9142
3.296, 4, 17.8816, 15.8645, 23.0564, 38.2544, -28.6215, -29.9142
3.3, 4, 17.8816, 15.8645, 23.0564, 38.2544, -28.6215, -29.9142
3.304, 4, 17.8816, 15.8645, 23.0564, 38.2544, -28.6215, -29.9142
3.308, 4, 17.8816, 15.8645, 23.0564, 38.2544, -28.6215, -29.9142
3.312, 4, 17.8816, 15.8645, 23.0564, 38.2544, -28.6215, -29.9142
3.316, 4, 17.8816, 15.8645, 23.0564, 38.2544, -28.6215, -29.9142
3.32, 4, 17.8816, 15.8645, 23.0564, 38.2544, -28.6215, -29.9142
3.324, 4, 17.8816, 15.8645, 23.0564, 38.2544, -28.6215, -29.9142
3.328, 4, 17.8816, 15.8645, 23.0564, 38.2544, -28.6215, -29.9142
3.332, 4, 17.8816, 15.8645, 23.0564, 38.2544, -28.6215, -29.9142
3.336, 4, 17.8816, 15.8645, 23.0564, 38.2544, -28.6215, -29.9142
3.34, 4, 17.8816, 15.8645, 23.0564, 38.2544, -28.6215, -29.9142
3.344, 4, 17.8816, 15.8645, 23.0564, 38.2544, -28.6215, -29.9142
3.347, 4, 17.8816, 15.8645, 23.0564, 38.2544, -28.6215, -29.9142
3.352, 4, 17.8816, 15.8645, 23.0564, 38.2544, -28.6215, -29.9142
3.356, 4, 17.8816, 15.8645, 23.0564, 38.2544, -28.6215, -29.9142
3.36, 4, 17.8816, 15.8645, 23.0564, 38.2544, -28.6215, -29.9142
3.364, 4, 17.8816, 15.8645, 23.0564, 38.2544, -28.6215, -29.9142
3.368, 4, 17.8816, 15.8645, 23.0564, 38.2544, -28.6215, -29.9142
3.372, 4, 17.8816, 15.8645, 23.0564, 38.2544, -28.6215, -29.9142
3.376, 4, 17.8816, 15.8645, 23.0564, 38.2544, -28.6215, -29.9142
3.38, 4, 17.8815, 15.8645, 23.0564, 38.2544, -28.6215, -29.9142
3.383, 4, 17.8812, 15.8645, 23.0564, 38.2543, -28.6215, -29.9142
3.388, 4, 17.8806, 15.8645, 23.0565, 38.2542, -28.6216, -29.9141
3.392, 4, 17.8793, 15.8645, 23.0566, 38.2539, -28.6217, -29.9139
3.396, 4, 17.8773, 15.8644, 23.0569, 38.2532, -28.6219, -29.9133
3.4, 4, 17.8745, 15.8643, 23.0576, 38.2517, -28.6225, -29.912
3.403, 4, 17.8707, 15.864, 23.0586, 38.2489, -28.6235, -29.9095
3.408, 4, 17.8659, 15.8636, 23.0603, 38.2441, -28.6252, -29.9053
3.412, 4, 17.8601, 15.863, 23.0629, 38.2365, -28.628, -29.8986
3.416, 4, 17.8533, 15.8621, 23.0667, 38.225, -28.6321, -29.8885
3.42, 4, 17.8454, 15.8608, 23.072, 38.2087, -28.6379, -29.874
3.424, 5, 17.8363, 15.8592, 23.0792, 38.1865, -28.6459, -29.8544
3.428, 5, 17.8257, 15.857, 23.0884, 38.1572, -28.6565, -29.8284
3.432, 5, 17.8136, 15.8542, 23.1001, 38.1198, -28.6699, -29.7953
3.436, 5, 17.8, 15.8508, 23.1146, 38.0734, -28.6867, -29.7542
3.439, 5, 17.7848, 15.8467, 23.132, 38.0171, -28.7071, -29.7044
3.444, 5, 17.7681, 15.8419, 23.1525, 37.9503, -28.7313, -29.6453
3.448, 5, 17.75, 15.8363, 23.1763, 37.8728, -28.7594, -29.5766
3.452, 5, 17.7303, 15.83, 23.2033, 37.7846, -28.7916, -29.4984
3.456, 5, 17.7091, 15.823, 23.2334, 37.6858, -28.8278, -29.4109
3.46, 5, 17.6863, 15.8152, 23.2666, 37.577, -28.8677, -29.3147
3.464, 5, 17.6618, 15.8069, 23.3025, 37.4592, -28.9111, -29.2103
3.468, 5, 17.6358, 15.7979, 23.341, 37.3331, -28.9578, -29.0987
3.472, 5, 17.6082, 15.7885, 23.3817, 37.1998, -29.0073, -28.9808
3.476, 5, 17.5792, 15.7787, 23.4244, 37.0604, -29.0593, -28.8576
3.48, 5, 17.549, 15.7685, 23.4687, 36.916, -29.1135, -28.7299
3.484, 5, 17.5176, 15.7581, 23.5143, 36.7675, -29.1695, -28.5987
3.488, 5, 17.4851, 15.7475, 23.5609, 36.616, -29.227, -28.4649
3.492, 5, 17.4516, 15.7367, 23.6083, 36.4622, -29.2856, -28.3292
3.495, 5, 17.4171, 15.7259, 23.6563, 36.307, -29.3452, -28.1922
3.5, 5, 17.3816, 15.7151, 23.7047, 36.1508, -29.4055, -28.0544
3.504, 5, 17.3453, 15.7042, 23.7534, 35.9941, -29.4663, -27.9163
3.508, 5, 17.3083, 15.6935, 23.8022, 35.8372, -29.5276, -27.7782
3.512, 5, 17.2708, 15.6827, 23.851, 35.6805, -29.5892, -27.6401
3.516, 5, 17.233, 15.672, 23.8999, 35.5239, -29.6511, -27.5024
3.52, 5, 17.1949, 15.6614, 23.9488, 35.3677, -29.7133, -27.365
3.524, 5, 17.1567, 15.6509, 23.9976, 35.2119, -29.7757, -27.228
3.528, 5, 17.1183, 15.6405, 24.0464, 35.0565, -29.8383, -27.0916
3.531, 5, 17.0798, 15.6301, 24.095, 34.9017, -29.9012, -26.9556
3.536, 5, 17.0413, 15.6199, 24.1436, 34.7473, -29.9642, -26.8201
3.54, 5, 17.0027, 15.6097, 24.1922, 34.5934, -30.0274, -26.6851
3.544, 5, 16.964, 15.5997, 24.2406, 34.4401, -30.0908, -26.5507
3.548, 5, 16.9253, 15.5897, 24.2889, 34.2873, -30.1544, -26.4168
3.552, 5, 16.8865, 15.5798, 24.3372, 34.135, -30.2181, -26.2834
3.556, 5, 16.8477, 15.5701, 24.3853, 33.9832, -30.2821, -26.1506
3.56, 5, 16.8089, 15.5604, 24.4333, 33.832, -30.3462, -26.0183
3.564, 5, 16.77, 15.5508, 24.4813, 33.6813, -30.4104, -25.8866
3.568, 5, 16.7311, 15.5413, 24.5291, 33.5311, -30.4749, -25.7554
3.572, 5, 16.6921, 15.5319, 24.5769, 33.3815, -30.5395, -25.6247
3.576, 5, 16.6532, 15.5226, 24.6246, 33.2324, -30.6042, -25.4946
3.58, 5, 16.6142, 15.5134, 24.6721, 33.0838, -30.6692, -25.365
3.584, 5, 16.5751, 15.5043, 24.7196, 32.9357, -30.7343, -25.2359
3.587, 5, 16.536, 15.4953, 24.7669, 32.7882, -30.7996, -25.1074
3.592, 5, 16.4969, 15.4864, 24.8142, 32.6412, -30.865, -24.9794
3.596, 5, 16.4578, 15.4775, 24.8614, 32.4947, -30.9306, -24.8519
3.6, 5, 16.4186, 15.4688, 24.9084, 32.3487, -30.9963, -24.7249
3.604, 5, 16.3794, 15.4602, 24.9554, 32.2032, -31.0622, -24.5984
3.608, 5, 16.3401, 15.4517, 25.0023, 32.0583, -31.1283, -24.4725
3.612, 5, 16.3009, 15.4432, 25.049, 31.9138, -31.1946, -24.3471
3.616, 5, 16.2616, 15.4349, 25.0957, 31.7699, -31.2609, -24.2222
3.62, 5, 16.2222, 15.4267, 25.1422, 31.6264, -31.3275, -24.0978
3.624, 5, 16.1828, 15.4185, 25.1887, 31.4835, -31.3942, -23.9739
3.628, 5, 16.1434, 15.4105, 25.2351, 31.3411, -31.4611, -23.8506
3.632, 5, 16.104, 15.4026, 25.2813, 31.1992, -31.5281, -23.7277
3.636, 5, 16.0645, 15.3947, 25.3275, 31.0577, -31.5952, -23.6053
3.64, 5, 16.025, 15.387, 25.3736, 30.9168, -31.6626, -23.4835
3.644, 5, 15.9855, 15.3793, 25.4195, 30.7763, -31.73, -23.3621
3.648, 5, 15.9459, 15.3718, 25.4654, 30.6364, -31.7977, -23.2413
3.652, 5, 15.9063, 15.3643, 25.5111, 30.4969, -31.8654, -23.1209
3.656, 5, 15.8667, 15.357, 25.5568, 30.358, -31.9334, -23.0011
3.66, 5, 15.827, 15.3497, 25.6023, 30.2195, -32.0014, -22.8817
3.664, 5, 15.7873, 15.3426, 25.6478, 30.0815, -32.0696, -22.7628
3.668, 5, 15.7476, 15.3355, 25.6932, 29.944, -32.138, -22.6444
3.672, 5, 15.7078, 15.3286, 25.7384, 29.8069, -32.2065, -22.5265
3.676, 5, 15.668, 15.3217, 25.7836, 29.6703, -32.2752, -22.4091
3.679, 5, 15.6282, 15.315, 25.8286, 29.5343, -32.344, -22.2922
3.684, 5, 15.5883, 15.3083, 25.8736, 29.3987, -32.4129, -22.1757
3.688, 5, 15.5484, 15.3018, 25.9184, 29.2635, -32.482, -22.0597
3.692, 5, 15.5085, 15.2953, 25.9631, 29.1288, -32.5512, -21.9442
3.696, 5, 15.4685, 15.289, 26.0078, 28.9946, -32.6206, -21.8292
3.7, 5, 15.4286, 15.2827, 26.0523, 28.8609, -32.6901, -21.7147
3.704, 5, 15.3885, 15.2765, 26.0968, 28.7276, -32.7598, -21.6006
3.708, 5, 15.3485, 15.2705, 26.1411, 28.5948, -32.8296, -21.487
3.712, 5, 15.3084, 15.2645, 26.1854, 28.4625, -32.8995, -21.3738
3.716, 5, 15.2683, 15.2587, 26.2295, 28.3306, -32.9696, -21.2612
3.72, 5, 15.2281, 15.2529, 26.2735, 28.1992, -33.0398, -21.149
3.724, 5, 15.188, 15.2472, 26.3175, 28.0682, -33.1101, -21.0372
3.728, 5, 15.1478, 15.2417, 26.3613, 27.9377, -33.1806, -20.9259
3.732, 5, 15.1075, 15.2362, 26.405, 27.8076, -33.2512, -20.8151
3.735, 5, 15.0672, 15.2308, 26.4487, 27.678, -33.3219, -20.7047
3.74, 5, 15.0269, 15.2256, 26.4922, 27.5488, -33.3928, -20.5948
3.744, 5, 14.9866, 15.2204, 26.5356, 27.4201, -33.4638, -20.4853
3.748, 5, 14.9462, 15.2153, 26.579, 27.2918, -33.5349, -20.3763
3.752, 5, 14.9059, 15.2103, 26.6222, 27.164, -33.6062, -20.2678
3.756, 5, 14.8654, 15.2055, 26.6653, 27.0366, -33.6776, -20.1596
3.76, 5, 14.825, 15.2007, 26.7084, 26.9096, -33.7491, -20.052
3.764, 5, 14.7845, 15.196, 26.7513, 26.7831, -33.8208, -19.9447
3.768, 5, 14.744, 15.1914, 26.7941, 26.657, -33.8926, -19.838
3.772, 5, 14.7034, 15.1869, 26.8368, 26.5313, -33.9645, -19.7316
3.776, 5, 14.6628, 15.1826, 26.8795, 26.4061, -34.0365, -19.6257
3.78, 5, 14.6222, 15.1783, 26.922, 26.2813, -34.1087, -19.5202
3.784, 5, 14.5816, 15.1741, 26.9644, 26.1569, -34.181, -19.4152
3.788, 5, 14.5409, 15.17, 27.0068, 26.033, -34.2534, -19.3106
3.792, 5, 14.5002, 15.166, 27.049, 25.9095, -34.3259, -19.2064
3.796, 5, 14.4595, 15.1621, 27.0911, 25.7864, -34.3986, -19.1027
3.8, 5, 14.4187, 15.1583, 27.1331, 25.6637, -34.4713, -18.9993
3.804, 5, 14.3779, 15.1546, 27.1751, 25.5414, -34.5442, -18.8964
3.808, 5, 14.3371, 15.151, 27.2169, 25.4196, -34.6173, -18.794
3.812, 5, 14.2962, 15.1475, 27.2586, 25.2982, -34.6904, -18.6919
3.816, 5, 14.2553, 15.1441, 27.3003, 25.1772, -34.7637, -18.5903
3.82, 5, 14.2144, 15.1408, 27.3418, 25.0566, -34.8371, -18.4891
3.824, 5, 14.1735, 15.1376, 27.3832, 24.9364, -34.9106, -18.3883
3.828, 5, 14.1325, 15.1345, 27.4245, 24.8166, -34.9842, -18.288
3.832, 5, 14.0915, 15.1315, 27.4658, 24.6972, -35.058, -18.188
3.836, 5, 14.0505, 15.1286, 27.5069, 24.5783, -35.1318, -18.0885
3.84, 5, 14.0094, 15.1258, 27.5479, 24.4597, -35.2058, -17.9893
3.844, 5, 13.9683, 15.1231, 27.5888, 24.3415, -35.2799, -17.8906
3.848, 5, 13.9272, 15.1205, 27.6297, 24.2238, -35.3541, -17.7923
3.852, 5, 13.886, 15.1179, 27.6704, 24.1064, -35.4284, -17.6944
3.856, 5, 13.8448, 15.1155, 27.711, 23.9895, -35.5029, -17.5969
3.86, 5, 13.8036, 15.1132, 27.7515, 23.8729, -35.5774, -17.4998
3.864, 5, 13.7624, 15.111, 27.7919, 23.7567, -35.6521, -17.403
3.868, 5, 13.7211, 15.1089, 27.8322, 23.6409, -35.7269, -17.3067
3.872, 5, 13.6798, 15.1069, 27.8724, 23.5255, -35.8018, -17.2108
3.876, 5, 13.6385, 15.105, 27.9125, 23.4105, -35.8768, -17.1153
3.88, 5, 13.5971, 15.1032, 27.9525, 23.2958, -35.9519, -17.0201
3.884, 5, 13.5557, 15.1014, 27.9924, 23.1816, -36.0271, -16.9254
3.888, 5, 13.5143, 15.0998, 28.0322, 23.0677, -36.1024, -16.831
3.892, 5, 13.4729, 15.0983, 28.0719, 22.9542, -36.1778, -16.737
3.896, 5, 13.4314, 15.0969, 28.1115, 22.841, -36.2534, -16.6434
3.9, 5, 13.3899, 15.0956, 28.151, 22.7283, -36.329, -16.5502
3.904, 5, 13.3484, 15.0944, 28.1904, 22.6159, -36.4047, -16.4573
3.908, 5, 13.3068, 15.0933, 28.2297, 22.5039, -36.4806, -16.3649
3.912, 5, 13.2652, 15.0923, 28.2689, 22.3922, -36.5565, -16.2728
3.916, 5, 13.2236, 15.0913, 28.3079, 22.2809, -36.6326, -16.1811
3.92, 5, 13.1819, 15.0905, 28.3469, 22.17, -36.7088, -16.0897
3.924, 5, 13.1403, 15.0898, 28.3858, 22.0595, -36.785, -15.9987
3.928, 5, 13.0986, 15.0892, 28.4245, 21.9493, -36.8614, -15.9081
3.932, 5, 13.0568, 15.0887, 28.4632, 21.8394, -36.9379, -15.8179
3.936, 5, 13.0151, 15.0883, 28.5018, 21.7299, -37.0144, -15.728
3.94, 5, 12.9733, 15.088, 28.5402, 21.6208, -37.0911, -15.6384
3.944, 5, 12.9315, 15.0878, 28.5786, 21.512, -37.1679, -15.5493
3.948, 5, 12.8896, 15.0877, 28.6168, 21.4036, -37.2447, -15.4605
3.952, 5, 12.8477, 15.0877, 28.6549, 21.2955, -37.3217, -15.372
3.956, 5, 12.8058, 15.0878, 28.693, 21.1878, -37.3987, -15.2839
3.96, 5, 12.7639, 15.088, 28.7309, 21.0804, -37.4759, -15.1962
3.964, 5, 12.722, 15.0883, 28.7687, 20.9734, -37.5531, -15.1088
3.968, 5, 12.68, 15.0887, 28.8065, 20.8667, -37.6305, -15.0218
3.972, 5, 12.638, 15.0892, 28.8441, 20.7603, -37.7079, -14.9351
3.976, 5, 12.5959, 15.0898, 28.8816, 20.6543, -37.7855, -14.8487
3.98, 5, 12.5539, 15.0905, 28.919, 20.5486, -37.8631, -14.7627
3.984, 5, 12.5118, 15.0913, 28.9563, 20.4433, -37.9408, -14.6771
3.988, 5, 12.4697, 15.0922, 28.9935, 20.3383, -38.0187, -14.5918
3.992, 5, 12.4275, 15.0933, 29.0306, 20.2336, -38.0966, -14.5068
3.996, 5, 12.3853, 15.0944, 29.0676, 20.1293, -38.1746, -14.4222
3.999, 5, 12.3431, 15.0956, 29.1045, 20.0253, -38.2527, -14.3379
4.004, 5, 12.3009, 15.0969, 29.1412, 19.9216, -38.3308, -14.2539
4.008, 5, 12.2587, 15.0983, 29.1779, 19.8183, -38.4091, -14.1703
4.012, 5, 12.2164, 15.0998, 29.2145, 19.7153, -38.4875, -14.087
4.016, 5, 12.1741, 15.1014, 29.2509, 19.6126, -38.5659, -14.0041
4.02, 5, 12.1317, 15.1032, 29.2873, 19.5102, -38.6445, -13.9215
4.024, 5, 12.0894, 15.105, 29.3236, 19.4081, -38.7231, -13.8392
4.028, 5, 12.047, 15.1069, 29.3597, 19.3064, -38.8018, -13.7572
4.032, 5, 12.0046, 15.1089, 29.3958, 19.205, -38.8807, -13.6756
4.036, 5, 11.9621, 15.1111, 29.4317, 19.1039, -38.9596, -13.5943
4.04, 5, 11.9197, 15.1133, 29.4675, 19.0031, -39.0385, -13.5133
4.044, 5, 11.8772, 15.1156, 29.5032, 18.9027, -39.1176, -13.4326
4.048, 5, 11.8346, 15.118, 29.5389, 18.8025, -39.1968, -13.3523
4.052, 5, 11.7921, 15.1206, 29.5744, 18.7027, -39.276, -13.2722
4.056, 5, 11.7495, 15.1232, 29.6098, 18.6032, -39.3553, -13.1925
4.06, 5, 11.7069, 15.1259, 29.6451, 18.504, -39.4347, -13.1131
4.064, 5, 11.6643, 15.1288, 29.6803, 18.4051, -39.5142, -13.0341
4.068, 5, 11.6217, 15.1317, 29.7154, 18.3065, -39.5938, -12.9553
4.072, 5, 11.579, 15.1347, 29.7504, 18.2082, -39.6735, -12.8769
4.076, 5, 11.5363, 15.1379, 29.7853, 18.1102, -39.7532, -12.7987
4.08, 5, 11.4936, 15.1411, 29.8201, 18.0125, -39.8331, -12.7209
4.084, 5, 11.4508, 15.1444, 29.8547, 17.9151, -39.913, -12.6434
4.088, 5, 11.408, 15.1479, 29.8893, 17.8181, -39.993, -12.5662
4.092, 5, 11.3652, 15.1514, 29.9238, 17.7213, -40.073, -12.4893
4.096, 5, 11.3224, 15.1551, 29.9581, 17.6248, -40.1532, -12.4127
4.1, 5, 11.2795, 15.1588, 29.9924, 17.5286, -40.2334, -12.3364
4.104, 5, 11.2367, 15.1627, 30.0265, 17.4327, -40.3137, -12.2604
4.108, 5, 11.1938, 15.1666, 30.0606, 17.3372, -40.3941, -12.1848
4.112, 5, 11.1508, 15.1706, 30.0945, 17.2419, -40.4746, -12.1094
4.116, 5, 11.1079, 15.1748, 30.1284, 17.1469, -40.5552, -12.0343
4.12, 5, 11.0649, 15.179, 30.1621, 17.0521, -40.6358, -11.9595
4.124, 5, 11.0219, 15.1834, 30.1957, 16.9577, -40.7165, -11.8851
4.128, 5, 10.9788, 15.1878, 30.2292, 16.8636, -40.7973, -11.8109
4.132, 5, 10.9358, 15.1924, 30.2626, 16.7698, -40.8782, -11.737
4.136, 5, 10.8927, 15.1971, 30.2959, 16.6762, -40.9591, -11.6634
4.14, 5, 10.8496, 15.2018, 30.3291, 16.5829, -41.0401, -11.5901
4.144, 5, 10.8065, 15.2067, 30.3622, 16.49, -41.1212, -11.5171
4.148, 5, 10.7633, 15.2116, 30.3952, 16.3973, -41.2024, -11.4444
4.152, 5, 10.7201, 15.2167, 30.4281, 16.3048, -41.2836, -11.3719
4.156, 5, 10.6769, 15.2219, 30.4609, 16.2127, -41.365, -11.2998
4.16, 5, 10.6337, 15.2271, 30.4935, 16.1208, -41.4464, -11.228
4.164, 5, 10.5904, 15.2325, 30.5261, 16.0293, -41.5278, -11.1564
4.168, 5, 10.5472, 15.238, 30.5586, 15.938, -41.6094, -11.0851
4.172, 5, 10.5039, 15.2435, 30.5909, 15.8469, -41.691, -11.0141
4.176, 5, 10.4605, 15.2492, 30.6231, 15.7562, -41.7727, -10.9434
4.18, 5, 10.4172, 15.255, 30.6553, 15.6657, -41.8544, -10.8729
4.184, 5, 10.3738, 15.2609, 30.6873, 15.5755, -41.9363, -10.8028
4.188, 5, 10.3304, 15.2668, 30.7192, 15.4855, -42.0182, -10.7329
4.192, 5, 10.287, 15.2729, 30.751, 15.3959, -42.1002, -10.6633
4.196, 5, 10.2435, 15.2791, 30.7827, 15.3064, -42.1822, -10.5939
4.2, 5, 10.2001, 15.2854, 30.8143, 15.2173, -42.2643, -10.5249
4.204, 5, 10.1566, 15.2918, 30.8458, 15.1284, -42.3465, -10.4561
4.208, 5, 10.1131, 15.2983, 30.8772, 15.0398, -42.4288, -10.3875
4.212, 5, 10.0695, 15.3049, 30.9085, 14.9514, -42.5111, -10.3193
4.216, 5, 10.026, 15.3116, 30.9396, 14.8633, -42.5935, -10.2513
4.22, 5, 9.98238, 15.3184, 30.9707, 14.7755, -42.6759, -10.1835
4.224, 5, 9.93877, 15.3252, 31.0017, 14.6879, -42.7584, -10.1161
4.228, 5, 9.89514, 15.3322, 31.0325, 14.6005, -42.841, -10.0489
4.232, 5, 9.85148, 15.3393, 31.0632, 14.5135, -42.9237, -9.98192
4.236, 5, 9.80781, 15.3465, 31.0939, 14.4266, -43.0064, -9.91523
4.24, 5, 9.76411, 15.3538, 31.1244, 14.34, -43.0892, -9.8488
4.244, 5, 9.72039, 15.3613, 31.1548, 14.2537, -43.172, -9.78262
4.248, 5, 9.67665, 15.3688, 31.1851, 14.1676, -43.2549, -9.7167
4.252, 5, 9.63288, 15.3764, 31.2153, 14.0818, -43.3379, -9.65104
4.256, 5, 9.5891, 15.3841, 31.2454, 13.9962, -43.4209, -9.58562
4.26, 5, 9.54529, 15.3919, 31.2754, 13.9108, -43.504, -9.52046
4.264, 5, 9.50146, 15.3998, 31.3052, 13.8257, -43.5871, -9.45554
4.268, 5, 9.45761, 15.4078, 31.335, 13.7409, -43.6703, -9.39088
4.272, 5, 9.41374, 15.4159, 31.3647, 13.6562, -43.7536, -9.32646
4.276, 5, 9.36984, 15.4241, 31.3942, 13.5718, -43.837, -9.26229
4.28, 5, 9.32593, 15.4324, 31.4236, 13.4877, -43.9203, -9.19836
4.284, 5, 9.28199, 15.4408, 31.453, 13.4038, -44.0038, -9.13468
4.288, 5, 9.23804, 15.4493, 31.4822, 13.3201, -44.0873, -9.07124
4.292, 5, 9.19406, 15.458, 31.5113, 13.2367, -44.1709, -9.00804
4.296, 5, 9.15006, 15.4667, 31.5403, 13.1534, -44.2545, -8.94508
4.3, 5, 9.10604, 15.4755, 31.5692, 13.0705, -44.3382, -8.88236
4.304, 5, 9.062, 15.4844, 31.598, 12.9877, -44.4219, -8.81988
4.308, 5, 9.01795, 15.4934, 31.6267, 12.9052, -44.5057, -8.75763
4.312, 5, 8.97387, 15.5025, 31.6552, 12.8229, -44.5896, -8.69562
4.316, 5, 8.92977, 15.5118, 31.6837, 12.7408, -44.6735, -8.63385
4.32, 5, 8.88565, 15.5211, 31.712, 12.659, -44.7574, -8.5723
4.324, 5, 8.84151, 15.5305, 31.7403, 12.5774, -44.8415, -8.51099
4.328, 5, 8.79735, 15.54, 31.7684, 12.496, -44.9255, -8.44992
4.332, 5, 8.75317, 15.5496, 31.7964, 12.4148, -45.0097, -8.38907
4.336, 5, 8.70897, 15.5594, 31.8244, 12.3339, -45.0938, -8.32845
4.34, 5, 8.66475, 15.5692, 31.8522, 12.2532, -45.1781, -8.26806
4.344, 5, 8.62051, 15.5791, 31.8799, 12.1727, -45.2624, -8.2079
4.348, 5, 8.57625, 15.5891, 31.9074, 12.0924, -45.3467, -8.14796
4.352, 5, 8.53197, 15.5992, 31.9349, 12.0123, -45.4311, -8.08825
4.356, 5, 8.48768, 15.6095, 31.9623, 11.9325, -45.5155, -8.02877
4.36, 5, 8.44336, 15.6198, 31.9895, 11.8529, -45.6, -7.96951
4.364, 5, 8.39903, 15.6302, 32.0167, 11.7735, -45.6846, -7.91047
4.368, 5, 8.35467, 15.6407, 32.0437, 11.6943, -45.7691, -7.85165
4.372, 5, 8.3103, 15.6513, 32.0707, 11.6153, -45.8538, -7.79305
4.376, 5, 8.26591, 15.6621, 32.0975, 11.5365, -45.9385, -7.73467
4.38, 5, 8.2215, 15.6729, 32.1242, 11.4579, -46.0232, -7.67651
4.384, 5, 8.17707, 15.6838, 32.1508, 11.3796, -46.108, -7.61857
4.387, 5, 8.13262, 15.6948, 32.1773, 11.3014, -46.1929, -7.56084
4.392, 5, 8.08815, 15.706, 32.2037, 11.2235, -46.2778, -7.50333
4.396, 5, 8.04367, 15.7172, 32.2299, 11.1458, -46.3627, -7.44604
4.4, 5, 7.99917, 15.7285, 32.2561, 11.0683, -46.4477, -7.38896
4.404, 5, 7.95464, 15.7399, 32.2821, 10.991, -46.5327, -7.33209
4.408, 5, 7.91011, 15.7515, 32.3081, 10.9139, -46.6178, -7.27544
4.412, 5, 7.86555, 15.7631, 32.3339, 10.837, -46.7029, -7.219
4.416, 5, 7.82097, 15.7748, 32.3596, 10.7603, -46.7881, -7.16277
4.42, 5, 7.77638, 15.7866, 32.3852, 10.6838, -46.8733, -7.10675
4.424, 5, 7.73177, 15.7985, 32.4107, 10.6075, -46.9586, -7.05093
4.428, 5, 7.68714, 15.8106, 32.4361, 10.5314, -47.0439, -6.99533
4.432, 5, 7.64249, 15.8227, 32.4614, 10.4555, -47.1293, -6.93993
4.436, 5, 7.59783, 15.8349, 32.4866, 10.3798, -47.2147, -6.88474
4.44, 5, 7.55314, 15.8472, 32.5116, 10.3043, -47.3001, -6.82976
4.444, 5, 7.50845, 15.8597, 32.5365, 10.229, -47.3856, -6.77498
4.448, 5, 7.46373, 15.8722, 32.5614, 10.1539, -47.4711, -6.72041
4.452, 5, 7.41899, 15.8848, 32.5861, 10.079, -47.5567, -6.66604
4.456, 5, 7.37424, 15.8975, 32.6107, 10.0043, -47.6424, -6.61187
4.46, 5, 7.32947, 15.9104, 32.6352, 9.92983, -47.728, -6.55791
4.464, 5, 7.28469, 15.9233, 32.6596, 9.85552, -47.8137, -6.50414
4.468, 5, 7.23988, 15.9363, 32.6839, 9.7814, -47.8995, -6.45058
4.472, 5, 7.19506, 15.9494, 32.708, 9.70747, -47.9853, -6.39721
4.476, 5, 7.15023, 15.9627, 32.7321, 9.63374, -48.0711, -6.34405
4.48, 5, 7.10537, 15.976, 32.756, 9.5602, -48.157, -6.29108
4.484, 5, 7.0605, 15.9894, 32.7799, 9.48684, -48.2429, -6.23832
4.488, 5, 7.01561, 16.0029, 32.8036, 9.41368, -48.3289, -6.18574
4.492, 5, 6.97071, 16.0166, 32.8272, 9.34071, -48.4149, -6.13337
4.496, 5, 6.92579, 16.0303, 32.8507, 9.26793, -48.5009, -6.08119
4.5, 5, 6.88085, 16.0441, 32.8741, 9.19533, -48.587, -6.02921
4.504, 5, 6.8359, 16.058, 32.8973, 9.12292, -48.6731, -5.97742
4.508, 5, 6.79093, 16.0721, 32.9205, 9.0507, -48.7593, -5.92582
4.512, 5, 6.74594, 16.0862, 32.9435, 8.97867, -48.8455, -5.87441
4.516, 5, 6.70094, 16.1004, 32.9665, 8.90682, -48.9318, -5.8232
4.52, 5, 6.65592, 16.1148, 32.9893, 8.83515, -49.018, -5.77218
4.524, 5, 6.61088, 16.1292, 33.012, 8.76367, -49.1044, -5.72135
4.528, 5, 6.56583, 16.1437, 33.0346, 8.69237, -49.1907, -5.67071
4.532, 5, 6.52077, 16.1583, 33.0571, 8.62125, -49.2771, -5.62026
4.536, 5, 6.47568, 16.1731, 33.0794, 8.55031, -49.3636, -5.57
4.54, 5, 6.43058, 16.1879, 33.1017, 8.47956, -49.45, -5.51992
4.544, 5, 6.38547, 16.2028, 33.1238, 8.40898, -49.5365, -5.47004
4.548, 5, 6.34034, 16.2179, 33.1459, 8.33858, -49.6231, -5.42033
4.552, 5, 6.2952, 16.233, 33.1678, 8.26836, -49.7097, -5.37081
4.556, 5, 6.25004, 16.2482, 33.1896, 8.19832, -49.7963, -5.32148
4.56, 5, 6.20486, 16.2636, 33.2113, 8.12845, -49.8829, -5.27233
4.564, 5, 6.15967, 16.279, 33.2328, 8.05876, -49.9696, -5.22336
4.568, 5, 6.11447, 16.2945, 33.2543, 7.98924, -50.0564, -5.17457
4.572, 5, 6.06925, 16.3101, 33.2757, 7.9199, -50.1431, -5.12596
4.576, 5, 6.02402, 16.3259, 33.2969, 7.85072, -50.2299, -5.07753
4.58, 5, 5.97877, 16.3417, 33.318, 7.78172, -50.3168, -5.02928
4.584, 5, 5.93351, 16.3576, 33.339, 7.71289, -50.4036, -4.98121
4.588, 5, 5.88823, 16.3737, 33.3599, 7.64422, -50.4905, -4.93331
4.592, 5, 5.84294, 16.3898, 33.3807, 7.57573, -50.5774, -4.88559
4.596, 5, 5.79763, 16.406, 33.4014, 7.50741, -50.6644, -4.83804
4.6, 5, 5.75231, 16.4223, 33.4219, 7.43925, -50.7514, -4.79066
4.604, 5, 5.70698, 16.4388, 33.4424, 7.37125, -50.8384, -4.74346
4.608, 5, 5.66164, 16.4553, 33.4627, 7.30343, -50.9255, -4.69644
4.612, 5, 5.61628, 16.4719, 33.4829, 7.23577, -51.0125, -4.64958
4.616, 5, 5.5709, 16.4886, 33.503, 7.16827, -51.0997, -4.60289
4.62, 5, 5.52552, 16.5055, 33.523, 7.10093, -51.1868, -4.55638
4.624, 5, 5.48012, 16.5224, 33.5428, 7.03376, -51.274, -4.51003
4.628, 5, 5.4347, 16.5394, 33.5626, 6.96675, -51.3612, -4.46385
4.632, 5, 5.38928, 16.5565, 33.5822, 6.8999, -51.4484, -4.41784
4.636, 5, 5.34384, 16.5737, 33.6018, 6.83322, -51.5357, -4.37199
4.64, 5, 5.29839, 16.591, 33.6212, 6.76669, -51.6229, -4.32631
4.644, 5, 5.25293, 16.6084, 33.6405, 6.70032, -51.7102, -4.2808
4.648, 5, 5.20746, 16.6259, 33.6597, 6.6341, -51.7976, -4.23545
4.652, 5, 5.16197, 16.6435, 33.6787, 6.56805, -51.8849, -4.19026
4.656, 5, 5.11647, 16.6612, 33.6977, 6.50215, -51.9723, -4.14524
4.66, 5, 5.07096, 16.679, 33.7166, 6.43641, -52.0598, -4.10038
4.664, 5, 5.02544, 16.6969, 33.7353, 6.37082, -52.1472, -4.05568
4.668, 5, 4.97991, 16.7149, 33.7539, 6.30539, -52.2347, -4.01114
4.672, 5, 4.93436, 16.733, 33.7724, 6.24011, -52.3221, -3.96676
4.676, 5, 4.88881, 16.7512, 33.7908, 6.17498, -52.4097, -3.92254
4.68, 5, 4.84324, 16.7695, 33.8091, 6.11001, -52.4972, -3.87848
4.684, 5, 4.79766, 16.7878, 33.8272, 6.04519, -52.5848, -3.83457
4.688, 5, 4.75207, 16.8063, 33.8453, 5.98052, -52.6723, -3.79083
4.692, 5, 4.70647, 16.8249, 33.8632, 5.916, -52.7599, -3.74724
4.696, 5, 4.66086, 16.8435, 33.881, 5.85163, -52.8476, -3.7038
4.7, 5, 4.61524, 16.8623, 33.8987, 5.78741, -52.9352, -3.66052
4.704, 5, 4.56961, 16.8811, 33.9163, 5.72333, -53.0229, -3.61739
4.708, 5, 4.52397, 16.9001, 33.9338, 5.65941, -53.1106, -3.57442
4.712, 5, 4.47832, 16.9191, 33.9512, 5.59563, -53.1983, -3.5316
4.716, 5, 4.43265, 16.9382, 33.9684, 5.532, -53.286, -3.48893
4.72, 5, 4.38698, 16.9575, 33.9856, 5.46852, -53.3738, -3.44642
4.724, 5, 4.3413, 16.9768, 34.0026, 5.40518, -53.4616, -3.40405
4.728, 5, 4.29561, 16.9962, 34.0195, 5.34198, -53.5494, -3.36184
4.732, 5, 4.24991, 17.0157, 34.0363, 5.27893, -53.6372, -3.31977
4.736, 5, 4.2042, 17.0354, 34.053, 5.21602, -53.725, -3.27785
4.74, 5, 4.15848, 17.0551, 34.0695, 5.15326, -53.8129, -3.23608
4.744, 5, 4.11275, 17.0749, 34.086, 5.09064, -53.9007, -3.19446
4.748, 5, 4.06701, 17.0947, 34.1023, 5.02815, -53.9886, -3.15299
4.752, 5, 4.02127, 17.1147, 34.1185, 4.96581, -54.0765, -3.11166
4.756, 5, 3.97551, 17.1348, 34.1346, 4.90361, -54.1644, -3.07048
4.76, 5, 3.92975, 17.155, 34.1506, 4.84156, -54.2524, -3.02944
4.764, 5, 3.88397, 17.1753, 34.1665, 4.77963, -54.3403, -2.98855
4.768, 5, 3.83819, 17.1956, 34.1823, 4.71785, -54.4283, -2.9478
4.772, 5, 3.7924, 17.2161, 34.1979, 4.65621, -54.5163, -2.9072
4.776, 5, 3.7466, 17.2366, 34.2134, 4.5947, -54.6043, -2.86674
4.78, 5, 3.7008, 17.2573, 34.2289, 4.53333, -54.6923, -2.82642
4.784, 5, 3.65498, 17.278, 34.2442, 4.4721, -54.7803, -2.78624
4.788, 5, 3.60916, 17.2988, 34.2593, 4.411, -54.8684, -2.7462
4.792, 5, 3.56333, 17.3197, 34.2744, 4.35004, -54.9564, -2.7063
4.796, 5, 3.51749, 17.3408, 34.2894, 4.28922, -55.0445, -2.66654
4.8, 5, 3.47165, 17.3619, 34.3042, 4.22852, -55.1326, -2.62692
4.804, 5, 3.42579, 17.3831, 34.3189, 4.16796, -55.2207, -2.58744
4.808, 5, 3.37993, 17.4044, 34.3335, 4.10754, -55.3088, -2.5481
4.812, 5, 3.33407, 17.4257, 34.348, 4.04725, -55.3969, -2.5089
4.816, 5, 3.28819, 17.4472, 34.3624, 3.98708, -55.4851, -2.46983
4.82, 5, 3.24231, 17.4688, 34.3767, 3.92705, -55.5732, -2.4309
4.824, 5, 3.19642, 17.4905, 34.3908, 3.86715, -55.6614, -2.3921
4.828, 5, 3.15052, 17.5122, 34.4049, 3.80739, -55.7496, -2.35344
4.832, 5, 3.10462, 17.5341, 34.4188, 3.74775, -55.8378, -2.31492
4.836, 5, 3.05871, 17.556, 34.4326, 3.68824, -55.926, -2.27652
4.84, 5, 3.01279, 17.578, 34.4463, 3.62886, -56.0142, -2.23827
4.844, 5, 2.96687, 17.6002, 34.4598, 3.56961, -56.1024, -2.20014
4.848, 5, 2.92094, 17.6224, 34.4733, 3.51048, -56.1906, -2.16215
4.852, 5, 2.87501, 17.6447, 34.4866, 3.45149, -56.2788, -2.12429
4.856, 5, 2.82907, 17.6671, 34.4999, 3.39262, -56.3671, -2.08656
4.86, 5, 2.78312, 17.6896, 34.513, 3.33388, -56.4553, -2.04896
4.864, 5, 2.73717, 17.7121, 34.526, 3.27526, -56.5436, -2.0115
4.868, 5, 2.69121, 17.7348, 34.5388, 3.21677, -56.6319, -1.97416
4.872, 5, 2.64524, 17.7576, 34.5516, 3.1584, -56.7202, -1.93695
4.876, 5, 2.59927, 17.7804, 34.5642, 3.10016, -56.8085, -1.89987
4.88, 5, 2.55329, 17.8034, 34.5768, 3.04204, -56.8968, -1.86292
4.884, 5, 2.50731, 17.8264, 34.5892, 2.98405, -56.9851, -1.8261
4.888, 5, 2.46132, 17.8496, 34.6015, 2.92618, -57.0734, -1.7894
4.892, 5, 2.41533, 17.8728, 34.6137, 2.86843, -57.1617, -1.75283
4.896, 5, 2.36933, 17.8961, 34.6257, 2.8108, -57.25, -1.71639
4.9, 5, 2.32333, 17.9195, 34.6377, 2.7533, -57.3383, -1.68008
4.904, 5, 2.27732, 17.943, 34.6495, 2.69591, -57.4267, -1.64388
4.908, 5, 2.23131, 17.9666, 34.6612, 2.63865, -57.515, -1.60782
4.912, 5, 2.18529, 17.9903, 34.6728, 2.58151, -57.6034, -1.57188
4.916, 5, 2.13927, 18.014, 34.6843, 2.52448, -57.6917, -1.53606
4.92, 5, 2.09324, 18.0379, 34.6956, 2.46758, -57.7801, -1.50037
4.924, 5, 2.04721, 18.0619, 34.7069, 2.4108, -57.8685, -1.4648
4.928, 5, 2.00118, 18.0859, 34.718, 2.35413, -57.9568, -1.42935
4.932, 5, 1.95514, 18.11, 34.729, 2.29758, -58.0452, -1.39402
4.936, 5, 1.90909, 18.1343, 34.7399, 2.24115, -58.1336, -1.35882
4.94, 5, 1.86304, 18.1586, 34.7507, 2.18484, -58.2219, -1.32374
4.944, 5, 1.81699, 18.183, 34.7613, 2.12864, -58.3103, -1.28878
4.948, 5, 1.77093, 18.2075, 34.7718, 2.07256, -58.3987, -1.25394
4.952, 5, 1.72487, 18.2321, 34.7823, 2.0166, -58.4871, -1.21921
4.956, 5, 1.67881, 18.2567, 34.7926, 1.96075, -58.5755, -1.18461
4.96, 5, 1.63274, 18.2815, 34.8027, 1.90502, -58.6639, -1.15013
4.964, 5, 1.58667, 18.3064, 34.8128, 1.8494, -58.7523, -1.11577
4.968, 5, 1.54059, 18.3313, 34.8228, 1.7939, -58.8407, -1.08152
4.972, 5, 1.49451, 18.3563, 34.8326, 1.73851, -58.9291, -1.04739
4.976, 5, 1.44843, 18.3815, 34.8423, 1.68323, -59.0175, -1.01338
4.98, 5, 1.40235, 18.4067, 34.8519, 1.62807, -59.1059, -0.979484
4.984, 5, 1.35626, 18.432, 34.8614, 1.57302, -59.1943, -0.945706
4.988, 5, 1.31017, 18.4574, 34.8707, 1.51808, -59.2827, -0.912043
4.992, 5, 1.26408, 18.4829, 34.88, 1.46325, -59.3711, -0.878496
4.996, 5, 1.21799, 18.5085, 34.8891, 1.40853, -59.4595, -0.845062
5, 5, 1.17189, 18.5341, 34.8981, 1.35393, -59.5479, -0.811743
5.004, 5, 1.12579, 18.5599, 34.907, 1.29943, -59.6363, -0.778538
5.008, 5, 1.07969, 18.5857, 34.9157, 1.24505, -59.7247, -0.745445
5.012, 5, 1.03359, 18.6116, 34.9244, 1.19077, -59.8131, -0.712465
5.016, 5, 0.98748, 18.6377, 34.9329, 1.1366, -59.9015, -0.679596
5.02, 5, 0.941376, 18.6638, 34.9413, 1.08254, -59.9898, -0.646839
5.024, 5, 0.895297, 18.6899, 34.9496, 1.02859, -60.0782, -0.614192
5.028, 5, 0.849312, 18.7162, 34.9578, 0.974747, -60.1666, -0.581657
5.032, 5, 0.80354, 18.7424, 34.9659, 0.921017, -60.255, -0.549236
5.036, 5, 0.758116, 18.7687, 34.9739, 0.867411, -60.3433, -0.516937
5.04, 5, 0.713156, 18.7948, 34.9817, 0.813956, -60.4316, -0.484776
5.044, 5, 0.668745, 18.8207, 34.9895, 0.760699, -60.5196, -0.45278
5.048, 5, 0.624938, 18.8464, 34.9972, 0.707707, -60.6074, -0.420991
5.052, 5, 0.58175, 18.8719, 35.0048, 0.655077, -60.6948, -0.389464
5.056, 5, 0.539149, 18.8971, 35.0122, 0.602928, -60.7815, -0.358269
5.06, 5, 0.497085, 18.9221, 35.0194, 0.551399, -60.8673, -0.327488
5.064, 5, 0.455524, 18.9472, 35.0263, 0.500643, -60.952, -0.297208
5.068, 5, 0.414452, 18.9725, 35.0328, 0.450815, -61.0353, -0.267522
5.072, 5, 0.373852, 18.9983, 35.0387, 0.402066, -61.117, -0.238515
5.076, 5, 0.333683, 19.0246, 35.0437, 0.354536, -61.1969, -0.210268
5.08, 6, 0.293887, 19.0517, 35.0478, 0.308335, -61.2747, -0.182842
5.084, 6, 0.254402, 19.0796, 35.0506, 0.263535, -61.3505, -0.156272
5.088, 7, 0.215152, 19.1085, 35.052, 0.220154, -61.4242, -0.130567
5.092, 7, 0.176043, 19.1385, 35.0517, 0.17815, -61.4958, -0.105697
5.096, 7, 0.136976, 19.1697, 35.0496, 0.137419, -61.5657, -0.0815974
5.1, 7, 0.0979145, 19.2023, 35.0453, 0.0977967, -61.6339, -0.0581702
5.104, 7, 0.0589122, 19.2364, 35.0389, 0.0590706, -61.7008, -0.0352904
5.108, 7, 0.0200825, 19.2719, 35.0301, 0.020997, -61.7669, -0.0128149
5.112, 7, -0.0184473, 19.3086, 35.0189, -0.01668, -61.8325, 0.0094068
5.116, 7, -0.0565447, 19.3462, 35.0054, -0.0542126, -61.898, 0.0315234
5.12, 7, -0.0940854, 19.3845, 34.9895, -0.0918358, -61.9639, 0.0536731
5.124, 7, -0.131008, 19.4234, 34.9715, -0.129755, -62.0304, 0.0759761
5.128, 7, -0.167363, 19.4631, 34.9515, -0.168137, -62.0977, 0.0985285
5.132, 7, -0.203286, 19.5038, 34.9295, -0.207099, -62.1661, 0.121399
5.136, 7, -0.238938, 19.5457, 34.9058, -0.246711, -62.2356, 0.144626
5.14, 7, -0.274453, 19.5891, 34.8807, -0.286994, -62.3063, 0.16822
5.144, 7, -0.309951, 19.6342, 34.8541, -0.327924, -62.3781, 0.192169
5.148, 7, -0.345548, 19.6808, 34.8265, -0.36944, -62.4509, 0.216435
5.152, 7, -0.38137, 19.7287, 34.7978, -0.411454, -62.5246, 0.24097
5.156, 7, -0.417524, 19.7779, 34.7684, -0.453866, -62.5991, 0.265715
5.16, 7, -0.454094, 19.8281, 34.7384, -0.496572, -62.6743, 0.290613
5.164, 7, -0.491129, 19.8792, 34.7078, -0.539479, -62.7498, 0.315608
5.168, 7, -0.528651, 19.931, 34.6768, -0.582505, -62.8257, 0.340654
5.172, 7, -0.566642, 19.9835, 34.6454, -0.625583, -62.9018, 0.365712
5.176, 7, -0.605031, 20.0365, 34.6137, -0.668665, -62.978, 0.390754
5.18, 7, -0.643717, 20.0898, 34.5818, -0.711715, -63.0542, 0.415759
5.184, 7, -0.682601, 20.1434, 34.5496, -0.75471, -63.1305, 0.440713
5.188, 7, -0.721608, 20.1972, 34.5173, -0.797633, -63.2068, 0.465607
5.192, 7, -0.760689, 20.2512, 34.4848, -0.840473, -63.2831, 0.490434
5.196, 7, -0.799808, 20.3052, 34.4522, -0.883223, -63.3593, 0.515191
5.2, 7, -0.838942, 20.3594, 34.4195, -0.925879, -63.4355, 0.539874
5.204, 7, -0.878075, 20.4136, 34.3866, -0.968436, -63.5117, 0.564482
5.208, 7, -0.917196, 20.4679, 34.3536, -1.01089, -63.5878, 0.589014
5.212, 7, -0.956299, 20.5222, 34.3204, -1.05325, -63.6638, 0.61347
5.216, 7, -0.995377, 20.5766, 34.2872, -1.09551, -63.7398, 0.637849
5.22, 7, -1.03443, 20.6311, 34.2538, -1.13766, -63.8157, 0.662151
5.224, 7, -1.07345, 20.6855, 34.2203, -1.17971, -63.8916, 0.686377
5.228, 7, -1.11244, 20.7401, 34.1867, -1.22166, -63.9674, 0.710527
5.232, 7, -1.1514, 20.7946, 34.153, -1.2635, -64.0432, 0.734601
5.236, 7, -1.19033, 20.8492, 34.1191, -1.30525, -64.1188, 0.758599
5.24, 7, -1.22922, 20.9039, 34.0852, -1.34689, -64.1945, 0.782522
5.244, 7, -1.26808, 20.9586, 34.0511, -1.38843, -64.27, 0.80637
5.248, 7, -1.3069, 21.0133, 34.0169, -1.42986, -64.3455, 0.830144
5.252, 7, -1.3457, 21.0681, 33.9826, -1.4712, -64.421, 0.853844
5.256, 7, -1.38445, 21.1229, 33.9482, -1.51244, -64.4963, 0.87747
5.26, 7, -1.42317, 21.1777, 33.9136, -1.55357, -64.5716, 0.901023
5.264, 7, -1.46186, 21.2326, 33.879, -1.59461, -64.6469, 0.924504
5.268, 7, -1.50052, 21.2875, 33.8442, -1.63554, -64.7221, 0.947912
5.272, 7, -1.53914, 21.3425, 33.8093, -1.67638, -64.7972, 0.971248
5.276, 7, -1.57772, 21.3974, 33.7743, -1.71711, -64.8722, 0.994513
5.28, 7, -1.61627, 21.4525, 33.7392, -1.75775, -64.9472, 1.01771
5.284, 7, -1.65479, 21.5075, 33.704, -1.79829, -65.0222, 1.04083
5.288, 7, -1.69327, 21.5626, 33.6686, -1.83872, -65.097, 1.06388
5.292, 7, -1.73172, 21.6178, 33.6332, -1.87907, -65.1718, 1.08686
5.296, 7, -1.77013, 21.673, 33.5976, -1.91931, -65.2466, 1.10978
5.3, 7, -1.8085, 21.7282, 33.5619, -1.95945, -65.3212, 1.13262
5.304, 7, -1.84685, 21.7834, 33.5261, -1.9995, -65.3958, 1.1554
5.308, 7, -1.88516, 21.8387, 33.4902, -2.03945, -65.4704, 1.17811
5.312, 7, -1.92343, 21.894, 33.4541, -2.07931, -65.5448, 1.20075
5.316, 7, -1.96167, 21.9494, 33.418, -2.11906, -65.6192, 1.22332
5.32, 7, -1.99987, 22.0048, 33.3817, -2.15872, -65.6936, 1.24583
5.324, 7, -2.03804, 22.0602, 33.3453, -2.19829, -65.7679, 1.26826
5.328, 7, -2.07617, 22.1157, 33.3088, -2.23776, -65.8421, 1.29064
5.332, 7, -2.11427, 22.1712, 33.2722, -2.27713, -65.9162, 1.31295
5.336, 7, -2.15234, 22.2267, 33.2355, -2.31641, -65.9903, 1.33519
5.34, 7, -2.19037, 22.2823, 33.1986, -2.3556, -66.0643, 1.35737
5.344, 7, -2.22836, 22.3379, 33.1617, -2.39469, -66.1382, 1.37948
5.348, 7, -2.26632, 22.3936, 33.1246, -2.43368, -66.2121, 1.40153
5.352, 7, -2.30424, 22.4493, 33.0874, -2.47258, -66.2859, 1.42351
5.356, 7, -2.34213, 22.505, 33.0501, -2.51139, -66.3596, 1.44543
5.36, 7, -2.37999, 22.5607, 33.0126, -2.5501, -66.4333, 1.46729
5.364, 7, -2.41781, 22.6165, 32.9751, -2.58873, -66.5069, 1.48909
5.368, 7, -2.45559, 22.6723, 32.9375, -2.62725, -66.5804, 1.51082
5.372, 7, -2.49334, 22.7282, 32.8997, -2.66569, -66.6539, 1.53249
5.376, 7, -2.53105, 22.784, 32.8618, -2.70403, -66.7272, 1.55411
5.38, 7, -2.56873, 22.84, 32.8238, -2.74228, -66.8006, 1.57565
5.384, 7, -2.60638, 22.8959, 32.7857, -2.78044, -66.8738, 1.59714
5.388, 7, -2.64398, 22.9519, 32.7474, -2.81851, -66.947, 1.61857
5.392, 7, -2.68156, 23.0079, 32.7091, -2.85649, -67.0201, 1.63994
5.396, 7, -2.71909, 23.064, 32.6706, -2.89437, -67.0931, 1.66125
5.4, 7, -2.7566, 23.1201, 32.6321, -2.93217, -67.1661, 1.6825
5.404, 7, -2.79406, 23.1762, 32.5934, -2.96987, -67.239, 1.7037
5.408, 7, -2.8315, 23.2323, 32.5546, -3.00749, -67.3118, 1.72483
5.412, 7, -2.86889, 23.2885, 32.5156, -3.04501, -67.3846, 1.7459
5.416, 7, -2.90625, 23.3447, 32.4766, -3.08245, -67.4573, 1.76692
5.42, 7, -2.94358, 23.401, 32.4375, -3.11979, -67.5299, 1.78788
5.424, 7, -2.98087, 23.4572, 32.3982, -3.15705, -67.6024, 1.80879
5.428, 7, -3.01812, 23.5136, 32.3588, -3.19422, -67.6749, 1.82964
5.432, 7, -3.05534, 23.5699, 32.3193, -3.23129, -67.7473, 1.85043
5.436, 7, -3.09252, 23.6263, 32.2797, -3.26828, -67.8196, 1.87116
5.44, 7, -3.12967, 23.6827, 32.24, -3.30519, -67.8919, 1.89185
5.444, 7, -3.16678, 23.7391, 32.2001, -3.342, -67.964, 1.91247
5.448, 7, -3.20386, 23.7956, 32.1602, -3.37873, -68.0361, 1.93304
5.452, 7, -3.2409, 23.8521, 32.1201, -3.41537, -68.1082, 1.95356
5.456, 7, -3.2779, 23.9086, 32.0799, -3.45192, -68.1801, 1.97402
5.46, 7, -3.31487, 23.9652, 32.0396, -3.48838, -68.252, 1.99443
5.464, 7, -3.35181, 24.0218, 31.9992, -3.52476, -68.3238, 2.01479
5.468, 7, -3.3887, 24.0784, 31.9586, -3.56105, -68.3956, 2.03509
5.472, 7, -3.42556, 24.1351, 31.918, -3.59726, -68.4672, 2.05535
5.476, 7, -3.46239, 24.1918, 31.8772, -3.63338, -68.5388, 2.07554
5.48, 7, -3.49918, 24.2485, 31.8364, -3.66941, -68.6103, 2.09569
5.484, 7, -3.53593, 24.3052, 31.7954, -3.70536, -68.6818, 2.11579
5.488, 7, -3.57265, 24.362, 31.7542, -3.74123, -68.7531, 2.13583
5.492, 7, -3.60933, 24.4188, 31.713, -3.777, -68.8244, 2.15583
5.496, 7, -3.64598, 24.4756, 31.6717, -3.8127, -68.8956, 2.17577
5.5, 7, -3.68259, 24.5325, 31.6302, -3.84831, -68.9668, 2.19567
5.504, 7, -3.71916, 24.5894, 31.5887, -3.88383, -69.0378, 2.21551
5.508, 7, -3.7557, 24.6463, 31.547, -3.91927, -69.1088, 2.23531
5.512, 7, -3.7922, 24.7033, 31.5052, -3.95463, -69.1797, 2.25506
5.516, 7, -3.82866, 24.7603, 31.4633, -3.98991, -69.2506, 2.27476
5.52, 7, -3.86509, 24.8173, 31.4212, -4.0251, -69.3213, 2.29441
5.524, 7, -3.90149, 24.8743, 31.3791, -4.0602, -69.392, 2.31401
5.528, 7, -3.93784, 24.9314, 31.3368, -4.09523, -69.4626, 2.33357
5.532, 7, -3.97416, 24.9885, 31.2944, -4.13017, -69.5331, 2.35307
5.536, 7, -4.01045, 25.0456, 31.2519, -4.16503, -69.6036, 2.37254
5.54, 7, -4.04669, 25.1028, 31.2093, -4.19981, -69.6739, 2.39195
5.544, 7, -4.0829, 25.16, 31.1666, -4.23451, -69.7442, 2.41132
5.548, 7, -4.11908, 25.2172, 31.1238, -4.26912, -69.8144, 2.43064
5.552, 7, -4.15522, 25.2744, 31.0808, -4.30365, -69.8846, 2.44992
5.556, 7, -4.19132, 25.3317, 31.0377, -4.3381, -69.9546, 2.46916
5.56, 7, -4.22738, 25.389, 30.9946, -4.37247, -70.0246, 2.48834
5.564, 7, -4.26341, 25.4463, 30.9513, -4.40676, -70.0945, 2.50749
5.568, 7, -4.2994, 25.5036, 30.9078, -4.44097, -70.1643, 2.52659
5.572, 7, -4.33536, 25.561, 30.8643, -4.4751, -70.234, 2.54564
5.576, 7, -4.37127, 25.6184, 30.8207, -4.50915, -70.3037, 2.56466
5.58, 7, -4.40716, 25.6759, 30.7769, -4.54312, -70.3733, 2.58363
5.584, 7, -4.443, 25.7333, 30.733, -4.57701, -70.4428, 2.60256
5.588, 7, -4.47881, 25.7908, 30.689, -4.61082, -70.5122, 2.62144
5.592, 7, -4.51458, 25.8483, 30.6449, -4.64455, -70.5815, 2.64028
5.596, 7, -4.55031, 25.9059, 30.6007, -4.6782, -70.6508, 2.65909
5.6, 7, -4.58601, 25.9634, 30.5563, -4.71177, -70.72, 2.67785
5.604, 7, -4.62167, 26.021, 30.5119, -4.74527, -70.7891, 2.69656
5.608, 7, -4.65729, 26.0787, 30.4673, -4.77868, -70.8581, 2.71524
5.612, 7, -4.69288, 26.1363, 30.4226, -4.81202, -70.927, 2.73388
5.616, 7, -4.72843, 26.194, 30.3778, -4.84528, -70.9958, 2.75248
5.62, 7, -4.76394, 26.2517, 30.3329, -4.87846, -71.0646, 2.77104
5.624, 7, -4.79942, 26.3094, 30.2879, -4.91156, -71.1333, 2.78956
5.628, 7, -4.83485, 26.3672, 30.2427, -4.94459, -71.2019, 2.80804
5.632, 7, -4.87026, 26.4249, 30.1974, -4.97754, -71.2704, 2.82648
5.636, 7, -4.90562, 26.4827, 30.1521, -5.01041, -71.3388, 2.84488
5.64, 7, -4.94095, 26.5406, 30.1066, -5.04321, -71.4072, 2.86325
5.644, 7, -4.97623, 26.5984, 30.0609, -5.07593, -71.4755, 2.88158
5.648, 7, -5.01149, 26.6563, 30.0152, -5.10857, -71.5437, 2.89987
5.652, 7, -5.0467, 26.7142, 29.9694, -5.14114, -71.6118, 2.91812
5.656, 7, -5.08187, 26.7721, 29.9234, -5.17363, -71.6798, 2.93633
5.66, 7, -5.11701, 26.8301, 29.8773, -5.20605, -71.7477, 2.95451
5.664, 7, -5.15211, 26.8881, 29.8311, -5.23839, -71.8156, 2.97266
5.668, 7, -5.18718, 26.9461, 29.7848, -5.27066, -71.8833, 2.99077
5.672, 7, -5.22221, 27.0041, 29.7384, -5.30285, -71.951, 3.00884
5.676, 7, -5.25719, 27.0621, 29.6918, -5.33496, -72.0186, 3.02688
5.68, 7, -5.29215, 27.1202, 29.6452, -5.367, -72.0861, 3.04488
5.684, 7, -5.32706, 27.1783, 29.5984, -5.39896, -72.1535, 3.06285
5.688, 7, -5.36194, 27.2364, 29.5515, -5.43085, -72.2209, 3.08078
5.692, 7, -5.39678, 27.2946, 29.5045, -5.46267, -72.2881, 3.09868
5.696, 7, -5.43158, 27.3528, 29.4574, -5.49441, -72.3553, 3.11655
5.7, 7, -5.46634, 27.4109, 29.4101, -5.52608, -72.4224, 3.13438
5.704, 7, -5.50107, 27.4692, 29.3628, -5.55767, -72.4894, 3.15218
5.708, 7, -5.53576, 27.5274, 29.3153, -5.58919, -72.5563, 3.16995
5.712, 7, -5.57041, 27.5857, 29.2677, -5.62063, -72.6231, 3.18769
5.716, 7, -5.60503, 27.644, 29.22, -5.652, -72.6898, 3.20539
5.72, 7, -5.6396, 27.7023, 29.1722, -5.6833, -72.7565, 3.22306
5.724, 7, -5.67414, 27.7606, 29.1242, -5.71452, -72.823, 3.2407
5.728, 7, -5.70864, 27.819, 29.0762, -5.74567, -72.8895, 3.25831
5.732, 7, -5.74311, 27.8773, 29.028, -5.77674, -72.9559, 3.27588
5.736, 7, -5.77753, 27.9358, 28.9797, -5.80775, -73.0222, 3.29343
5.74, 7, -5.81192, 27.9942, 28.9313, -5.83868, -73.0884, 3.31094
5.744, 7, -5.84627, 28.0526, 28.8828, -5.86953, -73.1546, 3.32843
5.748, 7, -5.88059, 28.1111, 28.8342, -5.90032, -73.2206, 3.34588
5.752, 7, -5.91487, 28.1696, 28.7854, -5.93103, -73.2866, 3.36331
5.756, 7, -5.9491, 28.2281, 28.7366, -5.96167, -73.3524, 3.3807
5.76, 7, -5.98331, 28.2867, 28.6876, -5.99223, -73.4182, 3.39807
5.764, 7, -6.01747, 28.3452, 28.6385, -6.02273, -73.4839, 3.41541
5.768, 7, -6.0516, 28.4038, 28.5893, -6.05315, -73.5495, 3.43271
5.772, 7, -6.08569, 28.4624, 28.54, -6.0835, -73.6151, 3.44999
5.776, 7, -6.11974, 28.521, 28.4905, -6.11377, -73.6805, 3.46724
5.78, 7, -6.15376, 28.5797, 28.441, -6.14398, -73.7458, 3.48446
5.784, 7, -6.18773, 28.6384, 28.3913, -6.17411, -73.8111, 3.50166
5.788, 7, -6.22167, 28.6971, 28.3415, -6.20418, -73.8763, 3.51883
5.792, 7, -6.25558, 28.7558, 28.2916, -6.23417, -73.9414, 3.53596
5.796, 7, -6.28944, 28.8145, 28.2416, -6.26409, -74.0064, 3.55308
5.8, 7, -6.32327, 28.8733, 28.1914, -6.29394, -74.0713, 3.57016
5.804, 7, -6.35707, 28.9321, 28.1412, -6.32372, -74.1361, 3.58722
5.808, 7, -6.39082, 28.9909, 28.0908, -6.35342, -74.2009, 3.60425
5.812, 7, -6.42454, 29.0497, 28.0403, -6.38306, -74.2655, 3.62126
5.816, 7, -6.45822, 29.1086, 27.9897, -6.41262, -74.3301, 3.63824
5.82, 7, -6.49186, 29.1674, 27.939, -6.44212, -74.3945, 3.65519
5.824, 7, -6.52547, 29.2263, 27.8882, -6.47154, -74.4589, 3.67212
5.828, 7, -6.55903, 29.2852, 27.8373, -6.5009, -74.5232, 3.68903
5.832, 7, -6.59257, 29.3442, 27.7862, -6.53018, -74.5874, 3.7059
5.836, 7, -6.62606, 29.4031, 27.735, -6.5594, -74.6516, 3.72276
5.84, 7, -6.65952, 29.4621, 27.6837, -6.58854, -74.7156, 3.73959
5.844, 7, -6.69294, 29.5211, 27.6323, -6.61761, -74.7795, 3.75639
5.848, 7, -6.72632, 29.5801, 27.5808, -6.64662, -74.8434, 3.77317
5.852, 7, -6.75967, 29.6392, 27.5292, -6.67555, -74.9072, 3.78993
5.856, 7, -6.79298, 29.6982, 27.4775, -6.70442, -74.9709, 3.80666
5.86, 7, -6.82625, 29.7573, 27.4256, -6.73322, -75.0345, 3.82337
5.864, 7, -6.85949, 29.8164, 27.3736, -6.76194, -75.098, 3.84006
5.868, 7, -6.89268, 29.8756, 27.3215, -6.7906, -75.1614, 3.85672
5.872, 7, -6.92585, 29.9347, 27.2693, -6.81919, -75.2247, 3.87337
5.876, 7, -6.95897, 29.9939, 27.217, -6.84771, -75.2879, 3.88998
5.88, 7, -6.99206, 30.0531, 27.1646, -6.87616, -75.3511, 3.90658
5.884, 7, -7.02511, 30.1123, 27.112, -6.90454, -75.4142, 3.92316
5.888, 7, -7.05812, 30.1715, 27.0593, -6.93286, -75.4771, 3.93971
5.892, 7, -7.0911, 30.2308, 27.0065, -6.9611, -75.54, 3.95624
5.896, 7, -7.12404, 30.29, 26.9537, -6.98928, -75.6028, 3.97275
5.9, 7, -7.15694, 30.3493, 26.9006, -7.01739, -75.6655, 3.98924
5.904, 7, -7.1898, 30.4087, 26.8475, -7.04543, -75.7281, 4.00571
5.908, 7, -7.22263, 30.468, 26.7943, -7.0734, -75.7907, 4.02216
5.912, 7, -7.25542, 30.5273, 26.7409, -7.1013, -75.8531, 4.03859
5.916, 7, -7.28818, 30.5867, 26.6874, -7.12914, -75.9155, 4.055
5.92, 7, -7.3209, 30.6461, 26.6339, -7.15691, -75.9777, 4.07138
5.924, 7, -7.35358, 30.7055, 26.5802, -7.18461, -76.0399, 4.08775
5.928, 7, -7.38622, 30.765, 26.5263, -7.21224, -76.102, 4.1041
5.932, 7, -7.41883, 30.8244, 26.4724, -7.23981, -76.1639, 4.12043
5.936, 7, -7.4514, 30.8839, 26.4184, -7.26731, -76.2258, 4.13674
5.94, 7, -7.48393, 30.9434, 26.3642, -7.29474, -76.2877, 4.15303
5.944, 7, -7.51643, 31.0029, 26.3099, -7.3221, -76.3494, 4.16931
5.948, 7, -7.54889, 31.0625, 26.2555, -7.3494, -76.411, 4.18556
5.952, 7, -7.58132, 31.122, 26.201, -7.37663, -76.4725, 4.2018
