hehonglu123/ABB_Primitive_Study/execution/movelcl_30_car/curve_exe_v50_z1.csv
timestamp, cmd_num, J1, J2, J3, J4, J5, J6
0, -1, -13.4393, 43.6787, 12.5946, -11.6275, -87.029, 7.42441
0.002, -1, -13.4393, 43.6787, 12.5946, -11.6275, -87.029, 7.42441
0.006, -1, -13.4393, 43.6787, 12.5946, -11.6275, -87.029, 7.42441
0.008, -1, -13.4393, 43.6787, 12.5946, -11.6275, -87.029, 7.42441
0.011, -1, -13.4393, 43.6787, 12.5946, -11.6275, -87.029, 7.42441
0.016, -1, -13.4393, 43.6787, 12.5946, -11.6275, -87.029, 7.42441
0.02, -1, -13.4393, 43.6787, 12.5946, -11.6275, -87.029, 7.42441
0.024, -1, -13.4393, 43.6787, 12.5946, -11.6275, -87.029, 7.42441
0.028, -1, -13.4393, 43.6787, 12.5946, -11.6275, -87.029, 7.42441
0.032, -1, -13.4393, 43.6787, 12.5946, -11.6275, -87.029, 7.42441
0.036, -1, -13.4392, 43.6786, 12.5946, -11.6275, -87.029, 7.42441
0.04, -1, -13.439, 43.6785, 12.5946, -11.6275, -87.029, 7.42441
0.044, -1, -13.4384, 43.678, 12.5947, -11.6275, -87.029, 7.42439
0.048, -1, -13.4372, 43.6772, 12.5949, -11.6274, -87.0289, 7.42434
0.052, -1, -13.4355, 43.6758, 12.5951, -11.6273, -87.0287, 7.42422
0.056, -1, -13.433, 43.6738, 12.5955, -11.627, -87.0284, 7.42397
0.06, -1, -13.4296, 43.671, 12.5961, -11.6264, -87.0277, 7.42349
0.064, -1, -13.4254, 43.6675, 12.5969, -11.6253, -87.0264, 7.42266
0.068, -1, -13.4203, 43.6631, 12.598, -11.6236, -87.0244, 7.42132
0.072, -1, -13.4141, 43.6579, 12.5994, -11.6209, -87.0213, 7.41928
0.076, -1, -13.4066, 43.6516, 12.6011, -11.617, -87.0167, 7.4163
0.08, -1, -13.3977, 43.6442, 12.6034, -11.6115, -87.0103, 7.41213
0.084, -1, -13.3869, 43.6352, 12.6062, -11.604, -87.0016, 7.40644
0.088, -1, -13.3743, 43.6247, 12.6097, -11.5941, -86.9899, 7.39892
0.092, -1, -13.3596, 43.6124, 12.6138, -11.5812, -86.9748, 7.38918
0.096, -1, -13.3427, 43.5982, 12.6186, -11.5648, -86.9557, 7.37685
0.1, -1, -13.3235, 43.582, 12.6243, -11.5444, -86.9319, 7.36155
0.104, -1, -13.3019, 43.5636, 12.6308, -11.5196, -86.9029, 7.3429
0.108, -1, -13.2776, 43.5427, 12.6382, -11.4899, -86.868, 7.32054
0.112, -1, -13.2505, 43.5193, 12.6467, -11.4547, -86.8269, 7.29416
0.116, -1, -13.2206, 43.4932, 12.6562, -11.4137, -86.7789, 7.26346
0.12, -1, -13.1877, 43.4644, 12.6669, -11.3667, -86.7238, 7.22818
0.124, -1, -13.1519, 43.4328, 12.6786, -11.3132, -86.6612, 7.18814
0.128, -1, -13.113, 43.3984, 12.6916, -11.2532, -86.591, 7.14319
0.131, -1, -13.071, 43.3611, 12.7056, -11.1865, -86.5129, 7.09326
0.136, -1, -13.026, 43.321, 12.7209, -11.1131, -86.4269, 7.03835
0.139, -1, -12.9779, 43.2779, 12.7373, -11.0331, -86.3333, 6.9785
0.144, -1, -12.9267, 43.232, 12.7548, -10.9467, -86.2321, 6.91384
0.148, -1, -12.8726, 43.1833, 12.7734, -10.854, -86.1236, 6.84454
0.152, -1, -12.8155, 43.132, 12.7932, -10.7555, -86.0082, 6.77084
0.156, -1, -12.7557, 43.0781, 12.8139, -10.6514, -85.8863, 6.69301
0.16, -1, -12.6932, 43.0219, 12.8355, -10.5422, -85.7585, 6.61137
0.164, -1, -12.6282, 42.9633, 12.8581, -10.4284, -85.6253, 6.52627
0.168, -1, -12.5607, 42.9025, 12.8815, -10.3105, -85.4872, 6.43809
0.172, -1, -12.4909, 42.8396, 12.9056, -10.189, -85.3449, 6.34721
0.176, -1, -12.4189, 42.7749, 12.9305, -10.0644, -85.1989, 6.25399
0.18, -1, -12.345, 42.7085, 12.956, -9.93711, -85.0499, 6.15879
0.184, -1, -12.2694, 42.6406, 12.9821, -9.80765, -84.8983, 6.06194
0.188, -1, -12.1925, 42.5714, 13.0086, -9.6764, -84.7446, 5.96375
0.192, -1, -12.1142, 42.5011, 13.0356, -9.54373, -84.5892, 5.86449
0.196, -1, -12.0348, 42.4297, 13.0629, -9.40995, -84.4326, 5.76439
0.2, -1, -11.9542, 42.3573, 13.0906, -9.27534, -84.2749, 5.66366
0.204, -1, -11.8724, 42.2841, 13.1185, -9.14011, -84.1166, 5.56246
0.208, -1, -11.7897, 42.21, 13.1466, -9.00443, -83.9577, 5.46092
0.212, -1, -11.7061, 42.1354, 13.1749, -8.86843, -83.7985, 5.35913
0.216, -1, -11.6218, 42.0602, 13.2033, -8.7322, -83.6389, 5.25717
0.22, -1, -11.5371, 41.9847, 13.2318, -8.5958, -83.4792, 5.15507
0.224, -1, -11.452, 41.909, 13.2603, -8.45928, -83.3194, 5.05288
0.228, -1, -11.3667, 41.8332, 13.2889, -8.32266, -83.1594, 4.95062
0.232, -1, -11.2813, 41.7572, 13.3176, -8.18597, -82.9993, 4.8483
0.236, -1, -11.1957, 41.6811, 13.3462, -8.04922, -82.8392, 4.74595
0.24, -1, -11.11, 41.605, 13.3749, -7.91243, -82.679, 4.64355
0.244, -1, -11.0243, 41.5288, 13.4035, -7.77561, -82.5188, 4.54114
0.248, -1, -10.9386, 41.4526, 13.4322, -7.63876, -82.3586, 4.4387
0.252, -1, -10.8528, 41.3764, 13.4609, -7.50189, -82.1983, 4.33625
0.256, -1, -10.767, 41.3002, 13.4896, -7.36501, -82.0381, 4.2338
0.26, -1, -10.6811, 41.2239, 13.5183, -7.22813, -81.8778, 4.13133
0.264, -1, -10.5953, 41.1477, 13.547, -7.09125, -81.7175, 4.02887
0.268, -1, -10.5094, 41.0714, 13.5757, -6.95436, -81.5572, 3.92641
0.272, -1, -10.4236, 40.9952, 13.6044, -6.81749, -81.397, 3.82396
0.276, -1, -10.3378, 40.9189, 13.6331, -6.68063, -81.2367, 3.72151
0.28, -1, -10.252, 40.8427, 13.6618, -6.54379, -81.0765, 3.61908
0.284, -1, -10.1661, 40.7665, 13.6904, -6.40697, -80.9163, 3.51666
0.288, -1, -10.0803, 40.6903, 13.7191, -6.27017, -80.7561, 3.41427
0.292, -1, -9.99456, 40.6141, 13.7478, -6.13341, -80.596, 3.31189
0.296, -1, -9.9088, 40.538, 13.7764, -5.99668, -80.4359, 3.20955
0.3, -1, -9.82306, 40.4618, 13.8051, -5.85999, -80.2758, 3.10723
0.304, -1, -9.73734, 40.3857, 13.8337, -5.72334, -80.1158, 3.00494
0.308, -1, -9.65166, 40.3096, 13.8624, -5.58674, -79.9558, 2.90269
0.312, -1, -9.566, 40.2336, 13.891, -5.45019, -79.796, 2.80048
0.316, -1, -9.48038, 40.1575, 13.9196, -5.31369, -79.6361, 2.69831
0.32, -1, -9.3948, 40.0815, 13.9482, -5.17726, -79.4764, 2.59618
0.324, -1, -9.30925, 40.0055, 13.9768, -5.04089, -79.3167, 2.4941
0.328, -1, -9.22375, 39.9296, 14.0054, -4.90458, -79.1571, 2.39207
0.332, -1, -9.13829, 39.8537, 14.0339, -4.76835, -78.9976, 2.2901
0.336, -1, -9.05287, 39.7778, 14.0625, -4.63219, -78.8382, 2.18818
0.34, -1, -8.9675, 39.702, 14.091, -4.49612, -78.6788, 2.08632
0.344, -1, -8.88219, 39.6262, 14.1195, -4.36012, -78.5196, 1.98452
0.348, -1, -8.79692, 39.5505, 14.148, -4.22421, -78.3604, 1.88279
0.352, -1, -8.71172, 39.4748, 14.1765, -4.0884, -78.2014, 1.78113
0.356, -1, -8.62657, 39.3992, 14.2049, -3.95267, -78.0425, 1.67953
0.36, -1, -8.54148, 39.3236, 14.2334, -3.81705, -77.8837, 1.57801
0.364, -1, -8.45646, 39.2481, 14.2618, -3.68152, -77.725, 1.47657
0.368, -1, -8.3715, 39.1727, 14.2902, -3.54611, -77.5664, 1.3752
0.372, -1, -8.28661, 39.0973, 14.3185, -3.4108, -77.408, 1.27392
0.376, -1, -8.20179, 39.0219, 14.3469, -3.2756, -77.2497, 1.17272
0.38, -1, -8.11704, 38.9467, 14.3752, -3.14052, -77.0915, 1.07161
0.384, -1, -8.03237, 38.8715, 14.4035, -3.00557, -76.9335, 0.970588
0.388, -1, -7.94777, 38.7963, 14.4318, -2.87073, -76.7756, 0.869659
0.392, -1, -7.86325, 38.7212, 14.46, -2.73602, -76.6179, 0.768825
0.396, -1, -7.77881, 38.6463, 14.4882, -2.60145, -76.4603, 0.668089
0.4, -1, -7.69446, 38.5713, 14.5164, -2.467, -76.3029, 0.567454
0.404, -1, -7.61019, 38.4965, 14.5446, -2.3327, -76.1456, 0.466921
0.408, -1, -7.526, 38.4217, 14.5727, -2.19854, -75.9885, 0.366494
0.412, -1, -7.44191, 38.347, 14.6008, -2.06452, -75.8316, 0.266176
0.416, -1, -7.35791, 38.2724, 14.6288, -1.93064, -75.6748, 0.165968
0.42, -1, -7.274, 38.1979, 14.6569, -1.79692, -75.5183, 0.0658724
0.424, -1, -7.19019, 38.1235, 14.6849, -1.66336, -75.3619, -0.0341072
0.428, -1, -7.10648, 38.0491, 14.7128, -1.52995, -75.2057, -0.133969
0.432, -1, -7.02287, 37.9748, 14.7408, -1.3967, -75.0496, -0.233711
0.436, -1, -6.93935, 37.9007, 14.7687, -1.26362, -74.8938, -0.33333
0.44, -1, -6.85595, 37.8266, 14.7965, -1.1307, -74.7382, -0.432824
0.444, -1, -6.77264, 37.7526, 14.8244, -0.99795, -74.5827, -0.532191
0.448, -1, -6.68945, 37.6787, 14.8522, -0.865375, -74.4275, -0.631429
0.452, -1, -6.60636, 37.6049, 14.8799, -0.732975, -74.2725, -0.730535
0.456, -1, -6.52339, 37.5312, 14.9077, -0.600755, -74.1176, -0.829507
0.46, -1, -6.44053, 37.4576, 14.9353, -0.468716, -73.963, -0.928344
0.464, -1, -6.35778, 37.3842, 14.963, -0.336861, -73.8086, -1.02704
0.468, -1, -6.27515, 37.3108, 14.9906, -0.205193, -73.6545, -1.1256
0.472, -1, -6.19264, 37.2375, 15.0181, -0.0737153, -73.5005, -1.22402
0.476, -1, -6.11024, 37.1643, 15.0457, 0.0575699, -73.3468, -1.32229
0.48, -1, -6.02797, 37.0912, 15.0732, 0.18866, -73.1933, -1.42042
0.484, -1, -5.94582, 37.0183, 15.1006, 0.319552, -73.04, -1.51839
0.488, -1, -5.8638, 36.9454, 15.128, 0.450244, -72.887, -1.61622
0.492, -1, -5.7819, 36.8727, 15.1554, 0.580734, -72.7342, -1.7139
0.496, -1, -5.70012, 36.8001, 15.1827, 0.711018, -72.5817, -1.81142
0.5, -1, -5.61848, 36.7276, 15.2099, 0.841096, -72.4294, -1.90879
0.504, -1, -5.53697, 36.6552, 15.2372, 0.970964, -72.2773, -2.006
0.508, -1, -5.45558, 36.5829, 15.2644, 1.10062, -72.1255, -2.10306
0.512, -1, -5.37433, 36.5108, 15.2915, 1.23006, -71.9739, -2.19995
0.516, -1, -5.29321, 36.4387, 15.3186, 1.35929, -71.8226, -2.29668
0.52, -1, -5.21223, 36.3668, 15.3456, 1.4883, -71.6715, -2.39325
0.524, -1, -5.13138, 36.295, 15.3726, 1.6171, -71.5207, -2.48966
0.528, -1, -5.05067, 36.2233, 15.3996, 1.74567, -71.3702, -2.5859
0.532, -1, -4.97009, 36.1518, 15.4265, 1.87402, -71.2199, -2.68198
0.536, -1, -4.88966, 36.0803, 15.4534, 2.00215, -71.0698, -2.77789
0.54, -1, -4.80936, 36.009, 15.4802, 2.13005, -70.9201, -2.87363
0.544, -1, -4.7292, 35.9378, 15.507, 2.25773, -70.7706, -2.9692
0.548, -1, -4.64919, 35.8668, 15.5337, 2.38518, -70.6213, -3.0646
0.552, -1, -4.56931, 35.7959, 15.5604, 2.51241, -70.4724, -3.15984
0.556, -1, -4.48958, 35.725, 15.587, 2.6394, -70.3237, -3.2549
0.56, -1, -4.41, 35.6544, 15.6136, 2.76617, -70.1752, -3.34979
0.564, -1, -4.33056, 35.5838, 15.6401, 2.8927, -70.0271, -3.44451
0.568, -1, -4.25126, 35.5134, 15.6666, 3.01901, -69.8792, -3.53905
0.572, -1, -4.17211, 35.4431, 15.693, 3.14508, -69.7316, -3.63342
0.576, -1, -4.0931, 35.373, 15.7194, 3.27092, -69.5842, -3.72761
0.58, -1, -4.01424, 35.3029, 15.7458, 3.39652, -69.4372, -3.82163
0.584, -1, -3.93553, 35.233, 15.772, 3.52189, -69.2904, -3.91547
0.588, -1, -3.85696, 35.1633, 15.7983, 3.64702, -69.1438, -4.00914
0.592, -1, -3.77855, 35.0936, 15.8245, 3.77191, -68.9976, -4.10263
0.596, -1, -3.70028, 35.0241, 15.8506, 3.89657, -68.8516, -4.19594
0.6, -1, -3.62216, 34.9548, 15.8767, 4.02099, -68.7059, -4.28908
0.604, -1, -3.54419, 34.8855, 15.9027, 4.14517, -68.5605, -4.38203
0.608, -1, -3.46637, 34.8164, 15.9287, 4.26911, -68.4154, -4.47481
0.612, -1, -3.3887, 34.7474, 15.9547, 4.39281, -68.2706, -4.5674
0.616, -1, -3.31118, 34.6786, 15.9806, 4.51628, -68.126, -4.65982
0.62, -1, -3.23382, 34.6099, 16.0064, 4.63949, -67.9817, -4.75205
0.624, -1, -3.1566, 34.5413, 16.0322, 4.76247, -67.8377, -4.84411
0.628, -1, -3.07954, 34.4729, 16.0579, 4.88521, -67.694, -4.93598
0.632, -1, -3.00262, 34.4046, 16.0836, 5.0077, -67.5506, -5.02767
0.636, -1, -2.92586, 34.3364, 16.1092, 5.12995, -67.4074, -5.11918
0.64, -1, -2.84926, 34.2684, 16.1348, 5.25195, -67.2646, -5.2105
0.644, -1, -2.7728, 34.2005, 16.1604, 5.37371, -67.122, -5.30165
0.648, -1, -2.6965, 34.1328, 16.1858, 5.49523, -66.9797, -5.39261
0.652, -1, -2.62035, 34.0652, 16.2113, 5.6165, -66.8377, -5.48338
0.656, -1, -2.54436, 33.9977, 16.2366, 5.73753, -66.696, -5.57398
0.66, -1, -2.46852, 33.9303, 16.262, 5.85831, -66.5546, -5.66439
0.664, -1, -2.39283, 33.8631, 16.2872, 5.97884, -66.4135, -5.75461
0.668, -1, -2.3173, 33.7961, 16.3125, 6.09913, -66.2726, -5.84465
0.672, -1, -2.24192, 33.7291, 16.3376, 6.21917, -66.1321, -5.93451
0.676, -1, -2.1667, 33.6623, 16.3628, 6.33897, -65.9918, -6.02418
0.68, -1, -2.09163, 33.5957, 16.3878, 6.45851, -65.8518, -6.11367
0.684, -1, -2.01672, 33.5292, 16.4129, 6.57781, -65.7121, -6.20297
0.688, -1, -1.94196, 33.4628, 16.4378, 6.69687, -65.5727, -6.29208
0.692, -1, -1.86736, 33.3965, 16.4627, 6.81567, -65.4336, -6.38101
0.696, -1, -1.79291, 33.3304, 16.4876, 6.93423, -65.2948, -6.46976
0.7, -1, -1.71862, 33.2645, 16.5124, 7.05254, -65.1562, -6.55832
0.704, -1, -1.64448, 33.1986, 16.5372, 7.1706, -65.018, -6.64669
0.708, -1, -1.5705, 33.1329, 16.5619, 7.28841, -64.8801, -6.73488
0.712, -1, -1.49668, 33.0674, 16.5865, 7.40597, -64.7424, -6.82288
0.716, -1, -1.42301, 33.002, 16.6111, 7.52329, -64.605, -6.9107
0.72, -1, -1.34949, 32.9367, 16.6357, 7.64036, -64.468, -6.99833
0.724, -1, -1.27614, 32.8715, 16.6602, 7.75718, -64.3312, -7.08577
0.728, -1, -1.20293, 32.8065, 16.6846, 7.87375, -64.1947, -7.17303
0.732, -1, -1.12989, 32.7417, 16.709, 7.99007, -64.0585, -7.2601
0.736, -1, -1.057, 32.677, 16.7333, 8.10615, -63.9226, -7.34699
0.74, -1, -0.984259, 32.6124, 16.7576, 8.22197, -63.7869, -7.43369
0.744, -1, -0.911678, 32.5479, 16.7819, 8.33755, -63.6516, -7.52021
0.748, -1, -0.839252, 32.4836, 16.8061, 8.45288, -63.5166, -7.60653
0.752, -1, -0.766981, 32.4194, 16.8302, 8.56796, -63.3818, -7.69268
0.756, -1, -0.694864, 32.3554, 16.8543, 8.6828, -63.2474, -7.77864
0.76, -1, -0.622901, 32.2915, 16.8783, 8.79738, -63.1132, -7.86441
0.764, -1, -0.551092, 32.2277, 16.9023, 8.91172, -62.9793, -7.95
0.768, -1, -0.479437, 32.1641, 16.9262, 9.02582, -62.8457, -8.0354
0.772, -1, -0.407935, 32.1006, 16.9501, 9.13966, -62.7124, -8.12062
0.776, -1, -0.336586, 32.0373, 16.9739, 9.25326, -62.5794, -8.20566
0.78, -1, -0.26539, 31.9741, 16.9977, 9.36662, -62.4467, -8.29051
0.784, -1, -0.194346, 31.911, 17.0214, 9.47973, -62.3142, -8.37518
0.788, -1, -0.123455, 31.848, 17.0451, 9.5926, -62.182, -8.45966
0.792, -1, -0.0527154, 31.7852, 17.0687, 9.70522, -62.0502, -8.54397
0.796, -1, 0.0178725, 31.7226, 17.0923, 9.81761, -61.9186, -8.62809
0.8, -1, 0.0883091, 31.66, 17.1158, 9.92975, -61.7873, -8.71204
0.804, -1, 0.158595, 31.5976, 17.1393, 10.0417, -61.6562, -8.7958
0.808, -1, 0.22873, 31.5353, 17.1627, 10.1533, -61.5255, -8.87938
0.812, -1, 0.298716, 31.4732, 17.186, 10.2647, -61.395, -8.96279
0.816, -1, 0.368552, 31.4112, 17.2094, 10.3759, -61.2648, -9.04602
0.82, -1, 0.438239, 31.3493, 17.2326, 10.4869, -61.1349, -9.12907
0.824, -1, 0.507778, 31.2876, 17.2559, 10.5976, -61.0053, -9.21194
0.828, -1, 0.577169, 31.226, 17.279, 10.7081, -60.8759, -9.29464
0.832, -1, 0.646413, 31.1645, 17.3021, 10.8183, -60.7468, -9.37716
0.836, -1, 0.71551, 31.1031, 17.3252, 10.9283, -60.618, -9.45951
0.84, -1, 0.78446, 31.0419, 17.3482, 11.0381, -60.4895, -9.54168
0.844, -1, 0.853265, 30.9808, 17.3712, 11.1476, -60.3612, -9.62368
0.848, -1, 0.921925, 30.9199, 17.3941, 11.2569, -60.2332, -9.7055
0.852, -1, 0.990441, 30.859, 17.417, 11.366, -60.1055, -9.78716
0.856, -1, 1.05881, 30.7983, 17.4398, 11.4749, -59.9781, -9.86864
0.86, -1, 1.12704, 30.7378, 17.4626, 11.5835, -59.8509, -9.94995
0.864, -1, 1.19512, 30.6773, 17.4854, 11.6919, -59.7239, -10.0311
0.868, -1, 1.26307, 30.617, 17.508, 11.8001, -59.5973, -10.1121
0.872, -1, 1.33087, 30.5568, 17.5307, 11.908, -59.4709, -10.1929
0.876, -1, 1.39853, 30.4967, 17.5533, 12.0157, -59.3448, -10.2735
0.88, -1, 1.46604, 30.4368, 17.5758, 12.1232, -59.2189, -10.354
0.884, -1, 1.53342, 30.377, 17.5983, 12.2305, -59.0933, -10.4343
0.888, -1, 1.60066, 30.3173, 17.6208, 12.3375, -58.9679, -10.5144
0.892, -1, 1.66775, 30.2577, 17.6432, 12.4444, -58.8429, -10.5943
0.896, -1, 1.73471, 30.1982, 17.6655, 12.551, -58.718, -10.6741
0.9, -1, 1.80153, 30.1389, 17.6878, 12.6574, -58.5935, -10.7538
0.904, -1, 1.86821, 30.0797, 17.7101, 12.7635, -58.4692, -10.8332
0.908, -1, 1.93476, 30.0206, 17.7323, 12.8695, -58.3451, -10.9125
0.912, -1, 2.00117, 29.9617, 17.7545, 12.9752, -58.2213, -10.9917
0.916, -1, 2.06744, 29.9028, 17.7766, 13.0807, -58.0978, -11.0707
0.92, -1, 2.13357, 29.8441, 17.7987, 13.186, -57.9745, -11.1495
0.924, -1, 2.19957, 29.7855, 17.8207, 13.2911, -57.8514, -11.2281
0.928, -1, 2.26543, 29.727, 17.8427, 13.3959, -57.7287, -11.3066
0.932, -1, 2.33116, 29.6687, 17.8647, 13.5006, -57.6061, -11.385
0.936, -1, 2.39676, 29.6104, 17.8866, 13.605, -57.4838, -11.4631
0.94, -1, 2.46222, 29.5523, 17.9084, 13.7092, -57.3618, -11.5412
0.944, -1, 2.52755, 29.4943, 17.9303, 13.8133, -57.24, -11.619
0.948, -1, 2.59275, 29.4364, 17.952, 13.9171, -57.1185, -11.6967
0.952, -1, 2.65781, 29.3787, 17.9738, 14.0206, -56.9972, -11.7743
0.956, -1, 2.72274, 29.321, 17.9954, 14.124, -56.8761, -11.8516
0.96, -1, 2.78755, 29.2635, 18.0171, 14.2272, -56.7553, -11.9289
0.964, -1, 2.85222, 29.2061, 18.0387, 14.3302, -56.6348, -12.0059
0.968, -1, 2.91676, 29.1488, 18.0602, 14.4329, -56.5144, -12.0829
0.972, -1, 2.98117, 29.0916, 18.0817, 14.5355, -56.3944, -12.1596
0.976, -1, 3.04545, 29.0345, 18.1032, 14.6378, -56.2745, -12.2362
0.98, -1, 3.10961, 28.9775, 18.1246, 14.7399, -56.1549, -12.3127
0.984, -1, 3.17363, 28.9207, 18.146, 14.8419, -56.0356, -12.389
0.988, -1, 3.23753, 28.864, 18.1673, 14.9436, -55.9165, -12.4651
0.992, -1, 3.3013, 28.8074, 18.1886, 15.0451, -55.7976, -12.5411
0.996, -1, 3.36494, 28.7508, 18.2099, 15.1465, -55.6789, -12.617
1, -1, 3.42846, 28.6945, 18.2311, 15.2476, -55.5605, -12.6927
1.004, -1, 3.49185, 28.6382, 18.2523, 15.3485, -55.4423, -12.7682
1.008, -1, 3.55512, 28.582, 18.2734, 15.4492, -55.3244, -12.8436
1.012, -1, 3.61826, 28.5259, 18.2945, 15.5498, -55.2067, -12.9189
1.016, -1, 3.68127, 28.47, 18.3155, 15.6501, -55.0892, -12.994
1.02, -1, 3.74416, 28.4142, 18.3365, 15.7502, -54.972, -13.0689
1.024, -1, 3.80693, 28.3584, 18.3575, 15.8502, -54.855, -13.1437
1.027, -1, 3.86958, 28.3028, 18.3784, 15.9499, -54.7382, -13.2184
1.032, -1, 3.9321, 28.2473, 18.3993, 16.0494, -54.6216, -13.2929
1.036, -1, 3.9945, 28.1919, 18.4201, 16.1488, -54.5053, -13.3673
1.04, -1, 4.05678, 28.1366, 18.4409, 16.2479, -54.3892, -13.4415
1.044, -1, 4.11893, 28.0814, 18.4616, 16.3469, -54.2733, -13.5156
1.048, -1, 4.18097, 28.0263, 18.4824, 16.4457, -54.1577, -13.5895
1.052, -1, 4.24289, 27.9714, 18.503, 16.5442, -54.0422, -13.6633
1.055, -1, 4.30468, 27.9165, 18.5237, 16.6426, -53.927, -13.7369
1.06, -1, 4.36636, 27.8617, 18.5443, 16.7408, -53.8121, -13.8104
1.064, -1, 4.42792, 27.8071, 18.5648, 16.8388, -53.6973, -13.8838
1.068, -1, 4.48936, 27.7525, 18.5853, 16.9366, -53.5828, -13.957
1.072, -1, 4.55068, 27.6981, 18.6058, 17.0343, -53.4685, -14.0301
1.076, -1, 4.61188, 27.6438, 18.6262, 17.1317, -53.3544, -14.103
1.08, -1, 4.67297, 27.5895, 18.6466, 17.229, -53.2405, -14.1758
1.084, -1, 4.73394, 27.5354, 18.667, 17.326, -53.1268, -14.2485
1.088, -1, 4.7948, 27.4814, 18.6873, 17.4229, -53.0134, -14.321
1.091, -1, 4.85554, 27.4274, 18.7076, 17.5196, -52.9002, -14.3934
1.096, -1, 4.91617, 27.3736, 18.7278, 17.6161, -52.7871, -14.4656
1.1, -1, 4.97668, 27.3199, 18.7481, 17.7125, -52.6743, -14.5378
1.104, -1, 5.03708, 27.2663, 18.7682, 17.8086, -52.5618, -14.6097
1.108, -1, 5.09737, 27.2127, 18.7883, 17.9046, -52.4494, -14.6816
1.112, -1, 5.15754, 27.1593, 18.8084, 18.0004, -52.3372, -14.7533
1.116, -1, 5.2176, 27.106, 18.8285, 18.096, -52.2253, -14.8249
1.119, -1, 5.27755, 27.0528, 18.8485, 18.1915, -52.1135, -14.8963
1.124, -1, 5.33739, 26.9996, 18.8685, 18.2867, -52.0019, -14.9676
1.128, -1, 5.39712, 26.9466, 18.8884, 18.3818, -51.8906, -15.0388
1.132, -1, 5.45673, 26.8937, 18.9083, 18.4767, -51.7795, -15.1098
1.136, -1, 5.51624, 26.8408, 18.9282, 18.5715, -51.6685, -15.1807
1.14, -1, 5.57564, 26.7881, 18.948, 18.666, -51.5578, -15.2515
1.144, -1, 5.63493, 26.7355, 18.9678, 18.7604, -51.4473, -15.3222
1.147, -1, 5.69412, 26.6829, 18.9876, 18.8547, -51.337, -15.3927
1.152, -1, 5.75319, 26.6305, 19.0073, 18.9487, -51.2268, -15.4631
1.156, -1, 5.81216, 26.5781, 19.027, 19.0426, -51.1169, -15.5334
1.16, -1, 5.87103, 26.5259, 19.0467, 19.1363, -51.0072, -15.6035
1.164, -1, 5.92979, 26.4737, 19.0663, 19.2298, -50.8976, -15.6736
1.168, -1, 5.98844, 26.4216, 19.0859, 19.3232, -50.7883, -15.7435
1.172, -1, 6.04699, 26.3696, 19.1054, 19.4164, -50.6792, -15.8132
1.175, -1, 6.10543, 26.3177, 19.1249, 19.5095, -50.5702, -15.8829
1.18, -1, 6.16377, 26.266, 19.1444, 19.6024, -50.4614, -15.9524
1.184, -1, 6.22201, 26.2142, 19.1639, 19.6951, -50.3529, -16.0218
1.188, -1, 6.28015, 26.1626, 19.1833, 19.7876, -50.2445, -16.0911
1.192, -1, 6.33818, 26.1111, 19.2027, 19.88, -50.1363, -16.1603
1.196, -1, 6.39611, 26.0597, 19.222, 19.9723, -50.0283, -16.2293
1.2, -1, 6.45394, 26.0083, 19.2413, 20.0643, -49.9205, -16.2982
1.204, -1, 6.51167, 25.9571, 19.2606, 20.1562, -49.8129, -16.367
1.208, -1, 6.5693, 25.9059, 19.2798, 20.248, -49.7055, -16.4357
1.212, -1, 6.62683, 25.8548, 19.299, 20.3396, -49.5982, -16.5042
1.216, -1, 6.68426, 25.8038, 19.3182, 20.431, -49.4912, -16.5727
1.22, -1, 6.74159, 25.7529, 19.3374, 20.5223, -49.3843, -16.641
1.224, -1, 6.79882, 25.7021, 19.3565, 20.6134, -49.2776, -16.7092
1.228, -1, 6.85596, 25.6514, 19.3756, 20.7044, -49.1711, -16.7773
1.232, -1, 6.91299, 25.6008, 19.3946, 20.7952, -49.0648, -16.8453
1.236, -1, 6.96993, 25.5502, 19.4136, 20.8858, -48.9586, -16.9131
1.24, -1, 7.02678, 25.4997, 19.4326, 20.9763, -48.8526, -16.9809
1.244, -1, 7.08352, 25.4494, 19.4515, 21.0667, -48.7469, -17.0485
1.248, -1, 7.14018, 25.3991, 19.4705, 21.1569, -48.6413, -17.116
1.252, -1, 7.19673, 25.3488, 19.4893, 21.2469, -48.5358, -17.1834
1.256, -1, 7.25319, 25.2987, 19.5082, 21.3368, -48.4306, -17.2507
1.26, -1, 7.30956, 25.2487, 19.527, 21.4266, -48.3255, -17.3179
1.264, -1, 7.36583, 25.1987, 19.5458, 21.5161, -48.2206, -17.385
1.267, -1, 7.42201, 25.1488, 19.5646, 21.6056, -48.1158, -17.4519
1.272, -1, 7.4781, 25.099, 19.5833, 21.6949, -48.0113, -17.5188
1.276, -1, 7.53409, 25.0493, 19.602, 21.784, -47.9069, -17.5855
1.28, -1, 7.58999, 24.9997, 19.6207, 21.873, -47.8027, -17.6521
1.284, -1, 7.6458, 24.9501, 19.6393, 21.9619, -47.6986, -17.7186
1.288, -1, 7.70152, 24.9007, 19.6579, 22.0506, -47.5948, -17.785
1.292, -1, 7.75715, 24.8513, 19.6765, 22.1392, -47.4911, -17.8513
1.295, -1, 7.81268, 24.802, 19.695, 22.2276, -47.3875, -17.9175
1.3, -1, 7.86813, 24.7528, 19.7135, 22.3159, -47.2842, -17.9836
1.304, -1, 7.92348, 24.7036, 19.732, 22.404, -47.181, -18.0496
1.308, -1, 7.97875, 24.6545, 19.7505, 22.492, -47.0779, -18.1154
1.312, -1, 8.03393, 24.6055, 19.7689, 22.5798, -46.9751, -18.1812
1.316, -1, 8.08901, 24.5566, 19.7873, 22.6675, -46.8724, -18.2468
1.32, -1, 8.14401, 24.5078, 19.8057, 22.7551, -46.7699, -18.3124
1.324, -1, 8.19893, 24.4591, 19.824, 22.8425, -46.6675, -18.3778
1.328, -1, 8.25375, 24.4104, 19.8423, 22.9298, -46.5653, -18.4432
1.332, -1, 8.30849, 24.3618, 19.8606, 23.017, -46.4632, -18.5084
1.336, -1, 8.36314, 24.3133, 19.8788, 23.104, -46.3614, -18.5735
1.34, -1, 8.4177, 24.2648, 19.8971, 23.1909, -46.2596, -18.6386
1.344, -1, 8.47218, 24.2165, 19.9153, 23.2776, -46.1581, -18.7035
1.348, -1, 8.52657, 24.1682, 19.9334, 23.3642, -46.0567, -18.7683
1.352, -1, 8.58088, 24.1199, 19.9515, 23.4507, -45.9554, -18.833
1.356, -1, 8.6351, 24.0718, 19.9697, 23.537, -45.8543, -18.8976
1.36, -1, 8.68923, 24.0237, 19.9877, 23.6232, -45.7534, -18.9622
1.364, -1, 8.74328, 23.9757, 20.0058, 23.7092, -45.6526, -19.0266
1.368, -1, 8.79725, 23.9278, 20.0238, 23.7952, -45.552, -19.0909
1.372, -1, 8.85114, 23.88, 20.0418, 23.881, -45.4516, -19.1551
1.376, -1, 8.90494, 23.8322, 20.0598, 23.9666, -45.3513, -19.2192
1.38, -1, 8.95866, 23.7845, 20.0777, 24.0521, -45.2511, -19.2833
1.384, -1, 9.01229, 23.7369, 20.0956, 24.1375, -45.1511, -19.3472
1.388, -1, 9.06584, 23.6894, 20.1135, 24.2228, -45.0513, -19.411
1.392, -1, 9.11932, 23.6419, 20.1314, 24.3079, -44.9516, -19.4747
1.396, -1, 9.1727, 23.5945, 20.1492, 24.393, -44.8521, -19.5384
1.4, -1, 9.22601, 23.5472, 20.167, 24.4778, -44.7527, -19.6019
1.404, -1, 9.27924, 23.4999, 20.1848, 24.5626, -44.6535, -19.6653
1.408, -1, 9.33239, 23.4527, 20.2025, 24.6472, -44.5544, -19.7287
1.412, -1, 9.38546, 23.4056, 20.2202, 24.7317, -44.4554, -19.7919
1.416, -1, 9.43844, 23.3585, 20.2379, 24.8161, -44.3567, -19.8551
1.42, -1, 9.49135, 23.3116, 20.2556, 24.9003, -44.258, -19.9181
1.424, -1, 9.54418, 23.2647, 20.2732, 24.9844, -44.1595, -19.9811
1.428, -1, 9.59693, 23.2178, 20.2908, 25.0684, -44.0612, -20.044
1.432, -1, 9.6496, 23.1711, 20.3084, 25.1523, -43.963, -20.1067
1.436, -1, 9.7022, 23.1244, 20.326, 25.236, -43.865, -20.1694
1.44, -1, 9.75472, 23.0777, 20.3435, 25.3196, -43.767, -20.232
1.444, -1, 9.80716, 23.0312, 20.361, 25.4031, -43.6693, -20.2945
1.448, -1, 9.85952, 22.9847, 20.3785, 25.4865, -43.5717, -20.3569
1.452, -1, 9.91181, 22.9383, 20.396, 25.5697, -43.4742, -20.4192
1.456, -1, 9.96403, 22.8919, 20.4134, 25.6528, -43.3769, -20.4814
1.46, -1, 10.0162, 22.8456, 20.4308, 25.7358, -43.2797, -20.5436
1.464, -1, 10.0682, 22.7994, 20.4482, 25.8187, -43.1826, -20.6056
1.468, -1, 10.1202, 22.7533, 20.4656, 25.9015, -43.0857, -20.6676
1.472, -1, 10.1721, 22.7072, 20.4829, 25.9841, -42.989, -20.7294
1.476, -1, 10.224, 22.6612, 20.5002, 26.0666, -42.8923, -20.7912
1.48, -1, 10.2757, 22.6152, 20.5175, 26.149, -42.7958, -20.8529
1.484, -1, 10.3274, 22.5693, 20.5348, 26.2313, -42.6995, -20.9145
1.488, -1, 10.379, 22.5235, 20.552, 26.3135, -42.6033, -20.976
1.492, -1, 10.4306, 22.4777, 20.5692, 26.3956, -42.5072, -21.0374
1.496, -1, 10.482, 22.432, 20.5864, 26.4775, -42.4113, -21.0987
1.5, -1, 10.5334, 22.3864, 20.6035, 26.5593, -42.3154, -21.16
1.504, -1, 10.5848, 22.3408, 20.6207, 26.641, -42.2198, -21.2212
1.508, -1, 10.636, 22.2953, 20.6378, 26.7226, -42.1242, -21.2822
1.512, -1, 10.6872, 22.2499, 20.6549, 26.8041, -42.0288, -21.3432
1.516, -1, 10.7383, 22.2045, 20.6719, 26.8855, -41.9336, -21.4041
1.52, -1, 10.7893, 22.1592, 20.689, 26.9667, -41.8384, -21.4649
1.524, -1, 10.8403, 22.114, 20.706, 27.0479, -41.7434, -21.5257
1.528, -1, 10.8912, 22.0688, 20.723, 27.1289, -41.6485, -21.5863
1.532, -1, 10.942, 22.0237, 20.74, 27.2098, -41.5538, -21.6469
1.536, -1, 10.9928, 21.9786, 20.7569, 27.2906, -41.4592, -21.7074
1.54, -1, 11.0435, 21.9336, 20.7738, 27.3713, -41.3647, -21.7678
1.544, -1, 11.0941, 21.8887, 20.7908, 27.4519, -41.2703, -21.8281
1.548, -1, 11.1446, 21.8438, 20.8076, 27.5324, -41.1761, -21.8884
1.552, -1, 11.1951, 21.799, 20.8245, 27.6127, -41.082, -21.9485
1.556, -1, 11.2455, 21.7542, 20.8413, 27.693, -40.988, -22.0086
1.56, -1, 11.2959, 21.7095, 20.8581, 27.7732, -40.8941, -22.0686
1.564, -1, 11.3462, 21.6649, 20.8749, 27.8532, -40.8004, -22.1285
1.568, -1, 11.3964, 21.6203, 20.8917, 27.9331, -40.7068, -22.1884
1.572, -1, 11.4465, 21.5758, 20.9084, 28.013, -40.6133, -22.2481
1.576, -1, 11.4966, 21.5313, 20.9251, 28.0927, -40.52, -22.3078
1.58, -1, 11.5466, 21.4869, 20.9418, 28.1723, -40.4268, -22.3674
1.584, -1, 11.5965, 21.4426, 20.9585, 28.2518, -40.3336, -22.4269
1.588, -1, 11.6464, 21.3983, 20.9752, 28.3313, -40.2407, -22.4864
1.592, -1, 11.6962, 21.3541, 20.9918, 28.4106, -40.1478, -22.5457
1.596, -1, 11.746, 21.3099, 21.0084, 28.4898, -40.0551, -22.605
1.6, -1, 11.7957, 21.2658, 21.025, 28.5689, -39.9624, -22.6642
1.604, -1, 11.8453, 21.2217, 21.0416, 28.6479, -39.8699, -22.7234
1.608, -1, 11.8948, 21.1778, 21.0581, 28.7268, -39.7776, -22.7824
1.612, -1, 11.9443, 21.1338, 21.0747, 28.8055, -39.6853, -22.8414
1.616, -1, 11.9938, 21.0899, 21.0912, 28.8842, -39.5932, -22.9003
1.62, -1, 12.0431, 21.0461, 21.1076, 28.9628, -39.5011, -22.9591
1.624, -1, 12.0924, 21.0023, 21.1241, 29.0413, -39.4092, -23.0179
1.628, -1, 12.1417, 20.9586, 21.1405, 29.1197, -39.3174, -23.0765
1.632, -1, 12.1908, 20.915, 21.157, 29.198, -39.2258, -23.1352
1.636, -1, 12.2399, 20.8714, 21.1734, 29.2762, -39.1342, -23.1937
1.64, -1, 12.289, 20.8278, 21.1897, 29.3543, -39.0428, -23.2521
1.644, -1, 12.338, 20.7843, 21.2061, 29.4323, -38.9515, -23.3105
1.648, -1, 12.3869, 20.7409, 21.2224, 29.5102, -38.8603, -23.3688
1.652, -1, 12.4358, 20.6975, 21.2388, 29.588, -38.7692, -23.4271
1.656, -1, 12.4846, 20.6542, 21.2551, 29.6657, -38.6782, -23.4852
1.66, -1, 12.5333, 20.6109, 21.2713, 29.7433, -38.5873, -23.5433
1.664, -1, 12.582, 20.5677, 21.2876, 29.8208, -38.4966, -23.6013
1.668, -1, 12.6306, 20.5245, 21.3038, 29.8982, -38.4059, -23.6593
1.672, -1, 12.6792, 20.4814, 21.32, 29.9755, -38.3154, -23.7171
1.676, -1, 12.7277, 20.4384, 21.3362, 30.0527, -38.225, -23.7749
1.68, -1, 12.7761, 20.3953, 21.3524, 30.1298, -38.1347, -23.8327
1.684, -1, 12.8245, 20.3524, 21.3686, 30.2069, -38.0445, -23.8903
1.688, -1, 12.8728, 20.3095, 21.3847, 30.2838, -37.9544, -23.9479
1.692, -1, 12.9211, 20.2666, 21.4008, 30.3606, -37.8644, -24.0054
1.696, -1, 12.9693, 20.2238, 21.4169, 30.4374, -37.7746, -24.0629
1.7, -1, 13.0174, 20.1811, 21.433, 30.514, -37.6848, -24.1203
1.704, -1, 13.0655, 20.1384, 21.449, 30.5906, -37.5951, -24.1776
1.708, -1, 13.1136, 20.0958, 21.4651, 30.6671, -37.5056, -24.2348
1.712, -1, 13.1615, 20.0532, 21.4811, 30.7435, -37.4162, -24.292
1.716, -1, 13.2094, 20.0106, 21.4971, 30.8197, -37.3269, -24.3491
1.72, -1, 13.2573, 19.9681, 21.5131, 30.8959, -37.2376, -24.4061
1.724, -1, 13.3051, 19.9257, 21.529, 30.972, -37.1485, -24.4631
1.728, -1, 13.3528, 19.8833, 21.545, 31.0481, -37.0595, -24.52
1.732, -1, 13.4005, 19.841, 21.5609, 31.124, -36.9706, -24.5768
1.736, -1, 13.4482, 19.7987, 21.5768, 31.1998, -36.8818, -24.6336
1.74, -1, 13.4957, 19.7565, 21.5927, 31.2756, -36.7931, -24.6903
1.744, -1, 13.5433, 19.7143, 21.6086, 31.3512, -36.7045, -24.7469
1.748, -1, 13.5907, 19.6721, 21.6244, 31.4268, -36.6161, -24.8035
1.752, -1, 13.6381, 19.63, 21.6402, 31.5023, -36.5277, -24.86
1.756, -1, 13.6855, 19.588, 21.6561, 31.5776, -36.4394, -24.9164
1.76, -1, 13.7328, 19.546, 21.6719, 31.6529, -36.3512, -24.9728
1.764, -1, 13.78, 19.5041, 21.6876, 31.7282, -36.2632, -25.0291
1.768, -1, 13.8272, 19.4622, 21.7034, 31.8033, -36.1752, -25.0853
1.772, -1, 13.8743, 19.4203, 21.7191, 31.8783, -36.0873, -25.1415
1.776, -1, 13.9214, 19.3785, 21.7348, 31.9533, -35.9996, -25.1976
1.78, -1, 13.9684, 19.3368, 21.7505, 32.0281, -35.9119, -25.2536
1.784, -1, 14.0154, 19.2951, 21.7662, 32.1029, -35.8243, -25.3096
1.788, -1, 14.0623, 19.2534, 21.7819, 32.1776, -35.7369, -25.3655
1.792, -1, 14.1092, 19.2118, 21.7975, 32.2522, -35.6495, -25.4214
1.796, -1, 14.156, 19.1703, 21.8132, 32.3268, -35.5622, -25.4772
1.8, -1, 14.2027, 19.1288, 21.8288, 32.4012, -35.4751, -25.5329
1.804, -1, 14.2494, 19.0873, 21.8444, 32.4756, -35.388, -25.5886
1.808, -1, 14.2961, 19.0459, 21.86, 32.5498, -35.301, -25.6442
1.812, -1, 14.3427, 19.0045, 21.8755, 32.624, -35.2142, -25.6997
1.816, -1, 14.3892, 18.9632, 21.8911, 32.6981, -35.1274, -25.7552
1.82, -1, 14.4357, 18.9219, 21.9066, 32.7722, -35.0407, -25.8106
1.824, -1, 14.4822, 18.8807, 21.9221, 32.8461, -34.9541, -25.8659
1.828, -1, 14.5286, 18.8395, 21.9376, 32.92, -34.8676, -25.9212
1.832, -1, 14.5749, 18.7983, 21.9531, 32.9938, -34.7813, -25.9764
1.836, -1, 14.6212, 18.7572, 21.9685, 33.0675, -34.695, -26.0316
1.84, -1, 14.6674, 18.7162, 21.984, 33.1411, -34.6088, -26.0867
1.844, -1, 14.7136, 18.6752, 21.9994, 33.2146, -34.5227, -26.1418
1.848, -1, 14.7598, 18.6342, 22.0148, 33.2881, -34.4367, -26.1967
1.852, -1, 14.8058, 18.5933, 22.0302, 33.3614, -34.3507, -26.2517
1.856, -1, 14.8519, 18.5524, 22.0456, 33.4347, -34.2649, -26.3065
1.86, -1, 14.8979, 18.5116, 22.0609, 33.5079, -34.1792, -26.3613
1.864, -1, 14.9438, 18.4708, 22.0762, 33.5811, -34.0936, -26.4161
1.868, -1, 14.9897, 18.4301, 22.0916, 33.6541, -34.008, -26.4708
1.872, -1, 15.0355, 18.3894, 22.1069, 33.7271, -33.9226, -26.5254
1.876, -1, 15.0813, 18.3487, 22.1222, 33.8, -33.8372, -26.58
1.88, -1, 15.127, 18.3081, 22.1374, 33.8728, -33.7519, -26.6345
1.884, -1, 15.1727, 18.2676, 22.1527, 33.9456, -33.6668, -26.6889
1.888, -1, 15.2184, 18.227, 22.1679, 34.0182, -33.5817, -26.7433
1.892, -1, 15.264, 18.1866, 22.1832, 34.0908, -33.4967, -26.7976
1.896, -1, 15.3095, 18.1461, 22.1984, 34.1633, -33.4118, -26.8519
1.9, -1, 15.355, 18.1057, 22.2136, 34.2358, -33.3269, -26.9062
1.904, -1, 15.4004, 18.0654, 22.2287, 34.3081, -33.2422, -26.9603
1.908, -1, 15.4458, 18.0251, 22.2439, 34.3804, -33.1576, -27.0144
1.912, -1, 15.4912, 17.9848, 22.259, 34.4526, -33.073, -27.0685
1.916, -1, 15.5365, 17.9446, 22.2742, 34.5248, -32.9886, -27.1225
1.92, -1, 15.5818, 17.9044, 22.2893, 34.5968, -32.9042, -27.1764
1.924, -1, 15.627, 17.8643, 22.3044, 34.6688, -32.8199, -27.2303
1.928, -1, 15.6721, 17.8242, 22.3195, 34.7407, -32.7357, -27.2841
1.932, -1, 15.7173, 17.7841, 22.3345, 34.8126, -32.6516, -27.3379
1.936, -1, 15.7623, 17.7441, 22.3496, 34.8843, -32.5676, -27.3916
1.94, -1, 15.8073, 17.7041, 22.3646, 34.956, -32.4836, -27.4453
1.944, -1, 15.8523, 17.6642, 22.3796, 35.0276, -32.3997, -27.4989
1.948, -1, 15.8973, 17.6243, 22.3946, 35.0992, -32.316, -27.5524
1.952, -1, 15.9422, 17.5844, 22.4096, 35.1707, -32.2323, -27.6059
1.956, -1, 15.987, 17.5446, 22.4246, 35.2421, -32.1487, -27.6594
1.96, -1, 16.0318, 17.5048, 22.4396, 35.3134, -32.0652, -27.7128
1.964, -1, 16.0765, 17.4651, 22.4545, 35.3846, -31.9817, -27.7661
1.968, -1, 16.1212, 17.4254, 22.4694, 35.4558, -31.8984, -27.8194
1.972, -1, 16.1659, 17.3858, 22.4844, 35.5269, -31.8151, -27.8726
1.976, -1, 16.2105, 17.3461, 22.4993, 35.598, -31.7319, -27.9258
1.98, -1, 16.2551, 17.3066, 22.5141, 35.6689, -31.6488, -27.9789
1.984, -1, 16.2996, 17.267, 22.529, 35.7398, -31.5658, -28.032
1.988, -1, 16.3441, 17.2275, 22.5439, 35.8107, -31.4829, -28.085
1.992, -1, 16.3886, 17.1881, 22.5587, 35.8814, -31.4, -28.138
1.996, -1, 16.433, 17.1487, 22.5735, 35.9521, -31.3173, -28.1909
1.999, -1, 16.4773, 17.1093, 22.5883, 36.0228, -31.2346, -28.2438
2.004, -1, 16.5216, 17.0699, 22.6031, 36.0933, -31.1519, -28.2966
2.008, -1, 16.5659, 17.0306, 22.6179, 36.1638, -31.0694, -28.3493
2.012, -1, 16.6101, 16.9914, 22.6327, 36.2342, -30.987, -28.4021
2.015, -1, 16.6543, 16.9521, 22.6474, 36.3046, -30.9046, -28.4547
2.019, -1, 16.6984, 16.9129, 22.6622, 36.3748, -30.8223, -28.5073
2.024, -1, 16.7425, 16.8738, 22.6769, 36.445, -30.7401, -28.5599
2.028, -1, 16.7866, 16.8347, 22.6916, 36.5152, -30.658, -28.6124
2.031, -1, 16.8306, 16.7956, 22.7063, 36.5853, -30.5759, -28.6648
2.036, -1, 16.8746, 16.7566, 22.721, 36.6553, -30.4939, -28.7172
2.04, -1, 16.9185, 16.7176, 22.7357, 36.7252, -30.412, -28.7696
2.044, -1, 16.9624, 16.6786, 22.7503, 36.7951, -30.3302, -28.8219
2.048, -1, 17.0062, 16.6397, 22.765, 36.8649, -30.2485, -28.8742
2.051, -1, 17.05, 16.6008, 22.7796, 36.9346, -30.1668, -28.9264
2.055, -1, 17.0938, 16.5619, 22.7942, 37.0043, -30.0852, -28.9785
2.06, -1, 17.1375, 16.5231, 22.8088, 37.0739, -30.0037, -29.0306
2.064, -1, 17.1811, 16.4844, 22.8234, 37.1435, -29.9223, -29.0827
2.068, -1, 17.2244, 16.4458, 22.8379, 37.2129, -29.841, -29.1347
2.071, -1, 17.2671, 16.4077, 22.8523, 37.2823, -29.7597, -29.1866
2.076, -1, 17.3088, 16.3701, 22.8666, 37.3515, -29.6787, -29.2384
2.08, -1, 17.3495, 16.3335, 22.8807, 37.4204, -29.5981, -29.29
2.084, -1, 17.3888, 16.2979, 22.8945, 37.4888, -29.518, -29.3412
2.087, -1, 17.4267, 16.2635, 22.9079, 37.5564, -29.4389, -29.3918
2.092, -1, 17.4632, 16.2306, 22.921, 37.6229, -29.3611, -29.4417
2.096, -1, 17.4983, 16.1992, 22.9337, 37.6879, -29.2851, -29.4903
2.1, -1, 17.5321, 16.1694, 22.9459, 37.7508, -29.2115, -29.5374
2.104, -1, 17.5644, 16.1411, 22.9576, 37.8112, -29.1408, -29.5827
2.107, -1, 17.5951, 16.1145, 22.9686, 37.8686, -29.0737, -29.6257
2.111, -1, 17.624, 16.0896, 22.9791, 37.9226, -29.0106, -29.6661
2.116, -1, 17.6513, 16.0662, 22.9888, 37.9726, -28.9521, -29.7035
2.12, -1, 17.6768, 16.044, 22.9978, 38.0183, -28.8986, -29.7378
2.124, -1, 17.7009, 16.023, 23.0061, 38.0595, -28.8504, -29.7686
2.127, -1, 17.7234, 16.0029, 23.0136, 38.0959, -28.8078, -29.7958
2.132, -1, 17.7446, 15.9838, 23.0205, 38.1275, -28.7707, -29.8195
2.136, -1, 17.7642, 15.9657, 23.0267, 38.1546, -28.739, -29.8397
2.14, -1, 17.7823, 15.9489, 23.0321, 38.1772, -28.7125, -29.8566
2.143, -1, 17.7986, 15.9337, 23.0368, 38.1957, -28.6907, -29.8705
2.148, -1, 17.8131, 15.9202, 23.0409, 38.2106, -28.6732, -29.8816
2.152, -1, 17.8259, 15.9085, 23.0443, 38.2223, -28.6594, -29.8904
2.156, -1, 17.8371, 15.8987, 23.0471, 38.2313, -28.6488, -29.8971
2.16, -1, 17.8467, 15.8905, 23.0494, 38.2381, -28.6409, -29.9021
2.163, -1, 17.855, 15.8838, 23.0513, 38.243, -28.635, -29.9058
2.168, -1, 17.8619, 15.8785, 23.0527, 38.2465, -28.6308, -29.9084
2.172, -1, 17.8674, 15.8744, 23.0538, 38.249, -28.6279, -29.9103
2.176, 2, 17.8716, 15.8714, 23.0546, 38.2507, -28.6258, -29.9115
2.179, 2, 17.8747, 15.8692, 23.0552, 38.2519, -28.6245, -29.9124
2.184, 2, 17.8769, 15.8677, 23.0556, 38.2527, -28.6235, -29.913
2.188, 2, 17.8784, 15.8667, 23.0558, 38.2532, -28.6229, -29.9134
2.192, 2, 17.8794, 15.866, 23.056, 38.2536, -28.6224, -29.9137
2.196, 2, 17.8801, 15.8655, 23.0561, 38.2538, -28.6221, -29.9138
2.199, 2, 17.8806, 15.8652, 23.0562, 38.254, -28.6219, -29.914
2.204, 2, 17.8809, 15.865, 23.0563, 38.2541, -28.6218, -29.9141
2.208, 2, 17.8811, 15.8649, 23.0563, 38.2542, -28.6217, -29.9141
2.212, 2, 17.8813, 15.8648, 23.0563, 38.2543, -28.6217, -29.9141
2.216, 2, 17.8814, 15.8647, 23.0564, 38.2543, -28.6216, -29.9142
2.219, 2, 17.8814, 15.8646, 23.0564, 38.2543, -28.6216, -29.9142
2.224, 2, 17.8815, 15.8646, 23.0564, 38.2543, -28.6216, -29.9142
2.228, 2, 17.8815, 15.8646, 23.0564, 38.2543, -28.6215, -29.9142
2.232, 2, 17.8815, 15.8646, 23.0564, 38.2543, -28.6215, -29.9142
2.235, 2, 17.8815, 15.8646, 23.0564, 38.2544, -28.6215, -29.9142
2.24, 2, 17.8815, 15.8646, 23.0564, 38.2544, -28.6215, -29.9142
2.244, 2, 17.8816, 15.8646, 23.0564, 38.2544, -28.6215, -29.9142
2.248, 2, 17.8816, 15.8646, 23.0564, 38.2544, -28.6215, -29.9142
2.252, 2, 17.8816, 15.8646, 23.0564, 38.2544, -28.6215, -29.9142
2.255, 2, 17.8816, 15.8646, 23.0564, 38.2544, -28.6215, -29.9142
2.259, 2, 17.8816, 15.8646, 23.0564, 38.2544, -28.6215, -29.9142
2.264, 2, 17.8816, 15.8645, 23.0564, 38.2544, -28.6215, -29.9142
2.268, 2, 17.8816, 15.8645, 23.0564, 38.2544, -28.6215, -29.9142
2.272, 2, 17.8816, 15.8645, 23.0564, 38.2544, -28.6215, -29.9142
2.275, 2, 17.8816, 15.8645, 23.0564, 38.2544, -28.6215, -29.9142
2.28, 2, 17.8816, 15.8645, 23.0564, 38.2544, -28.6215, -29.9142
2.284, 2, 17.8816, 15.8645, 23.0564, 38.2544, -28.6215, -29.9142
2.288, 2, 17.8816, 15.8645, 23.0564, 38.2544, -28.6215, -29.9142
2.291, 2, 17.8816, 15.8645, 23.0564, 38.2544, -28.6215, -29.9142
2.296, 2, 17.8816, 15.8645, 23.0564, 38.2544, -28.6215, -29.9142
2.3, 2, 17.8816, 15.8645, 23.0564, 38.2544, -28.6215, -29.9142
2.304, 2, 17.8816, 15.8645, 23.0564, 38.2544, -28.6215, -29.9142
2.308, 2, 17.8816, 15.8645, 23.0564, 38.2544, -28.6215, -29.9142
2.311, 2, 17.8816, 15.8645, 23.0564, 38.2544, -28.6215, -29.9142
2.316, 2, 17.8816, 15.8645, 23.0564, 38.2544, -28.6215, -29.9142
2.32, 2, 17.8816, 15.8645, 23.0564, 38.2544, -28.6215, -29.9142
2.324, 2, 17.8816, 15.8645, 23.0564, 38.2544, -28.6215, -29.9142
2.328, 2, 17.8816, 15.8645, 23.0564, 38.2544, -28.6215, -29.9142
2.331, 2, 17.8816, 15.8645, 23.0564, 38.2544, -28.6215, -29.9142
2.336, 2, 17.8816, 15.8645, 23.0564, 38.2544, -28.6215, -29.9142
2.34, 2, 17.8816, 15.8645, 23.0564, 38.2544, -28.6215, -29.9142
2.344, 2, 17.8816, 15.8645, 23.0564, 38.2544, -28.6215, -29.9142
2.347, 2, 17.8816, 15.8645, 23.0564, 38.2544, -28.6215, -29.9142
2.352, 2, 17.8816, 15.8645, 23.0564, 38.2544, -28.6215, -29.9142
2.356, 2, 17.8816, 15.8645, 23.0564, 38.2544, -28.6215, -29.9142
2.36, 2, 17.8816, 15.8645, 23.0564, 38.2544, -28.6215, -29.9142
2.364, 2, 17.8816, 15.8645, 23.0564, 38.2544, -28.6215, -29.9142
2.367, 2, 17.8816, 15.8645, 23.0564, 38.2544, -28.6215, -29.9142
2.372, 2, 17.8816, 15.8645, 23.0564, 38.2544, -28.6215, -29.9142
2.376, 2, 17.8816, 15.8645, 23.0564, 38.2544, -28.6215, -29.9142
2.38, 2, 17.8816, 15.8645, 23.0564, 38.2544, -28.6215, -29.9142
2.383, 2, 17.8816, 15.8645, 23.0564, 38.2544, -28.6215, -29.9142
2.388, 2, 17.8816, 15.8645, 23.0564, 38.2544, -28.6215, -29.9142
2.392, 2, 17.8816, 15.8645, 23.0564, 38.2544, -28.6215, -29.9142
2.396, 2, 17.8816, 15.8645, 23.0564, 38.2544, -28.6215, -29.9142
2.4, 2, 17.8816, 15.8645, 23.0564, 38.2544, -28.6215, -29.9142
2.403, 2, 17.8816, 15.8645, 23.0564, 38.2544, -28.6215, -29.9142
2.408, 2, 17.8816, 15.8645, 23.0564, 38.2544, -28.6215, -29.9142
2.412, 2, 17.8816, 15.8645, 23.0564, 38.2544, -28.6215, -29.9142
2.416, 2, 17.8816, 15.8645, 23.0564, 38.2544, -28.6215, -29.9142
2.42, 2, 17.8816, 15.8645, 23.0564, 38.2544, -28.6215, -29.9142
2.423, 2, 17.8816, 15.8645, 23.0564, 38.2544, -28.6215, -29.9142
2.428, 2, 17.8816, 15.8645, 23.0564, 38.2544, -28.6215, -29.9142
2.432, 2, 17.8816, 15.8645, 23.0564, 38.2544, -28.6215, -29.9142
2.436, 2, 17.8816, 15.8645, 23.0564, 38.2544, -28.6215, -29.9142
2.439, 2, 17.8816, 15.8645, 23.0564, 38.2544, -28.6215, -29.9142
2.444, 2, 17.8816, 15.8645, 23.0564, 38.2544, -28.6215, -29.9142
2.448, 2, 17.8816, 15.8645, 23.0564, 38.2544, -28.6215, -29.9142
2.452, 2, 17.8816, 15.8645, 23.0564, 38.2544, -28.6215, -29.9142
2.456, 2, 17.8816, 15.8645, 23.0564, 38.2544, -28.6215, -29.9142
2.459, 2, 17.8816, 15.8645, 23.0564, 38.2544, -28.6215, -29.9142
2.464, 2, 17.8816, 15.8645, 23.0564, 38.2544, -28.6215, -29.9142
2.468, 2, 17.8816, 15.8645, 23.0564, 38.2544, -28.6215, -29.9142
2.472, 2, 17.8816, 15.8645, 23.0564, 38.2544, -28.6215, -29.9142
2.476, 2, 17.8816, 15.8645, 23.0564, 38.2544, -28.6215, -29.9142
2.479, 2, 17.8816, 15.8645, 23.0564, 38.2544, -28.6215, -29.9142
2.484, 2, 17.8816, 15.8645, 23.0564, 38.2544, -28.6215, -29.9142
2.488, 2, 17.8816, 15.8645, 23.0564, 38.2544, -28.6215, -29.9142
2.492, 2, 17.8816, 15.8645, 23.0564, 38.2544, -28.6215, -29.9142
2.495, 2, 17.8816, 15.8645, 23.0564, 38.2544, -28.6215, -29.9142
2.5, 2, 17.8816, 15.8645, 23.0564, 38.2544, -28.6215, -29.9142
2.504, 2, 17.8816, 15.8645, 23.0564, 38.2544, -28.6215, -29.9142
2.508, 2, 17.8816, 15.8645, 23.0564, 38.2544, -28.6215, -29.9142
2.512, 2, 17.8816, 15.8645, 23.0564, 38.2544, -28.6215, -29.9142
2.515, 2, 17.8816, 15.8645, 23.0564, 38.2544, -28.6215, -29.9142
2.52, 2, 17.8816, 15.8645, 23.0564, 38.2544, -28.6215, -29.9142
2.524, 2, 17.8816, 15.8645, 23.0564, 38.2544, -28.6215, -29.9142
2.528, 2, 17.8816, 15.8645, 23.0564, 38.2544, -28.6215, -29.9142
2.531, 2, 17.8816, 15.8645, 23.0564, 38.2544, -28.6215, -29.9142
2.536, 2, 17.8816, 15.8645, 23.0564, 38.2544, -28.6215, -29.9142
2.54, 2, 17.8816, 15.8645, 23.0564, 38.2544, -28.6215, -29.9142
2.544, 2, 17.8816, 15.8645, 23.0564, 38.2544, -28.6215, -29.9142
2.548, 2, 17.8816, 15.8645, 23.0564, 38.2544, -28.6215, -29.9142
2.551, 2, 17.8816, 15.8645, 23.0564, 38.2544, -28.6215, -29.9142
2.556, 2, 17.8816, 15.8645, 23.0564, 38.2544, -28.6215, -29.9142
2.56, 2, 17.8816, 15.8645, 23.0564, 38.2544, -28.6215, -29.9142
2.564, 2, 17.8816, 15.8645, 23.0564, 38.2544, -28.6215, -29.9142
2.568, 2, 17.8816, 15.8645, 23.0564, 38.2544, -28.6215, -29.9142
2.571, 2, 17.8816, 15.8645, 23.0564, 38.2544, -28.6215, -29.9142
2.576, 2, 17.8816, 15.8645, 23.0564, 38.2544, -28.6215, -29.9142
2.58, 2, 17.8816, 15.8645, 23.0564, 38.2544, -28.6215, -29.9142
2.584, 2, 17.8816, 15.8645, 23.0564, 38.2544, -28.6215, -29.9142
2.587, 2, 17.8816, 15.8645, 23.0564, 38.2544, -28.6215, -29.9142
2.592, 2, 17.8816, 15.8645, 23.0564, 38.2544, -28.6215, -29.9142
2.596, 2, 17.8816, 15.8645, 23.0564, 38.2544, -28.6215, -29.9142
2.6, 2, 17.8816, 15.8645, 23.0564, 38.2544, -28.6215, -29.9142
2.604, 2, 17.8816, 15.8645, 23.0564, 38.2544, -28.6215, -29.9142
2.607, 2, 17.8816, 15.8645, 23.0564, 38.2544, -28.6215, -29.9142
2.612, 2, 17.8816, 15.8645, 23.0564, 38.2544, -28.6215, -29.9142
2.616, 2, 17.8816, 15.8645, 23.0564, 38.2544, -28.6215, -29.9142
2.62, 2, 17.8816, 15.8645, 23.0564, 38.2544, -28.6215, -29.9142
2.624, 2, 17.8816, 15.8645, 23.0564, 38.2544, -28.6215, -29.9142
2.627, 2, 17.8816, 15.8645, 23.0564, 38.2544, -28.6215, -29.9142
2.632, 2, 17.8816, 15.8645, 23.0564, 38.2544, -28.6215, -29.9142
2.636, 2, 17.8816, 15.8645, 23.0564, 38.2544, -28.6215, -29.9142
2.64, 2, 17.8816, 15.8645, 23.0564, 38.2544, -28.6215, -29.9142
2.643, 2, 17.8816, 15.8645, 23.0564, 38.2544, -28.6215, -29.9142
2.648, 2, 17.8816, 15.8645, 23.0564, 38.2544, -28.6215, -29.9142
2.652, 2, 17.8816, 15.8645, 23.0564, 38.2544, -28.6215, -29.9142
2.656, 2, 17.8816, 15.8645, 23.0564, 38.2544, -28.6215, -29.9142
2.66, 2, 17.8816, 15.8645, 23.0564, 38.2544, -28.6215, -29.9142
2.663, 2, 17.8816, 15.8645, 23.0564, 38.2544, -28.6215, -29.9142
2.668, 2, 17.8816, 15.8645, 23.0564, 38.2544, -28.6215, -29.9142
2.672, 2, 17.8816, 15.8645, 23.0564, 38.2544, -28.6215, -29.9142
2.676, 2, 17.8816, 15.8645, 23.0564, 38.2544, -28.6215, -29.9142
2.679, 2, 17.8816, 15.8645, 23.0564, 38.2544, -28.6215, -29.9142
2.684, 2, 17.8816, 15.8645, 23.0564, 38.2544, -28.6215, -29.9142
2.688, 2, 17.8816, 15.8645, 23.0564, 38.2544, -28.6215, -29.9142
2.692, 2, 17.8816, 15.8645, 23.0564, 38.2544, -28.6215, -29.9142
2.696, 2, 17.8816, 15.8645, 23.0564, 38.2544, -28.6215, -29.9142
2.699, 2, 17.8816, 15.8645, 23.0564, 38.2544, -28.6215, -29.9142
2.704, 2, 17.8816, 15.8645, 23.0564, 38.2544, -28.6215, -29.9142
2.708, 2, 17.8816, 15.8645, 23.0564, 38.2544, -28.6215, -29.9142
2.712, 2, 17.8816, 15.8645, 23.0564, 38.2544, -28.6215, -29.9142
2.716, 2, 17.8816, 15.8645, 23.0564, 38.2544, -28.6215, -29.9142
2.719, 2, 17.8816, 15.8645, 23.0564, 38.2544, -28.6215, -29.9142
2.724, 2, 17.8816, 15.8645, 23.0564, 38.2544, -28.6215, -29.9142
2.728, 2, 17.8816, 15.8645, 23.0564, 38.2544, -28.6215, -29.9142
2.732, 2, 17.8816, 15.8645, 23.0564, 38.2544, -28.6215, -29.9142
2.735, 2, 17.8816, 15.8645, 23.0564, 38.2544, -28.6215, -29.9142
2.74, 2, 17.8816, 15.8645, 23.0564, 38.2544, -28.6215, -29.9142
2.744, 2, 17.8816, 15.8645, 23.0564, 38.2544, -28.6215, -29.9142
2.748, 2, 17.8816, 15.8645, 23.0564, 38.2544, -28.6215, -29.9142
2.752, 2, 17.8816, 15.8645, 23.0564, 38.2544, -28.6215, -29.9142
2.755, 2, 17.8816, 15.8645, 23.0564, 38.2544, -28.6215, -29.9142
2.76, 2, 17.8816, 15.8645, 23.0564, 38.2544, -28.6215, -29.9142
2.764, 2, 17.8816, 15.8645, 23.0564, 38.2544, -28.6215, -29.9142
2.768, 2, 17.8816, 15.8645, 23.0564, 38.2544, -28.6215, -29.9142
2.772, 2, 17.8816, 15.8645, 23.0564, 38.2544, -28.6215, -29.9142
2.775, 2, 17.8816, 15.8645, 23.0564, 38.2544, -28.6215, -29.9142
2.78, 2, 17.8816, 15.8645, 23.0564, 38.2544, -28.6215, -29.9142
2.784, 2, 17.8816, 15.8645, 23.0564, 38.2544, -28.6215, -29.9142
2.788, 2, 17.8816, 15.8645, 23.0564, 38.2544, -28.6215, -29.9142
2.791, 2, 17.8816, 15.8645, 23.0564, 38.2544, -28.6215, -29.9142
2.796, 2, 17.8816, 15.8645, 23.0564, 38.2544, -28.6215, -29.9142
2.8, 2, 17.8816, 15.8645, 23.0564, 38.2544, -28.6215, -29.9142
2.804, 2, 17.8816, 15.8645, 23.0564, 38.2544, -28.6215, -29.9142
2.808, 2, 17.8816, 15.8645, 23.0564, 38.2544, -28.6215, -29.9142
2.811, 2, 17.8816, 15.8645, 23.0564, 38.2544, -28.6215, -29.9142
2.816, 2, 17.8816, 15.8645, 23.0564, 38.2544, -28.6215, -29.9142
2.82, 2, 17.8816, 15.8645, 23.0564, 38.2544, -28.6215, -29.9142
2.824, 2, 17.8816, 15.8645, 23.0564, 38.2544, -28.6215, -29.9142
2.828, 2, 17.8816, 15.8645, 23.0564, 38.2544, -28.6215, -29.9142
2.831, 2, 17.8816, 15.8645, 23.0564, 38.2544, -28.6215, -29.9142
2.836, 2, 17.8816, 15.8645, 23.0564, 38.2544, -28.6215, -29.9142
2.84, 2, 17.8816, 15.8645, 23.0564, 38.2544, -28.6215, -29.9142
2.844, 2, 17.8816, 15.8645, 23.0564, 38.2544, -28.6215, -29.9142
2.847, 2, 17.8816, 15.8645, 23.0564, 38.2544, -28.6215, -29.9142
2.852, 2, 17.8816, 15.8645, 23.0564, 38.2544, -28.6215, -29.9142
2.856, 2, 17.8816, 15.8645, 23.0564, 38.2544, -28.6215, -29.9142
2.86, 2, 17.8816, 15.8645, 23.0564, 38.2544, -28.6215, -29.9142
2.864, 2, 17.8816, 15.8645, 23.0564, 38.2544, -28.6215, -29.9142
2.867, 2, 17.8816, 15.8645, 23.0564, 38.2544, -28.6215, -29.9142
2.872, 2, 17.8816, 15.8645, 23.0564, 38.2544, -28.6215, -29.9142
2.876, 2, 17.8816, 15.8645, 23.0564, 38.2544, -28.6215, -29.9142
2.88, 2, 17.8816, 15.8645, 23.0564, 38.2544, -28.6215, -29.9142
2.883, 2, 17.8816, 15.8645, 23.0564, 38.2544, -28.6215, -29.9142
2.888, 2, 17.8816, 15.8645, 23.0564, 38.2544, -28.6215, -29.9142
2.892, 2, 17.8816, 15.8645, 23.0564, 38.2544, -28.6215, -29.9142
2.896, 2, 17.8816, 15.8645, 23.0564, 38.2544, -28.6215, -29.9142
2.9, 2, 17.8816, 15.8645, 23.0564, 38.2544, -28.6215, -29.9142
2.903, 2, 17.8816, 15.8645, 23.0564, 38.2544, -28.6215, -29.9142
2.908, 2, 17.8816, 15.8645, 23.0564, 38.2544, -28.6215, -29.9142
2.912, 2, 17.8816, 15.8645, 23.0564, 38.2544, -28.6215, -29.9142
2.916, 2, 17.8816, 15.8645, 23.0564, 38.2544, -28.6215, -29.9142
2.92, 2, 17.8816, 15.8645, 23.0564, 38.2544, -28.6215, -29.9142
2.923, 2, 17.8816, 15.8645, 23.0564, 38.2544, -28.6215, -29.9142
2.928, 2, 17.8816, 15.8645, 23.0564, 38.2544, -28.6215, -29.9142
2.932, 2, 17.8816, 15.8645, 23.0564, 38.2544, -28.6215, -29.9142
2.936, 2, 17.8816, 15.8645, 23.0564, 38.2544, -28.6215, -29.9142
2.939, 2, 17.8816, 15.8645, 23.0564, 38.2544, -28.6215, -29.9142
2.944, 2, 17.8816, 15.8645, 23.0564, 38.2544, -28.6215, -29.9142
2.948, 2, 17.8816, 15.8645, 23.0564, 38.2544, -28.6215, -29.9142
2.952, 2, 17.8816, 15.8645, 23.0564, 38.2544, -28.6215, -29.9142
2.956, 2, 17.8816, 15.8645, 23.0564, 38.2544, -28.6215, -29.9142
2.959, 2, 17.8816, 15.8645, 23.0564, 38.2544, -28.6215, -29.9142
2.964, 2, 17.8816, 15.8645, 23.0564, 38.2544, -28.6215, -29.9142
2.968, 2, 17.8816, 15.8645, 23.0564, 38.2544, -28.6215, -29.9142
2.972, 2, 17.8816, 15.8645, 23.0564, 38.2544, -28.6215, -29.9142
2.976, 2, 17.8816, 15.8645, 23.0564, 38.2544, -28.6215, -29.9142
2.98, 2, 17.8816, 15.8645, 23.0564, 38.2544, -28.6215, -29.9142
2.984, 2, 17.8816, 15.8645, 23.0564, 38.2544, -28.6215, -29.9142
2.988, 2, 17.8816, 15.8645, 23.0564, 38.2544, -28.6215, -29.9142
2.992, 2, 17.8816, 15.8645, 23.0564, 38.2544, -28.6215, -29.9142
2.995, 2, 17.8816, 15.8645, 23.0564, 38.2544, -28.6215, -29.9142
3, 2, 17.8816, 15.8645, 23.0564, 38.2544, -28.6215, -29.9142
3.004, 2, 17.8816, 15.8645, 23.0564, 38.2544, -28.6215, -29.9142
3.008, 2, 17.8816, 15.8645, 23.0564, 38.2544, -28.6215, -29.9142
3.012, 2, 17.8816, 15.8645, 23.0564, 38.2544, -28.6215, -29.9142
3.015, 2, 17.8816, 15.8645, 23.0564, 38.2544, -28.6215, -29.9142
3.02, 2, 17.8816, 15.8645, 23.0564, 38.2544, -28.6215, -29.9142
3.024, 2, 17.8816, 15.8645, 23.0564, 38.2544, -28.6215, -29.9142
3.028, 2, 17.8816, 15.8645, 23.0564, 38.2544, -28.6215, -29.9142
3.031, 2, 17.8816, 15.8645, 23.0564, 38.2544, -28.6215, -29.9142
3.036, 2, 17.8816, 15.8645, 23.0564, 38.2544, -28.6215, -29.9142
3.04, 2, 17.8816, 15.8645, 23.0564, 38.2544, -28.6215, -29.9142
3.044, 2, 17.8816, 15.8645, 23.0564, 38.2544, -28.6215, -29.9142
3.048, 2, 17.8816, 15.8645, 23.0564, 38.2544, -28.6215, -29.9142
3.051, 2, 17.8816, 15.8645, 23.0564, 38.2544, -28.6215, -29.9142
3.056, 2, 17.8816, 15.8645, 23.0564, 38.2544, -28.6215, -29.9142
3.06, 2, 17.8816, 15.8645, 23.0564, 38.2544, -28.6215, -29.9142
3.064, 2, 17.8816, 15.8645, 23.0564, 38.2544, -28.6215, -29.9142
3.068, 2, 17.8816, 15.8645, 23.0564, 38.2544, -28.6215, -29.9142
3.071, 2, 17.8816, 15.8645, 23.0564, 38.2544, -28.6215, -29.9142
3.076, 2, 17.8816, 15.8645, 23.0564, 38.2544, -28.6215, -29.9142
3.08, 2, 17.8816, 15.8645, 23.0564, 38.2544, -28.6215, -29.9142
3.084, 2, 17.8816, 15.8645, 23.0564, 38.2544, -28.6215, -29.9142
3.087, 2, 17.8816, 15.8645, 23.0564, 38.2544, -28.6215, -29.9142
3.092, 2, 17.8816, 15.8645, 23.0564, 38.2544, -28.6215, -29.9142
3.096, 2, 17.8816, 15.8645, 23.0564, 38.2544, -28.6215, -29.9142
3.1, 2, 17.8816, 15.8645, 23.0564, 38.2544, -28.6215, -29.9142
3.104, 2, 17.8816, 15.8645, 23.0564, 38.2544, -28.6215, -29.9142
3.107, 2, 17.8816, 15.8645, 23.0564, 38.2544, -28.6215, -29.9142
3.112, 2, 17.8816, 15.8645, 23.0564, 38.2544, -28.6215, -29.9142
3.116, 2, 17.8816, 15.8645, 23.0564, 38.2544, -28.6215, -29.9142
3.12, 2, 17.8816, 15.8645, 23.0564, 38.2544, -28.6215, -29.9142
3.124, 2, 17.8816, 15.8645, 23.0564, 38.2544, -28.6215, -29.9142
3.128, 2, 17.8816, 15.8645, 23.0564, 38.2544, -28.6215, -29.9142
3.132, 2, 17.8816, 15.8645, 23.0564, 38.2544, -28.6215, -29.9142
3.136, 2, 17.8816, 15.8645, 23.0564, 38.2544, -28.6215, -29.9142
3.14, 2, 17.8816, 15.8645, 23.0564, 38.2544, -28.6215, -29.9142
3.143, 2, 17.8816, 15.8645, 23.0564, 38.2544, -28.6215, -29.9142
3.148, 2, 17.8816, 15.8645, 23.0564, 38.2544, -28.6215, -29.9142
3.152, 2, 17.8816, 15.8645, 23.0564, 38.2544, -28.6215, -29.9142
3.156, 2, 17.8816, 15.8645, 23.0564, 38.2544, -28.6215, -29.9142
3.16, 2, 17.8816, 15.8645, 23.0564, 38.2544, -28.6215, -29.9142
3.163, 2, 17.8816, 15.8645, 23.0564, 38.2544, -28.6215, -29.9142
3.168, 2, 17.8816, 15.8645, 23.0564, 38.2544, -28.6215, -29.9142
3.172, 2, 17.8816, 15.8645, 23.0564, 38.2544, -28.6215, -29.9142
3.176, 2, 17.8816, 15.8645, 23.0564, 38.2544, -28.6215, -29.9142
3.179, 2, 17.8816, 15.8645, 23.0564, 38.2544, -28.6215, -29.9142
3.184, 2, 17.8816, 15.8645, 23.0564, 38.2544, -28.6215, -29.9142
3.188, 2, 17.8816, 15.8645, 23.0564, 38.2544, -28.6215, -29.9142
3.192, 2, 17.8816, 15.8645, 23.0564, 38.2544, -28.6215, -29.9142
3.196, 2, 17.8816, 15.8645, 23.0564, 38.2544, -28.6215, -29.9142
3.199, 2, 17.8816, 15.8645, 23.0564, 38.2544, -28.6215, -29.9142
3.204, 2, 17.8816, 15.8645, 23.0564, 38.2544, -28.6215, -29.9142
3.208, 2, 17.8816, 15.8645, 23.0564, 38.2544, -28.6215, -29.9142
3.212, 2, 17.8816, 15.8645, 23.0564, 38.2544, -28.6215, -29.9142
3.216, 2, 17.8816, 15.8645, 23.0564, 38.2544, -28.6215, -29.9142
3.22, 2, 17.8816, 15.8645, 23.0564, 38.2544, -28.6215, -29.9142
3.224, 2, 17.8816, 15.8645, 23.0564, 38.2544, -28.6215, -29.9142
3.228, 2, 17.8816, 15.8645, 23.0564, 38.2544, -28.6215, -29.9142
3.232, 2, 17.8816, 15.8645, 23.0564, 38.2544, -28.6215, -29.9142
3.235, 2, 17.8816, 15.8645, 23.0564, 38.2544, -28.6215, -29.9142
3.24, 2, 17.8816, 15.8645, 23.0564, 38.2544, -28.6215, -29.9142
3.244, 2, 17.8816, 15.8645, 23.0564, 38.2544, -28.6215, -29.9142
3.248, 4, 17.8816, 15.8645, 23.0564, 38.2544, -28.6215, -29.9142
3.252, 4, 17.8816, 15.8645, 23.0564, 38.2544, -28.6215, -29.9142
3.255, 4, 17.8816, 15.8645, 23.0564, 38.2544, -28.6215, -29.9142
3.26, 4, 17.8816, 15.8645, 23.0564, 38.2544, -28.6215, -29.9142
3.264, 4, 17.8816, 15.8645, 23.0564, 38.2544, -28.6215, -29.9142
3.268, 4, 17.8816, 15.8645, 23.0564, 38.2544, -28.6215, -29.9142
3.272, 4, 17.8816, 15.8645, 23.0564, 38.2544, -28.6215, -29.9142
3.276, 4, 17.8816, 15.8645, 23.0564, 38.2544, -28.6215, -29.9142
3.28, 4, 17.8816, 15.8645, 23.0564, 38.2544, -28.6215, -29.9142
3.284, 4, 17.8816, 15.8645, 23.0564, 38.2544, -28.6215, -29.9142
3.288, 4, 17.8816, 15.8645, 23.0564, 38.2544, -28.6215, -29.9142
3.291, 4, 17.8816, 15.8645, 23.0564, 38.2544, -28.6215, -29.9142
3.296, 4, 17.8816, 15.8645, 23.0564, 38.2544, -28.6215, -29.9142
3.3, 4, 17.8816, 15.8645, 23.0564, 38.2544, -28.6215, -29.9142
3.304, 4, 17.8816, 15.8645, 23.0564, 38.2544, -28.6215, -29.9142
3.308, 4, 17.8816, 15.8645, 23.0564, 38.2544, -28.6215, -29.9142
3.312, 4, 17.8816, 15.8645, 23.0564, 38.2544, -28.6215, -29.9142
3.316, 4, 17.8816, 15.8645, 23.0564, 38.2544, -28.6215, -29.9142
3.32, 4, 17.8816, 15.8645, 23.0564, 38.2544, -28.6215, -29.9142
3.324, 4, 17.8816, 15.8645, 23.0564, 38.2544, -28.6215, -29.9142
3.328, 4, 17.8816, 15.8645, 23.0564, 38.2544, -28.6215, -29.9142
3.332, 4, 17.8816, 15.8645, 23.0564, 38.2544, -28.6215, -29.9142
3.336, 4, 17.8816, 15.8645, 23.0564, 38.2544, -28.6215, -29.9142
3.34, 4, 17.8816, 15.8645, 23.0564, 38.2544, -28.6215, -29.9142
3.344, 4, 17.8816, 15.8645, 23.0564, 38.2544, -28.6215, -29.9142
3.347, 4, 17.8816, 15.8645, 23.0564, 38.2544, -28.6215, -29.9142
3.352, 4, 17.8816, 15.8645, 23.0564, 38.2544, -28.6215, -29.9142
3.356, 4, 17.8816, 15.8645, 23.0564, 38.2544, -28.6215, -29.9142
3.36, 4, 17.8816, 15.8645, 23.0564, 38.2544, -28.6215, -29.9142
3.364, 4, 17.8816, 15.8645, 23.0564, 38.2544, -28.6215, -29.9142
3.368, 4, 17.8816, 15.8645, 23.0564, 38.2544, -28.6215, -29.9142
3.372, 4, 17.8816, 15.8645, 23.0564, 38.2544, -28.6215, -29.9142
3.376, 4, 17.8816, 15.8645, 23.0564, 38.2544, -28.6215, -29.9142
3.38, 4, 17.8816, 15.8645, 23.0564, 38.2544, -28.6215, -29.9142
3.383, 4, 17.8816, 15.8645, 23.0564, 38.2544, -28.6215, -29.9142
3.388, 4, 17.8816, 15.8645, 23.0564, 38.2544, -28.6215, -29.9142
3.392, 4, 17.8816, 15.8645, 23.0564, 38.2544, -28.6215, -29.9142
3.396, 4, 17.8815, 15.8645, 23.0564, 38.2544, -28.6215, -29.9142
3.4, 4, 17.8812, 15.8645, 23.0564, 38.2543, -28.6215, -29.9142
3.403, 4, 17.8806, 15.8645, 23.0565, 38.2542, -28.6216, -29.9141
3.408, 4, 17.8796, 15.8645, 23.0566, 38.254, -28.6217, -29.9139
3.412, 4, 17.8782, 15.8644, 23.0568, 38.2534, -28.6219, -29.9134
3.416, 4, 17.8763, 15.8643, 23.0573, 38.2523, -28.6223, -29.9124
3.42, 4, 17.8742, 15.8642, 23.0579, 38.2504, -28.623, -29.9107
3.424, 4, 17.8719, 15.8639, 23.0589, 38.2474, -28.624, -29.9081
3.428, 4, 17.8695, 15.8636, 23.0603, 38.243, -28.6256, -29.9042
3.432, 4, 17.867, 15.8631, 23.0622, 38.237, -28.6278, -29.8989
3.436, 4, 17.8644, 15.8625, 23.0647, 38.2291, -28.6306, -29.8919
3.439, 5, 17.8617, 15.8618, 23.0677, 38.2193, -28.6341, -29.8832
3.444, 5, 17.8586, 15.8609, 23.0713, 38.2074, -28.6383, -29.8726
3.448, 5, 17.8554, 15.8599, 23.0756, 38.1933, -28.6433, -29.8602
3.452, 5, 17.852, 15.8587, 23.0805, 38.1771, -28.6491, -29.8458
3.456, 5, 17.8485, 15.8574, 23.0861, 38.1589, -28.6556, -29.8296
3.46, 5, 17.845, 15.8559, 23.0922, 38.1387, -28.6628, -29.8117
3.464, 5, 17.8415, 15.8543, 23.0988, 38.1168, -28.6706, -29.7923
3.468, 5, 17.8378, 15.8526, 23.1058, 38.0934, -28.679, -29.7715
3.472, 5, 17.8338, 15.8509, 23.1132, 38.0689, -28.6877, -29.7497
3.476, 5, 17.8294, 15.849, 23.1209, 38.0434, -28.6969, -29.7271
3.48, 5, 17.8246, 15.8471, 23.1289, 38.0172, -28.7062, -29.7039
3.484, 5, 17.8194, 15.8452, 23.1369, 37.9907, -28.7158, -29.6804
3.488, 5, 17.8138, 15.8432, 23.1451, 37.9637, -28.7254, -29.6565
3.492, 5, 17.808, 15.8412, 23.1534, 37.9366, -28.7352, -29.6325
3.495, 5, 17.802, 15.8392, 23.1617, 37.9094, -28.745, -29.6083
3.5, 5, 17.7959, 15.8372, 23.1701, 37.8821, -28.7548, -29.5841
3.504, 5, 17.7897, 15.8352, 23.1784, 37.8547, -28.7647, -29.5598
3.508, 5, 17.7835, 15.8332, 23.1868, 37.8273, -28.7746, -29.5355
3.512, 5, 17.7772, 15.8312, 23.1952, 37.7999, -28.7845, -29.5112
3.516, 5, 17.771, 15.8292, 23.2036, 37.7724, -28.7944, -29.4869
3.52, 5, 17.7647, 15.8272, 23.212, 37.745, -28.8043, -29.4626
3.524, 5, 17.7583, 15.8252, 23.2204, 37.7176, -28.8143, -29.4383
3.528, 5, 17.752, 15.8232, 23.2288, 37.6901, -28.8242, -29.414
3.531, 5, 17.7457, 15.8212, 23.2372, 37.6627, -28.8342, -29.3898
3.536, 5, 17.7393, 15.8193, 23.2456, 37.6353, -28.8442, -29.3655
3.54, 5, 17.733, 15.8173, 23.254, 37.608, -28.8541, -29.3413
3.544, 5, 17.7267, 15.8153, 23.2623, 37.5806, -28.8641, -29.317
3.548, 5, 17.7203, 15.8133, 23.2707, 37.5533, -28.8741, -29.2928
3.552, 5, 17.714, 15.8113, 23.2791, 37.5259, -28.8841, -29.2686
3.556, 5, 17.7076, 15.8093, 23.2875, 37.4986, -28.8941, -29.2444
3.56, 5, 17.7013, 15.8074, 23.2959, 37.4713, -28.9041, -29.2202
3.564, 5, 17.6949, 15.8054, 23.3042, 37.444, -28.9141, -29.1961
3.568, 5, 17.6886, 15.8034, 23.3126, 37.4167, -28.9241, -29.1719
3.572, 5, 17.6823, 15.8015, 23.321, 37.3895, -28.9341, -29.1478
3.576, 5, 17.6759, 15.7995, 23.3294, 37.3622, -28.9441, -29.1237
3.58, 5, 17.6695, 15.7975, 23.3377, 37.335, -28.9541, -29.0996
3.584, 5, 17.6632, 15.7956, 23.3461, 37.3078, -28.9642, -29.0755
3.587, 5, 17.6568, 15.7936, 23.3544, 37.2806, -28.9742, -29.0515
3.592, 5, 17.6505, 15.7917, 23.3628, 37.2534, -28.9842, -29.0274
3.596, 5, 17.6441, 15.7897, 23.3712, 37.2263, -28.9943, -29.0034
3.6, 5, 17.6378, 15.7878, 23.3795, 37.1991, -29.0043, -28.9794
3.604, 5, 17.6314, 15.7858, 23.3879, 37.172, -29.0144, -28.9554
3.608, 5, 17.6251, 15.7839, 23.3962, 37.1449, -29.0245, -28.9314
3.612, 5, 17.6187, 15.7819, 23.4045, 37.1178, -29.0345, -28.9075
3.616, 5, 17.6123, 15.78, 23.4129, 37.0907, -29.0446, -28.8835
3.62, 5, 17.606, 15.7781, 23.4212, 37.0636, -29.0547, -28.8596
3.624, 5, 17.5996, 15.7761, 23.4296, 37.0366, -29.0648, -28.8357
3.628, 5, 17.5933, 15.7742, 23.4379, 37.0095, -29.0748, -28.8118
3.632, 5, 17.5869, 15.7723, 23.4462, 36.9825, -29.0849, -28.7879
3.636, 5, 17.5805, 15.7703, 23.4546, 36.9555, -29.095, -28.764
3.64, 5, 17.5742, 15.7684, 23.4629, 36.9285, -29.1051, -28.7402
3.644, 5, 17.5678, 15.7665, 23.4712, 36.9015, -29.1153, -28.7163
3.648, 5, 17.5614, 15.7646, 23.4795, 36.8746, -29.1254, -28.6925
3.652, 5, 17.5551, 15.7627, 23.4878, 36.8476, -29.1355, -28.6687
3.656, 5, 17.5487, 15.7608, 23.4962, 36.8207, -29.1456, -28.6449
3.66, 5, 17.5423, 15.7588, 23.5045, 36.7938, -29.1557, -28.6211
3.664, 5, 17.536, 15.7569, 23.5128, 36.7669, -29.1659, -28.5974
3.668, 5, 17.5296, 15.755, 23.5211, 36.74, -29.176, -28.5736
3.672, 5, 17.5232, 15.7531, 23.5294, 36.7132, -29.1862, -28.5499
3.676, 5, 17.5168, 15.7512, 23.5377, 36.6863, -29.1963, -28.5262
3.679, 5, 17.5105, 15.7493, 23.546, 36.6595, -29.2065, -28.5025
3.684, 5, 17.5041, 15.7474, 23.5543, 36.6327, -29.2166, -28.4788
3.688, 5, 17.4977, 15.7455, 23.5626, 36.6059, -29.2268, -28.4551
3.692, 5, 17.4913, 15.7437, 23.5709, 36.5791, -29.237, -28.4315
3.696, 5, 17.485, 15.7418, 23.5791, 36.5523, -29.2471, -28.4079
3.7, 5, 17.4786, 15.7399, 23.5874, 36.5256, -29.2573, -28.3843
3.704, 5, 17.4722, 15.738, 23.5957, 36.4988, -29.2675, -28.3607
3.708, 5, 17.4658, 15.7361, 23.604, 36.4721, -29.2777, -28.3371
3.712, 5, 17.4594, 15.7343, 23.6123, 36.4454, -29.2879, -28.3135
3.716, 5, 17.453, 15.7324, 23.6205, 36.4187, -29.2981, -28.2899
3.72, 5, 17.4467, 15.7305, 23.6288, 36.392, -29.3083, -28.2664
3.724, 5, 17.4403, 15.7286, 23.6371, 36.3654, -29.3185, -28.2429
3.728, 5, 17.4339, 15.7268, 23.6453, 36.3387, -29.3287, -28.2194
3.732, 5, 17.4275, 15.7249, 23.6536, 36.3121, -29.3389, -28.1959
3.735, 5, 17.4211, 15.7231, 23.6619, 36.2855, -29.3492, -28.1724
3.74, 5, 17.4147, 15.7212, 23.6701, 36.2589, -29.3594, -28.149
3.744, 5, 17.4083, 15.7194, 23.6784, 36.2323, -29.3696, -28.1255
3.748, 5, 17.4019, 15.7175, 23.6866, 36.2057, -29.3799, -28.1021
3.752, 5, 17.3956, 15.7157, 23.6949, 36.1792, -29.3901, -28.0787
3.756, 5, 17.3892, 15.7138, 23.7031, 36.1526, -29.4004, -28.0553
3.76, 5, 17.3828, 15.712, 23.7114, 36.1261, -29.4106, -28.0319
3.764, 5, 17.3764, 15.7101, 23.7196, 36.0996, -29.4209, -28.0086
3.768, 5, 17.37, 15.7083, 23.7278, 36.0731, -29.4312, -27.9852
3.772, 5, 17.3636, 15.7064, 23.7361, 36.0466, -29.4415, -27.9619
3.776, 5, 17.3572, 15.7046, 23.7443, 36.0202, -29.4517, -27.9386
3.78, 5, 17.3508, 15.7028, 23.7525, 35.9937, -29.462, -27.9153
3.784, 5, 17.3444, 15.701, 23.7608, 35.9673, -29.4723, -27.892
3.788, 5, 17.338, 15.6991, 23.769, 35.9409, -29.4826, -27.8687
3.792, 5, 17.3316, 15.6973, 23.7772, 35.9145, -29.4929, -27.8454
3.796, 5, 17.3252, 15.6955, 23.7854, 35.8881, -29.5032, -27.8222
3.8, 5, 17.3188, 15.6937, 23.7936, 35.8618, -29.5135, -27.799
3.804, 5, 17.3124, 15.6919, 23.8019, 35.8354, -29.5238, -27.7758
3.808, 5, 17.306, 15.69, 23.8101, 35.8091, -29.5341, -27.7526
3.812, 5, 17.2996, 15.6882, 23.8183, 35.7828, -29.5445, -27.7294
3.816, 5, 17.2932, 15.6864, 23.8265, 35.7565, -29.5548, -27.7063
3.82, 5, 17.2868, 15.6846, 23.8347, 35.7302, -29.5651, -27.6831
3.824, 5, 17.2803, 15.6828, 23.8429, 35.7039, -29.5755, -27.66
3.828, 5, 17.2739, 15.681, 23.8511, 35.6776, -29.5858, -27.6369
3.832, 5, 17.2675, 15.6792, 23.8593, 35.6514, -29.5962, -27.6138
3.836, 5, 17.2611, 15.6774, 23.8675, 35.6252, -29.6065, -27.5907
3.84, 5, 17.2547, 15.6756, 23.8757, 35.599, -29.6169, -27.5676
3.844, 5, 17.2483, 15.6739, 23.8838, 35.5728, -29.6272, -27.5446
3.848, 5, 17.2419, 15.6721, 23.892, 35.5466, -29.6376, -27.5216
3.852, 5, 17.2355, 15.6703, 23.9002, 35.5204, -29.648, -27.4985
3.856, 5, 17.229, 15.6685, 23.9084, 35.4943, -29.6584, -27.4755
3.86, 5, 17.2226, 15.6667, 23.9165, 35.4681, -29.6688, -27.4525
3.864, 5, 17.2162, 15.665, 23.9247, 35.442, -29.6791, -27.4296
3.868, 5, 17.2098, 15.6632, 23.9329, 35.4159, -29.6895, -27.4066
3.872, 5, 17.2034, 15.6614, 23.9411, 35.3898, -29.6999, -27.3837
3.876, 5, 17.1969, 15.6597, 23.9492, 35.3638, -29.7103, -27.3608
3.88, 5, 17.1905, 15.6579, 23.9574, 35.3377, -29.7207, -27.3378
3.884, 5, 17.1841, 15.6561, 23.9655, 35.3117, -29.7312, -27.315
3.888, 5, 17.1777, 15.6544, 23.9737, 35.2856, -29.7416, -27.2921
3.892, 5, 17.1713, 15.6526, 23.9818, 35.2596, -29.752, -27.2692
3.896, 5, 17.1648, 15.6509, 23.99, 35.2336, -29.7624, -27.2464
3.9, 5, 17.1584, 15.6491, 23.9981, 35.2077, -29.7729, -27.2235
3.904, 5, 17.152, 15.6474, 24.0063, 35.1817, -29.7833, -27.2007
3.908, 5, 17.1455, 15.6456, 24.0144, 35.1557, -29.7938, -27.1779
3.912, 5, 17.1391, 15.6439, 24.0226, 35.1298, -29.8042, -27.1551
3.916, 5, 17.1327, 15.6421, 24.0307, 35.1039, -29.8147, -27.1324
3.92, 5, 17.1263, 15.6404, 24.0388, 35.078, -29.8251, -27.1096
3.924, 5, 17.1198, 15.6387, 24.047, 35.0521, -29.8356, -27.0869
3.928, 5, 17.1134, 15.6369, 24.0551, 35.0262, -29.8461, -27.0642
3.932, 5, 17.107, 15.6352, 24.0632, 35.0004, -29.8565, -27.0415
3.936, 5, 17.1005, 15.6335, 24.0713, 34.9745, -29.867, -27.0188
3.94, 5, 17.0941, 15.6318, 24.0795, 34.9487, -29.8775, -26.9961
3.944, 5, 17.0877, 15.63, 24.0876, 34.9229, -29.888, -26.9734
3.948, 5, 17.0812, 15.6283, 24.0957, 34.8971, -29.8985, -26.9508
3.952, 5, 17.0748, 15.6266, 24.1038, 34.8713, -29.909, -26.9282
3.956, 5, 17.0683, 15.6249, 24.1119, 34.8456, -29.9195, -26.9055
3.96, 5, 17.0619, 15.6232, 24.12, 34.8198, -29.93, -26.8829
3.964, 5, 17.0555, 15.6215, 24.1281, 34.7941, -29.9405, -26.8604
3.968, 5, 17.049, 15.6198, 24.1362, 34.7684, -29.951, -26.8378
3.972, 5, 17.0426, 15.6181, 24.1443, 34.7427, -29.9615, -26.8152
3.976, 5, 17.0361, 15.6164, 24.1524, 34.717, -29.9721, -26.7927
3.98, 5, 17.0297, 15.6147, 24.1605, 34.6913, -29.9826, -26.7702
3.984, 5, 17.0232, 15.613, 24.1686, 34.6656, -29.9931, -26.7477
3.988, 5, 17.0168, 15.6113, 24.1767, 34.64, -30.0037, -26.7252
3.992, 5, 17.0103, 15.6096, 24.1848, 34.6144, -30.0142, -26.7027
3.996, 5, 17.0039, 15.6079, 24.1929, 34.5887, -30.0248, -26.6802
3.999, 5, 16.9974, 15.6062, 24.2009, 34.5631, -30.0353, -26.6578
4.004, 5, 16.991, 15.6045, 24.209, 34.5376, -30.0459, -26.6354
4.008, 5, 16.9845, 15.6029, 24.2171, 34.512, -30.0565, -26.6129
4.012, 5, 16.9781, 15.6012, 24.2252, 34.4864, -30.0671, -26.5905
4.016, 5, 16.9716, 15.5995, 24.2332, 34.4609, -30.0776, -26.5682
4.02, 5, 16.9652, 15.5978, 24.2413, 34.4354, -30.0882, -26.5458
4.024, 5, 16.9587, 15.5962, 24.2494, 34.4099, -30.0988, -26.5234
4.028, 5, 16.9523, 15.5945, 24.2574, 34.3844, -30.1094, -26.5011
4.032, 5, 16.9458, 15.5928, 24.2655, 34.3589, -30.12, -26.4788
4.036, 5, 16.9394, 15.5912, 24.2735, 34.3334, -30.1306, -26.4565
4.04, 5, 16.9329, 15.5895, 24.2816, 34.308, -30.1412, -26.4342
4.044, 5, 16.9264, 15.5879, 24.2896, 34.2826, -30.1518, -26.4119
4.048, 5, 16.92, 15.5862, 24.2977, 34.2571, -30.1624, -26.3896
4.052, 5, 16.9135, 15.5846, 24.3057, 34.2317, -30.173, -26.3674
4.056, 5, 16.907, 15.5829, 24.3138, 34.2064, -30.1837, -26.3452
4.06, 5, 16.9006, 15.5813, 24.3218, 34.181, -30.1943, -26.3229
4.064, 5, 16.8941, 15.5796, 24.3299, 34.1556, -30.2049, -26.3007
4.068, 5, 16.8877, 15.578, 24.3379, 34.1303, -30.2156, -26.2785
4.072, 5, 16.8812, 15.5764, 24.3459, 34.105, -30.2262, -26.2564
4.076, 5, 16.8747, 15.5747, 24.354, 34.0796, -30.2369, -26.2342
4.08, 5, 16.8683, 15.5731, 24.362, 34.0543, -30.2475, -26.2121
4.084, 5, 16.8618, 15.5715, 24.37, 34.0291, -30.2582, -26.19
4.088, 5, 16.8553, 15.5698, 24.378, 34.0038, -30.2688, -26.1678
4.092, 5, 16.8488, 15.5682, 24.386, 33.9785, -30.2795, -26.1457
4.096, 5, 16.8424, 15.5666, 24.3941, 33.9533, -30.2902, -26.1237
4.1, 5, 16.8359, 15.565, 24.4021, 33.9281, -30.3008, -26.1016
4.104, 5, 16.8294, 15.5633, 24.4101, 33.9029, -30.3115, -26.0795
4.108, 5, 16.823, 15.5617, 24.4181, 33.8777, -30.3222, -26.0575
4.112, 5, 16.8165, 15.5601, 24.4261, 33.8525, -30.3329, -26.0355
4.116, 5, 16.81, 15.5585, 24.4341, 33.8273, -30.3436, -26.0135
4.12, 5, 16.8035, 15.5569, 24.4421, 33.8022, -30.3543, -25.9915
4.124, 5, 16.797, 15.5553, 24.4501, 33.777, -30.365, -25.9695
4.128, 5, 16.7906, 15.5537, 24.4581, 33.7519, -30.3757, -25.9476
4.132, 5, 16.7841, 15.5521, 24.4661, 33.7268, -30.3864, -25.9256
4.136, 5, 16.7776, 15.5505, 24.4741, 33.7017, -30.3972, -25.9037
4.14, 5, 16.7711, 15.5489, 24.4821, 33.6767, -30.4079, -25.8818
4.144, 5, 16.7646, 15.5473, 24.49, 33.6516, -30.4186, -25.8599
4.148, 5, 16.7582, 15.5457, 24.498, 33.6265, -30.4293, -25.838
4.152, 5, 16.7517, 15.5442, 24.506, 33.6015, -30.4401, -25.8161
4.156, 5, 16.7452, 15.5426, 24.514, 33.5765, -30.4508, -25.7942
4.16, 5, 16.7387, 15.541, 24.5219, 33.5515, -30.4616, -25.7724
4.164, 5, 16.7322, 15.5394, 24.5299, 33.5265, -30.4723, -25.7506
4.168, 5, 16.7257, 15.5378, 24.5379, 33.5015, -30.4831, -25.7288
4.172, 5, 16.7192, 15.5363, 24.5458, 33.4766, -30.4938, -25.707
4.176, 5, 16.7127, 15.5347, 24.5538, 33.4516, -30.5046, -25.6852
4.18, 5, 16.7063, 15.5331, 24.5618, 33.4267, -30.5154, -25.6634
4.184, 5, 16.6998, 15.5316, 24.5697, 33.4018, -30.5262, -25.6417
4.188, 5, 16.6933, 15.53, 24.5777, 33.3769, -30.5369, -25.6199
4.192, 5, 16.6868, 15.5285, 24.5856, 33.352, -30.5477, -25.5982
4.196, 5, 16.6803, 15.5269, 24.5936, 33.3271, -30.5585, -25.5765
4.2, 5, 16.6738, 15.5254, 24.6015, 33.3023, -30.5693, -25.5548
4.204, 5, 16.6673, 15.5238, 24.6095, 33.2774, -30.5801, -25.5331
4.208, 5, 16.6608, 15.5223, 24.6174, 33.2526, -30.5909, -25.5115
4.212, 5, 16.6543, 15.5207, 24.6253, 33.2278, -30.6017, -25.4898
4.216, 5, 16.6478, 15.5192, 24.6333, 33.203, -30.6125, -25.4682
4.22, 5, 16.6413, 15.5176, 24.6412, 33.1782, -30.6234, -25.4466
4.224, 5, 16.6348, 15.5161, 24.6491, 33.1535, -30.6342, -25.425
4.228, 5, 16.6283, 15.5146, 24.657, 33.1287, -30.645, -25.4034
4.232, 5, 16.6218, 15.513, 24.665, 33.104, -30.6558, -25.3818
4.236, 5, 16.6153, 15.5115, 24.6729, 33.0793, -30.6667, -25.3602
4.24, 5, 16.6088, 15.51, 24.6808, 33.0545, -30.6775, -25.3387
4.244, 5, 16.6023, 15.5085, 24.6887, 33.0298, -30.6884, -25.3172
4.248, 5, 16.5958, 15.5069, 24.6966, 33.0052, -30.6992, -25.2956
4.252, 5, 16.5893, 15.5054, 24.7045, 32.9805, -30.7101, -25.2741
4.256, 5, 16.5828, 15.5039, 24.7124, 32.9559, -30.7209, -25.2527
4.26, 5, 16.5762, 15.5024, 24.7204, 32.9312, -30.7318, -25.2312
4.264, 5, 16.5697, 15.5009, 24.7283, 32.9066, -30.7426, -25.2097
4.268, 5, 16.5632, 15.4994, 24.7362, 32.882, -30.7535, -25.1883
4.272, 5, 16.5567, 15.4979, 24.744, 32.8574, -30.7644, -25.1669
4.276, 5, 16.5502, 15.4964, 24.7519, 32.8328, -30.7753, -25.1454
4.28, 5, 16.5437, 15.4949, 24.7598, 32.8083, -30.7862, -25.124
4.284, 5, 16.5372, 15.4934, 24.7677, 32.7837, -30.797, -25.1027
4.288, 5, 16.5307, 15.4919, 24.7756, 32.7592, -30.8079, -25.0813
4.292, 5, 16.5241, 15.4904, 24.7835, 32.7346, -30.8188, -25.0599
4.296, 5, 16.5176, 15.4889, 24.7914, 32.7101, -30.8297, -25.0386
4.3, 5, 16.5111, 15.4874, 24.7992, 32.6856, -30.8407, -25.0173
4.304, 5, 16.5046, 15.4859, 24.8071, 32.6612, -30.8516, -24.996
4.308, 5, 16.4981, 15.4845, 24.815, 32.6367, -30.8625, -24.9747
4.312, 5, 16.4915, 15.483, 24.8228, 32.6123, -30.8734, -24.9534
4.316, 5, 16.485, 15.4815, 24.8307, 32.5878, -30.8843, -24.9321
4.32, 5, 16.4785, 15.48, 24.8386, 32.5634, -30.8953, -24.9109
4.324, 5, 16.472, 15.4786, 24.8464, 32.539, -30.9062, -24.8896
4.328, 5, 16.4654, 15.4771, 24.8543, 32.5146, -30.9171, -24.8684
4.332, 5, 16.4589, 15.4756, 24.8621, 32.4902, -30.9281, -24.8472
4.336, 5, 16.4524, 15.4742, 24.87, 32.4659, -30.939, -24.826
4.34, 5, 16.4459, 15.4727, 24.8778, 32.4415, -30.95, -24.8048
4.344, 5, 16.4393, 15.4713, 24.8857, 32.4172, -30.9609, -24.7837
4.348, 5, 16.4328, 15.4698, 24.8935, 32.3929, -30.9719, -24.7625
4.352, 5, 16.4263, 15.4684, 24.9014, 32.3686, -30.9829, -24.7414
4.356, 5, 16.4197, 15.4669, 24.9092, 32.3443, -30.9938, -24.7202
4.36, 5, 16.4132, 15.4655, 24.917, 32.32, -31.0048, -24.6991
4.364, 5, 16.4067, 15.464, 24.9249, 32.2957, -31.0158, -24.678
4.368, 5, 16.4001, 15.4626, 24.9327, 32.2715, -31.0268, -24.657
4.372, 5, 16.3936, 15.4611, 24.9405, 32.2472, -31.0378, -24.6359
4.376, 5, 16.3871, 15.4597, 24.9484, 32.223, -31.0488, -24.6149
4.38, 5, 16.3805, 15.4583, 24.9562, 32.1988, -31.0598, -24.5938
4.384, 5, 16.374, 15.4568, 24.964, 32.1746, -31.0708, -24.5728
4.388, 5, 16.3675, 15.4554, 24.9718, 32.1505, -31.0818, -24.5518
4.392, 5, 16.3609, 15.454, 24.9796, 32.1263, -31.0928, -24.5308
4.396, 5, 16.3544, 15.4526, 24.9874, 32.1021, -31.1038, -24.5098
4.4, 5, 16.3478, 15.4512, 24.9952, 32.078, -31.1148, -24.4889
4.404, 5, 16.3413, 15.4497, 25.003, 32.0539, -31.1258, -24.4679
4.408, 5, 16.3348, 15.4483, 25.0108, 32.0298, -31.1369, -24.447
4.412, 5, 16.3282, 15.4469, 25.0186, 32.0057, -31.1479, -24.4261
4.416, 5, 16.3217, 15.4455, 25.0264, 31.9816, -31.1589, -24.4051
4.42, 5, 16.3151, 15.4441, 25.0342, 31.9575, -31.17, -24.3843
4.424, 5, 16.3086, 15.4427, 25.042, 31.9335, -31.181, -24.3634
4.428, 5, 16.302, 15.4413, 25.0498, 31.9095, -31.1921, -24.3425
4.432, 5, 16.2955, 15.4399, 25.0576, 31.8854, -31.2031, -24.3217
4.436, 5, 16.2889, 15.4385, 25.0654, 31.8614, -31.2142, -24.3008
4.44, 5, 16.2824, 15.4371, 25.0732, 31.8374, -31.2253, -24.28
4.444, 5, 16.2758, 15.4357, 25.0809, 31.8135, -31.2363, -24.2592
4.448, 5, 16.2693, 15.4344, 25.0887, 31.7895, -31.2474, -24.2384
4.452, 5, 16.2627, 15.433, 25.0965, 31.7655, -31.2585, -24.2176
4.456, 5, 16.2562, 15.4316, 25.1042, 31.7416, -31.2696, -24.1969
4.46, 5, 16.2496, 15.4302, 25.112, 31.7177, -31.2807, -24.1761
4.464, 5, 16.2431, 15.4288, 25.1198, 31.6938, -31.2917, -24.1554
4.468, 5, 16.2365, 15.4275, 25.1275, 31.6699, -31.3028, -24.1347
4.472, 5, 16.2299, 15.4261, 25.1353, 31.646, -31.3139, -24.114
4.476, 5, 16.2234, 15.4247, 25.143, 31.6221, -31.325, -24.0933
4.48, 5, 16.2168, 15.4234, 25.1508, 31.5983, -31.3361, -24.0726
4.484, 5, 16.2103, 15.422, 25.1585, 31.5744, -31.3473, -24.0519
4.488, 5, 16.2037, 15.4207, 25.1663, 31.5506, -31.3584, -24.0313
4.492, 5, 16.1971, 15.4193, 25.174, 31.5268, -31.3695, -24.0106
4.496, 5, 16.1906, 15.418, 25.1818, 31.503, -31.3806, -23.99
4.5, 5, 16.184, 15.4166, 25.1895, 31.4792, -31.3917, -23.9694
4.504, 5, 16.1774, 15.4153, 25.1972, 31.4555, -31.4029, -23.9488
4.508, 5, 16.1709, 15.4139, 25.205, 31.4317, -31.414, -23.9282
4.512, 5, 16.1643, 15.4126, 25.2127, 31.408, -31.4252, -23.9077
4.516, 5, 16.1577, 15.4112, 25.2204, 31.3842, -31.4363, -23.8871
4.52, 5, 16.1512, 15.4099, 25.2281, 31.3605, -31.4475, -23.8666
4.524, 5, 16.1446, 15.4086, 25.2359, 31.3368, -31.4586, -23.8461
4.528, 5, 16.138, 15.4072, 25.2436, 31.3131, -31.4698, -23.8256
4.532, 5, 16.1315, 15.4059, 25.2513, 31.2895, -31.4809, -23.8051
4.536, 5, 16.1249, 15.4046, 25.259, 31.2658, -31.4921, -23.7846
4.54, 5, 16.1183, 15.4033, 25.2667, 31.2422, -31.5033, -23.7641
4.544, 5, 16.1117, 15.4019, 25.2744, 31.2185, -31.5145, -23.7437
4.548, 5, 16.1052, 15.4006, 25.2821, 31.1949, -31.5256, -23.7232
4.552, 5, 16.0986, 15.3993, 25.2898, 31.1713, -31.5368, -23.7028
4.556, 5, 16.092, 15.398, 25.2975, 31.1477, -31.548, -23.6824
4.56, 5, 16.0854, 15.3967, 25.3052, 31.1241, -31.5592, -23.662
4.564, 5, 16.0789, 15.3954, 25.3129, 31.1006, -31.5704, -23.6416
4.568, 5, 16.0723, 15.3941, 25.3206, 31.077, -31.5816, -23.6213
4.572, 5, 16.0657, 15.3928, 25.3283, 31.0535, -31.5928, -23.6009
4.576, 5, 16.0591, 15.3915, 25.336, 31.03, -31.604, -23.5806
4.58, 5, 16.0525, 15.3902, 25.3437, 31.0065, -31.6152, -23.5602
4.584, 5, 16.046, 15.3889, 25.3513, 30.983, -31.6264, -23.5399
4.588, 5, 16.0394, 15.3876, 25.359, 30.9595, -31.6377, -23.5196
4.592, 5, 16.0328, 15.3863, 25.3667, 30.936, -31.6489, -23.4993
4.596, 5, 16.0262, 15.385, 25.3743, 30.9126, -31.6601, -23.4791
4.6, 5, 16.0196, 15.3838, 25.382, 30.8892, -31.6714, -23.4588
4.604, 5, 16.013, 15.3825, 25.3897, 30.8657, -31.6826, -23.4386
4.608, 5, 16.0064, 15.3812, 25.3973, 30.8423, -31.6938, -23.4183
4.612, 5, 15.9998, 15.3799, 25.405, 30.8189, -31.7051, -23.3981
4.616, 5, 15.9933, 15.3787, 25.4127, 30.7955, -31.7164, -23.3779
4.62, 5, 15.9867, 15.3774, 25.4203, 30.7722, -31.7276, -23.3577
4.624, 5, 15.9801, 15.3761, 25.428, 30.7488, -31.7389, -23.3376
4.628, 5, 15.9735, 15.3749, 25.4356, 30.7255, -31.7501, -23.3174
4.632, 5, 15.9669, 15.3736, 25.4433, 30.7022, -31.7614, -23.2973
4.636, 5, 15.9603, 15.3723, 25.4509, 30.6788, -31.7727, -23.2771
4.64, 5, 15.9537, 15.3711, 25.4585, 30.6555, -31.784, -23.257
4.644, 5, 15.9471, 15.3698, 25.4662, 30.6322, -31.7952, -23.2369
4.648, 5, 15.9405, 15.3686, 25.4738, 30.609, -31.8065, -23.2168
4.652, 5, 15.9339, 15.3674, 25.4814, 30.5857, -31.8178, -23.1967
4.656, 5, 15.9273, 15.3661, 25.4891, 30.5625, -31.8291, -23.1767
4.66, 5, 15.9207, 15.3649, 25.4967, 30.5392, -31.8404, -23.1566
4.664, 5, 15.9141, 15.3636, 25.5043, 30.516, -31.8517, -23.1366
4.668, 5, 15.9075, 15.3624, 25.5119, 30.4928, -31.863, -23.1166
4.672, 5, 15.9009, 15.3612, 25.5195, 30.4696, -31.8743, -23.0966
4.676, 5, 15.8943, 15.3599, 25.5272, 30.4464, -31.8856, -23.0766
4.68, 5, 15.8877, 15.3587, 25.5348, 30.4233, -31.897, -23.0566
4.684, 5, 15.8811, 15.3575, 25.5424, 30.4001, -31.9083, -23.0366
4.688, 5, 15.8745, 15.3563, 25.55, 30.377, -31.9196, -23.0167
4.692, 5, 15.8679, 15.355, 25.5576, 30.3539, -31.9309, -22.9967
4.696, 5, 15.8613, 15.3538, 25.5652, 30.3307, -31.9423, -22.9768
4.7, 5, 15.8547, 15.3526, 25.5728, 30.3077, -31.9536, -22.9569
4.704, 5, 15.848, 15.3514, 25.5804, 30.2846, -31.965, -22.937
4.708, 5, 15.8414, 15.3502, 25.588, 30.2615, -31.9763, -22.9171
4.712, 5, 15.8348, 15.349, 25.5956, 30.2384, -31.9877, -22.8972
4.716, 5, 15.8282, 15.3478, 25.6031, 30.2154, -31.999, -22.8774
4.72, 5, 15.8216, 15.3466, 25.6107, 30.1924, -32.0104, -22.8575
4.724, 5, 15.815, 15.3454, 25.6183, 30.1693, -32.0217, -22.8377
4.728, 5, 15.8084, 15.3442, 25.6259, 30.1463, -32.0331, -22.8179
4.732, 5, 15.8017, 15.343, 25.6335, 30.1234, -32.0445, -22.7981
4.736, 5, 15.7951, 15.3418, 25.641, 30.1004, -32.0559, -22.7783
4.74, 5, 15.7885, 15.3406, 25.6486, 30.0774, -32.0672, -22.7585
4.744, 5, 15.7819, 15.3395, 25.6562, 30.0545, -32.0786, -22.7388
4.748, 5, 15.7753, 15.3383, 25.6637, 30.0315, -32.09, -22.719
4.752, 5, 15.7686, 15.3371, 25.6713, 30.0086, -32.1014, -22.6993
4.756, 5, 15.762, 15.3359, 25.6788, 29.9857, -32.1128, -22.6796
4.76, 5, 15.7554, 15.3348, 25.6864, 29.9628, -32.1242, -22.6598
4.764, 5, 15.7488, 15.3336, 25.6939, 29.9399, -32.1356, -22.6402
4.768, 5, 15.7422, 15.3324, 25.7015, 29.9171, -32.147, -22.6205
4.772, 5, 15.7355, 15.3313, 25.709, 29.8942, -32.1584, -22.6008
4.776, 5, 15.7289, 15.3301, 25.7166, 29.8714, -32.1698, -22.5812
4.78, 5, 15.7223, 15.3289, 25.7241, 29.8485, -32.1813, -22.5615
4.784, 5, 15.7156, 15.3278, 25.7317, 29.8257, -32.1927, -22.5419
4.788, 5, 15.709, 15.3266, 25.7392, 29.8029, -32.2041, -22.5223
4.792, 5, 15.7024, 15.3255, 25.7467, 29.7801, -32.2156, -22.5027
4.796, 5, 15.6958, 15.3243, 25.7543, 29.7573, -32.227, -22.4831
4.8, 5, 15.6891, 15.3232, 25.7618, 29.7346, -32.2384, -22.4635
4.804, 5, 15.6825, 15.3221, 25.7693, 29.7118, -32.2499, -22.444
4.808, 5, 15.6759, 15.3209, 25.7768, 29.6891, -32.2613, -22.4244
4.812, 5, 15.6692, 15.3198, 25.7843, 29.6664, -32.2728, -22.4049
4.816, 5, 15.6626, 15.3187, 25.7919, 29.6437, -32.2842, -22.3854
4.82, 5, 15.656, 15.3175, 25.7994, 29.621, -32.2957, -22.3659
4.824, 5, 15.6493, 15.3164, 25.8069, 29.5983, -32.3072, -22.3464
4.828, 5, 15.6427, 15.3153, 25.8144, 29.5756, -32.3186, -22.3269
4.832, 5, 15.636, 15.3142, 25.8219, 29.5529, -32.3301, -22.3074
4.836, 5, 15.6294, 15.313, 25.8294, 29.5303, -32.3416, -22.288
4.84, 5, 15.6228, 15.3119, 25.8369, 29.5077, -32.3531, -22.2685
4.844, 5, 15.6161, 15.3108, 25.8444, 29.4851, -32.3646, -22.2491
4.848, 5, 15.6095, 15.3097, 25.8519, 29.4624, -32.376, -22.2297
4.852, 5, 15.6028, 15.3086, 25.8594, 29.4399, -32.3875, -22.2103
4.856, 5, 15.5962, 15.3075, 25.8669, 29.4173, -32.399, -22.1909
4.86, 5, 15.5895, 15.3064, 25.8743, 29.3947, -32.4105, -22.1715
4.864, 5, 15.5829, 15.3053, 25.8818, 29.3722, -32.422, -22.1522
4.868, 5, 15.5763, 15.3042, 25.8893, 29.3496, -32.4336, -22.1328
4.872, 5, 15.5696, 15.3031, 25.8968, 29.3271, -32.4451, -22.1135
4.876, 5, 15.563, 15.302, 25.9043, 29.3046, -32.4566, -22.0942
4.88, 5, 15.5563, 15.3009, 25.9117, 29.2821, -32.4681, -22.0749
4.884, 5, 15.5497, 15.2998, 25.9192, 29.2596, -32.4796, -22.0556
4.888, 5, 15.543, 15.2987, 25.9267, 29.2371, -32.4912, -22.0363
4.892, 5, 15.5364, 15.2977, 25.9341, 29.2147, -32.5027, -22.017
4.896, 5, 15.5297, 15.2966, 25.9416, 29.1922, -32.5142, -21.9978
4.9, 5, 15.523, 15.2955, 25.949, 29.1698, -32.5258, -21.9785
4.904, 5, 15.5164, 15.2944, 25.9565, 29.1474, -32.5373, -21.9593
4.908, 5, 15.5097, 15.2934, 25.9639, 29.125, -32.5489, -21.9401
4.912, 5, 15.5031, 15.2923, 25.9714, 29.1026, -32.5604, -21.9209
4.916, 5, 15.4964, 15.2912, 25.9788, 29.0802, -32.572, -21.9017
4.92, 5, 15.4898, 15.2902, 25.9863, 29.0578, -32.5835, -21.8825
4.924, 5, 15.4831, 15.2891, 25.9937, 29.0354, -32.5951, -21.8634
4.928, 5, 15.4764, 15.2881, 26.0011, 29.0131, -32.6067, -21.8442
4.932, 5, 15.4698, 15.287, 26.0086, 28.9908, -32.6182, -21.8251
4.936, 5, 15.4631, 15.286, 26.016, 28.9685, -32.6298, -21.806
4.94, 5, 15.4565, 15.2849, 26.0234, 28.9462, -32.6414, -21.7869
4.944, 5, 15.4498, 15.2839, 26.0309, 28.9239, -32.653, -21.7678
4.948, 5, 15.4431, 15.2828, 26.0383, 28.9016, -32.6646, -21.7487
4.952, 5, 15.4365, 15.2818, 26.0457, 28.8793, -32.6762, -21.7296
4.956, 5, 15.4298, 15.2807, 26.0531, 28.8571, -32.6878, -21.7106
4.96, 5, 15.4231, 15.2797, 26.0605, 28.8348, -32.6994, -21.6915
4.964, 5, 15.4165, 15.2787, 26.068, 28.8126, -32.711, -21.6725
4.968, 5, 15.4098, 15.2777, 26.0754, 28.7904, -32.7226, -21.6535
4.972, 5, 15.4031, 15.2766, 26.0828, 28.7682, -32.7342, -21.6345
4.976, 5, 15.3965, 15.2756, 26.0902, 28.746, -32.7458, -21.6155
4.98, 5, 15.3898, 15.2746, 26.0976, 28.7238, -32.7574, -21.5965
4.984, 5, 15.3831, 15.2736, 26.105, 28.7017, -32.769, -21.5776
4.988, 5, 15.3764, 15.2726, 26.1124, 28.6795, -32.7807, -21.5586
4.992, 5, 15.3698, 15.2715, 26.1197, 28.6574, -32.7923, -21.5397
4.996, 5, 15.3631, 15.2705, 26.1271, 28.6352, -32.8039, -21.5208
5, 5, 15.3564, 15.2695, 26.1345, 28.6131, -32.8156, -21.5018
5.004, 5, 15.3497, 15.2685, 26.1419, 28.591, -32.8272, -21.4829
5.008, 5, 15.3431, 15.2675, 26.1493, 28.5689, -32.8389, -21.4641
5.012, 5, 15.3364, 15.2665, 26.1567, 28.5469, -32.8505, -21.4452
5.016, 5, 15.3297, 15.2655, 26.164, 28.5248, -32.8622, -21.4263
5.02, 5, 15.323, 15.2645, 26.1714, 28.5028, -32.8738, -21.4075
5.024, 5, 15.3163, 15.2636, 26.1788, 28.4807, -32.8855, -21.3886
5.028, 5, 15.3097, 15.2626, 26.1861, 28.4587, -32.8971, -21.3698
5.032, 5, 15.303, 15.2616, 26.1935, 28.4367, -32.9088, -21.351
5.036, 5, 15.2963, 15.2606, 26.2009, 28.4147, -32.9205, -21.3322
5.04, 5, 15.2896, 15.2596, 26.2082, 28.3927, -32.9322, -21.3134
5.044, 5, 15.2829, 15.2586, 26.2156, 28.3708, -32.9438, -21.2947
5.048, 5, 15.2762, 15.2577, 26.2229, 28.3488, -32.9555, -21.2759
5.052, 5, 15.2695, 15.2567, 26.2303, 28.3268, -32.9672, -21.2572
5.056, 5, 15.2629, 15.2557, 26.2376, 28.3049, -32.9789, -21.2384
5.06, 5, 15.2562, 15.2548, 26.245, 28.283, -32.9906, -21.2197
5.064, 5, 15.2495, 15.2538, 26.2523, 28.2611, -33.0023, -21.201
5.068, 5, 15.2428, 15.2528, 26.2597, 28.2392, -33.014, -21.1823
5.072, 5, 15.2361, 15.2519, 26.267, 28.2173, -33.0257, -21.1637
5.076, 5, 15.2294, 15.2509, 26.2743, 28.1954, -33.0374, -21.145
5.08, 5, 15.2227, 15.25, 26.2816, 28.1736, -33.0491, -21.1263
5.084, 5, 15.216, 15.249, 26.289, 28.1517, -33.0608, -21.1077
5.088, 5, 15.2093, 15.2481, 26.2963, 28.1299, -33.0726, -21.0891
5.092, 5, 15.2026, 15.2472, 26.3036, 28.1081, -33.0843, -21.0704
5.096, 5, 15.1959, 15.2462, 26.3109, 28.0863, -33.096, -21.0518
5.1, 5, 15.1892, 15.2453, 26.3183, 28.0645, -33.1078, -21.0333
5.104, 5, 15.1825, 15.2443, 26.3256, 28.0427, -33.1195, -21.0147
5.108, 5, 15.1758, 15.2434, 26.3329, 28.0209, -33.1312, -20.9961
5.112, 5, 15.1691, 15.2425, 26.3402, 27.9992, -33.143, -20.9776
5.116, 5, 15.1624, 15.2416, 26.3475, 27.9774, -33.1547, -20.959
5.12, 5, 15.1557, 15.2406, 26.3548, 27.9557, -33.1665, -20.9405
5.124, 5, 15.149, 15.2397, 26.3621, 27.934, -33.1782, -20.922
5.128, 5, 15.1423, 15.2388, 26.3694, 27.9123, -33.19, -20.9035
5.132, 5, 15.1356, 15.2379, 26.3767, 27.8906, -33.2018, -20.885
5.136, 5, 15.1289, 15.237, 26.384, 27.8689, -33.2135, -20.8665
5.14, 5, 15.1222, 15.2361, 26.3913, 27.8472, -33.2253, -20.8481
5.144, 5, 15.1155, 15.2351, 26.3985, 27.8256, -33.2371, -20.8296
5.148, 5, 15.1088, 15.2342, 26.4058, 27.8039, -33.2488, -20.8112
5.152, 5, 15.1021, 15.2333, 26.4131, 27.7823, -33.2606, -20.7928
5.156, 5, 15.0954, 15.2324, 26.4204, 27.7607, -33.2724, -20.7743
5.16, 5, 15.0886, 15.2315, 26.4276, 27.7391, -33.2842, -20.756
5.164, 5, 15.0819, 15.2307, 26.4349, 27.7175, -33.296, -20.7376
5.168, 5, 15.0752, 15.2298, 26.4422, 27.6959, -33.3078, -20.7192
5.172, 5, 15.0685, 15.2289, 26.4495, 27.6743, -33.3196, -20.7008
5.176, 5, 15.0618, 15.228, 26.4567, 27.6528, -33.3314, -20.6825
5.18, 5, 15.0551, 15.2271, 26.464, 27.6312, -33.3432, -20.6641
5.184, 5, 15.0484, 15.2262, 26.4712, 27.6097, -33.355, -20.6458
5.188, 5, 15.0416, 15.2254, 26.4785, 27.5882, -33.3668, -20.6275
5.192, 5, 15.0349, 15.2245, 26.4857, 27.5667, -33.3786, -20.6092
5.196, 5, 15.0282, 15.2236, 26.493, 27.5452, -33.3905, -20.5909
5.2, 5, 15.0215, 15.2227, 26.5002, 27.5237, -33.4023, -20.5727
5.204, 5, 15.0148, 15.2219, 26.5075, 27.5022, -33.4141, -20.5544
5.208, 5, 15.008, 15.221, 26.5147, 27.4808, -33.4259, -20.5362
5.212, 5, 15.0013, 15.2201, 26.5219, 27.4593, -33.4378, -20.5179
5.216, 5, 14.9946, 15.2193, 26.5292, 27.4379, -33.4496, -20.4997
5.22, 5, 14.9879, 15.2184, 26.5364, 27.4165, -33.4615, -20.4815
5.224, 5, 14.9812, 15.2176, 26.5436, 27.3951, -33.4733, -20.4633
5.228, 5, 14.9744, 15.2167, 26.5509, 27.3737, -33.4852, -20.4451
5.232, 5, 14.9677, 15.2159, 26.5581, 27.3523, -33.497, -20.4269
5.236, 5, 14.961, 15.215, 26.5653, 27.3309, -33.5089, -20.4088
5.24, 5, 14.9542, 15.2142, 26.5725, 27.3096, -33.5207, -20.3906
5.244, 5, 14.9475, 15.2134, 26.5797, 27.2882, -33.5326, -20.3725
5.248, 5, 14.9408, 15.2125, 26.587, 27.2669, -33.5445, -20.3544
5.252, 5, 14.9341, 15.2117, 26.5942, 27.2456, -33.5564, -20.3363
5.256, 5, 14.9273, 15.2109, 26.6014, 27.2243, -33.5682, -20.3182
5.26, 5, 14.9206, 15.21, 26.6086, 27.203, -33.5801, -20.3001
5.264, 5, 14.9139, 15.2092, 26.6158, 27.1817, -33.592, -20.282
5.268, 5, 14.9071, 15.2084, 26.623, 27.1604, -33.6039, -20.2639
5.272, 5, 14.9004, 15.2076, 26.6302, 27.1391, -33.6158, -20.2459
5.276, 5, 14.8937, 15.2068, 26.6374, 27.1179, -33.6277, -20.2279
5.28, 5, 14.8869, 15.2059, 26.6446, 27.0967, -33.6396, -20.2098
5.284, 5, 14.8802, 15.2051, 26.6517, 27.0754, -33.6515, -20.1918
5.288, 5, 14.8734, 15.2043, 26.6589, 27.0542, -33.6634, -20.1738
5.292, 5, 14.8667, 15.2035, 26.6661, 27.033, -33.6753, -20.1559
5.296, 5, 14.86, 15.2027, 26.6733, 27.0118, -33.6872, -20.1379
5.3, 5, 14.8532, 15.2019, 26.6805, 26.9907, -33.6991, -20.1199
5.304, 5, 14.8465, 15.2011, 26.6876, 26.9695, -33.711, -20.102
5.308, 5, 14.8397, 15.2003, 26.6948, 26.9483, -33.723, -20.084
5.312, 5, 14.833, 15.1995, 26.702, 26.9272, -33.7349, -20.0661
5.316, 5, 14.8262, 15.1987, 26.7091, 26.9061, -33.7468, -20.0482
5.32, 5, 14.8195, 15.198, 26.7163, 26.885, -33.7587, -20.0303
5.324, 5, 14.8128, 15.1972, 26.7234, 26.8639, -33.7707, -20.0124
5.328, 5, 14.806, 15.1964, 26.7306, 26.8428, -33.7826, -19.9945
5.332, 5, 14.7993, 15.1956, 26.7378, 26.8217, -33.7946, -19.9767
5.336, 5, 14.7925, 15.1948, 26.7449, 26.8006, -33.8065, -19.9588
5.34, 5, 14.7858, 15.1941, 26.7521, 26.7796, -33.8185, -19.941
5.344, 5, 14.779, 15.1933, 26.7592, 26.7585, -33.8304, -19.9232
5.348, 5, 14.7723, 15.1925, 26.7663, 26.7375, -33.8424, -19.9053
5.352, 5, 14.7655, 15.1918, 26.7735, 26.7165, -33.8544, -19.8875
5.356, 5, 14.7588, 15.191, 26.7806, 26.6955, -33.8663, -19.8698
5.36, 5, 14.752, 15.1902, 26.7878, 26.6745, -33.8783, -19.852
5.364, 5, 14.7452, 15.1895, 26.7949, 26.6535, -33.8903, -19.8342
5.368, 5, 14.7385, 15.1887, 26.802, 26.6325, -33.9022, -19.8165
5.372, 5, 14.7317, 15.188, 26.8091, 26.6116, -33.9142, -19.7987
5.376, 5, 14.725, 15.1872, 26.8163, 26.5906, -33.9262, -19.781
5.38, 5, 14.7182, 15.1865, 26.8234, 26.5697, -33.9382, -19.7633
5.384, 5, 14.7115, 15.1857, 26.8305, 26.5488, -33.9502, -19.7456
5.388, 5, 14.7047, 15.185, 26.8376, 26.5279, -33.9622, -19.7279
5.392, 5, 14.6979, 15.1843, 26.8447, 26.507, -33.9742, -19.7102
5.396, 5, 14.6912, 15.1835, 26.8518, 26.4861, -33.9862, -19.6925
5.4, 5, 14.6844, 15.1828, 26.8589, 26.4652, -33.9982, -19.6749
5.404, 5, 14.6776, 15.1821, 26.866, 26.4443, -34.0102, -19.6572
5.408, 5, 14.6709, 15.1813, 26.8731, 26.4235, -34.0222, -19.6396
5.412, 5, 14.6641, 15.1806, 26.8802, 26.4027, -34.0342, -19.622
5.416, 5, 14.6573, 15.1799, 26.8873, 26.3818, -34.0462, -19.6044
5.42, 5, 14.6506, 15.1792, 26.8944, 26.361, -34.0583, -19.5868
5.424, 5, 14.6438, 15.1785, 26.9015, 26.3402, -34.0703, -19.5692
5.428, 5, 14.637, 15.1778, 26.9086, 26.3194, -34.0823, -19.5516
5.432, 5, 14.6303, 15.177, 26.9157, 26.2986, -34.0943, -19.5341
5.436, 5, 14.6235, 15.1763, 26.9228, 26.2779, -34.1064, -19.5165
5.44, 5, 14.6167, 15.1756, 26.9298, 26.2571, -34.1184, -19.499
5.444, 5, 14.61, 15.1749, 26.9369, 26.2364, -34.1305, -19.4815
5.448, 5, 14.6032, 15.1742, 26.944, 26.2156, -34.1425, -19.464
5.452, 5, 14.5964, 15.1735, 26.9511, 26.1949, -34.1546, -19.4465
5.456, 5, 14.5896, 15.1728, 26.9581, 26.1742, -34.1666, -19.429
5.46, 5, 14.5829, 15.1721, 26.9652, 26.1535, -34.1787, -19.4115
5.464, 5, 14.5761, 15.1715, 26.9723, 26.1328, -34.1907, -19.3941
5.468, 5, 14.5693, 15.1708, 26.9793, 26.1122, -34.2028, -19.3766
5.472, 5, 14.5625, 15.1701, 26.9864, 26.0915, -34.2149, -19.3592
5.476, 5, 14.5558, 15.1694, 26.9934, 26.0709, -34.2269, -19.3417
5.48, 5, 14.549, 15.1687, 27.0005, 26.0502, -34.239, -19.3243
5.484, 5, 14.5422, 15.1681, 27.0075, 26.0296, -34.2511, -19.3069
5.488, 5, 14.5354, 15.1674, 27.0146, 26.009, -34.2632, -19.2895
5.492, 5, 14.5286, 15.1667, 27.0216, 25.9884, -34.2752, -19.2722
5.496, 5, 14.5219, 15.166, 27.0286, 25.9678, -34.2873, -19.2548
5.5, 5, 14.5151, 15.1654, 27.0357, 25.9472, -34.2994, -19.2374
5.504, 5, 14.5083, 15.1647, 27.0427, 25.9266, -34.3115, -19.2201
5.508, 5, 14.5015, 15.1641, 27.0497, 25.9061, -34.3236, -19.2028
5.512, 5, 14.4947, 15.1634, 27.0568, 25.8855, -34.3357, -19.1855
5.516, 5, 14.4879, 15.1628, 27.0638, 25.865, -34.3478, -19.1681
5.52, 5, 14.4811, 15.1621, 27.0708, 25.8445, -34.3599, -19.1509
5.524, 5, 14.4744, 15.1615, 27.0778, 25.824, -34.3721, -19.1336
5.528, 5, 14.4676, 15.1608, 27.0849, 25.8035, -34.3842, -19.1163
5.532, 5, 14.4608, 15.1602, 27.0919, 25.783, -34.3963, -19.099
5.536, 5, 14.454, 15.1595, 27.0989, 25.7625, -34.4084, -19.0818
5.54, 5, 14.4472, 15.1589, 27.1059, 25.7421, -34.4205, -19.0646
5.544, 5, 14.4404, 15.1583, 27.1129, 25.7216, -34.4327, -19.0473
5.548, 5, 14.4336, 15.1576, 27.1199, 25.7012, -34.4448, -19.0301
5.552, 5, 14.4268, 15.157, 27.1269, 25.6808, -34.4569, -19.0129
5.556, 5, 14.42, 15.1564, 27.1339, 25.6604, -34.4691, -18.9957
5.56, 5, 14.4132, 15.1557, 27.1409, 25.6399, -34.4812, -18.9786
5.564, 5, 14.4064, 15.1551, 27.1479, 25.6196, -34.4934, -18.9614
5.568, 5, 14.3996, 15.1545, 27.1549, 25.5992, -34.5055, -18.9442
5.572, 5, 14.3928, 15.1539, 27.1619, 25.5788, -34.5177, -18.9271
5.576, 5, 14.386, 15.1533, 27.1688, 25.5585, -34.5298, -18.91
5.58, 5, 14.3792, 15.1527, 27.1758, 25.5381, -34.542, -18.8929
5.584, 5, 14.3724, 15.1521, 27.1828, 25.5178, -34.5541, -18.8758
5.588, 5, 14.3656, 15.1515, 27.1898, 25.4975, -34.5663, -18.8587
5.592, 5, 14.3588, 15.1509, 27.1968, 25.4771, -34.5785, -18.8416
5.596, 5, 14.352, 15.1503, 27.2037, 25.4568, -34.5906, -18.8245
5.6, 5, 14.3452, 15.1497, 27.2107, 25.4366, -34.6028, -18.8075
5.604, 5, 14.3384, 15.1491, 27.2177, 25.4163, -34.615, -18.7904
5.608, 5, 14.3316, 15.1485, 27.2246, 25.396, -34.6272, -18.7734
5.612, 5, 14.3248, 15.1479, 27.2316, 25.3758, -34.6394, -18.7564
5.616, 5, 14.318, 15.1473, 27.2385, 25.3555, -34.6516, -18.7393
5.62, 5, 14.3112, 15.1467, 27.2455, 25.3353, -34.6638, -18.7223
5.624, 5, 14.3044, 15.1461, 27.2524, 25.3151, -34.676, -18.7054
5.628, 5, 14.2976, 15.1456, 27.2594, 25.2949, -34.6882, -18.6884
5.632, 5, 14.2907, 15.145, 27.2663, 25.2747, -34.7004, -18.6714
5.636, 5, 14.2839, 15.1444, 27.2733, 25.2545, -34.7126, -18.6545
5.64, 5, 14.2771, 15.1438, 27.2802, 25.2343, -34.7248, -18.6375
5.644, 5, 14.2703, 15.1433, 27.2872, 25.2142, -34.737, -18.6206
5.648, 5, 14.2635, 15.1427, 27.2941, 25.194, -34.7492, -18.6037
5.652, 5, 14.2567, 15.1422, 27.301, 25.1739, -34.7614, -18.5868
5.656, 5, 14.2499, 15.1416, 27.3079, 25.1538, -34.7737, -18.5699
5.66, 5, 14.243, 15.141, 27.3149, 25.1337, -34.7859, -18.553
5.664, 5, 14.2362, 15.1405, 27.3218, 25.1136, -34.7981, -18.5361
5.668, 5, 14.2294, 15.1399, 27.3287, 25.0935, -34.8103, -18.5193
5.672, 5, 14.2226, 15.1394, 27.3356, 25.0734, -34.8226, -18.5024
5.676, 5, 14.2158, 15.1389, 27.3425, 25.0533, -34.8348, -18.4856
5.68, 5, 14.2089, 15.1383, 27.3495, 25.0333, -34.8471, -18.4688
5.684, 5, 14.2021, 15.1378, 27.3564, 25.0132, -34.8593, -18.452
5.688, 5, 14.1953, 15.1372, 27.3633, 24.9932, -34.8716, -18.4352
5.692, 5, 14.1885, 15.1367, 27.3702, 24.9732, -34.8838, -18.4184
5.696, 5, 14.1816, 15.1362, 27.3771, 24.9532, -34.8961, -18.4016
5.7, 5, 14.1748, 15.1356, 27.384, 24.9332, -34.9083, -18.3848
5.704, 5, 14.168, 15.1351, 27.3909, 24.9132, -34.9206, -18.3681
5.708, 5, 14.1612, 15.1346, 27.3978, 24.8932, -34.9329, -18.3513
5.712, 5, 14.1543, 15.1341, 27.4047, 24.8732, -34.9451, -18.3346
5.716, 5, 14.1475, 15.1336, 27.4115, 24.8533, -34.9574, -18.3179
5.72, 5, 14.1407, 15.133, 27.4184, 24.8333, -34.9697, -18.3012
5.724, 5, 14.1338, 15.1325, 27.4253, 24.8134, -34.982, -18.2845
5.728, 5, 14.127, 15.132, 27.4322, 24.7935, -34.9942, -18.2678
5.732, 5, 14.1202, 15.1315, 27.4391, 24.7736, -35.0065, -18.2511
5.736, 5, 14.1133, 15.131, 27.4459, 24.7537, -35.0188, -18.2345
5.74, 5, 14.1065, 15.1305, 27.4528, 24.7338, -35.0311, -18.2178
5.744, 5, 14.0997, 15.13, 27.4597, 24.7139, -35.0434, -18.2012
5.748, 5, 14.0928, 15.1295, 27.4665, 24.6941, -35.0557, -18.1846
5.752, 5, 14.086, 15.129, 27.4734, 24.6742, -35.068, -18.1679
5.756, 5, 14.0792, 15.1285, 27.4803, 24.6544, -35.0803, -18.1513
5.76, 5, 14.0723, 15.1281, 27.4871, 24.6345, -35.0926, -18.1348
5.764, 5, 14.0655, 15.1276, 27.494, 24.6147, -35.1049, -18.1182
5.768, 5, 14.0587, 15.1271, 27.5008, 24.5949, -35.1173, -18.1016
5.772, 5, 14.0518, 15.1266, 27.5077, 24.5751, -35.1296, -18.085
5.776, 5, 14.045, 15.1261, 27.5145, 24.5553, -35.1419, -18.0685
5.78, 5, 14.0381, 15.1257, 27.5213, 24.5356, -35.1542, -18.052
5.784, 5, 14.0313, 15.1252, 27.5282, 24.5158, -35.1666, -18.0354
5.788, 5, 14.0244, 15.1247, 27.535, 24.4961, -35.1789, -18.0189
5.792, 5, 14.0176, 15.1243, 27.5419, 24.4763, -35.1912, -18.0024
5.796, 5, 14.0107, 15.1238, 27.5487, 24.4566, -35.2036, -17.9859
5.8, 5, 14.0039, 15.1233, 27.5555, 24.4369, -35.2159, -17.9695
5.804, 5, 13.9971, 15.1229, 27.5623, 24.4172, -35.2282, -17.953
5.808, 5, 13.9902, 15.1224, 27.5692, 24.3975, -35.2406, -17.9365
5.812, 5, 13.9834, 15.122, 27.576, 24.3778, -35.2529, -17.9201
5.816, 5, 13.9765, 15.1215, 27.5828, 24.3581, -35.2653, -17.9037
5.82, 5, 13.9697, 15.1211, 27.5896, 24.3385, -35.2777, -17.8872
5.824, 5, 13.9628, 15.1206, 27.5964, 24.3188, -35.29, -17.8708
5.828, 5, 13.956, 15.1202, 27.6032, 24.2992, -35.3024, -17.8544
5.832, 5, 13.9491, 15.1198, 27.61, 24.2795, -35.3148, -17.838
5.836, 5, 13.9422, 15.1193, 27.6168, 24.2599, -35.3271, -17.8217
5.84, 5, 13.9354, 15.1189, 27.6236, 24.2403, -35.3395, -17.8053
5.844, 5, 13.9285, 15.1185, 27.6304, 24.2207, -35.3519, -17.7889
5.848, 5, 13.9217, 15.118, 27.6372, 24.2011, -35.3643, -17.7726
5.852, 5, 13.9148, 15.1176, 27.644, 24.1816, -35.3766, -17.7563
5.856, 5, 13.908, 15.1172, 27.6508, 24.162, -35.389, -17.74
5.86, 5, 13.9011, 15.1168, 27.6576, 24.1425, -35.4014, -17.7236
5.864, 5, 13.8942, 15.1164, 27.6644, 24.1229, -35.4138, -17.7073
5.868, 5, 13.8874, 15.116, 27.6712, 24.1034, -35.4262, -17.6911
5.872, 5, 13.8805, 15.1155, 27.6779, 24.0839, -35.4386, -17.6748
5.876, 5, 13.8737, 15.1151, 27.6847, 24.0644, -35.451, -17.6585
5.88, 5, 13.8668, 15.1147, 27.6915, 24.0449, -35.4634, -17.6423
5.884, 5, 13.8599, 15.1143, 27.6982, 24.0254, -35.4758, -17.626
5.888, 5, 13.8531, 15.1139, 27.705, 24.0059, -35.4882, -17.6098
5.892, 5, 13.8462, 15.1135, 27.7118, 23.9864, -35.5006, -17.5936
5.896, 5, 13.8393, 15.1131, 27.7185, 23.967, -35.5131, -17.5774
5.9, 5, 13.8325, 15.1128, 27.7253, 23.9476, -35.5255, -17.5612
5.904, 5, 13.8256, 15.1124, 27.732, 23.9281, -35.5379, -17.545
5.908, 5, 13.8187, 15.112, 27.7388, 23.9087, -35.5503, -17.5288
5.912, 5, 13.8119, 15.1116, 27.7455, 23.8893, -35.5628, -17.5126
5.916, 5, 13.805, 15.1112, 27.7523, 23.8699, -35.5752, -17.4965
5.92, 5, 13.7981, 15.1108, 27.759, 23.8505, -35.5876, -17.4803
5.924, 5, 13.7912, 15.1105, 27.7658, 23.8311, -35.6001, -17.4642
5.928, 5, 13.7844, 15.1101, 27.7725, 23.8118, -35.6125, -17.4481
5.932, 5, 13.7775, 15.1097, 27.7792, 23.7924, -35.625, -17.432
5.936, 5, 13.7706, 15.1094, 27.786, 23.7731, -35.6374, -17.4159
5.94, 5, 13.7638, 15.109, 27.7927, 23.7537, -35.6499, -17.3998
5.944, 5, 13.7569, 15.1086, 27.7994, 23.7344, -35.6623, -17.3837
5.948, 5, 13.75, 15.1083, 27.8062, 23.7151, -35.6748, -17.3677
5.952, 5, 13.7431, 15.1079, 27.8129, 23.6958, -35.6872, -17.3516
5.956, 5, 13.7362, 15.1076, 27.8196, 23.6765, -35.6997, -17.3356
5.96, 5, 13.7294, 15.1072, 27.8263, 23.6572, -35.7122, -17.3195
5.964, 5, 13.7225, 15.1069, 27.833, 23.638, -35.7246, -17.3035
5.968, 5, 13.7156, 15.1066, 27.8397, 23.6187, -35.7371, -17.2875
5.972, 5, 13.7087, 15.1062, 27.8464, 23.5995, -35.7496, -17.2715
5.976, 5, 13.7018, 15.1059, 27.8531, 23.5802, -35.7621, -17.2555
