hehonglu123/ABB_Primitive_Study/execution/movelcl_30_car/curve_exe_v500_z20.csv
timestamp, cmd_num, J1, J2, J3, J4, J5, J6
0, -1, -13.4393, 43.6787, 12.5946, -11.6275, -87.029, 7.42441
0.002, -1, -13.4393, 43.6787, 12.5946, -11.6275, -87.029, 7.42441
0.004, -1, -13.4393, 43.6787, 12.5946, -11.6275, -87.029, 7.42441
0.008, -1, -13.4393, 43.6787, 12.5946, -11.6275, -87.029, 7.42441
0.011, -1, -13.4393, 43.6787, 12.5946, -11.6275, -87.029, 7.42441
0.016, -1, -13.4393, 43.6787, 12.5946, -11.6275, -87.029, 7.42441
0.02, -1, -13.4393, 43.6787, 12.5946, -11.6275, -87.029, 7.42441
0.024, -1, -13.4393, 43.6787, 12.5946, -11.6275, -87.029, 7.42441
0.028, -1, -13.4393, 43.6787, 12.5946, -11.6275, -87.029, 7.42441
0.032, -1, -13.4393, 43.6787, 12.5946, -11.6275, -87.029, 7.42441
0.036, -1, -13.4392, 43.6786, 12.5946, -11.6275, -87.029, 7.42441
0.04, -1, -13.439, 43.6785, 12.5946, -11.6275, -87.029, 7.42441
0.044, -1, -13.4384, 43.678, 12.5947, -11.6275, -87.029, 7.42439
0.048, -1, -13.4372, 43.6772, 12.5949, -11.6274, -87.0289, 7.42434
0.052, -1, -13.4355, 43.6758, 12.5951, -11.6273, -87.0287, 7.42422
0.056, -1, -13.433, 43.6738, 12.5955, -11.627, -87.0284, 7.42397
0.06, -1, -13.4296, 43.671, 12.5961, -11.6264, -87.0277, 7.42349
0.064, -1, -13.4254, 43.6675, 12.5969, -11.6253, -87.0264, 7.42266
0.068, -1, -13.4203, 43.6631, 12.598, -11.6236, -87.0244, 7.42132
0.072, -1, -13.4141, 43.6579, 12.5994, -11.6209, -87.0213, 7.41928
0.076, -1, -13.4066, 43.6516, 12.6011, -11.617, -87.0167, 7.4163
0.08, -1, -13.3977, 43.6442, 12.6034, -11.6115, -87.0103, 7.41213
0.084, -1, -13.3869, 43.6352, 12.6062, -11.604, -87.0016, 7.40644
0.088, -1, -13.3743, 43.6247, 12.6097, -11.5941, -86.9899, 7.39892
0.092, -1, -13.3596, 43.6124, 12.6138, -11.5812, -86.9748, 7.38918
0.096, -1, -13.3427, 43.5982, 12.6186, -11.5648, -86.9557, 7.37685
0.1, -1, -13.3235, 43.582, 12.6243, -11.5444, -86.9319, 7.36155
0.104, -1, -13.3019, 43.5636, 12.6308, -11.5196, -86.9029, 7.3429
0.108, -1, -13.2776, 43.5427, 12.6382, -11.4899, -86.868, 7.32054
0.112, -1, -13.2505, 43.5193, 12.6467, -11.4547, -86.8269, 7.29416
0.116, -1, -13.2206, 43.4932, 12.6562, -11.4137, -86.7789, 7.26346
0.12, -1, -13.1877, 43.4644, 12.6669, -11.3667, -86.7238, 7.22818
0.124, -1, -13.1519, 43.4328, 12.6786, -11.3132, -86.6612, 7.18814
0.128, -1, -13.113, 43.3984, 12.6916, -11.2532, -86.591, 7.14319
0.131, -1, -13.071, 43.3611, 12.7056, -11.1865, -86.5129, 7.09326
0.136, -1, -13.026, 43.321, 12.7209, -11.1131, -86.4269, 7.03835
0.139, -1, -12.9779, 43.2779, 12.7373, -11.0331, -86.3333, 6.9785
0.144, -1, -12.9267, 43.232, 12.7548, -10.9467, -86.2321, 6.91384
0.148, -1, -12.8726, 43.1833, 12.7734, -10.854, -86.1236, 6.84454
0.152, -1, -12.8155, 43.132, 12.7932, -10.7555, -86.0082, 6.77084
0.156, -1, -12.7557, 43.0781, 12.8139, -10.6514, -85.8863, 6.69301
0.16, -1, -12.6932, 43.0219, 12.8355, -10.5422, -85.7585, 6.61137
0.164, -1, -12.6282, 42.9633, 12.8581, -10.4284, -85.6253, 6.52627
0.168, -1, -12.5607, 42.9025, 12.8815, -10.3105, -85.4872, 6.43809
0.172, -1, -12.4909, 42.8396, 12.9056, -10.189, -85.3449, 6.34721
0.176, -1, -12.4189, 42.7749, 12.9305, -10.0644, -85.1989, 6.25399
0.18, -1, -12.345, 42.7085, 12.956, -9.93711, -85.0499, 6.15879
0.184, -1, -12.2694, 42.6406, 12.9821, -9.80765, -84.8983, 6.06194
0.188, -1, -12.1925, 42.5714, 13.0086, -9.6764, -84.7446, 5.96375
0.192, -1, -12.1142, 42.5011, 13.0356, -9.54373, -84.5892, 5.86449
0.196, -1, -12.0348, 42.4297, 13.0629, -9.40995, -84.4326, 5.76439
0.2, -1, -11.9542, 42.3573, 13.0906, -9.27534, -84.2749, 5.66366
0.204, -1, -11.8724, 42.2841, 13.1185, -9.14011, -84.1166, 5.56246
0.208, -1, -11.7897, 42.21, 13.1466, -9.00443, -83.9577, 5.46092
0.212, -1, -11.7061, 42.1354, 13.1749, -8.86843, -83.7985, 5.35913
0.216, -1, -11.6218, 42.0602, 13.2033, -8.7322, -83.6389, 5.25717
0.22, -1, -11.5371, 41.9847, 13.2318, -8.5958, -83.4792, 5.15507
0.224, -1, -11.452, 41.909, 13.2603, -8.45928, -83.3194, 5.05288
0.228, -1, -11.3667, 41.8332, 13.2889, -8.32266, -83.1594, 4.95062
0.232, -1, -11.2813, 41.7572, 13.3176, -8.18597, -82.9993, 4.8483
0.236, -1, -11.1957, 41.6811, 13.3462, -8.04922, -82.8392, 4.74595
0.24, -1, -11.11, 41.605, 13.3749, -7.91243, -82.679, 4.64355
0.244, -1, -11.0243, 41.5288, 13.4035, -7.77561, -82.5188, 4.54114
0.248, -1, -10.9386, 41.4526, 13.4322, -7.63876, -82.3586, 4.4387
0.252, -1, -10.8528, 41.3764, 13.4609, -7.50189, -82.1983, 4.33625
0.256, -1, -10.767, 41.3002, 13.4896, -7.36501, -82.0381, 4.2338
0.26, -1, -10.6811, 41.2239, 13.5183, -7.22813, -81.8778, 4.13133
0.264, -1, -10.5953, 41.1477, 13.547, -7.09125, -81.7175, 4.02887
0.268, -1, -10.5094, 41.0714, 13.5757, -6.95436, -81.5572, 3.92641
0.272, -1, -10.4236, 40.9952, 13.6044, -6.81749, -81.397, 3.82396
0.276, -1, -10.3378, 40.9189, 13.6331, -6.68063, -81.2367, 3.72151
0.28, -1, -10.252, 40.8427, 13.6618, -6.54379, -81.0765, 3.61908
0.284, -1, -10.1661, 40.7665, 13.6904, -6.40697, -80.9163, 3.51666
0.288, -1, -10.0803, 40.6903, 13.7191, -6.27017, -80.7561, 3.41427
0.292, -1, -9.99456, 40.6141, 13.7478, -6.13341, -80.596, 3.31189
0.296, -1, -9.9088, 40.538, 13.7764, -5.99668, -80.4359, 3.20955
0.3, -1, -9.82306, 40.4618, 13.8051, -5.85999, -80.2758, 3.10723
0.304, -1, -9.73734, 40.3857, 13.8337, -5.72334, -80.1158, 3.00494
0.308, -1, -9.65166, 40.3096, 13.8624, -5.58674, -79.9558, 2.90269
0.312, -1, -9.566, 40.2336, 13.891, -5.45019, -79.796, 2.80048
0.316, -1, -9.48038, 40.1575, 13.9196, -5.31369, -79.6361, 2.69831
0.32, -1, -9.3948, 40.0815, 13.9482, -5.17726, -79.4764, 2.59618
0.324, -1, -9.30925, 40.0055, 13.9768, -5.04089, -79.3167, 2.4941
0.328, -1, -9.22375, 39.9296, 14.0054, -4.90458, -79.1571, 2.39207
0.332, -1, -9.13829, 39.8537, 14.0339, -4.76835, -78.9976, 2.2901
0.336, -1, -9.05287, 39.7778, 14.0625, -4.63219, -78.8382, 2.18818
0.34, -1, -8.9675, 39.702, 14.091, -4.49612, -78.6788, 2.08632
0.344, -1, -8.88219, 39.6262, 14.1195, -4.36012, -78.5196, 1.98452
0.348, -1, -8.79693, 39.5505, 14.148, -4.22421, -78.3604, 1.88279
0.352, -1, -8.71172, 39.4748, 14.1765, -4.0884, -78.2014, 1.78113
0.356, -1, -8.62657, 39.3992, 14.2049, -3.95267, -78.0425, 1.67953
0.36, -1, -8.54148, 39.3236, 14.2334, -3.81705, -77.8837, 1.57801
0.364, -1, -8.45646, 39.2481, 14.2618, -3.68152, -77.725, 1.47657
0.368, -1, -8.3715, 39.1727, 14.2902, -3.54611, -77.5664, 1.3752
0.372, -1, -8.28661, 39.0973, 14.3185, -3.4108, -77.408, 1.27392
0.376, -1, -8.20179, 39.0219, 14.3469, -3.2756, -77.2497, 1.17272
0.38, -1, -8.11704, 38.9467, 14.3752, -3.14052, -77.0915, 1.07161
0.384, -1, -8.03237, 38.8715, 14.4035, -3.00557, -76.9335, 0.970588
0.388, -1, -7.94777, 38.7963, 14.4318, -2.87073, -76.7756, 0.869659
0.392, -1, -7.86325, 38.7212, 14.46, -2.73602, -76.6179, 0.768825
0.396, -1, -7.77881, 38.6463, 14.4882, -2.60145, -76.4603, 0.668089
0.4, -1, -7.69446, 38.5713, 14.5164, -2.467, -76.3029, 0.567454
0.404, -1, -7.61019, 38.4965, 14.5446, -2.3327, -76.1456, 0.466921
0.408, -1, -7.526, 38.4217, 14.5727, -2.19854, -75.9885, 0.366494
0.412, -1, -7.44191, 38.347, 14.6008, -2.06452, -75.8316, 0.266176
0.416, -1, -7.35791, 38.2724, 14.6288, -1.93064, -75.6748, 0.165968
0.42, -1, -7.274, 38.1979, 14.6569, -1.79692, -75.5183, 0.0658724
0.424, -1, -7.19019, 38.1235, 14.6849, -1.66336, -75.3619, -0.0341072
0.428, -1, -7.10648, 38.0491, 14.7128, -1.52995, -75.2057, -0.133969
0.432, -1, -7.02287, 37.9748, 14.7408, -1.3967, -75.0496, -0.233711
0.436, -1, -6.93935, 37.9007, 14.7687, -1.26362, -74.8938, -0.33333
0.44, -1, -6.85595, 37.8266, 14.7965, -1.1307, -74.7382, -0.432824
0.444, -1, -6.77264, 37.7526, 14.8244, -0.99795, -74.5827, -0.532191
0.448, -1, -6.68945, 37.6787, 14.8522, -0.865375, -74.4275, -0.631429
0.452, -1, -6.60636, 37.6049, 14.8799, -0.732975, -74.2725, -0.730535
0.456, -1, -6.52339, 37.5312, 14.9077, -0.600755, -74.1176, -0.829507
0.46, -1, -6.44053, 37.4576, 14.9353, -0.468716, -73.963, -0.928344
0.464, -1, -6.35778, 37.3842, 14.963, -0.336861, -73.8086, -1.02704
0.468, -1, -6.27515, 37.3108, 14.9906, -0.205193, -73.6545, -1.1256
0.472, -1, -6.19264, 37.2375, 15.0181, -0.0737153, -73.5005, -1.22402
0.476, -1, -6.11024, 37.1643, 15.0457, 0.0575699, -73.3468, -1.32229
0.48, -1, -6.02797, 37.0912, 15.0732, 0.18866, -73.1933, -1.42042
0.484, -1, -5.94582, 37.0183, 15.1006, 0.319552, -73.04, -1.51839
0.488, -1, -5.8638, 36.9454, 15.128, 0.450244, -72.887, -1.61622
0.492, -1, -5.7819, 36.8727, 15.1554, 0.580734, -72.7342, -1.7139
0.496, -1, -5.70012, 36.8001, 15.1827, 0.711018, -72.5817, -1.81142
0.5, -1, -5.61848, 36.7276, 15.2099, 0.841096, -72.4294, -1.90879
0.504, -1, -5.53697, 36.6552, 15.2372, 0.970964, -72.2773, -2.006
0.508, -1, -5.45558, 36.5829, 15.2644, 1.10062, -72.1255, -2.10306
0.512, -1, -5.37433, 36.5108, 15.2915, 1.23006, -71.9739, -2.19995
0.516, -1, -5.29321, 36.4387, 15.3186, 1.35929, -71.8226, -2.29668
0.52, -1, -5.21223, 36.3668, 15.3456, 1.4883, -71.6715, -2.39325
0.524, -1, -5.13138, 36.295, 15.3726, 1.6171, -71.5207, -2.48966
0.528, -1, -5.05067, 36.2233, 15.3996, 1.74567, -71.3702, -2.5859
0.532, -1, -4.97009, 36.1518, 15.4265, 1.87402, -71.2199, -2.68198
0.536, -1, -4.88966, 36.0803, 15.4534, 2.00215, -71.0698, -2.77789
0.54, -1, -4.80936, 36.009, 15.4802, 2.13005, -70.9201, -2.87363
0.544, -1, -4.7292, 35.9378, 15.507, 2.25773, -70.7706, -2.9692
0.548, -1, -4.64919, 35.8668, 15.5337, 2.38518, -70.6213, -3.0646
0.552, -1, -4.56931, 35.7959, 15.5604, 2.51241, -70.4724, -3.15984
0.556, -1, -4.48958, 35.725, 15.587, 2.6394, -70.3237, -3.2549
0.56, -1, -4.41, 35.6544, 15.6136, 2.76617, -70.1752, -3.34979
0.564, -1, -4.33056, 35.5838, 15.6401, 2.8927, -70.0271, -3.44451
0.568, -1, -4.25126, 35.5134, 15.6666, 3.01901, -69.8792, -3.53905
0.572, -1, -4.17211, 35.4431, 15.693, 3.14508, -69.7316, -3.63342
0.576, -1, -4.0931, 35.373, 15.7194, 3.27092, -69.5842, -3.72761
0.58, -1, -4.01424, 35.3029, 15.7458, 3.39652, -69.4372, -3.82163
0.584, -1, -3.93553, 35.233, 15.772, 3.52189, -69.2904, -3.91547
0.588, -1, -3.85696, 35.1633, 15.7983, 3.64702, -69.1438, -4.00914
0.592, -1, -3.77855, 35.0936, 15.8245, 3.77191, -68.9976, -4.10263
0.596, -1, -3.70028, 35.0241, 15.8506, 3.89657, -68.8516, -4.19594
0.6, -1, -3.62216, 34.9548, 15.8767, 4.02099, -68.7059, -4.28908
0.604, -1, -3.54419, 34.8855, 15.9027, 4.14517, -68.5605, -4.38203
0.608, -1, -3.46637, 34.8164, 15.9287, 4.26911, -68.4154, -4.47481
0.612, -1, -3.3887, 34.7474, 15.9547, 4.39281, -68.2706, -4.5674
0.616, -1, -3.31118, 34.6786, 15.9806, 4.51628, -68.126, -4.65982
0.62, -1, -3.23382, 34.6099, 16.0064, 4.63949, -67.9817, -4.75205
0.624, -1, -3.1566, 34.5413, 16.0322, 4.76247, -67.8377, -4.84411
0.628, -1, -3.07954, 34.4729, 16.0579, 4.88521, -67.694, -4.93598
0.632, -1, -3.00262, 34.4046, 16.0836, 5.0077, -67.5506, -5.02767
0.636, -1, -2.92586, 34.3364, 16.1092, 5.12995, -67.4074, -5.11918
0.64, -1, -2.84926, 34.2684, 16.1348, 5.25195, -67.2646, -5.2105
0.644, -1, -2.7728, 34.2005, 16.1604, 5.37371, -67.122, -5.30165
0.648, -1, -2.6965, 34.1328, 16.1858, 5.49523, -66.9797, -5.39261
0.652, -1, -2.62035, 34.0652, 16.2113, 5.6165, -66.8377, -5.48338
0.656, -1, -2.54436, 33.9977, 16.2366, 5.73753, -66.696, -5.57398
0.66, -1, -2.46852, 33.9303, 16.262, 5.85831, -66.5546, -5.66439
0.664, -1, -2.39283, 33.8631, 16.2872, 5.97884, -66.4135, -5.75461
0.668, -1, -2.3173, 33.7961, 16.3125, 6.09913, -66.2726, -5.84465
0.672, -1, -2.24192, 33.7291, 16.3376, 6.21917, -66.1321, -5.93451
0.676, -1, -2.1667, 33.6623, 16.3628, 6.33897, -65.9918, -6.02418
0.68, -1, -2.09163, 33.5957, 16.3878, 6.45851, -65.8518, -6.11367
0.684, -1, -2.01672, 33.5292, 16.4129, 6.57781, -65.7121, -6.20297
0.688, -1, -1.94196, 33.4628, 16.4378, 6.69687, -65.5727, -6.29208
0.692, -1, -1.86736, 33.3965, 16.4627, 6.81567, -65.4336, -6.38101
0.696, -1, -1.79291, 33.3304, 16.4876, 6.93423, -65.2948, -6.46976
0.7, -1, -1.71862, 33.2645, 16.5124, 7.05254, -65.1562, -6.55832
0.704, -1, -1.64448, 33.1986, 16.5372, 7.1706, -65.018, -6.64669
0.708, -1, -1.5705, 33.1329, 16.5619, 7.28841, -64.8801, -6.73488
0.712, -1, -1.49668, 33.0674, 16.5865, 7.40597, -64.7424, -6.82288
0.716, -1, -1.42301, 33.002, 16.6111, 7.52329, -64.605, -6.9107
0.72, -1, -1.34949, 32.9367, 16.6357, 7.64036, -64.468, -6.99833
0.724, -1, -1.27614, 32.8715, 16.6602, 7.75718, -64.3312, -7.08577
0.728, -1, -1.20293, 32.8065, 16.6846, 7.87375, -64.1947, -7.17303
0.732, -1, -1.12989, 32.7417, 16.709, 7.99007, -64.0585, -7.2601
0.736, -1, -1.057, 32.677, 16.7333, 8.10615, -63.9226, -7.34699
0.74, -1, -0.984259, 32.6124, 16.7576, 8.22197, -63.7869, -7.43369
0.744, -1, -0.911678, 32.5479, 16.7819, 8.33755, -63.6516, -7.52021
0.748, -1, -0.839252, 32.4836, 16.8061, 8.45288, -63.5166, -7.60653
0.752, -1, -0.766981, 32.4194, 16.8302, 8.56796, -63.3818, -7.69268
0.756, -1, -0.694864, 32.3554, 16.8543, 8.6828, -63.2474, -7.77864
0.76, -1, -0.622901, 32.2915, 16.8783, 8.79738, -63.1132, -7.86441
0.764, -1, -0.551092, 32.2277, 16.9023, 8.91172, -62.9793, -7.95
0.768, -1, -0.479437, 32.1641, 16.9262, 9.02582, -62.8457, -8.0354
0.772, -1, -0.407935, 32.1006, 16.9501, 9.13966, -62.7124, -8.12062
0.776, -1, -0.336586, 32.0373, 16.9739, 9.25326, -62.5794, -8.20566
0.78, -1, -0.26539, 31.9741, 16.9977, 9.36662, -62.4467, -8.29051
0.784, -1, -0.194346, 31.911, 17.0214, 9.47973, -62.3142, -8.37518
0.788, -1, -0.123455, 31.848, 17.0451, 9.5926, -62.182, -8.45966
0.792, -1, -0.0527154, 31.7852, 17.0687, 9.70522, -62.0502, -8.54397
0.796, -1, 0.0178725, 31.7226, 17.0923, 9.81761, -61.9186, -8.62809
0.8, -1, 0.0883091, 31.66, 17.1158, 9.92975, -61.7873, -8.71204
0.804, -1, 0.158595, 31.5976, 17.1393, 10.0417, -61.6562, -8.7958
0.808, -1, 0.22873, 31.5353, 17.1627, 10.1533, -61.5255, -8.87938
0.812, -1, 0.298716, 31.4732, 17.186, 10.2647, -61.395, -8.96279
0.816, -1, 0.368552, 31.4112, 17.2094, 10.3759, -61.2648, -9.04602
0.82, -1, 0.438239, 31.3493, 17.2326, 10.4869, -61.1349, -9.12907
0.824, -1, 0.507778, 31.2876, 17.2559, 10.5976, -61.0053, -9.21194
0.828, -1, 0.577169, 31.226, 17.279, 10.7081, -60.8759, -9.29464
0.832, -1, 0.646413, 31.1645, 17.3021, 10.8183, -60.7468, -9.37716
0.836, -1, 0.71551, 31.1031, 17.3252, 10.9283, -60.618, -9.45951
0.84, -1, 0.78446, 31.0419, 17.3482, 11.0381, -60.4895, -9.54168
0.844, -1, 0.853266, 30.9808, 17.3712, 11.1476, -60.3612, -9.62368
0.848, -1, 0.921925, 30.9199, 17.3941, 11.2569, -60.2332, -9.7055
0.852, -1, 0.990441, 30.859, 17.417, 11.366, -60.1055, -9.78716
0.856, -1, 1.05881, 30.7983, 17.4398, 11.4749, -59.9781, -9.86864
0.86, -1, 1.12704, 30.7378, 17.4626, 11.5835, -59.8509, -9.94995
0.864, -1, 1.19512, 30.6773, 17.4854, 11.6919, -59.7239, -10.0311
0.868, -1, 1.26307, 30.617, 17.508, 11.8001, -59.5973, -10.1121
0.872, -1, 1.33087, 30.5568, 17.5307, 11.908, -59.4709, -10.1929
0.876, -1, 1.39853, 30.4967, 17.5533, 12.0157, -59.3448, -10.2735
0.88, -1, 1.46604, 30.4368, 17.5758, 12.1232, -59.2189, -10.354
0.884, -1, 1.53342, 30.377, 17.5983, 12.2305, -59.0933, -10.4343
0.888, -1, 1.60066, 30.3173, 17.6208, 12.3375, -58.9679, -10.5144
0.892, -1, 1.66775, 30.2577, 17.6432, 12.4444, -58.8429, -10.5943
0.896, -1, 1.73471, 30.1982, 17.6655, 12.551, -58.718, -10.6741
0.9, -1, 1.80153, 30.1389, 17.6878, 12.6574, -58.5935, -10.7538
0.904, -1, 1.86821, 30.0797, 17.7101, 12.7635, -58.4692, -10.8332
0.908, -1, 1.93476, 30.0206, 17.7323, 12.8695, -58.3451, -10.9125
0.912, -1, 2.00117, 29.9617, 17.7545, 12.9752, -58.2213, -10.9917
0.916, -1, 2.06744, 29.9028, 17.7766, 13.0807, -58.0978, -11.0707
0.92, -1, 2.13357, 29.8441, 17.7987, 13.186, -57.9745, -11.1495
0.924, -1, 2.19957, 29.7855, 17.8207, 13.2911, -57.8514, -11.2281
0.928, -1, 2.26543, 29.727, 17.8427, 13.3959, -57.7287, -11.3066
0.932, -1, 2.33116, 29.6687, 17.8647, 13.5006, -57.6061, -11.385
0.936, -1, 2.39676, 29.6104, 17.8866, 13.605, -57.4838, -11.4631
0.94, -1, 2.46222, 29.5523, 17.9084, 13.7092, -57.3618, -11.5412
0.944, -1, 2.52755, 29.4943, 17.9303, 13.8133, -57.24, -11.619
0.948, -1, 2.59275, 29.4364, 17.952, 13.9171, -57.1185, -11.6967
0.952, -1, 2.65781, 29.3787, 17.9738, 14.0206, -56.9972, -11.7743
0.956, -1, 2.72274, 29.321, 17.9954, 14.124, -56.8761, -11.8516
0.96, -1, 2.78755, 29.2635, 18.0171, 14.2272, -56.7553, -11.9289
0.964, -1, 2.85222, 29.2061, 18.0387, 14.3302, -56.6348, -12.0059
0.968, -1, 2.91676, 29.1488, 18.0602, 14.4329, -56.5144, -12.0829
0.972, -1, 2.98117, 29.0916, 18.0817, 14.5355, -56.3944, -12.1596
0.976, -1, 3.04545, 29.0345, 18.1032, 14.6378, -56.2745, -12.2362
0.98, -1, 3.10961, 28.9775, 18.1246, 14.7399, -56.1549, -12.3127
0.984, -1, 3.17363, 28.9207, 18.146, 14.8419, -56.0356, -12.389
0.988, -1, 3.23753, 28.864, 18.1673, 14.9436, -55.9165, -12.4651
0.992, -1, 3.3013, 28.8074, 18.1886, 15.0451, -55.7976, -12.5411
0.996, -1, 3.36494, 28.7508, 18.2099, 15.1465, -55.6789, -12.617
1, -1, 3.42846, 28.6945, 18.2311, 15.2476, -55.5605, -12.6927
1.004, -1, 3.49185, 28.6382, 18.2523, 15.3485, -55.4423, -12.7682
1.008, -1, 3.55512, 28.582, 18.2734, 15.4492, -55.3244, -12.8436
1.012, -1, 3.61826, 28.5259, 18.2945, 15.5498, -55.2067, -12.9189
1.016, -1, 3.68127, 28.47, 18.3155, 15.6501, -55.0892, -12.994
1.02, -1, 3.74416, 28.4142, 18.3365, 15.7502, -54.972, -13.0689
1.024, -1, 3.80693, 28.3584, 18.3575, 15.8502, -54.855, -13.1437
1.027, -1, 3.86958, 28.3028, 18.3784, 15.9499, -54.7382, -13.2184
1.032, -1, 3.9321, 28.2473, 18.3993, 16.0494, -54.6216, -13.2929
1.036, -1, 3.9945, 28.1919, 18.4201, 16.1488, -54.5053, -13.3673
1.04, -1, 4.05678, 28.1366, 18.4409, 16.2479, -54.3892, -13.4415
1.044, -1, 4.11893, 28.0814, 18.4616, 16.3469, -54.2733, -13.5156
1.048, -1, 4.18097, 28.0263, 18.4824, 16.4457, -54.1577, -13.5895
1.052, -1, 4.24289, 27.9714, 18.503, 16.5442, -54.0422, -13.6633
1.055, -1, 4.30468, 27.9165, 18.5237, 16.6426, -53.927, -13.7369
1.06, -1, 4.36636, 27.8617, 18.5443, 16.7408, -53.8121, -13.8104
1.064, -1, 4.42792, 27.8071, 18.5648, 16.8388, -53.6973, -13.8838
1.068, -1, 4.48936, 27.7525, 18.5853, 16.9366, -53.5828, -13.957
1.072, -1, 4.55068, 27.6981, 18.6058, 17.0343, -53.4685, -14.0301
1.076, -1, 4.61188, 27.6438, 18.6262, 17.1317, -53.3544, -14.103
1.08, -1, 4.67297, 27.5895, 18.6466, 17.229, -53.2405, -14.1758
1.084, -1, 4.73394, 27.5354, 18.667, 17.326, -53.1268, -14.2485
1.088, -1, 4.7948, 27.4814, 18.6873, 17.4229, -53.0134, -14.321
1.091, -1, 4.85554, 27.4274, 18.7076, 17.5196, -52.9002, -14.3934
1.096, -1, 4.91617, 27.3736, 18.7278, 17.6161, -52.7871, -14.4656
1.1, -1, 4.97668, 27.3199, 18.7481, 17.7125, -52.6743, -14.5378
1.104, -1, 5.03708, 27.2663, 18.7682, 17.8086, -52.5618, -14.6097
1.108, -1, 5.09737, 27.2127, 18.7883, 17.9046, -52.4494, -14.6816
1.112, -1, 5.15754, 27.1593, 18.8084, 18.0004, -52.3372, -14.7533
1.116, -1, 5.2176, 27.106, 18.8285, 18.096, -52.2253, -14.8249
1.119, -1, 5.27755, 27.0528, 18.8485, 18.1915, -52.1135, -14.8963
1.124, -1, 5.33739, 26.9996, 18.8685, 18.2867, -52.0019, -14.9676
1.128, -1, 5.39712, 26.9466, 18.8884, 18.3818, -51.8906, -15.0388
1.132, -1, 5.45673, 26.8937, 18.9083, 18.4767, -51.7795, -15.1098
1.136, -1, 5.51624, 26.8408, 18.9282, 18.5715, -51.6685, -15.1807
1.14, -1, 5.57564, 26.7881, 18.948, 18.666, -51.5578, -15.2515
1.144, -1, 5.63493, 26.7355, 18.9678, 18.7604, -51.4473, -15.3222
1.147, -1, 5.69412, 26.6829, 18.9876, 18.8547, -51.337, -15.3927
1.152, -1, 5.75319, 26.6305, 19.0073, 18.9487, -51.2268, -15.4631
1.156, -1, 5.81216, 26.5781, 19.027, 19.0426, -51.1169, -15.5334
1.16, -1, 5.87103, 26.5259, 19.0467, 19.1363, -51.0072, -15.6035
1.164, -1, 5.92979, 26.4737, 19.0663, 19.2298, -50.8976, -15.6736
1.168, -1, 5.98844, 26.4216, 19.0859, 19.3232, -50.7883, -15.7435
1.172, -1, 6.04699, 26.3696, 19.1054, 19.4164, -50.6792, -15.8132
1.175, -1, 6.10543, 26.3177, 19.1249, 19.5095, -50.5702, -15.8829
1.18, -1, 6.16377, 26.266, 19.1444, 19.6024, -50.4614, -15.9524
1.184, -1, 6.22201, 26.2142, 19.1639, 19.6951, -50.3529, -16.0218
1.188, -1, 6.28015, 26.1626, 19.1833, 19.7876, -50.2445, -16.0911
1.192, -1, 6.33818, 26.1111, 19.2027, 19.88, -50.1363, -16.1603
1.196, -1, 6.39611, 26.0597, 19.222, 19.9723, -50.0283, -16.2293
1.2, -1, 6.45394, 26.0083, 19.2413, 20.0643, -49.9205, -16.2982
1.204, -1, 6.51167, 25.9571, 19.2606, 20.1562, -49.8129, -16.367
1.208, -1, 6.5693, 25.9059, 19.2798, 20.248, -49.7055, -16.4357
1.212, -1, 6.62683, 25.8548, 19.299, 20.3396, -49.5982, -16.5042
1.216, -1, 6.68426, 25.8038, 19.3182, 20.431, -49.4912, -16.5727
1.22, -1, 6.74159, 25.7529, 19.3374, 20.5223, -49.3843, -16.641
1.224, -1, 6.79882, 25.7021, 19.3565, 20.6134, -49.2776, -16.7092
1.228, -1, 6.85596, 25.6514, 19.3756, 20.7044, -49.1711, -16.7773
1.232, -1, 6.91299, 25.6008, 19.3946, 20.7952, -49.0648, -16.8453
1.236, -1, 6.96993, 25.5502, 19.4136, 20.8858, -48.9586, -16.9131
1.24, -1, 7.02678, 25.4997, 19.4326, 20.9763, -48.8526, -16.9809
1.244, -1, 7.08352, 25.4494, 19.4515, 21.0667, -48.7469, -17.0485
1.248, -1, 7.14018, 25.3991, 19.4705, 21.1569, -48.6413, -17.116
1.252, -1, 7.19673, 25.3488, 19.4893, 21.2469, -48.5358, -17.1834
1.256, -1, 7.25319, 25.2987, 19.5082, 21.3368, -48.4306, -17.2507
1.26, -1, 7.30956, 25.2487, 19.527, 21.4266, -48.3255, -17.3179
1.264, -1, 7.36583, 25.1987, 19.5458, 21.5161, -48.2206, -17.385
1.267, -1, 7.42201, 25.1488, 19.5646, 21.6056, -48.1158, -17.4519
1.272, -1, 7.4781, 25.099, 19.5833, 21.6949, -48.0113, -17.5188
1.276, -1, 7.53409, 25.0493, 19.602, 21.784, -47.9069, -17.5855
1.28, -1, 7.58999, 24.9997, 19.6207, 21.873, -47.8027, -17.6521
1.284, -1, 7.6458, 24.9501, 19.6393, 21.9619, -47.6986, -17.7186
1.288, -1, 7.70152, 24.9007, 19.6579, 22.0506, -47.5948, -17.785
1.292, -1, 7.75715, 24.8513, 19.6765, 22.1392, -47.4911, -17.8513
1.295, -1, 7.81268, 24.802, 19.695, 22.2276, -47.3875, -17.9175
1.3, -1, 7.86813, 24.7528, 19.7135, 22.3159, -47.2842, -17.9836
1.304, -1, 7.92348, 24.7036, 19.732, 22.404, -47.181, -18.0496
1.308, -1, 7.97875, 24.6545, 19.7505, 22.492, -47.0779, -18.1154
1.312, -1, 8.03393, 24.6055, 19.7689, 22.5798, -46.9751, -18.1812
1.316, -1, 8.08901, 24.5566, 19.7873, 22.6675, -46.8724, -18.2468
1.32, -1, 8.14401, 24.5078, 19.8057, 22.7551, -46.7699, -18.3124
1.324, -1, 8.19893, 24.4591, 19.824, 22.8425, -46.6675, -18.3778
1.328, -1, 8.25375, 24.4104, 19.8423, 22.9298, -46.5653, -18.4432
1.332, -1, 8.30849, 24.3618, 19.8606, 23.017, -46.4632, -18.5084
1.336, -1, 8.36314, 24.3133, 19.8788, 23.104, -46.3614, -18.5735
1.34, -1, 8.4177, 24.2648, 19.8971, 23.1909, -46.2596, -18.6386
1.344, -1, 8.47218, 24.2165, 19.9153, 23.2776, -46.1581, -18.7035
1.348, -1, 8.52657, 24.1682, 19.9334, 23.3642, -46.0567, -18.7683
1.352, -1, 8.58088, 24.1199, 19.9515, 23.4507, -45.9554, -18.833
1.356, -1, 8.6351, 24.0718, 19.9697, 23.537, -45.8543, -18.8976
1.36, -1, 8.68923, 24.0237, 19.9877, 23.6232, -45.7534, -18.9622
1.364, -1, 8.74328, 23.9757, 20.0058, 23.7092, -45.6526, -19.0266
1.368, -1, 8.79725, 23.9278, 20.0238, 23.7952, -45.552, -19.0909
1.372, -1, 8.85114, 23.88, 20.0418, 23.881, -45.4516, -19.1551
1.376, -1, 8.90494, 23.8322, 20.0598, 23.9666, -45.3513, -19.2192
1.38, -1, 8.95866, 23.7845, 20.0777, 24.0521, -45.2511, -19.2833
1.384, -1, 9.01229, 23.7369, 20.0956, 24.1375, -45.1511, -19.3472
1.388, -1, 9.06584, 23.6894, 20.1135, 24.2228, -45.0513, -19.411
1.392, -1, 9.11932, 23.6419, 20.1314, 24.3079, -44.9516, -19.4747
1.396, -1, 9.1727, 23.5945, 20.1492, 24.393, -44.8521, -19.5384
1.4, -1, 9.22601, 23.5472, 20.167, 24.4778, -44.7527, -19.6019
1.404, -1, 9.27924, 23.4999, 20.1848, 24.5626, -44.6535, -19.6653
1.408, -1, 9.33239, 23.4527, 20.2025, 24.6472, -44.5544, -19.7287
1.412, -1, 9.38546, 23.4056, 20.2202, 24.7317, -44.4554, -19.7919
1.416, -1, 9.43844, 23.3585, 20.2379, 24.8161, -44.3567, -19.8551
1.42, -1, 9.49135, 23.3116, 20.2556, 24.9003, -44.258, -19.9181
1.424, -1, 9.54418, 23.2647, 20.2732, 24.9844, -44.1595, -19.9811
1.428, -1, 9.59693, 23.2178, 20.2908, 25.0684, -44.0612, -20.044
1.432, -1, 9.6496, 23.1711, 20.3084, 25.1523, -43.963, -20.1067
1.436, -1, 9.7022, 23.1244, 20.326, 25.236, -43.865, -20.1694
1.44, -1, 9.75472, 23.0777, 20.3435, 25.3196, -43.767, -20.232
1.444, -1, 9.80716, 23.0312, 20.361, 25.4031, -43.6693, -20.2945
1.448, -1, 9.85952, 22.9847, 20.3785, 25.4865, -43.5717, -20.3569
1.452, -1, 9.91181, 22.9383, 20.396, 25.5697, -43.4742, -20.4192
1.456, -1, 9.96403, 22.8919, 20.4134, 25.6528, -43.3769, -20.4814
1.46, -1, 10.0162, 22.8456, 20.4308, 25.7358, -43.2797, -20.5436
1.464, -1, 10.0682, 22.7994, 20.4482, 25.8187, -43.1826, -20.6056
1.468, -1, 10.1202, 22.7533, 20.4656, 25.9015, -43.0857, -20.6676
1.472, -1, 10.1721, 22.7072, 20.4829, 25.9841, -42.989, -20.7294
1.476, -1, 10.224, 22.6612, 20.5002, 26.0666, -42.8923, -20.7912
1.48, -1, 10.2757, 22.6152, 20.5175, 26.149, -42.7958, -20.8529
1.484, -1, 10.3274, 22.5693, 20.5348, 26.2313, -42.6995, -20.9145
1.488, -1, 10.379, 22.5235, 20.552, 26.3135, -42.6033, -20.976
1.492, -1, 10.4306, 22.4777, 20.5692, 26.3956, -42.5072, -21.0374
1.496, -1, 10.482, 22.432, 20.5864, 26.4775, -42.4113, -21.0987
1.5, -1, 10.5334, 22.3864, 20.6035, 26.5593, -42.3154, -21.16
1.504, -1, 10.5848, 22.3408, 20.6207, 26.641, -42.2198, -21.2212
1.508, -1, 10.636, 22.2953, 20.6378, 26.7226, -42.1242, -21.2822
1.512, -1, 10.6872, 22.2499, 20.6549, 26.8041, -42.0288, -21.3432
1.516, -1, 10.7383, 22.2045, 20.6719, 26.8855, -41.9336, -21.4041
1.52, -1, 10.7893, 22.1592, 20.689, 26.9667, -41.8384, -21.4649
1.524, -1, 10.8403, 22.114, 20.706, 27.0479, -41.7434, -21.5257
1.528, -1, 10.8912, 22.0688, 20.723, 27.1289, -41.6485, -21.5863
1.532, -1, 10.942, 22.0237, 20.74, 27.2098, -41.5538, -21.6469
1.536, -1, 10.9928, 21.9786, 20.7569, 27.2906, -41.4592, -21.7074
1.54, -1, 11.0435, 21.9336, 20.7738, 27.3713, -41.3647, -21.7678
1.544, -1, 11.0941, 21.8887, 20.7908, 27.4519, -41.2703, -21.8281
1.548, -1, 11.1446, 21.8438, 20.8076, 27.5324, -41.1761, -21.8884
1.552, -1, 11.1951, 21.799, 20.8245, 27.6127, -41.082, -21.9485
1.556, -1, 11.2455, 21.7542, 20.8413, 27.693, -40.988, -22.0086
1.56, -1, 11.2959, 21.7095, 20.8581, 27.7732, -40.8941, -22.0686
1.564, -1, 11.3462, 21.6649, 20.8749, 27.8532, -40.8004, -22.1285
1.568, -1, 11.3964, 21.6203, 20.8917, 27.9331, -40.7068, -22.1884
1.572, -1, 11.4465, 21.5758, 20.9084, 28.013, -40.6133, -22.2481
1.576, -1, 11.4966, 21.5313, 20.9251, 28.0927, -40.52, -22.3078
1.58, -1, 11.5466, 21.4869, 20.9418, 28.1723, -40.4268, -22.3674
1.584, -1, 11.5965, 21.4426, 20.9585, 28.2518, -40.3336, -22.4269
1.588, -1, 11.6464, 21.3983, 20.9752, 28.3313, -40.2407, -22.4864
1.592, -1, 11.6962, 21.3541, 20.9918, 28.4106, -40.1478, -22.5457
1.596, -1, 11.746, 21.3099, 21.0084, 28.4898, -40.0551, -22.605
1.6, -1, 11.7957, 21.2658, 21.025, 28.5689, -39.9624, -22.6642
1.604, -1, 11.8453, 21.2217, 21.0416, 28.6479, -39.8699, -22.7234
1.608, -1, 11.8948, 21.1778, 21.0581, 28.7268, -39.7776, -22.7824
1.612, -1, 11.9443, 21.1338, 21.0747, 28.8055, -39.6853, -22.8414
1.616, -1, 11.9938, 21.0899, 21.0912, 28.8842, -39.5932, -22.9003
1.62, -1, 12.0431, 21.0461, 21.1076, 28.9628, -39.5011, -22.9591
1.624, -1, 12.0924, 21.0023, 21.1241, 29.0413, -39.4092, -23.0179
1.628, -1, 12.1417, 20.9586, 21.1405, 29.1197, -39.3174, -23.0765
1.632, -1, 12.1908, 20.915, 21.157, 29.198, -39.2258, -23.1352
1.636, -1, 12.2399, 20.8714, 21.1734, 29.2762, -39.1342, -23.1937
1.64, -1, 12.289, 20.8278, 21.1897, 29.3543, -39.0428, -23.2521
1.644, -1, 12.338, 20.7843, 21.2061, 29.4323, -38.9515, -23.3105
1.648, -1, 12.3869, 20.7409, 21.2224, 29.5102, -38.8603, -23.3688
1.652, -1, 12.4358, 20.6975, 21.2388, 29.588, -38.7692, -23.4271
1.656, -1, 12.4846, 20.6542, 21.2551, 29.6657, -38.6782, -23.4852
1.66, -1, 12.5333, 20.6109, 21.2713, 29.7433, -38.5873, -23.5433
1.664, -1, 12.582, 20.5677, 21.2876, 29.8208, -38.4966, -23.6013
1.668, -1, 12.6306, 20.5245, 21.3038, 29.8982, -38.4059, -23.6593
1.672, -1, 12.6792, 20.4814, 21.32, 29.9755, -38.3154, -23.7171
1.676, -1, 12.7277, 20.4384, 21.3362, 30.0527, -38.225, -23.7749
1.68, -1, 12.7761, 20.3953, 21.3524, 30.1298, -38.1347, -23.8327
1.684, -1, 12.8245, 20.3524, 21.3686, 30.2069, -38.0445, -23.8903
1.688, -1, 12.8728, 20.3095, 21.3847, 30.2838, -37.9544, -23.9479
1.692, -1, 12.9211, 20.2666, 21.4008, 30.3606, -37.8644, -24.0054
1.696, -1, 12.9693, 20.2238, 21.4169, 30.4374, -37.7746, -24.0629
1.7, -1, 13.0174, 20.1811, 21.433, 30.514, -37.6848, -24.1203
1.704, -1, 13.0655, 20.1384, 21.449, 30.5906, -37.5951, -24.1776
1.708, -1, 13.1136, 20.0958, 21.4651, 30.6671, -37.5056, -24.2348
1.712, -1, 13.1615, 20.0532, 21.4811, 30.7435, -37.4162, -24.292
1.716, -1, 13.2094, 20.0106, 21.4971, 30.8197, -37.3269, -24.3491
1.72, -1, 13.2573, 19.9681, 21.5131, 30.8959, -37.2376, -24.4061
1.724, -1, 13.3051, 19.9257, 21.529, 30.972, -37.1485, -24.4631
1.728, -1, 13.3528, 19.8833, 21.545, 31.0481, -37.0595, -24.52
1.732, -1, 13.4005, 19.841, 21.5609, 31.124, -36.9706, -24.5768
1.736, -1, 13.4482, 19.7987, 21.5768, 31.1998, -36.8818, -24.6336
1.74, -1, 13.4957, 19.7565, 21.5927, 31.2756, -36.7931, -24.6903
1.744, -1, 13.5433, 19.7143, 21.6086, 31.3512, -36.7045, -24.7469
1.748, -1, 13.5907, 19.6721, 21.6244, 31.4268, -36.6161, -24.8035
1.752, -1, 13.6381, 19.63, 21.6402, 31.5023, -36.5277, -24.86
1.756, -1, 13.6855, 19.588, 21.6561, 31.5776, -36.4394, -24.9164
1.76, -1, 13.7328, 19.546, 21.6719, 31.6529, -36.3512, -24.9728
1.764, -1, 13.78, 19.5041, 21.6876, 31.7282, -36.2632, -25.0291
1.768, -1, 13.8272, 19.4622, 21.7034, 31.8033, -36.1752, -25.0853
1.772, -1, 13.8743, 19.4203, 21.7191, 31.8783, -36.0873, -25.1415
1.776, -1, 13.9214, 19.3785, 21.7348, 31.9533, -35.9996, -25.1976
1.78, -1, 13.9684, 19.3368, 21.7505, 32.0281, -35.9119, -25.2536
1.784, -1, 14.0154, 19.2951, 21.7662, 32.1029, -35.8243, -25.3096
1.788, -1, 14.0623, 19.2534, 21.7819, 32.1776, -35.7369, -25.3655
1.792, -1, 14.1092, 19.2118, 21.7975, 32.2522, -35.6495, -25.4214
1.796, -1, 14.156, 19.1703, 21.8132, 32.3268, -35.5622, -25.4772
1.8, -1, 14.2027, 19.1288, 21.8288, 32.4012, -35.4751, -25.5329
1.804, -1, 14.2494, 19.0873, 21.8444, 32.4756, -35.388, -25.5886
1.808, -1, 14.2961, 19.0459, 21.86, 32.5498, -35.301, -25.6442
1.812, -1, 14.3427, 19.0045, 21.8755, 32.624, -35.2142, -25.6997
1.816, -1, 14.3892, 18.9632, 21.8911, 32.6981, -35.1274, -25.7552
1.82, -1, 14.4357, 18.9219, 21.9066, 32.7722, -35.0407, -25.8106
1.824, -1, 14.4822, 18.8807, 21.9221, 32.8461, -34.9541, -25.8659
1.828, -1, 14.5286, 18.8395, 21.9376, 32.92, -34.8676, -25.9212
1.832, -1, 14.5749, 18.7983, 21.9531, 32.9938, -34.7813, -25.9764
1.836, -1, 14.6212, 18.7572, 21.9685, 33.0675, -34.695, -26.0316
1.84, -1, 14.6674, 18.7162, 21.984, 33.1411, -34.6088, -26.0867
1.844, -1, 14.7136, 18.6752, 21.9994, 33.2146, -34.5227, -26.1418
1.848, -1, 14.7598, 18.6342, 22.0148, 33.2881, -34.4367, -26.1967
1.852, -1, 14.8058, 18.5933, 22.0302, 33.3614, -34.3507, -26.2517
1.856, -1, 14.8519, 18.5524, 22.0456, 33.4347, -34.2649, -26.3065
1.86, -1, 14.8979, 18.5116, 22.0609, 33.5079, -34.1792, -26.3613
1.864, -1, 14.9438, 18.4708, 22.0762, 33.5811, -34.0936, -26.4161
1.868, -1, 14.9897, 18.4301, 22.0916, 33.6541, -34.008, -26.4708
1.872, -1, 15.0355, 18.3894, 22.1069, 33.7271, -33.9226, -26.5254
1.876, -1, 15.0813, 18.3487, 22.1222, 33.8, -33.8372, -26.58
1.88, -1, 15.127, 18.3081, 22.1374, 33.8728, -33.7519, -26.6345
1.884, -1, 15.1727, 18.2676, 22.1527, 33.9456, -33.6668, -26.6889
1.888, -1, 15.2184, 18.227, 22.1679, 34.0182, -33.5817, -26.7433
1.892, -1, 15.264, 18.1866, 22.1832, 34.0908, -33.4967, -26.7976
1.896, -1, 15.3095, 18.1461, 22.1984, 34.1633, -33.4118, -26.8519
1.9, -1, 15.355, 18.1057, 22.2136, 34.2358, -33.3269, -26.9062
1.904, -1, 15.4004, 18.0654, 22.2287, 34.3081, -33.2422, -26.9603
1.908, -1, 15.4458, 18.0251, 22.2439, 34.3804, -33.1576, -27.0144
1.912, -1, 15.4912, 17.9848, 22.259, 34.4526, -33.073, -27.0685
1.916, -1, 15.5365, 17.9446, 22.2742, 34.5248, -32.9886, -27.1225
1.92, -1, 15.5818, 17.9044, 22.2893, 34.5968, -32.9042, -27.1764
1.924, -1, 15.627, 17.8643, 22.3044, 34.6688, -32.8199, -27.2303
1.928, -1, 15.6721, 17.8242, 22.3195, 34.7407, -32.7357, -27.2841
1.932, -1, 15.7173, 17.7841, 22.3345, 34.8126, -32.6516, -27.3379
1.936, -1, 15.7623, 17.7441, 22.3496, 34.8843, -32.5676, -27.3916
1.94, -1, 15.8073, 17.7041, 22.3646, 34.956, -32.4836, -27.4453
1.944, -1, 15.8523, 17.6642, 22.3796, 35.0276, -32.3997, -27.4989
1.948, -1, 15.8973, 17.6243, 22.3946, 35.0992, -32.316, -27.5524
1.952, -1, 15.9422, 17.5844, 22.4096, 35.1707, -32.2323, -27.6059
1.956, -1, 15.987, 17.5446, 22.4246, 35.2421, -32.1487, -27.6594
1.96, -1, 16.0318, 17.5048, 22.4396, 35.3134, -32.0652, -27.7128
1.964, -1, 16.0765, 17.4651, 22.4545, 35.3846, -31.9817, -27.7661
1.968, -1, 16.1212, 17.4254, 22.4694, 35.4558, -31.8984, -27.8194
1.972, -1, 16.1659, 17.3858, 22.4844, 35.5269, -31.8151, -27.8726
1.976, -1, 16.2105, 17.3461, 22.4993, 35.598, -31.7319, -27.9258
1.98, -1, 16.2551, 17.3066, 22.5141, 35.6689, -31.6488, -27.9789
1.984, -1, 16.2996, 17.267, 22.529, 35.7398, -31.5658, -28.032
1.988, -1, 16.3441, 17.2275, 22.5439, 35.8107, -31.4829, -28.085
1.992, -1, 16.3886, 17.1881, 22.5587, 35.8814, -31.4, -28.138
1.996, -1, 16.433, 17.1487, 22.5735, 35.9521, -31.3173, -28.1909
1.999, -1, 16.4773, 17.1093, 22.5883, 36.0228, -31.2346, -28.2438
2.004, -1, 16.5216, 17.0699, 22.6031, 36.0933, -31.1519, -28.2966
2.008, -1, 16.5659, 17.0306, 22.6179, 36.1638, -31.0694, -28.3493
2.012, -1, 16.6101, 16.9914, 22.6327, 36.2342, -30.987, -28.4021
2.015, -1, 16.6543, 16.9521, 22.6474, 36.3046, -30.9046, -28.4547
2.019, -1, 16.6984, 16.9129, 22.6622, 36.3748, -30.8223, -28.5073
2.024, -1, 16.7425, 16.8738, 22.6769, 36.445, -30.7401, -28.5599
2.028, -1, 16.7866, 16.8347, 22.6916, 36.5152, -30.658, -28.6124
2.031, -1, 16.8306, 16.7956, 22.7063, 36.5853, -30.5759, -28.6648
2.036, -1, 16.8746, 16.7566, 22.721, 36.6553, -30.4939, -28.7172
2.04, -1, 16.9185, 16.7176, 22.7357, 36.7252, -30.412, -28.7696
2.044, -1, 16.9624, 16.6786, 22.7503, 36.7951, -30.3302, -28.8219
2.048, -1, 17.0062, 16.6397, 22.765, 36.8649, -30.2485, -28.8742
2.051, -1, 17.05, 16.6008, 22.7796, 36.9346, -30.1668, -28.9264
2.055, -1, 17.0938, 16.5619, 22.7942, 37.0043, -30.0852, -28.9785
2.06, -1, 17.1375, 16.5231, 22.8088, 37.0739, -30.0037, -29.0306
2.064, -1, 17.1811, 16.4844, 22.8234, 37.1435, -29.9223, -29.0827
2.068, -1, 17.2244, 16.4458, 22.8379, 37.2129, -29.841, -29.1347
2.071, -1, 17.2671, 16.4077, 22.8523, 37.2823, -29.7597, -29.1866
2.076, -1, 17.3088, 16.3701, 22.8666, 37.3515, -29.6787, -29.2384
2.08, -1, 17.3495, 16.3335, 22.8807, 37.4204, -29.5981, -29.29
2.084, -1, 17.3888, 16.2979, 22.8945, 37.4888, -29.518, -29.3412
2.087, -1, 17.4267, 16.2635, 22.9079, 37.5564, -29.4389, -29.3918
2.092, -1, 17.4632, 16.2306, 22.921, 37.6229, -29.3611, -29.4417
2.096, -1, 17.4983, 16.1992, 22.9337, 37.6879, -29.2851, -29.4903
2.1, -1, 17.5321, 16.1694, 22.9459, 37.7508, -29.2115, -29.5374
2.104, -1, 17.5644, 16.1411, 22.9576, 37.8112, -29.1408, -29.5827
2.107, -1, 17.5951, 16.1145, 22.9686, 37.8686, -29.0737, -29.6257
2.111, -1, 17.624, 16.0896, 22.9791, 37.9226, -29.0106, -29.6661
2.116, -1, 17.6513, 16.0662, 22.9888, 37.9726, -28.9521, -29.7035
2.12, -1, 17.6768, 16.044, 22.9978, 38.0183, -28.8986, -29.7378
2.124, -1, 17.7009, 16.023, 23.0061, 38.0595, -28.8504, -29.7686
2.127, -1, 17.7234, 16.0029, 23.0136, 38.0959, -28.8078, -29.7958
2.132, -1, 17.7446, 15.9838, 23.0205, 38.1275, -28.7707, -29.8195
2.136, -1, 17.7642, 15.9657, 23.0267, 38.1546, -28.739, -29.8397
2.14, -1, 17.7823, 15.9489, 23.0321, 38.1772, -28.7125, -29.8566
2.143, -1, 17.7986, 15.9337, 23.0368, 38.1957, -28.6907, -29.8705
2.148, -1, 17.8131, 15.9202, 23.0409, 38.2106, -28.6732, -29.8816
2.152, -1, 17.8259, 15.9085, 23.0443, 38.2223, -28.6594, -29.8904
2.156, -1, 17.8371, 15.8987, 23.0471, 38.2313, -28.6488, -29.8971
2.16, -1, 17.8467, 15.8905, 23.0494, 38.2381, -28.6409, -29.9021
2.163, -1, 17.855, 15.8838, 23.0513, 38.243, -28.635, -29.9058
2.168, -1, 17.8619, 15.8785, 23.0527, 38.2465, -28.6308, -29.9084
2.172, -1, 17.8674, 15.8744, 23.0538, 38.249, -28.6279, -29.9103
2.176, 2, 17.8716, 15.8714, 23.0546, 38.2507, -28.6258, -29.9115
2.179, 2, 17.8747, 15.8692, 23.0552, 38.2519, -28.6245, -29.9124
2.184, 2, 17.8769, 15.8677, 23.0556, 38.2527, -28.6235, -29.913
2.188, 2, 17.8784, 15.8667, 23.0558, 38.2532, -28.6229, -29.9134
2.192, 2, 17.8794, 15.866, 23.056, 38.2536, -28.6224, -29.9137
2.196, 2, 17.8801, 15.8655, 23.0561, 38.2538, -28.6221, -29.9138
2.199, 2, 17.8806, 15.8652, 23.0562, 38.254, -28.6219, -29.914
2.204, 2, 17.8809, 15.865, 23.0563, 38.2541, -28.6218, -29.9141
2.208, 2, 17.8811, 15.8649, 23.0563, 38.2542, -28.6217, -29.9141
2.212, 2, 17.8813, 15.8648, 23.0563, 38.2543, -28.6217, -29.9141
2.216, 2, 17.8814, 15.8647, 23.0564, 38.2543, -28.6216, -29.9142
2.219, 2, 17.8814, 15.8646, 23.0564, 38.2543, -28.6216, -29.9142
2.224, 2, 17.8815, 15.8646, 23.0564, 38.2543, -28.6216, -29.9142
2.228, 2, 17.8815, 15.8646, 23.0564, 38.2543, -28.6215, -29.9142
2.232, 2, 17.8815, 15.8646, 23.0564, 38.2543, -28.6215, -29.9142
2.235, 2, 17.8815, 15.8646, 23.0564, 38.2544, -28.6215, -29.9142
2.24, 2, 17.8815, 15.8646, 23.0564, 38.2544, -28.6215, -29.9142
2.244, 2, 17.8816, 15.8646, 23.0564, 38.2544, -28.6215, -29.9142
2.248, 2, 17.8816, 15.8646, 23.0564, 38.2544, -28.6215, -29.9142
2.252, 2, 17.8816, 15.8646, 23.0564, 38.2544, -28.6215, -29.9142
2.255, 2, 17.8816, 15.8646, 23.0564, 38.2544, -28.6215, -29.9142
2.259, 2, 17.8816, 15.8646, 23.0564, 38.2544, -28.6215, -29.9142
2.264, 2, 17.8816, 15.8645, 23.0564, 38.2544, -28.6215, -29.9142
2.268, 2, 17.8816, 15.8645, 23.0564, 38.2544, -28.6215, -29.9142
2.272, 2, 17.8816, 15.8645, 23.0564, 38.2544, -28.6215, -29.9142
2.275, 2, 17.8816, 15.8645, 23.0564, 38.2544, -28.6215, -29.9142
2.28, 2, 17.8816, 15.8645, 23.0564, 38.2544, -28.6215, -29.9142
2.284, 2, 17.8816, 15.8645, 23.0564, 38.2544, -28.6215, -29.9142
2.288, 2, 17.8816, 15.8645, 23.0564, 38.2544, -28.6215, -29.9142
2.291, 2, 17.8816, 15.8645, 23.0564, 38.2544, -28.6215, -29.9142
2.296, 2, 17.8816, 15.8645, 23.0564, 38.2544, -28.6215, -29.9142
2.3, 2, 17.8816, 15.8645, 23.0564, 38.2544, -28.6215, -29.9142
2.304, 2, 17.8816, 15.8645, 23.0564, 38.2544, -28.6215, -29.9142
2.308, 2, 17.8816, 15.8645, 23.0564, 38.2544, -28.6215, -29.9142
2.311, 2, 17.8816, 15.8645, 23.0564, 38.2544, -28.6215, -29.9142
2.316, 2, 17.8816, 15.8645, 23.0564, 38.2544, -28.6215, -29.9142
2.32, 2, 17.8816, 15.8645, 23.0564, 38.2544, -28.6215, -29.9142
2.324, 2, 17.8816, 15.8645, 23.0564, 38.2544, -28.6215, -29.9142
2.328, 2, 17.8816, 15.8645, 23.0564, 38.2544, -28.6215, -29.9142
2.331, 2, 17.8816, 15.8645, 23.0564, 38.2544, -28.6215, -29.9142
2.336, 2, 17.8816, 15.8645, 23.0564, 38.2544, -28.6215, -29.9142
2.34, 2, 17.8816, 15.8645, 23.0564, 38.2544, -28.6215, -29.9142
2.344, 2, 17.8816, 15.8645, 23.0564, 38.2544, -28.6215, -29.9142
2.347, 2, 17.8816, 15.8645, 23.0564, 38.2544, -28.6215, -29.9142
2.352, 2, 17.8816, 15.8645, 23.0564, 38.2544, -28.6215, -29.9142
2.356, 2, 17.8816, 15.8645, 23.0564, 38.2544, -28.6215, -29.9142
2.36, 2, 17.8816, 15.8645, 23.0564, 38.2544, -28.6215, -29.9142
2.364, 2, 17.8816, 15.8645, 23.0564, 38.2544, -28.6215, -29.9142
2.367, 2, 17.8816, 15.8645, 23.0564, 38.2544, -28.6215, -29.9142
2.372, 2, 17.8816, 15.8645, 23.0564, 38.2544, -28.6215, -29.9142
2.376, 2, 17.8816, 15.8645, 23.0564, 38.2544, -28.6215, -29.9142
2.38, 2, 17.8816, 15.8645, 23.0564, 38.2544, -28.6215, -29.9142
2.383, 2, 17.8816, 15.8645, 23.0564, 38.2544, -28.6215, -29.9142
2.388, 2, 17.8816, 15.8645, 23.0564, 38.2544, -28.6215, -29.9142
2.392, 2, 17.8816, 15.8645, 23.0564, 38.2544, -28.6215, -29.9142
2.396, 2, 17.8816, 15.8645, 23.0564, 38.2544, -28.6215, -29.9142
2.4, 2, 17.8816, 15.8645, 23.0564, 38.2544, -28.6215, -29.9142
2.403, 2, 17.8816, 15.8645, 23.0564, 38.2544, -28.6215, -29.9142
2.408, 2, 17.8816, 15.8645, 23.0564, 38.2544, -28.6215, -29.9142
2.412, 2, 17.8816, 15.8645, 23.0564, 38.2544, -28.6215, -29.9142
2.416, 2, 17.8816, 15.8645, 23.0564, 38.2544, -28.6215, -29.9142
2.42, 2, 17.8816, 15.8645, 23.0564, 38.2544, -28.6215, -29.9142
2.423, 2, 17.8816, 15.8645, 23.0564, 38.2544, -28.6215, -29.9142
2.428, 2, 17.8816, 15.8645, 23.0564, 38.2544, -28.6215, -29.9142
2.432, 2, 17.8816, 15.8645, 23.0564, 38.2544, -28.6215, -29.9142
2.436, 2, 17.8816, 15.8645, 23.0564, 38.2544, -28.6215, -29.9142
2.439, 2, 17.8816, 15.8645, 23.0564, 38.2544, -28.6215, -29.9142
2.444, 2, 17.8816, 15.8645, 23.0564, 38.2544, -28.6215, -29.9142
2.448, 2, 17.8816, 15.8645, 23.0564, 38.2544, -28.6215, -29.9142
2.452, 2, 17.8816, 15.8645, 23.0564, 38.2544, -28.6215, -29.9142
2.456, 2, 17.8816, 15.8645, 23.0564, 38.2544, -28.6215, -29.9142
2.459, 2, 17.8816, 15.8645, 23.0564, 38.2544, -28.6215, -29.9142
2.464, 2, 17.8816, 15.8645, 23.0564, 38.2544, -28.6215, -29.9142
2.468, 2, 17.8816, 15.8645, 23.0564, 38.2544, -28.6215, -29.9142
2.472, 2, 17.8816, 15.8645, 23.0564, 38.2544, -28.6215, -29.9142
2.476, 2, 17.8816, 15.8645, 23.0564, 38.2544, -28.6215, -29.9142
2.479, 2, 17.8816, 15.8645, 23.0564, 38.2544, -28.6215, -29.9142
2.484, 2, 17.8816, 15.8645, 23.0564, 38.2544, -28.6215, -29.9142
2.488, 2, 17.8816, 15.8645, 23.0564, 38.2544, -28.6215, -29.9142
2.492, 2, 17.8816, 15.8645, 23.0564, 38.2544, -28.6215, -29.9142
2.495, 2, 17.8816, 15.8645, 23.0564, 38.2544, -28.6215, -29.9142
2.5, 2, 17.8816, 15.8645, 23.0564, 38.2544, -28.6215, -29.9142
2.504, 2, 17.8816, 15.8645, 23.0564, 38.2544, -28.6215, -29.9142
2.508, 2, 17.8816, 15.8645, 23.0564, 38.2544, -28.6215, -29.9142
2.512, 2, 17.8816, 15.8645, 23.0564, 38.2544, -28.6215, -29.9142
2.515, 2, 17.8816, 15.8645, 23.0564, 38.2544, -28.6215, -29.9142
2.52, 2, 17.8816, 15.8645, 23.0564, 38.2544, -28.6215, -29.9142
2.524, 2, 17.8816, 15.8645, 23.0564, 38.2544, -28.6215, -29.9142
2.528, 2, 17.8816, 15.8645, 23.0564, 38.2544, -28.6215, -29.9142
2.531, 2, 17.8816, 15.8645, 23.0564, 38.2544, -28.6215, -29.9142
2.536, 2, 17.8816, 15.8645, 23.0564, 38.2544, -28.6215, -29.9142
2.54, 2, 17.8816, 15.8645, 23.0564, 38.2544, -28.6215, -29.9142
2.544, 2, 17.8816, 15.8645, 23.0564, 38.2544, -28.6215, -29.9142
2.548, 2, 17.8816, 15.8645, 23.0564, 38.2544, -28.6215, -29.9142
2.551, 2, 17.8816, 15.8645, 23.0564, 38.2544, -28.6215, -29.9142
2.556, 2, 17.8816, 15.8645, 23.0564, 38.2544, -28.6215, -29.9142
2.56, 2, 17.8816, 15.8645, 23.0564, 38.2544, -28.6215, -29.9142
2.564, 2, 17.8816, 15.8645, 23.0564, 38.2544, -28.6215, -29.9142
2.568, 2, 17.8816, 15.8645, 23.0564, 38.2544, -28.6215, -29.9142
2.571, 2, 17.8816, 15.8645, 23.0564, 38.2544, -28.6215, -29.9142
2.576, 2, 17.8816, 15.8645, 23.0564, 38.2544, -28.6215, -29.9142
2.58, 2, 17.8816, 15.8645, 23.0564, 38.2544, -28.6215, -29.9142
2.584, 2, 17.8816, 15.8645, 23.0564, 38.2544, -28.6215, -29.9142
2.587, 2, 17.8816, 15.8645, 23.0564, 38.2544, -28.6215, -29.9142
2.592, 2, 17.8816, 15.8645, 23.0564, 38.2544, -28.6215, -29.9142
2.596, 2, 17.8816, 15.8645, 23.0564, 38.2544, -28.6215, -29.9142
2.6, 2, 17.8816, 15.8645, 23.0564, 38.2544, -28.6215, -29.9142
2.604, 2, 17.8816, 15.8645, 23.0564, 38.2544, -28.6215, -29.9142
2.607, 2, 17.8816, 15.8645, 23.0564, 38.2544, -28.6215, -29.9142
2.612, 2, 17.8816, 15.8645, 23.0564, 38.2544, -28.6215, -29.9142
2.616, 2, 17.8816, 15.8645, 23.0564, 38.2544, -28.6215, -29.9142
2.62, 2, 17.8816, 15.8645, 23.0564, 38.2544, -28.6215, -29.9142
2.624, 2, 17.8816, 15.8645, 23.0564, 38.2544, -28.6215, -29.9142
2.627, 2, 17.8816, 15.8645, 23.0564, 38.2544, -28.6215, -29.9142
2.632, 2, 17.8816, 15.8645, 23.0564, 38.2544, -28.6215, -29.9142
2.636, 2, 17.8816, 15.8645, 23.0564, 38.2544, -28.6215, -29.9142
2.64, 2, 17.8816, 15.8645, 23.0564, 38.2544, -28.6215, -29.9142
2.643, 2, 17.8816, 15.8645, 23.0564, 38.2544, -28.6215, -29.9142
2.648, 2, 17.8816, 15.8645, 23.0564, 38.2544, -28.6215, -29.9142
2.652, 2, 17.8816, 15.8645, 23.0564, 38.2544, -28.6215, -29.9142
2.656, 2, 17.8816, 15.8645, 23.0564, 38.2544, -28.6215, -29.9142
2.66, 2, 17.8816, 15.8645, 23.0564, 38.2544, -28.6215, -29.9142
2.663, 2, 17.8816, 15.8645, 23.0564, 38.2544, -28.6215, -29.9142
2.668, 2, 17.8816, 15.8645, 23.0564, 38.2544, -28.6215, -29.9142
2.672, 2, 17.8816, 15.8645, 23.0564, 38.2544, -28.6215, -29.9142
2.676, 2, 17.8816, 15.8645, 23.0564, 38.2544, -28.6215, -29.9142
2.679, 2, 17.8816, 15.8645, 23.0564, 38.2544, -28.6215, -29.9142
2.684, 2, 17.8816, 15.8645, 23.0564, 38.2544, -28.6215, -29.9142
2.688, 2, 17.8816, 15.8645, 23.0564, 38.2544, -28.6215, -29.9142
2.692, 2, 17.8816, 15.8645, 23.0564, 38.2544, -28.6215, -29.9142
2.696, 2, 17.8816, 15.8645, 23.0564, 38.2544, -28.6215, -29.9142
2.699, 2, 17.8816, 15.8645, 23.0564, 38.2544, -28.6215, -29.9142
2.704, 2, 17.8816, 15.8645, 23.0564, 38.2544, -28.6215, -29.9142
2.708, 2, 17.8816, 15.8645, 23.0564, 38.2544, -28.6215, -29.9142
2.712, 2, 17.8816, 15.8645, 23.0564, 38.2544, -28.6215, -29.9142
2.716, 2, 17.8816, 15.8645, 23.0564, 38.2544, -28.6215, -29.9142
2.719, 2, 17.8816, 15.8645, 23.0564, 38.2544, -28.6215, -29.9142
2.724, 2, 17.8816, 15.8645, 23.0564, 38.2544, -28.6215, -29.9142
2.728, 2, 17.8816, 15.8645, 23.0564, 38.2544, -28.6215, -29.9142
2.732, 2, 17.8816, 15.8645, 23.0564, 38.2544, -28.6215, -29.9142
2.735, 2, 17.8816, 15.8645, 23.0564, 38.2544, -28.6215, -29.9142
2.74, 2, 17.8816, 15.8645, 23.0564, 38.2544, -28.6215, -29.9142
2.744, 2, 17.8816, 15.8645, 23.0564, 38.2544, -28.6215, -29.9142
2.748, 2, 17.8816, 15.8645, 23.0564, 38.2544, -28.6215, -29.9142
2.752, 2, 17.8816, 15.8645, 23.0564, 38.2544, -28.6215, -29.9142
2.755, 2, 17.8816, 15.8645, 23.0564, 38.2544, -28.6215, -29.9142
2.76, 2, 17.8816, 15.8645, 23.0564, 38.2544, -28.6215, -29.9142
2.764, 2, 17.8816, 15.8645, 23.0564, 38.2544, -28.6215, -29.9142
2.768, 2, 17.8816, 15.8645, 23.0564, 38.2544, -28.6215, -29.9142
2.772, 2, 17.8816, 15.8645, 23.0564, 38.2544, -28.6215, -29.9142
2.775, 2, 17.8816, 15.8645, 23.0564, 38.2544, -28.6215, -29.9142
2.78, 2, 17.8816, 15.8645, 23.0564, 38.2544, -28.6215, -29.9142
2.784, 2, 17.8816, 15.8645, 23.0564, 38.2544, -28.6215, -29.9142
2.788, 2, 17.8816, 15.8645, 23.0564, 38.2544, -28.6215, -29.9142
2.791, 2, 17.8816, 15.8645, 23.0564, 38.2544, -28.6215, -29.9142
2.796, 2, 17.8816, 15.8645, 23.0564, 38.2544, -28.6215, -29.9142
2.8, 2, 17.8816, 15.8645, 23.0564, 38.2544, -28.6215, -29.9142
2.804, 2, 17.8816, 15.8645, 23.0564, 38.2544, -28.6215, -29.9142
2.808, 2, 17.8816, 15.8645, 23.0564, 38.2544, -28.6215, -29.9142
2.811, 2, 17.8816, 15.8645, 23.0564, 38.2544, -28.6215, -29.9142
2.816, 2, 17.8816, 15.8645, 23.0564, 38.2544, -28.6215, -29.9142
2.82, 2, 17.8816, 15.8645, 23.0564, 38.2544, -28.6215, -29.9142
2.824, 2, 17.8816, 15.8645, 23.0564, 38.2544, -28.6215, -29.9142
2.828, 2, 17.8816, 15.8645, 23.0564, 38.2544, -28.6215, -29.9142
2.831, 2, 17.8816, 15.8645, 23.0564, 38.2544, -28.6215, -29.9142
2.836, 2, 17.8816, 15.8645, 23.0564, 38.2544, -28.6215, -29.9142
2.84, 2, 17.8816, 15.8645, 23.0564, 38.2544, -28.6215, -29.9142
2.844, 2, 17.8816, 15.8645, 23.0564, 38.2544, -28.6215, -29.9142
2.847, 2, 17.8816, 15.8645, 23.0564, 38.2544, -28.6215, -29.9142
2.852, 2, 17.8816, 15.8645, 23.0564, 38.2544, -28.6215, -29.9142
2.856, 2, 17.8816, 15.8645, 23.0564, 38.2544, -28.6215, -29.9142
2.86, 2, 17.8816, 15.8645, 23.0564, 38.2544, -28.6215, -29.9142
2.864, 2, 17.8816, 15.8645, 23.0564, 38.2544, -28.6215, -29.9142
2.867, 2, 17.8816, 15.8645, 23.0564, 38.2544, -28.6215, -29.9142
2.872, 2, 17.8816, 15.8645, 23.0564, 38.2544, -28.6215, -29.9142
2.876, 2, 17.8816, 15.8645, 23.0564, 38.2544, -28.6215, -29.9142
2.88, 2, 17.8816, 15.8645, 23.0564, 38.2544, -28.6215, -29.9142
2.883, 2, 17.8816, 15.8645, 23.0564, 38.2544, -28.6215, -29.9142
2.888, 2, 17.8816, 15.8645, 23.0564, 38.2544, -28.6215, -29.9142
2.892, 2, 17.8816, 15.8645, 23.0564, 38.2544, -28.6215, -29.9142
2.896, 2, 17.8816, 15.8645, 23.0564, 38.2544, -28.6215, -29.9142
2.9, 2, 17.8816, 15.8645, 23.0564, 38.2544, -28.6215, -29.9142
2.903, 2, 17.8816, 15.8645, 23.0564, 38.2544, -28.6215, -29.9142
2.908, 2, 17.8816, 15.8645, 23.0564, 38.2544, -28.6215, -29.9142
2.912, 2, 17.8816, 15.8645, 23.0564, 38.2544, -28.6215, -29.9142
2.916, 2, 17.8816, 15.8645, 23.0564, 38.2544, -28.6215, -29.9142
2.92, 2, 17.8816, 15.8645, 23.0564, 38.2544, -28.6215, -29.9142
2.923, 2, 17.8816, 15.8645, 23.0564, 38.2544, -28.6215, -29.9142
2.928, 2, 17.8816, 15.8645, 23.0564, 38.2544, -28.6215, -29.9142
2.932, 2, 17.8816, 15.8645, 23.0564, 38.2544, -28.6215, -29.9142
2.936, 2, 17.8816, 15.8645, 23.0564, 38.2544, -28.6215, -29.9142
2.939, 2, 17.8816, 15.8645, 23.0564, 38.2544, -28.6215, -29.9142
2.944, 2, 17.8816, 15.8645, 23.0564, 38.2544, -28.6215, -29.9142
2.948, 2, 17.8816, 15.8645, 23.0564, 38.2544, -28.6215, -29.9142
2.952, 2, 17.8816, 15.8645, 23.0564, 38.2544, -28.6215, -29.9142
2.956, 2, 17.8816, 15.8645, 23.0564, 38.2544, -28.6215, -29.9142
2.959, 2, 17.8816, 15.8645, 23.0564, 38.2544, -28.6215, -29.9142
2.964, 2, 17.8816, 15.8645, 23.0564, 38.2544, -28.6215, -29.9142
2.968, 2, 17.8816, 15.8645, 23.0564, 38.2544, -28.6215, -29.9142
2.972, 2, 17.8816, 15.8645, 23.0564, 38.2544, -28.6215, -29.9142
2.976, 2, 17.8816, 15.8645, 23.0564, 38.2544, -28.6215, -29.9142
2.98, 2, 17.8816, 15.8645, 23.0564, 38.2544, -28.6215, -29.9142
2.984, 2, 17.8816, 15.8645, 23.0564, 38.2544, -28.6215, -29.9142
2.988, 2, 17.8816, 15.8645, 23.0564, 38.2544, -28.6215, -29.9142
2.992, 2, 17.8816, 15.8645, 23.0564, 38.2544, -28.6215, -29.9142
2.995, 2, 17.8816, 15.8645, 23.0564, 38.2544, -28.6215, -29.9142
3, 2, 17.8816, 15.8645, 23.0564, 38.2544, -28.6215, -29.9142
3.004, 2, 17.8816, 15.8645, 23.0564, 38.2544, -28.6215, -29.9142
3.008, 2, 17.8816, 15.8645, 23.0564, 38.2544, -28.6215, -29.9142
3.012, 2, 17.8816, 15.8645, 23.0564, 38.2544, -28.6215, -29.9142
3.015, 2, 17.8816, 15.8645, 23.0564, 38.2544, -28.6215, -29.9142
3.02, 2, 17.8816, 15.8645, 23.0564, 38.2544, -28.6215, -29.9142
3.024, 2, 17.8816, 15.8645, 23.0564, 38.2544, -28.6215, -29.9142
3.028, 2, 17.8816, 15.8645, 23.0564, 38.2544, -28.6215, -29.9142
3.031, 2, 17.8816, 15.8645, 23.0564, 38.2544, -28.6215, -29.9142
3.036, 2, 17.8816, 15.8645, 23.0564, 38.2544, -28.6215, -29.9142
3.04, 2, 17.8816, 15.8645, 23.0564, 38.2544, -28.6215, -29.9142
3.044, 2, 17.8816, 15.8645, 23.0564, 38.2544, -28.6215, -29.9142
3.048, 2, 17.8816, 15.8645, 23.0564, 38.2544, -28.6215, -29.9142
3.051, 2, 17.8816, 15.8645, 23.0564, 38.2544, -28.6215, -29.9142
3.056, 2, 17.8816, 15.8645, 23.0564, 38.2544, -28.6215, -29.9142
3.06, 2, 17.8816, 15.8645, 23.0564, 38.2544, -28.6215, -29.9142
3.064, 2, 17.8816, 15.8645, 23.0564, 38.2544, -28.6215, -29.9142
3.068, 2, 17.8816, 15.8645, 23.0564, 38.2544, -28.6215, -29.9142
3.071, 2, 17.8816, 15.8645, 23.0564, 38.2544, -28.6215, -29.9142
3.076, 2, 17.8816, 15.8645, 23.0564, 38.2544, -28.6215, -29.9142
3.08, 2, 17.8816, 15.8645, 23.0564, 38.2544, -28.6215, -29.9142
3.084, 2, 17.8816, 15.8645, 23.0564, 38.2544, -28.6215, -29.9142
3.087, 2, 17.8816, 15.8645, 23.0564, 38.2544, -28.6215, -29.9142
3.092, 2, 17.8816, 15.8645, 23.0564, 38.2544, -28.6215, -29.9142
3.096, 2, 17.8816, 15.8645, 23.0564, 38.2544, -28.6215, -29.9142
3.1, 2, 17.8816, 15.8645, 23.0564, 38.2544, -28.6215, -29.9142
3.104, 2, 17.8816, 15.8645, 23.0564, 38.2544, -28.6215, -29.9142
3.107, 2, 17.8816, 15.8645, 23.0564, 38.2544, -28.6215, -29.9142
3.112, 2, 17.8816, 15.8645, 23.0564, 38.2544, -28.6215, -29.9142
3.116, 2, 17.8816, 15.8645, 23.0564, 38.2544, -28.6215, -29.9142
3.12, 2, 17.8816, 15.8645, 23.0564, 38.2544, -28.6215, -29.9142
3.124, 2, 17.8816, 15.8645, 23.0564, 38.2544, -28.6215, -29.9142
3.128, 2, 17.8816, 15.8645, 23.0564, 38.2544, -28.6215, -29.9142
3.132, 2, 17.8816, 15.8645, 23.0564, 38.2544, -28.6215, -29.9142
3.136, 2, 17.8816, 15.8645, 23.0564, 38.2544, -28.6215, -29.9142
3.14, 2, 17.8816, 15.8645, 23.0564, 38.2544, -28.6215, -29.9142
3.143, 2, 17.8816, 15.8645, 23.0564, 38.2544, -28.6215, -29.9142
3.148, 2, 17.8816, 15.8645, 23.0564, 38.2544, -28.6215, -29.9142
3.152, 2, 17.8816, 15.8645, 23.0564, 38.2544, -28.6215, -29.9142
3.156, 2, 17.8816, 15.8645, 23.0564, 38.2544, -28.6215, -29.9142
3.16, 2, 17.8816, 15.8645, 23.0564, 38.2544, -28.6215, -29.9142
3.163, 2, 17.8816, 15.8645, 23.0564, 38.2544, -28.6215, -29.9142
3.168, 2, 17.8816, 15.8645, 23.0564, 38.2544, -28.6215, -29.9142
3.172, 2, 17.8816, 15.8645, 23.0564, 38.2544, -28.6215, -29.9142
3.176, 2, 17.8816, 15.8645, 23.0564, 38.2544, -28.6215, -29.9142
3.179, 2, 17.8816, 15.8645, 23.0564, 38.2544, -28.6215, -29.9142
3.184, 2, 17.8816, 15.8645, 23.0564, 38.2544, -28.6215, -29.9142
3.188, 2, 17.8816, 15.8645, 23.0564, 38.2544, -28.6215, -29.9142
3.192, 2, 17.8816, 15.8645, 23.0564, 38.2544, -28.6215, -29.9142
3.196, 2, 17.8816, 15.8645, 23.0564, 38.2544, -28.6215, -29.9142
3.199, 2, 17.8816, 15.8645, 23.0564, 38.2544, -28.6215, -29.9142
3.204, 2, 17.8816, 15.8645, 23.0564, 38.2544, -28.6215, -29.9142
3.208, 2, 17.8816, 15.8645, 23.0564, 38.2544, -28.6215, -29.9142
3.212, 2, 17.8816, 15.8645, 23.0564, 38.2544, -28.6215, -29.9142
3.216, 2, 17.8816, 15.8645, 23.0564, 38.2544, -28.6215, -29.9142
3.22, 2, 17.8816, 15.8645, 23.0564, 38.2544, -28.6215, -29.9142
3.224, 2, 17.8816, 15.8645, 23.0564, 38.2544, -28.6215, -29.9142
3.228, 2, 17.8816, 15.8645, 23.0564, 38.2544, -28.6215, -29.9142
3.232, 2, 17.8816, 15.8645, 23.0564, 38.2544, -28.6215, -29.9142
3.235, 2, 17.8816, 15.8645, 23.0564, 38.2544, -28.6215, -29.9142
3.24, 2, 17.8816, 15.8645, 23.0564, 38.2544, -28.6215, -29.9142
3.244, 2, 17.8816, 15.8645, 23.0564, 38.2544, -28.6215, -29.9142
3.248, 4, 17.8816, 15.8645, 23.0564, 38.2544, -28.6215, -29.9142
3.252, 4, 17.8816, 15.8645, 23.0564, 38.2544, -28.6215, -29.9142
3.255, 4, 17.8816, 15.8645, 23.0564, 38.2544, -28.6215, -29.9142
3.26, 4, 17.8816, 15.8645, 23.0564, 38.2544, -28.6215, -29.9142
3.264, 4, 17.8816, 15.8645, 23.0564, 38.2544, -28.6215, -29.9142
3.268, 4, 17.8816, 15.8645, 23.0564, 38.2544, -28.6215, -29.9142
3.272, 4, 17.8816, 15.8645, 23.0564, 38.2544, -28.6215, -29.9142
3.276, 4, 17.8816, 15.8645, 23.0564, 38.2544, -28.6215, -29.9142
3.28, 4, 17.8816, 15.8645, 23.0564, 38.2544, -28.6215, -29.9142
3.284, 4, 17.8816, 15.8645, 23.0564, 38.2544, -28.6215, -29.9142
3.288, 4, 17.8816, 15.8645, 23.0564, 38.2544, -28.6215, -29.9142
3.291, 4, 17.8816, 15.8645, 23.0564, 38.2544, -28.6215, -29.9142
3.296, 4, 17.8816, 15.8645, 23.0564, 38.2544, -28.6215, -29.9142
3.3, 4, 17.8816, 15.8645, 23.0564, 38.2544, -28.6215, -29.9142
3.304, 4, 17.8816, 15.8645, 23.0564, 38.2544, -28.6215, -29.9142
3.308, 4, 17.8816, 15.8645, 23.0564, 38.2544, -28.6215, -29.9142
3.312, 4, 17.8816, 15.8645, 23.0564, 38.2544, -28.6215, -29.9142
3.316, 4, 17.8816, 15.8645, 23.0564, 38.2544, -28.6215, -29.9142
3.32, 4, 17.8816, 15.8645, 23.0564, 38.2544, -28.6215, -29.9142
3.324, 4, 17.8816, 15.8645, 23.0564, 38.2544, -28.6215, -29.9142
3.328, 4, 17.8816, 15.8645, 23.0564, 38.2544, -28.6215, -29.9142
3.332, 4, 17.8816, 15.8645, 23.0564, 38.2544, -28.6215, -29.9142
3.336, 4, 17.8816, 15.8645, 23.0564, 38.2544, -28.6215, -29.9142
3.34, 4, 17.8816, 15.8645, 23.0564, 38.2544, -28.6215, -29.9142
3.344, 4, 17.8816, 15.8645, 23.0564, 38.2544, -28.6215, -29.9142
3.347, 4, 17.8816, 15.8645, 23.0564, 38.2544, -28.6215, -29.9142
3.352, 4, 17.8816, 15.8645, 23.0564, 38.2544, -28.6215, -29.9142
3.356, 4, 17.8816, 15.8645, 23.0564, 38.2544, -28.6215, -29.9142
3.36, 4, 17.8816, 15.8645, 23.0564, 38.2544, -28.6215, -29.9142
3.364, 4, 17.8816, 15.8645, 23.0564, 38.2544, -28.6215, -29.9142
3.368, 4, 17.8816, 15.8645, 23.0564, 38.2544, -28.6215, -29.9142
3.372, 4, 17.8816, 15.8645, 23.0564, 38.2544, -28.6215, -29.9142
3.376, 4, 17.8816, 15.8645, 23.0564, 38.2544, -28.6215, -29.9142
3.38, 4, 17.8815, 15.8645, 23.0564, 38.2544, -28.6215, -29.9142
3.383, 4, 17.8812, 15.8645, 23.0564, 38.2543, -28.6215, -29.9142
3.388, 4, 17.8806, 15.8645, 23.0565, 38.2542, -28.6216, -29.9141
3.392, 4, 17.8793, 15.8645, 23.0566, 38.2539, -28.6217, -29.9139
3.396, 4, 17.8773, 15.8644, 23.0569, 38.2532, -28.6219, -29.9133
3.4, 4, 17.8745, 15.8643, 23.0576, 38.2517, -28.6225, -29.912
3.403, 4, 17.8706, 15.864, 23.0586, 38.2489, -28.6235, -29.9095
3.408, 4, 17.8657, 15.8636, 23.0603, 38.2441, -28.6252, -29.9053
3.412, 4, 17.8595, 15.863, 23.063, 38.2364, -28.628, -29.8984
3.416, 4, 17.8519, 15.862, 23.067, 38.2246, -28.6323, -29.8881
3.42, 4, 17.8425, 15.8607, 23.0726, 38.2075, -28.6384, -29.873
3.424, 5, 17.8311, 15.8589, 23.0804, 38.1837, -28.647, -29.852
3.428, 5, 17.8174, 15.8565, 23.0908, 38.1514, -28.6586, -29.8234
3.432, 5, 17.801, 15.8533, 23.1043, 38.1089, -28.674, -29.7858
3.436, 5, 17.7821, 15.8494, 23.1216, 38.0544, -28.6938, -29.7376
3.439, 5, 17.7607, 15.8444, 23.143, 37.986, -28.7187, -29.6771
3.444, 5, 17.7368, 15.8384, 23.169, 37.9022, -28.7493, -29.603
3.448, 5, 17.7105, 15.8313, 23.2001, 37.8019, -28.7861, -29.5142
3.452, 5, 17.6816, 15.823, 23.2364, 37.6842, -28.8295, -29.4101
3.456, 5, 17.6501, 15.8135, 23.278, 37.5489, -28.8796, -29.2903
3.46, 5, 17.6158, 15.8028, 23.3249, 37.3961, -28.9365, -29.1552
3.464, 5, 17.5787, 15.7909, 23.3769, 37.2264, -29.0001, -29.0052
3.468, 5, 17.5388, 15.778, 23.4339, 37.041, -29.07, -28.8413
3.472, 5, 17.4962, 15.7642, 23.4953, 36.841, -29.1458, -28.6647
3.476, 5, 17.4511, 15.7495, 23.5608, 36.6281, -29.2271, -28.4767
3.48, 5, 17.4038, 15.7341, 23.6297, 36.404, -29.3133, -28.279
3.484, 5, 17.3544, 15.7181, 23.7017, 36.1708, -29.4036, -28.0734
3.488, 5, 17.3028, 15.7018, 23.7761, 35.9303, -29.4976, -27.8615
3.492, 5, 17.249, 15.6851, 23.8523, 35.6845, -29.5945, -27.645
3.495, 5, 17.1932, 15.6683, 23.93, 35.4349, -29.6937, -27.4255
3.5, 5, 17.1353, 15.6514, 24.0086, 35.183, -29.7948, -27.2041
3.504, 5, 17.0757, 15.6346, 24.0879, 34.9299, -29.8974, -26.9818
3.508, 5, 17.0146, 15.6179, 24.1676, 34.6765, -30.0011, -26.7594
3.512, 5, 16.9523, 15.6013, 24.2474, 34.4233, -30.1058, -26.5374
3.516, 5, 16.8892, 15.5849, 24.3273, 34.1707, -30.2112, -26.3162
3.52, 5, 16.8256, 15.5687, 24.4071, 33.9191, -30.3173, -26.0959
3.524, 5, 16.7615, 15.5528, 24.4867, 33.6685, -30.4241, -25.8768
3.528, 5, 16.697, 15.5371, 24.5662, 33.4191, -30.5314, -25.659
3.531, 5, 16.6324, 15.5217, 24.6455, 33.171, -30.6392, -25.4425
3.536, 5, 16.5675, 15.5065, 24.7245, 32.9243, -30.7476, -25.2274
3.54, 5, 16.5025, 15.4916, 24.8033, 32.6789, -30.8564, -25.0136
3.544, 5, 16.4373, 15.4769, 24.8819, 32.4349, -30.9657, -24.8013
3.548, 5, 16.372, 15.4625, 24.9601, 32.1922, -31.0754, -24.5903
3.552, 5, 16.3066, 15.4484, 25.0381, 31.951, -31.1857, -24.3808
3.556, 5, 16.2411, 15.4346, 25.1159, 31.7112, -31.2963, -24.1727
3.56, 5, 16.1755, 15.421, 25.1933, 31.4727, -31.4074, -23.9661
3.564, 5, 16.1098, 15.4077, 25.2705, 31.2357, -31.5189, -23.7608
3.568, 5, 16.044, 15.3946, 25.3474, 31, -31.6309, -23.5569
3.572, 5, 15.9781, 15.3819, 25.4241, 30.7657, -31.7433, -23.3544
3.576, 5, 15.9122, 15.3694, 25.5004, 30.5328, -31.8561, -23.1533
3.58, 5, 15.8461, 15.3572, 25.5765, 30.3012, -31.9693, -22.9536
3.584, 5, 15.7799, 15.3452, 25.6523, 30.071, -32.0829, -22.7552
3.587, 5, 15.7137, 15.3335, 25.7278, 29.8421, -32.197, -22.5582
3.592, 5, 15.6473, 15.3221, 25.803, 29.6145, -32.3114, -22.3626
3.596, 5, 15.5809, 15.311, 25.878, 29.3882, -32.4263, -22.1682
3.6, 5, 15.5144, 15.3002, 25.9526, 29.1633, -32.5415, -21.9752
3.604, 5, 15.4478, 15.2896, 26.027, 28.9397, -32.6571, -21.7836
3.608, 5, 15.3811, 15.2793, 26.1011, 28.7173, -32.7732, -21.5932
3.612, 5, 15.3143, 15.2693, 26.1749, 28.4963, -32.8896, -21.4042
3.616, 5, 15.2474, 15.2595, 26.2485, 28.2765, -33.0064, -21.2164
3.62, 5, 15.1805, 15.25, 26.3218, 28.058, -33.1235, -21.03
3.624, 5, 15.1134, 15.2408, 26.3947, 27.8407, -33.2411, -20.8448
3.628, 5, 15.0463, 15.2319, 26.4674, 27.6247, -33.359, -20.6609
3.632, 5, 14.9791, 15.2233, 26.5399, 27.41, -33.4773, -20.4782
3.636, 5, 14.9118, 15.2149, 26.612, 27.1964, -33.5959, -20.2968
3.64, 5, 14.8444, 15.2068, 26.6839, 26.9841, -33.7149, -20.1166
3.644, 5, 14.7769, 15.1989, 26.7555, 26.773, -33.8343, -19.9377
3.648, 5, 14.7093, 15.1914, 26.8268, 26.5632, -33.954, -19.76
3.652, 5, 14.6417, 15.1841, 26.8978, 26.3545, -34.0741, -19.5835
3.656, 5, 14.5739, 15.1771, 26.9686, 26.147, -34.1946, -19.4083
3.66, 5, 14.5061, 15.1703, 27.039, 25.9407, -34.3153, -19.2342
3.664, 5, 14.4382, 15.1639, 27.1092, 25.7356, -34.4365, -19.0613
3.668, 5, 14.3702, 15.1577, 27.1791, 25.5316, -34.5579, -18.8896
3.672, 5, 14.3021, 15.1518, 27.2488, 25.3288, -34.6797, -18.7191
3.676, 5, 14.234, 15.1461, 27.3181, 25.1271, -34.8018, -18.5498
3.679, 5, 14.1657, 15.1408, 27.3872, 24.9266, -34.9243, -18.3816
3.684, 5, 14.0974, 15.1357, 27.456, 24.7272, -35.0471, -18.2146
3.688, 5, 14.029, 15.1309, 27.5245, 24.529, -35.1702, -18.0487
3.692, 5, 13.9605, 15.1263, 27.5927, 24.3318, -35.2937, -17.884
3.696, 5, 13.8919, 15.1221, 27.6607, 24.1358, -35.4174, -17.7203
3.7, 5, 13.8233, 15.1181, 27.7284, 23.9409, -35.5415, -17.5578
3.704, 5, 13.7545, 15.1143, 27.7957, 23.747, -35.6659, -17.3964
3.708, 5, 13.6857, 15.1109, 27.8628, 23.5543, -35.7906, -17.2362
3.712, 5, 13.6168, 15.1078, 27.9297, 23.3626, -35.9156, -17.077
3.716, 5, 13.5478, 15.1049, 27.9962, 23.1719, -36.0409, -16.9188
3.72, 5, 13.4788, 15.1023, 28.0624, 22.9824, -36.1665, -16.7618
3.724, 5, 13.4096, 15.0999, 28.1284, 22.7938, -36.2924, -16.6058
3.728, 5, 13.3404, 15.0979, 28.1941, 22.6063, -36.4187, -16.4509
3.732, 5, 13.2711, 15.0961, 28.2595, 22.4198, -36.5451, -16.297
3.735, 5, 13.2017, 15.0946, 28.3246, 22.2344, -36.6719, -16.1441
3.74, 5, 13.1323, 15.0934, 28.3894, 22.0499, -36.799, -15.9923
3.744, 5, 13.0627, 15.0925, 28.4539, 21.8665, -36.9263, -15.8415
3.748, 5, 12.9931, 15.0919, 28.5181, 21.684, -37.054, -15.6917
3.752, 5, 12.9234, 15.0915, 28.5821, 21.5025, -37.1819, -15.5429
3.756, 5, 12.8537, 15.0914, 28.6457, 21.322, -37.31, -15.3951
3.76, 5, 12.7838, 15.0916, 28.7091, 21.1425, -37.4385, -15.2483
3.764, 5, 12.7139, 15.0921, 28.7722, 20.9639, -37.5672, -15.1025
3.768, 5, 12.6439, 15.0928, 28.835, 20.7863, -37.6962, -14.9577
3.772, 5, 12.5738, 15.0939, 28.8975, 20.6097, -37.8254, -14.8138
3.776, 5, 12.5037, 15.0952, 28.9597, 20.4339, -37.9549, -14.6709
3.78, 5, 12.4334, 15.0968, 29.0216, 20.2591, -38.0847, -14.5289
3.784, 5, 12.3631, 15.0987, 29.0832, 20.0853, -38.2147, -14.3879
3.788, 5, 12.2928, 15.1008, 29.1445, 19.9123, -38.345, -14.2478
3.792, 5, 12.2223, 15.1033, 29.2056, 19.7403, -38.4755, -14.1086
3.796, 5, 12.1518, 15.106, 29.2663, 19.5691, -38.6063, -13.9704
3.8, 5, 12.0812, 15.109, 29.3268, 19.3989, -38.7373, -13.8331
3.804, 5, 12.0105, 15.1123, 29.3869, 19.2295, -38.8686, -13.6967
3.808, 5, 11.9397, 15.1158, 29.4468, 19.0611, -39.0001, -13.5612
3.812, 5, 11.8689, 15.1197, 29.5064, 18.8935, -39.1319, -13.4266
3.816, 5, 11.798, 15.1238, 29.5657, 18.7268, -39.2638, -13.2929
3.82, 5, 11.7271, 15.1282, 29.6247, 18.5609, -39.3961, -13.1601
3.824, 5, 11.656, 15.1329, 29.6834, 18.3959, -39.5285, -13.0282
3.828, 5, 11.5849, 15.1379, 29.7418, 18.2318, -39.6612, -12.8971
3.832, 5, 11.5137, 15.1431, 29.7999, 18.0685, -39.7942, -12.7669
3.836, 5, 11.4425, 15.1487, 29.8577, 17.9061, -39.9273, -12.6376
3.84, 5, 11.3711, 15.1545, 29.9153, 17.7445, -40.0607, -12.5091
3.844, 5, 11.2997, 15.1606, 29.9725, 17.5837, -40.1943, -12.3815
3.848, 5, 11.2283, 15.167, 30.0295, 17.4238, -40.3282, -12.2547
3.852, 5, 11.1567, 15.1736, 30.0861, 17.2646, -40.4622, -12.1288
3.856, 5, 11.0851, 15.1806, 30.1425, 17.1063, -40.5965, -12.0037
3.86, 5, 11.0134, 15.1878, 30.1986, 16.9488, -40.731, -11.8794
3.864, 5, 10.9417, 15.1953, 30.2543, 16.7921, -40.8657, -11.7559
3.868, 5, 10.8699, 15.2031, 30.3098, 16.6362, -41.0006, -11.6333
3.872, 5, 10.798, 15.2112, 30.365, 16.4811, -41.1358, -11.5115
3.876, 5, 10.726, 15.2195, 30.4199, 16.3267, -41.2711, -11.3905
3.88, 5, 10.654, 15.2282, 30.4745, 16.1732, -41.4067, -11.2703
3.884, 5, 10.5819, 15.2371, 30.5288, 16.0204, -41.5424, -11.1508
3.888, 5, 10.5097, 15.2463, 30.5828, 15.8684, -41.6784, -11.0322
3.892, 5, 10.4375, 15.2558, 30.6365, 15.7172, -41.8145, -10.9144
3.896, 5, 10.3652, 15.2655, 30.6899, 15.5667, -41.9509, -10.7973
3.9, 5, 10.2929, 15.2756, 30.743, 15.4169, -42.0875, -10.681
3.904, 5, 10.2205, 15.2859, 30.7958, 15.2679, -42.2242, -10.5654
3.908, 5, 10.148, 15.2965, 30.8483, 15.1196, -42.3612, -10.4506
3.912, 5, 10.0754, 15.3074, 30.9006, 14.9721, -42.4983, -10.3366
3.916, 5, 10.0028, 15.3186, 30.9525, 14.8252, -42.6356, -10.2232
3.92, 5, 9.93015, 15.33, 31.0041, 14.6791, -42.7731, -10.1107
3.924, 5, 9.85742, 15.3418, 31.0554, 14.5337, -42.9108, -9.99881
3.928, 5, 9.78462, 15.3538, 31.1064, 14.389, -43.0487, -9.88768
3.932, 5, 9.71175, 15.3661, 31.1571, 14.245, -43.1867, -9.77726
3.936, 5, 9.63883, 15.3787, 31.2076, 14.1017, -43.3249, -9.66755
3.94, 5, 9.56585, 15.3916, 31.2577, 13.959, -43.4633, -9.55854
3.944, 5, 9.49281, 15.4047, 31.3075, 13.817, -43.6019, -9.45023
3.948, 5, 9.4197, 15.4181, 31.357, 13.6757, -43.7406, -9.34261
3.952, 5, 9.34654, 15.4319, 31.4062, 13.5351, -43.8795, -9.23568
3.956, 5, 9.27332, 15.4458, 31.4551, 13.3951, -44.0186, -9.12942
3.96, 5, 9.20004, 15.4601, 31.5038, 13.2558, -44.1578, -9.02384
3.964, 5, 9.1267, 15.4747, 31.5521, 13.1171, -44.2972, -8.91893
3.968, 5, 9.0533, 15.4895, 31.6001, 12.9791, -44.4367, -8.81468
3.972, 5, 8.97985, 15.5046, 31.6478, 12.8417, -44.5764, -8.71108
3.976, 5, 8.90634, 15.52, 31.6952, 12.705, -44.7163, -8.60815
3.98, 5, 8.83278, 15.5357, 31.7423, 12.5688, -44.8563, -8.50586
3.984, 5, 8.75916, 15.5516, 31.7891, 12.4333, -44.9964, -8.40421
3.988, 5, 8.68549, 15.5678, 31.8356, 12.2985, -45.1367, -8.3032
3.992, 5, 8.61176, 15.5843, 31.8818, 12.1642, -45.2772, -8.20283
3.996, 5, 8.53797, 15.6011, 31.9277, 12.0305, -45.4178, -8.10308
3.999, 5, 8.46414, 15.6182, 31.9732, 11.8975, -45.5585, -8.00396
4.004, 5, 8.39025, 15.6355, 32.0185, 11.765, -45.6994, -7.90546
4.008, 5, 8.3163, 15.6531, 32.0635, 11.6331, -45.8405, -7.80757
4.012, 5, 8.24231, 15.671, 32.1082, 11.5019, -45.9816, -7.7103
4.016, 5, 8.16826, 15.6892, 32.1525, 11.3712, -46.1229, -7.61363
4.02, 5, 8.09416, 15.7077, 32.1966, 11.2411, -46.2644, -7.51756
4.024, 5, 8.02001, 15.7264, 32.2403, 11.1116, -46.4059, -7.4221
4.028, 5, 7.94581, 15.7454, 32.2838, 10.9826, -46.5476, -7.32723
4.032, 5, 7.87155, 15.7647, 32.3269, 10.8543, -46.6895, -7.23294
4.036, 5, 7.79725, 15.7843, 32.3698, 10.7265, -46.8314, -7.13925
4.04, 5, 7.7229, 15.8041, 32.4123, 10.5992, -46.9735, -7.04614
4.044, 5, 7.64849, 15.8242, 32.4545, 10.4725, -47.1158, -6.95361
4.048, 5, 7.57404, 15.8446, 32.4964, 10.3464, -47.2581, -6.86165
4.052, 5, 7.49954, 15.8653, 32.538, 10.2208, -47.4006, -6.77026
4.056, 5, 7.42499, 15.8863, 32.5793, 10.0958, -47.5432, -6.67944
4.06, 5, 7.35039, 15.9075, 32.6203, 9.97132, -47.6859, -6.58919
4.064, 5, 7.27575, 15.929, 32.661, 9.84738, -47.8287, -6.4995
4.068, 5, 7.20106, 15.9508, 32.7013, 9.72398, -47.9717, -6.41036
4.072, 5, 7.12632, 15.9729, 32.7414, 9.60111, -48.1147, -6.32178
4.076, 5, 7.05153, 15.9952, 32.7811, 9.47878, -48.2579, -6.23375
4.08, 5, 6.9767, 16.0178, 32.8206, 9.35697, -48.4012, -6.14626
4.084, 5, 6.90182, 16.0408, 32.8597, 9.23568, -48.5446, -6.05932
4.088, 5, 6.82689, 16.0639, 32.8985, 9.11492, -48.6882, -5.97292
4.092, 5, 6.75192, 16.0874, 32.937, 8.99467, -48.8318, -5.88706
4.096, 5, 6.67691, 16.1111, 32.9752, 8.87494, -48.9756, -5.80173
4.1, 5, 6.60185, 16.1352, 33.013, 8.75572, -49.1194, -5.71693
4.104, 5, 6.52675, 16.1595, 33.0506, 8.63701, -49.2634, -5.63266
4.108, 5, 6.4516, 16.184, 33.0879, 8.5188, -49.4074, -5.5489
4.112, 5, 6.37642, 16.2089, 33.1248, 8.40108, -49.5516, -5.46567
4.116, 5, 6.30119, 16.234, 33.1614, 8.28386, -49.6959, -5.38295
4.12, 5, 6.22592, 16.2594, 33.1977, 8.16714, -49.8402, -5.30074
4.124, 5, 6.15061, 16.2851, 33.2337, 8.0509, -49.9847, -5.21904
4.128, 5, 6.07526, 16.3111, 33.2694, 7.93514, -50.1293, -5.13784
4.132, 5, 5.99986, 16.3373, 33.3047, 7.81987, -50.2739, -5.05714
4.136, 5, 5.92443, 16.3638, 33.3398, 7.70506, -50.4187, -4.97694
4.14, 5, 5.84896, 16.3906, 33.3745, 7.59073, -50.5635, -4.89722
4.144, 5, 5.77345, 16.4177, 33.4089, 7.47687, -50.7085, -4.81799
4.148, 5, 5.69791, 16.445, 33.443, 7.36347, -50.8535, -4.73924
4.152, 5, 5.62232, 16.4726, 33.4768, 7.25054, -50.9986, -4.66097
4.156, 5, 5.5467, 16.5005, 33.5103, 7.13805, -51.1438, -4.58318
4.16, 5, 5.47104, 16.5287, 33.5434, 7.02602, -51.289, -4.50586
4.164, 5, 5.39535, 16.5571, 33.5763, 6.91445, -51.4344, -4.429
4.168, 5, 5.31962, 16.5858, 33.6088, 6.80331, -51.5798, -4.35261
4.172, 5, 5.24385, 16.6148, 33.641, 6.69262, -51.7253, -4.27668
4.176, 5, 5.16806, 16.644, 33.6729, 6.58237, -51.8709, -4.2012
4.18, 5, 5.09223, 16.6735, 33.7044, 6.47255, -52.0165, -4.12618
4.184, 5, 5.01636, 16.7033, 33.7357, 6.36317, -52.1623, -4.05161
4.188, 5, 4.94047, 16.7334, 33.7666, 6.25422, -52.308, -3.97748
4.192, 5, 4.86454, 16.7637, 33.7972, 6.14569, -52.4539, -3.9038
4.196, 5, 4.78858, 16.7943, 33.8275, 6.03758, -52.5998, -3.83055
4.2, 5, 4.71259, 16.8251, 33.8575, 5.9299, -52.7458, -3.75774
4.204, 5, 4.63657, 16.8562, 33.8872, 5.82263, -52.8918, -3.68537
4.208, 5, 4.56053, 16.8876, 33.9166, 5.71578, -53.0379, -3.61342
4.212, 5, 4.48445, 16.9193, 33.9456, 5.60933, -53.1841, -3.5419
4.216, 5, 4.40835, 16.9512, 33.9743, 5.5033, -53.3303, -3.4708
4.22, 5, 4.33221, 16.9833, 34.0027, 5.39766, -53.4766, -3.40013
4.224, 5, 4.25606, 17.0158, 34.0308, 5.29243, -53.6229, -3.32987
4.228, 5, 4.17987, 17.0485, 34.0586, 5.1876, -53.7693, -3.26003
4.232, 5, 4.10366, 17.0815, 34.086, 5.08317, -53.9158, -3.19059
4.236, 5, 4.02742, 17.1147, 34.1131, 4.97913, -54.0622, -3.12157
4.24, 5, 3.95116, 17.1482, 34.1399, 4.87548, -54.2088, -3.05295
4.244, 5, 3.87488, 17.1819, 34.1664, 4.77222, -54.3554, -2.98473
4.248, 5, 3.79857, 17.2159, 34.1926, 4.66934, -54.502, -2.91691
4.252, 5, 3.72224, 17.2502, 34.2184, 4.56684, -54.6486, -2.84949
4.256, 5, 3.64588, 17.2847, 34.244, 4.46473, -54.7954, -2.78247
4.26, 5, 3.56951, 17.3195, 34.2692, 4.36299, -54.9421, -2.71583
4.264, 5, 3.49311, 17.3545, 34.2941, 4.26163, -55.0889, -2.64959
4.268, 5, 3.41669, 17.3898, 34.3187, 4.16064, -55.2357, -2.58373
4.272, 5, 3.34025, 17.4254, 34.3429, 4.06002, -55.3826, -2.51825
4.276, 5, 3.26379, 17.4612, 34.3668, 3.95977, -55.5295, -2.45315
4.28, 5, 3.18731, 17.4973, 34.3905, 3.85988, -55.6764, -2.38844
4.284, 5, 3.11081, 17.5336, 34.4137, 3.76035, -55.8234, -2.32409
4.288, 5, 3.03429, 17.5702, 34.4367, 3.66119, -55.9703, -2.26013
4.292, 5, 2.95775, 17.6071, 34.4594, 3.56238, -56.1174, -2.19653
4.296, 5, 2.8812, 17.6442, 34.4817, 3.46392, -56.2644, -2.1333
4.3, 5, 2.80463, 17.6815, 34.5037, 3.36582, -56.4115, -2.07043
4.304, 5, 2.72804, 17.7191, 34.5254, 3.26808, -56.5586, -2.00793
4.308, 5, 2.65143, 17.757, 34.5467, 3.17067, -56.7057, -1.94579
4.312, 5, 2.57481, 17.7951, 34.5678, 3.07362, -56.8528, -1.88401
4.316, 5, 2.49818, 17.8335, 34.5885, 2.97691, -57, -1.82259
4.32, 5, 2.42153, 17.8721, 34.6089, 2.88054, -57.1472, -1.76151
4.324, 5, 2.34486, 17.911, 34.6289, 2.78451, -57.2944, -1.70079
4.328, 5, 2.26818, 17.9501, 34.6487, 2.68882, -57.4416, -1.64042
4.332, 5, 2.19148, 17.9895, 34.6681, 2.59347, -57.5889, -1.5804
4.336, 5, 2.11477, 18.0291, 34.6872, 2.49844, -57.7361, -1.52072
4.34, 5, 2.03805, 18.069, 34.706, 2.40375, -57.8834, -1.46139
4.344, 5, 1.96132, 18.1092, 34.7244, 2.30939, -58.0307, -1.40239
4.348, 5, 1.88458, 18.1496, 34.7425, 2.21535, -58.1779, -1.34373
4.352, 5, 1.80782, 18.1902, 34.7603, 2.12164, -58.3252, -1.28541
4.356, 5, 1.73106, 18.2311, 34.7778, 2.02826, -58.4726, -1.22743
4.36, 5, 1.65428, 18.2723, 34.7949, 1.93519, -58.6199, -1.16977
4.364, 5, 1.5775, 18.3137, 34.8117, 1.84244, -58.7672, -1.11245
4.368, 5, 1.50071, 18.3553, 34.8282, 1.75001, -58.9145, -1.05545
4.372, 5, 1.42391, 18.3972, 34.8443, 1.6579, -59.0619, -0.998779
4.376, 5, 1.34713, 18.4393, 34.8602, 1.56609, -59.2092, -0.94243
4.38, 5, 1.2705, 18.4817, 34.8757, 1.4746, -59.3565, -0.886403
4.384, 5, 1.19428, 18.5241, 34.8909, 1.38343, -59.5038, -0.830703
4.388, 5, 1.11883, 18.5663, 34.9058, 1.29261, -59.651, -0.775347
4.392, 5, 1.04451, 18.6083, 34.9205, 1.20219, -59.7981, -0.720375
4.396, 5, 0.97166, 18.6496, 34.9349, 1.11231, -59.9447, -0.665863
4.4, 5, 0.900528, 18.6902, 34.9491, 1.02317, -60.0906, -0.611934
4.404, 5, 0.831264, 18.7299, 34.963, 0.935072, -60.2352, -0.558759
4.408, 5, 0.763838, 18.7688, 34.9765, 0.848393, -60.3778, -0.506561
4.412, 5, 0.698095, 18.8069, 34.9895, 0.763584, -60.5178, -0.455597
4.416, 5, 0.63389, 18.8447, 35.0017, 0.681128, -60.6542, -0.406145
4.42, 5, 0.571169, 18.8823, 35.0129, 0.601507, -60.7863, -0.35848
4.424, 5, 0.509928, 18.9201, 35.023, 0.52516, -60.9134, -0.312851
4.428, 6, 0.450137, 18.9581, 35.0315, 0.452454, -61.0348, -0.269464
4.432, 6, 0.391705, 18.9967, 35.0382, 0.383653, -61.15, -0.228462
4.436, 7, 0.334447, 19.0361, 35.0429, 0.318887, -61.259, -0.18991
4.44, 7, 0.27806, 19.0767, 35.0452, 0.25813, -61.3617, -0.15378
4.444, 7, 0.222157, 19.119, 35.0447, 0.201183, -61.4584, -0.119945
4.448, 7, 0.166408, 19.1632, 35.0414, 0.147665, -61.5497, -0.0881718
4.452, 7, 0.110711, 19.2096, 35.0348, 0.0970218, -61.6365, -0.0581306
4.456, 7, 0.0552234, 19.2581, 35.0248, 0.0485571, -61.72, -0.02941
4.46, 7, 0.000249813, 19.3085, 35.0114, 0.00148043, -61.8016, -0.00154685
4.464, 7, -0.0538941, 19.3606, 34.9945, -0.0450295, -61.8824, 0.0259397
4.468, 7, -0.106982, 19.4141, 34.9742, -0.0917649, -61.964, 0.0535129
4.472, 7, -0.158963, 19.4692, 34.9505, -0.139438, -62.0474, 0.0815887
4.476, 7, -0.210008, 19.5259, 34.9236, -0.188644, -62.1337, 0.110514
4.48, 7, -0.260481, 19.5846, 34.8934, -0.239834, -62.2235, 0.14055
4.484, 7, -0.310808, 19.6455, 34.8603, -0.293307, -62.3175, 0.171872
4.488, 7, -0.361364, 19.7088, 34.8242, -0.349213, -62.4158, 0.204564
4.492, 7, -0.412419, 19.7745, 34.7855, -0.407563, -62.5185, 0.238633
4.496, 7, -0.464189, 19.8424, 34.7443, -0.468245, -62.6254, 0.274012
4.5, 7, -0.5169, 19.9127, 34.7009, -0.531047, -62.7362, 0.310579
4.504, 7, -0.570788, 19.9854, 34.6555, -0.595687, -62.8505, 0.348169
4.508, 7, -0.626035, 20.0607, 34.6083, -0.661848, -62.9677, 0.386601
4.512, 7, -0.682722, 20.1384, 34.5595, -0.729209, -63.0873, 0.425688
4.516, 7, -0.740835, 20.2186, 34.5093, -0.797469, -63.2087, 0.465255
4.52, 7, -0.800276, 20.3012, 34.4579, -0.866364, -63.3315, 0.505148
4.524, 7, -0.860877, 20.3857, 34.4055, -0.935674, -63.4554, 0.545238
4.528, 7, -0.922426, 20.4719, 34.3521, -1.00522, -63.58, 0.585423
4.532, 7, -0.984714, 20.5593, 34.298, -1.07487, -63.7052, 0.625623
4.536, 7, -1.04757, 20.6477, 34.2432, -1.14452, -63.8306, 0.665776
4.54, 7, -1.11088, 20.7368, 34.1879, -1.21408, -63.9562, 0.705836
4.544, 7, -1.17455, 20.8266, 34.1321, -1.2835, -64.0819, 0.745769
4.548, 7, -1.23849, 20.9168, 34.0758, -1.35273, -64.2076, 0.785551
4.552, 7, -1.30261, 21.0074, 34.0191, -1.42174, -64.3333, 0.825165
4.556, 7, -1.36683, 21.0983, 33.962, -1.49052, -64.4588, 0.864601
4.56, 7, -1.43109, 21.1894, 33.9046, -1.55906, -64.5842, 0.903851
4.564, 7, -1.49535, 21.2807, 33.8468, -1.62733, -64.7095, 0.942912
4.568, 7, -1.55957, 21.3722, 33.7887, -1.69534, -64.8346, 0.981781
4.572, 7, -1.62374, 21.4638, 33.7302, -1.76308, -64.9596, 1.02046
4.576, 7, -1.68784, 21.5555, 33.6714, -1.83056, -65.0844, 1.05894
4.58, 7, -1.75186, 21.6474, 33.6123, -1.89777, -65.209, 1.09724
4.584, 7, -1.8158, 21.7394, 33.5528, -1.9647, -65.3334, 1.13534
4.588, 7, -1.87965, 21.8315, 33.4931, -2.03137, -65.4577, 1.17325
4.592, 7, -1.94341, 21.9237, 33.433, -2.09777, -65.5818, 1.21098
4.596, 7, -2.00708, 22.016, 33.3725, -2.16391, -65.7057, 1.24852
4.6, 7, -2.07065, 22.1084, 33.3118, -2.22978, -65.8294, 1.28587
4.604, 7, -2.13413, 22.2009, 33.2507, -2.29538, -65.9529, 1.32305
4.608, 7, -2.19752, 22.2935, 33.1894, -2.36072, -66.0763, 1.36004
4.612, 7, -2.2608, 22.3862, 33.1277, -2.4258, -66.1995, 1.39685
4.616, 7, -2.32399, 22.479, 33.0656, -2.49062, -66.3224, 1.43349
4.62, 7, -2.38709, 22.5719, 33.0033, -2.55518, -66.4452, 1.46995
4.624, 7, -2.45008, 22.6649, 32.9406, -2.61948, -66.5678, 1.50624
4.628, 7, -2.51298, 22.758, 32.8776, -2.68352, -66.6902, 1.54235
4.632, 7, -2.57578, 22.8511, 32.8143, -2.7473, -66.8124, 1.5783
4.636, 7, -2.63848, 22.9444, 32.7507, -2.81084, -66.9344, 1.61408
4.64, 7, -2.70109, 23.0378, 32.6868, -2.87411, -67.0563, 1.64969
4.644, 7, -2.7636, 23.1312, 32.6225, -2.93714, -67.1779, 1.68513
4.648, 7, -2.82601, 23.2248, 32.5579, -2.99991, -67.2993, 1.72042
4.652, 7, -2.88832, 23.3184, 32.493, -3.06243, -67.4205, 1.75554
4.656, 7, -2.95053, 23.4122, 32.4278, -3.12471, -67.5416, 1.7905
4.66, 7, -3.01264, 23.506, 32.3622, -3.18673, -67.6624, 1.82531
4.664, 7, -3.07465, 23.5999, 32.2964, -3.24852, -67.7831, 1.85996
4.668, 7, -3.13657, 23.6939, 32.2302, -3.31005, -67.9035, 1.89445
4.672, 7, -3.19838, 23.788, 32.1637, -3.37134, -68.0237, 1.9288
4.676, 7, -3.2601, 23.8821, 32.0969, -3.43239, -68.1437, 1.96299
4.68, 7, -3.32172, 23.9764, 32.0297, -3.4932, -68.2636, 1.99703
4.684, 7, -3.38324, 24.0707, 31.9623, -3.55376, -68.3832, 2.03093
4.688, 7, -3.44465, 24.1652, 31.8945, -3.61409, -68.5026, 2.06468
4.692, 7, -3.50597, 24.2597, 31.8264, -3.67418, -68.6218, 2.09828
4.696, 7, -3.56719, 24.3543, 31.7579, -3.73403, -68.7408, 2.13174
4.7, 7, -3.62831, 24.4489, 31.6892, -3.79364, -68.8596, 2.16507
4.704, 7, -3.68933, 24.5437, 31.6201, -3.85302, -68.9781, 2.19825
4.708, 7, -3.75024, 24.6385, 31.5508, -3.91217, -69.0965, 2.2313
4.712, 7, -3.81106, 24.7335, 31.4811, -3.97108, -69.2147, 2.26421
4.716, 7, -3.87178, 24.8285, 31.411, -4.02976, -69.3326, 2.29698
4.72, 7, -3.93239, 24.9236, 31.3407, -4.08821, -69.4503, 2.32962
4.724, 7, -3.99291, 25.0187, 31.27, -4.14643, -69.5678, 2.36214
4.728, 7, -4.05332, 25.114, 31.199, -4.20443, -69.6851, 2.39452
4.732, 7, -4.11363, 25.2093, 31.1277, -4.26219, -69.8022, 2.42677
4.736, 7, -4.17384, 25.3047, 31.0561, -4.31973, -69.9191, 2.4589
4.74, 7, -4.23395, 25.4002, 30.9841, -4.37704, -70.0357, 2.49091
4.744, 7, -4.29396, 25.4957, 30.9119, -4.43413, -70.1521, 2.52279
4.748, 7, -4.35387, 25.5914, 30.8393, -4.491, -70.2683, 2.55455
4.752, 7, -4.41367, 25.6871, 30.7664, -4.54764, -70.3843, 2.58619
4.756, 7, -4.47337, 25.7829, 30.6931, -4.60406, -70.5, 2.61771
4.76, 7, -4.53297, 25.8787, 30.6196, -4.66026, -70.6156, 2.64911
4.764, 7, -4.59247, 25.9747, 30.5457, -4.71625, -70.7309, 2.6804
4.768, 7, -4.65187, 26.0707, 30.4715, -4.77201, -70.8459, 2.71158
4.772, 7, -4.71116, 26.1667, 30.397, -4.82756, -70.9608, 2.74264
4.776, 7, -4.77035, 26.2629, 30.3222, -4.88289, -71.0754, 2.77359
4.78, 7, -4.82943, 26.3591, 30.247, -4.938, -71.1898, 2.80444
4.784, 7, -4.88841, 26.4554, 30.1715, -4.9929, -71.304, 2.83517
4.788, 7, -4.94729, 26.5518, 30.0957, -5.04759, -71.4179, 2.8658
4.792, 7, -5.00606, 26.6482, 30.0196, -5.10207, -71.5316, 2.89633
4.796, 7, -5.06473, 26.7447, 29.9431, -5.15633, -71.6451, 2.92675
4.8, 7, -5.1233, 26.8413, 29.8664, -5.21038, -71.7583, 2.95707
4.804, 7, -5.18176, 26.9379, 29.7893, -5.26422, -71.8713, 2.98729
4.808, 7, -5.24011, 27.0347, 29.7119, -5.31786, -71.9841, 3.01741
4.812, 7, -5.29837, 27.1314, 29.6341, -5.37128, -72.0966, 3.04744
4.816, 7, -5.35652, 27.2283, 29.5561, -5.42449, -72.2089, 3.07737
4.82, 7, -5.41457, 27.3252, 29.4777, -5.4775, -72.321, 3.1072
4.824, 7, -5.47251, 27.4222, 29.399, -5.5303, -72.4328, 3.13694
4.828, 7, -5.53035, 27.5192, 29.3199, -5.5829, -72.5444, 3.16659
4.832, 7, -5.58809, 27.6163, 29.2406, -5.63529, -72.6557, 3.19615
4.836, 7, -5.64572, 27.7135, 29.1609, -5.68747, -72.7668, 3.22562
4.84, 7, -5.70325, 27.8107, 29.0809, -5.73945, -72.8777, 3.255
4.844, 7, -5.76068, 27.9081, 29.0006, -5.79123, -72.9883, 3.28429
4.848, 7, -5.818, 28.0054, 28.92, -5.8428, -73.0987, 3.3135
4.852, 7, -5.87521, 28.1029, 28.839, -5.89417, -73.2089, 3.34263
4.856, 7, -5.93233, 28.2004, 28.7577, -5.94534, -73.3188, 3.37167
4.86, 7, -5.98934, 28.2979, 28.6761, -5.99631, -73.4284, 3.40063
4.864, 7, -6.04624, 28.3955, 28.5942, -6.04707, -73.5378, 3.42951
4.868, 7, -6.10305, 28.4932, 28.5119, -6.09764, -73.647, 3.45831
4.872, 7, -6.15974, 28.591, 28.4294, -6.148, -73.756, 3.48703
4.876, 7, -6.21634, 28.6888, 28.3465, -6.19817, -73.8647, 3.51567
4.88, 7, -6.27283, 28.7866, 28.2633, -6.24814, -73.9731, 3.54423
4.884, 7, -6.32922, 28.8846, 28.1798, -6.29791, -74.0813, 3.57272
4.888, 7, -6.3855, 28.9826, 28.0959, -6.34748, -74.1893, 3.60114
4.892, 7, -6.44168, 29.0806, 28.0117, -6.39686, -74.297, 3.62949
4.896, 7, -6.49776, 29.1787, 27.9272, -6.44604, -74.4045, 3.65776
4.9, 7, -6.55373, 29.2769, 27.8424, -6.49503, -74.5117, 3.68596
4.904, 7, -6.6096, 29.3751, 27.7573, -6.54382, -74.6187, 3.71409
4.908, 7, -6.66537, 29.4734, 27.6719, -6.59241, -74.7255, 3.74215
4.912, 7, -6.72104, 29.5718, 27.5861, -6.64082, -74.832, 3.77015
4.916, 7, -6.7766, 29.6702, 27.5, -6.68902, -74.9382, 3.79808
4.92, 7, -6.83206, 29.7687, 27.4136, -6.73704, -75.0442, 3.82594
4.924, 7, -6.88741, 29.8672, 27.3269, -6.78486, -75.15, 3.85374
4.928, 7, -6.94267, 29.9658, 27.2398, -6.83249, -75.2555, 3.88148
4.932, 7, -6.99782, 30.0644, 27.1525, -6.87993, -75.3608, 3.90916
4.936, 7, -7.05286, 30.1631, 27.0648, -6.92718, -75.4658, 3.93677
4.94, 7, -7.10781, 30.2619, 26.9768, -6.97424, -75.5706, 3.96433
4.944, 7, -7.16265, 30.3607, 26.8884, -7.02111, -75.6751, 3.99182
4.948, 7, -7.21739, 30.4596, 26.7998, -7.06779, -75.7794, 4.01926
4.952, 7, -7.27203, 30.5585, 26.7108, -7.11428, -75.8835, 4.04665
4.956, 7, -7.32656, 30.6575, 26.6215, -7.16058, -75.9872, 4.07397
4.96, 7, -7.38099, 30.7565, 26.5319, -7.2067, -76.0908, 4.10124
4.964, 7, -7.43532, 30.8556, 26.442, -7.25262, -76.1941, 4.12846
4.968, 7, -7.48955, 30.9548, 26.3518, -7.29836, -76.2971, 4.15563
4.972, 7, -7.54367, 31.054, 26.2612, -7.34391, -76.3999, 4.18275
4.976, 7, -7.5977, 31.1533, 26.1703, -7.38928, -76.5024, 4.20981
4.98, 7, -7.65162, 31.2526, 26.0791, -7.43446, -76.6047, 4.23683
4.984, 7, -7.70543, 31.352, 25.9876, -7.47946, -76.7067, 4.2638
4.988, 7, -7.75915, 31.4514, 25.8957, -7.52427, -76.8085, 4.29072
4.992, 7, -7.81276, 31.5509, 25.8036, -7.5689, -76.9101, 4.31759
4.996, 7, -7.86627, 31.6504, 25.7111, -7.61334, -77.0113, 4.34442
5, 7, -7.91968, 31.75, 25.6183, -7.6576, -77.1124, 4.37121
5.004, 7, -7.97298, 31.8497, 25.5252, -7.70167, -77.2131, 4.39795
5.008, 7, -8.02619, 31.9494, 25.4317, -7.74557, -77.3137, 4.42466
5.012, 7, -8.07929, 32.0492, 25.338, -7.78928, -77.4139, 4.45132
5.016, 7, -8.13229, 32.149, 25.2439, -7.83281, -77.5139, 4.47794
5.02, 7, -8.18518, 32.2488, 25.1495, -7.87616, -77.6137, 4.50452
5.024, 7, -8.23797, 32.3488, 25.0547, -7.91932, -77.7132, 4.53107
5.028, 7, -8.29066, 32.4487, 24.9597, -7.96231, -77.8124, 4.55758
5.032, 7, -8.34325, 32.5488, 24.8643, -8.00512, -77.9114, 4.58405
5.036, 7, -8.39574, 32.6488, 24.7686, -8.04774, -78.0101, 4.61049
5.04, 7, -8.44812, 32.749, 24.6726, -8.09019, -78.1086, 4.63689
5.044, 7, -8.5004, 32.8492, 24.5762, -8.13245, -78.2068, 4.66327
5.048, 7, -8.55258, 32.9494, 24.4796, -8.17454, -78.3047, 4.68961
5.052, 7, -8.60466, 33.0497, 24.3826, -8.21645, -78.4024, 4.71592
5.056, 7, -8.65663, 33.15, 24.2853, -8.25818, -78.4998, 4.7422
5.06, 7, -8.7085, 33.2504, 24.1876, -8.29974, -78.597, 4.76845
5.064, 7, -8.76027, 33.3509, 24.0897, -8.34111, -78.6939, 4.79468
5.068, 7, -8.81193, 33.4514, 23.9914, -8.38231, -78.7906, 4.82088
5.072, 7, -8.86349, 33.5519, 23.8928, -8.42334, -78.8869, 4.84705
5.076, 7, -8.91495, 33.6525, 23.7939, -8.46418, -78.9831, 4.8732
5.08, 7, -8.96631, 33.7531, 23.6946, -8.50485, -79.0789, 4.89933
5.084, 7, -9.01756, 33.8538, 23.595, -8.54535, -79.1745, 4.92543
5.088, 7, -9.06871, 33.9546, 23.4951, -8.58567, -79.2698, 4.95151
5.092, 7, -9.11976, 34.0554, 23.3949, -8.62581, -79.3649, 4.97758
5.096, 7, -9.1707, 34.1562, 23.2944, -8.66578, -79.4597, 5.00362
5.1, 7, -9.22154, 34.2571, 23.1935, -8.70557, -79.5542, 5.02964
5.104, 7, -9.27228, 34.3581, 23.0923, -8.74519, -79.6485, 5.05565
5.108, 7, -9.32292, 34.459, 22.9908, -8.78464, -79.7425, 5.08164
5.112, 7, -9.37345, 34.5601, 22.8889, -8.82391, -79.8362, 5.10762
5.116, 7, -9.42388, 34.6612, 22.7867, -8.86301, -79.9297, 5.13358
5.12, 7, -9.47421, 34.7623, 22.6842, -8.90194, -80.0229, 5.15953
5.124, 7, -9.52444, 34.8635, 22.5814, -8.94069, -80.1158, 5.18546
5.128, 7, -9.57456, 34.9648, 22.4782, -8.97927, -80.2084, 5.21139
5.132, 7, -9.62458, 35.0661, 22.3747, -9.01768, -80.3008, 5.2373
5.136, 7, -9.6745, 35.1674, 22.2709, -9.05591, -80.3929, 5.2632
5.14, 7, -9.72432, 35.2688, 22.1667, -9.09398, -80.4848, 5.2891
5.144, 7, -9.77404, 35.3702, 22.0623, -9.13187, -80.5763, 5.31499
5.148, 7, -9.82365, 35.4717, 21.9574, -9.16959, -80.6676, 5.34086
5.152, 7, -9.87316, 35.5733, 21.8523, -9.20714, -80.7587, 5.36674
5.156, 7, -9.92257, 35.6748, 21.7468, -9.24451, -80.8494, 5.3926
5.16, 7, -9.97188, 35.7765, 21.641, -9.28172, -80.9399, 5.41846
5.164, 7, -10.0211, 35.8782, 21.5349, -9.31876, -81.0301, 5.44432
5.168, 7, -10.0702, 35.9799, 21.4285, -9.35562, -81.1201, 5.47017
5.172, 7, -10.1192, 36.0817, 21.3217, -9.39231, -81.2097, 5.49602
5.176, 7, -10.1681, 36.1835, 21.2146, -9.42884, -81.2992, 5.52187
5.18, 7, -10.2169, 36.2854, 21.1071, -9.46519, -81.3883, 5.54771
5.184, 7, -10.2656, 36.3874, 20.9994, -9.50137, -81.4772, 5.57356
5.188, 7, -10.3142, 36.4893, 20.8913, -9.53739, -81.5658, 5.5994
5.192, 7, -10.3627, 36.5914, 20.7828, -9.57323, -81.6541, 5.62524
5.196, 7, -10.4111, 36.6935, 20.6741, -9.60891, -81.7421, 5.65108
5.2, 7, -10.4594, 36.7956, 20.565, -9.64441, -81.8299, 5.67693
5.204, 7, -10.5076, 36.8978, 20.4555, -9.67975, -81.9174, 5.70277
5.208, 7, -10.5556, 37.0001, 20.3458, -9.71492, -82.0046, 5.72862
5.212, 7, -10.6036, 37.1024, 20.2357, -9.74992, -82.0916, 5.75448
5.216, 7, -10.6515, 37.2047, 20.1253, -9.78475, -82.1783, 5.78033
5.22, 7, -10.6993, 37.3071, 20.0145, -9.81941, -82.2647, 5.80619
5.224, 7, -10.747, 37.4095, 19.9035, -9.85391, -82.3509, 5.83206
5.228, 7, -10.7946, 37.5121, 19.7921, -9.88824, -82.4368, 5.85793
5.232, 7, -10.8421, 37.6146, 19.6803, -9.9224, -82.5224, 5.88381
5.236, 7, -10.8895, 37.7172, 19.5682, -9.95639, -82.6077, 5.9097
5.24, 7, -10.9368, 37.8199, 19.4558, -9.99022, -82.6928, 5.9356
5.244, 7, -10.984, 37.9226, 19.3431, -10.0239, -82.7776, 5.9615
5.248, 7, -11.0311, 38.0254, 19.23, -10.0574, -82.8621, 5.98741
5.252, 7, -11.0781, 38.1282, 19.1166, -10.0907, -82.9463, 6.01334
5.256, 7, -11.125, 38.231, 19.0029, -10.1239, -83.0303, 6.03927
5.26, 7, -11.1718, 38.334, 18.8888, -10.1568, -83.114, 6.06522
5.264, 7, -11.2185, 38.4369, 18.7744, -10.1897, -83.1974, 6.09118
5.268, 7, -11.2651, 38.54, 18.6596, -10.2223, -83.2805, 6.11715
5.272, 7, -11.3116, 38.6431, 18.5445, -10.2548, -83.3634, 6.14313
5.276, 7, -11.358, 38.7462, 18.4291, -10.2872, -83.446, 6.16913
5.28, 7, -11.4043, 38.8494, 18.3133, -10.3193, -83.5283, 6.19515
5.284, 7, -11.4505, 38.9526, 18.1973, -10.3513, -83.6104, 6.22118
5.288, 7, -11.4966, 39.056, 18.0808, -10.3831, -83.6922, 6.24723
5.292, 7, -11.5426, 39.1593, 17.9641, -10.4148, -83.7737, 6.27329
5.296, 7, -11.5886, 39.2627, 17.8469, -10.4463, -83.8549, 6.29937
5.3, 7, -11.6344, 39.3662, 17.7295, -10.4776, -83.9358, 6.32547
5.304, 7, -11.6801, 39.4697, 17.6117, -10.5088, -84.0165, 6.35159
5.308, 7, -11.7257, 39.5733, 17.4936, -10.5398, -84.0969, 6.37773
5.312, 7, -11.7712, 39.6769, 17.3751, -10.5707, -84.177, 6.40389
5.316, 7, -11.8167, 39.7806, 17.2563, -10.6013, -84.2568, 6.43007
5.32, 7, -11.862, 39.8844, 17.1372, -10.6318, -84.3364, 6.45628
5.324, 7, -11.9072, 39.9882, 17.0177, -10.6622, -84.4156, 6.4825
5.328, 7, -11.9523, 40.092, 16.8978, -10.6924, -84.4946, 6.50876
5.332, 7, -11.9974, 40.1959, 16.7777, -10.7224, -84.5734, 6.53503
5.336, 7, -12.0423, 40.2999, 16.6571, -10.7522, -84.6518, 6.56133
5.34, 7, -12.0871, 40.4039, 16.5363, -10.7819, -84.7299, 6.58766
5.344, 7, -12.1319, 40.508, 16.4151, -10.8114, -84.8078, 6.61401
5.348, 7, -12.1765, 40.6122, 16.2935, -10.8408, -84.8854, 6.64039
5.352, 7, -12.2211, 40.7164, 16.1716, -10.87, -84.9627, 6.66679
5.356, 7, -12.2655, 40.8206, 16.0493, -10.899, -85.0398, 6.69323
5.36, 7, -12.3099, 40.925, 15.9267, -10.9279, -85.1165, 6.7197
5.364, 7, -12.3542, 41.0293, 15.8038, -10.9566, -85.193, 6.74619
5.368, 7, -12.3983, 41.1338, 15.6805, -10.9851, -85.2691, 6.77271
5.372, 7, -12.4423, 41.2382, 15.5569, -11.0135, -85.345, 6.79927
5.376, 7, -12.4861, 41.3425, 15.4329, -11.0417, -85.4207, 6.82585
5.38, 7, -12.5296, 41.4467, 15.3087, -11.0697, -85.496, 6.85247
5.384, 7, -12.5727, 41.5506, 15.1842, -11.0976, -85.571, 6.8791
5.388, 7, -12.6155, 41.6541, 15.0596, -11.1253, -85.6457, 6.90575
5.392, 7, -12.6578, 41.7572, 14.9348, -11.1528, -85.72, 6.93241
5.396, 7, -12.6998, 41.8598, 14.81, -11.18, -85.794, 6.95905
5.4, 7, -12.7411, 41.9617, 14.6853, -11.2071, -85.8675, 6.98565
5.404, 7, -12.7819, 42.0627, 14.561, -11.2339, -85.9404, 7.01218
5.408, 7, -12.8218, 42.1625, 14.4373, -11.2604, -86.0127, 7.0386
5.412, 7, -12.8608, 42.261, 14.3145, -11.2866, -86.0843, 7.06486
5.416, 7, -12.8988, 42.3576, 14.1929, -11.3124, -86.1548, 7.09087
5.42, 7, -12.9356, 42.4522, 14.0731, -11.3376, -86.2242, 7.11656
5.424, 7, -12.9712, 42.5445, 13.9554, -11.3623, -86.2922, 7.14182
5.428, 7, -13.0055, 42.6342, 13.8403, -11.3864, -86.3583, 7.16653
5.432, 7, -13.0386, 42.7211, 13.7284, -11.4096, -86.4225, 7.19057
5.436, 7, -13.0704, 42.8048, 13.6202, -11.4319, -86.4842, 7.2138
5.44, 7, -13.1008, 42.8851, 13.5163, -11.4532, -86.5432, 7.23609
5.444, 7, -13.1298, 42.9617, 13.4172, -11.4734, -86.5992, 7.25732
5.448, 7, -13.1575, 43.0343, 13.3234, -11.4923, -86.6519, 7.27736
5.452, 7, -13.1837, 43.1029, 13.2354, -11.51, -86.701, 7.29612
5.456, 7, -13.2087, 43.1673, 13.1534, -11.5263, -86.7463, 7.3135
5.46, 7, -13.2322, 43.2275, 13.0778, -11.5411, -86.7878, 7.32945
5.464, 7, -13.2544, 43.2832, 13.0087, -11.5545, -86.8252, 7.34392
5.468, 7, -13.2752, 43.3345, 12.9461, -11.5665, -86.8587, 7.35691
5.472, 7, -13.2947, 43.3815, 12.8901, -11.5771, -86.8883, 7.36843
5.476, 7, -13.3127, 43.424, 12.8405, -11.5863, -86.9141, 7.37852
5.48, 7, -13.3293, 43.4622, 12.797, -11.5943, -86.9364, 7.38725
5.484, 7, -13.3445, 43.4963, 12.7593, -11.6011, -86.9553, 7.3947
5.488, 7, -13.3583, 43.5264, 12.7271, -11.6067, -86.9711, 7.40097
5.492, 7, -13.3707, 43.5526, 12.6999, -11.6114, -86.9842, 7.40618
5.496, 7, -13.3816, 43.5752, 12.6772, -11.6152, -86.9949, 7.41044
5.5, 7, -13.3912, 43.5945, 12.6585, -11.6183, -87.0034, 7.41387
5.504, 7, -13.3996, 43.6107, 12.6434, -11.6207, -87.0101, 7.41659
5.508, 7, -13.4069, 43.6244, 12.6314, -11.6226, -87.0153, 7.4187
5.512, 7, -13.4132, 43.636, 12.6219, -11.624, -87.0193, 7.42031
5.516, 7, -13.4187, 43.6456, 12.6145, -11.625, -87.0222, 7.42152
5.52, 7, -13.4234, 43.6536, 12.6089, -11.6258, -87.0243, 7.4224
5.524, 7, -13.4274, 43.6602, 12.6047, -11.6263, -87.0258, 7.42303
5.528, 8, -13.4307, 43.6654, 12.6016, -11.6267, -87.0268, 7.42346
5.532, 8, -13.4332, 43.6694, 12.5994, -11.627, -87.0275, 7.42377
5.536, 8, -13.4351, 43.6723, 12.5979, -11.6271, -87.028, 7.42397
5.54, 8, -13.4365, 43.6744, 12.5968, -11.6273, -87.0283, 7.42412
5.544, 8, -13.4374, 43.6757, 12.5961, -11.6273, -87.0285, 7.42421
5.548, 8, -13.438, 43.6767, 12.5956, -11.6274, -87.0287, 7.42427
5.552, 8, -13.4384, 43.6773, 12.5953, -11.6274, -87.0288, 7.42432
5.556, 8, -13.4387, 43.6777, 12.5951, -11.6275, -87.0288, 7.42435
5.56, 8, -13.4389, 43.678, 12.5949, -11.6275, -87.0289, 7.42437
5.564, 8, -13.439, 43.6782, 12.5948, -11.6275, -87.0289, 7.42438
5.568, 8, -13.4391, 43.6784, 12.5948, -11.6275, -87.0289, 7.42439
5.572, 8, -13.4392, 43.6785, 12.5947, -11.6275, -87.029, 7.4244
5.576, 8, -13.4392, 43.6785, 12.5947, -11.6275, -87.029, 7.4244
5.58, 8, -13.4392, 43.6786, 12.5947, -11.6275, -87.029, 7.4244
5.584, 8, -13.4393, 43.6786, 12.5946, -11.6275, -87.029, 7.42441
5.588, 8, -13.4393, 43.6786, 12.5946, -11.6275, -87.029, 7.42441
5.592, 8, -13.4393, 43.6786, 12.5946, -11.6275, -87.029, 7.42441
5.596, 8, -13.4393, 43.6786, 12.5946, -11.6275, -87.029, 7.42441
5.6, 8, -13.4393, 43.6786, 12.5946, -11.6275, -87.029, 7.42441
5.604, 8, -13.4393, 43.6786, 12.5946, -11.6275, -87.029, 7.42441
5.608, 8, -13.4393, 43.6787, 12.5946, -11.6275, -87.029, 7.42441
5.612, 8, -13.4393, 43.6787, 12.5946, -11.6275, -87.029, 7.42441
5.616, 8, -13.4393, 43.6787, 12.5946, -11.6275, -87.029, 7.42441
5.62, 8, -13.4393, 43.6787, 12.5946, -11.6275, -87.029, 7.42441
5.624, 8, -13.4393, 43.6787, 12.5946, -11.6275, -87.029, 7.42441
5.628, 8, -13.4393, 43.6787, 12.5946, -11.6275, -87.029, 7.42441
5.632, 8, -13.4393, 43.6787, 12.5946, -11.6275, -87.029, 7.42441
5.636, 8, -13.4393, 43.6787, 12.5946, -11.6275, -87.029, 7.42441
5.64, 8, -13.4393, 43.6787, 12.5946, -11.6275, -87.029, 7.42441
5.644, 8, -13.4393, 43.6787, 12.5946, -11.6275, -87.029, 7.42441
