hehonglu123/ABB_Primitive_Study/realrobot/movel_30_car/curve_exe_v500_fine.csv
timestamp, cmd_num, J1, J2, J3, J4, J5, J6
0.00037, -1, -13.4402, 43.6796, 12.5937, -11.6278, -87.0288, 7.42466
0.003351, -1, -13.4402, 43.6796, 12.5937, -11.6278, -87.0288, 7.42466
0.009712, -1, -13.4402, 43.6796, 12.5937, -11.6278, -87.0288, 7.42466
0.032752, -1, -13.4401, 43.6796, 12.5937, -11.6278, -87.0288, 7.42464
0.034734, -1, -13.4401, 43.6796, 12.5936, -11.6278, -87.0288, 7.42464
0.036003, -1, -13.4401, 43.6796, 12.5936, -11.6278, -87.0288, 7.42464
0.0393, -1, -13.4401, 43.6796, 12.5936, -11.6278, -87.0288, 7.42465
0.047425, -1, -13.4401, 43.6796, 12.5936, -11.6278, -87.0288, 7.42465
0.055349, -1, -13.44, 43.6795, 12.5937, -11.6278, -87.0288, 7.42465
0.063345, -1, -13.4388, 43.6787, 12.5937, -11.6278, -87.0287, 7.42465
0.071408, -1, -13.4352, 43.6759, 12.5941, -11.6277, -87.0286, 7.42467
0.079362, -1, -13.4283, 43.6703, 12.5952, -11.627, -87.0277, 7.42453
0.087403, -1, -13.4176, 43.6615, 12.5973, -11.6239, -87.0238, 7.4239
0.095395, -1, -13.4015, 43.6485, 12.6008, -11.6155, -87.014, 7.4201
0.103349, -1, -13.3782, 43.6296, 12.6064, -11.5993, -86.9949, 7.40906
0.111395, -1, -13.3467, 43.6034, 12.6148, -11.5716, -86.9621, 7.38915
0.119447, -1, -13.3065, 43.5693, 12.6263, -11.5279, -86.9121, 7.35776
0.127425, -1, -13.2561, 43.5257, 12.6414, -11.4643, -86.8386, 7.31178
0.135463, -1, -13.1945, 43.4715, 12.661, -11.3781, -86.7387, 7.24789
0.14379, -1, -13.1216, 43.4064, 12.6851, -11.2659, -86.6088, 7.16527
0.151445, -1, -13.037, 43.3302, 12.7137, -11.1276, -86.4481, 7.06277
0.159501, -1, -12.9403, 43.2425, 12.7472, -10.9626, -86.256, 6.94014
0.167819, -1, -12.8318, 43.1436, 12.7854, -10.773, -86.0349, 6.79882
0.175409, -1, -12.7123, 43.0348, 12.8273, -10.5609, -85.7877, 6.64033
0.183622, -1, -12.5825, 42.9168, 12.8729, -10.33, -85.5183, 6.46785
0.192228, -1, -12.443, 42.7904, 12.9217, -10.0845, -85.2315, 6.28434
0.199375, -1, -12.2954, 42.657, 12.9731, -9.82828, -84.9319, 6.09227
0.207434, -1, -12.1415, 42.518, 13.0264, -9.5647, -84.6237, 5.89476
0.216284, -1, -11.982, 42.3743, 13.0811, -9.29649, -84.3098, 5.69346
0.223601, -1, -11.8176, 42.2272, 13.1368, -9.02555, -83.9931, 5.49016
0.231632, -1, -11.6493, 42.0774, 13.1932, -8.75311, -83.6746, 5.28603
0.24047, -1, -11.4788, 41.926, 13.2501, -8.47996, -83.3551, 5.08147
0.247721, -1, -11.3073, 41.7738, 13.3072, -8.20652, -83.0351, 4.87647
0.255904, -1, -11.1354, 41.6217, 13.3643, -7.9328, -82.7148, 4.67145
0.264812, -1, -10.9633, 41.4702, 13.4217, -7.65893, -82.3942, 4.46616
0.271981, -1, -10.7909, 41.3187, 13.4792, -7.38524, -82.0734, 4.26077
0.280446, -1, -10.6185, 41.1671, 13.5368, -7.11122, -81.7526, 4.05541
0.288795, -1, -10.4459, 41.0154, 13.5946, -6.83711, -81.4319, 3.85024
0.297196, -1, -10.2734, 40.8637, 13.6522, -6.56321, -81.1112, 3.64481
0.303984, -1, -10.1873, 40.788, 13.681, -6.28947, -80.7908, 3.43958
0.311362, -1, -10.0153, 40.6365, 13.7384, -6.15259, -80.6308, 3.33691
0.319351, -1, -9.84369, 40.4848, 13.7958, -5.87892, -80.3109, 3.13188
0.327391, -1, -9.67272, 40.3326, 13.853, -5.6055, -79.9911, 2.92689
0.33723, -1, -9.41731, 40.1043, 13.939, -5.19541, -79.5117, 2.61984
0.343353, -1, -9.33253, 40.0284, 13.9676, -5.0588, -79.3519, 2.51749
0.352529, -1, -9.07897, 39.8004, 14.0532, -4.6497, -78.8729, 2.21096
0.359341, -1, -8.99456, 39.7244, 14.0818, -4.51349, -78.7133, 2.10885
0.36738, -1, -8.82564, 39.5724, 14.1388, -4.2414, -78.3943, 1.90505
0.376801, -1, -8.57161, 39.3452, 14.2242, -3.8342, -77.9174, 1.59967
0.385745, -1, -8.40188, 39.1946, 14.2811, -3.56294, -77.6, 1.3966
0.391378, -1, -8.317, 39.1194, 14.3096, -3.42754, -77.4416, 1.29502
0.401437, -1, -8.06206, 38.8939, 14.3947, -3.02231, -76.9673, 0.991234
0.407404, -1, -7.977, 38.8188, 14.4231, -2.88746, -76.8094, 0.890227
0.415414, -1, -7.80687, 38.669, 14.4797, -2.61804, -76.494, 0.688427
0.424981, -1, -7.63646, 38.4453, 14.5642, -2.21522, -76.022, 0.386618
0.43135, -1, -7.466, 38.3708, 14.5923, -2.08118, -75.8649, 0.286266
0.440341, -1, -7.29586, 38.2219, 14.6486, -1.81327, -75.5512, 0.0857852
0.448386, -1, -7.1263, 38.0729, 14.7048, -1.54599, -75.2385, -0.114396
0.456378, -1, -6.95757, 37.9242, 14.7609, -1.27953, -74.9264, -0.313796
0.464331, -1, -6.79, 37.7761, 14.8167, -1.01379, -74.6153, -0.51265
0.471322, -1, -6.62328, 37.6282, 14.8721, -0.748705, -74.3051, -0.71124
0.479361, -1, -6.45743, 37.4806, 14.9276, -0.484601, -73.9953, -0.909165
0.487332, -1, -6.29299, 37.3332, 14.983, -0.220979, -73.6867, -1.10673
0.495342, -1, -6.12956, 37.1863, 15.0382, 0.0421826, -73.3788, -1.30366
0.5034, -1, -5.96697, 37.0403, 15.0933, 0.30427, -73.0719, -1.49976
0.511342, -1, -5.80486, 36.8949, 15.1482, 0.56547, -72.7661, -1.69524
0.519381, -1, -5.64292, 36.7498, 15.2028, 0.826021, -72.4611, -1.89024
0.527399, -1, -5.48087, 36.6051, 15.2573, 1.0855, -72.157, -2.08462
0.535334, -1, -5.31885, 36.461, 15.3117, 1.34421, -71.854, -2.27846
0.54333, -1, -5.15694, 36.3176, 15.3659, 1.60224, -71.5518, -2.47161
0.551403, -1, -4.99513, 36.1745, 15.4201, 1.85943, -71.2508, -2.66401
0.559329, -1, -4.83353, 36.0319, 15.474, 2.11544, -70.951, -2.8559
0.56737, -1, -4.67217, 35.8894, 15.5276, 2.37067, -70.652, -3.04712
0.575395, -1, -4.51084, 35.7474, 15.581, 2.62481, -70.3542, -3.23782
0.583329, -1, -4.34959, 35.6061, 15.6342, 2.87789, -70.0577, -3.42759
0.59134, -1, -4.18883, 35.4654, 15.6872, 3.13009, -69.7625, -3.6165
0.59941, -1, -4.02913, 35.325, 15.74, 3.38184, -69.4682, -3.80459
0.607332, -1, -3.87066, 35.1849, 15.7927, 3.63243, -69.1748, -3.9921
0.615365, -1, -3.71353, 35.0453, 15.845, 3.88197, -68.8826, -4.17887
0.62336, -1, -3.55734, 34.9064, 15.8971, 4.13067, -68.5912, -4.36519
0.631351, -1, -3.40212, 34.7682, 15.949, 4.37843, -68.3009, -4.55085
0.639481, -1, -3.24785, 34.6307, 16.0007, 4.62505, -68.0117, -4.73533
0.647516, -1, -3.09459, 34.4936, 16.0524, 4.87093, -67.7236, -4.91927
0.65543, -1, -2.94245, 34.3568, 16.104, 5.11616, -67.437, -5.1024
0.663496, -1, -2.79101, 34.2207, 16.1552, 5.36013, -67.1515, -5.28498
0.671432, -1, -2.63983, 34.0855, 16.2062, 5.60296, -66.8671, -5.46684
0.679391, -1, -2.48871, 33.951, 16.257, 5.84475, -66.5842, -5.64808
0.687621, -1, -2.33757, 33.8169, 16.3076, 6.08557, -66.3024, -5.82833
0.695357, -1, -2.18669, 33.6831, 16.3581, 6.32533, -66.0215, -6.00798
0.704289, -1, -2.03609, 33.5497, 16.4083, 6.5641, -65.7417, -6.1866
0.711473, -1, -1.88605, 33.417, 16.4582, 6.80203, -65.4631, -6.36475
0.719439, -1, -1.73651, 33.2849, 16.5077, 7.03901, -65.1857, -6.54219
0.728419, -1, -1.58709, 33.1531, 16.5571, 7.27477, -64.9092, -6.71906
0.735732, -1, -1.43782, 33.0219, 16.6064, 7.50946, -64.6341, -6.89506
0.743641, -1, -1.28882, 32.891, 16.6556, 7.7435, -64.36, -7.07017
0.752643, -1, -1.14071, 32.7607, 16.7045, 7.97631, -64.0872, -7.24478
0.759863, -1, -0.993802, 32.6313, 16.7532, 8.20827, -63.8155, -7.4186
0.768549, -1, -0.848183, 32.5025, 16.8017, 8.4394, -63.545, -7.59172
0.776667, -1, -0.703666, 32.3742, 16.8499, 8.66965, -63.2759, -7.76424
0.783913, -1, -0.559965, 32.2466, 16.898, 8.89866, -63.0077, -7.93576
0.792482, -1, -0.417334, 32.1193, 16.946, 9.12662, -62.7407, -8.10653
0.800882, -1, -0.34643, 31.9927, 16.9937, 9.35366, -62.4751, -8.27619
0.807883, -1, -0.205417, 31.9297, 17.0174, 9.46685, -62.3425, -8.36076
0.815346, -1, -0.0653934, 31.804, 17.0647, 9.69239, -62.0784, -8.52965
0.825101, -1, 0.143295, 31.6164, 17.1354, 10.0287, -61.6841, -8.78139
0.832452, -1, 0.282251, 31.4918, 17.1821, 10.252, -61.4227, -8.94862
0.839314, -1, 0.351747, 31.4297, 17.2054, 10.3632, -61.2924, -9.03181
0.849509, -1, 0.560339, 31.244, 17.2751, 10.6953, -60.9029, -9.28041
0.855367, -1, 0.629792, 31.1824, 17.2983, 10.8055, -60.7736, -9.36287
0.863314, -1, 0.76843, 31.0597, 17.3444, 11.0252, -60.5162, -9.52715
0.873542, -1, 0.975571, 30.8764, 17.4131, 11.3534, -60.1319, -9.77291
0.879335, -1, 1.04439, 30.8156, 17.4361, 11.4622, -60.0043, -9.85441
0.888807, -1, 1.25037, 30.6338, 17.5043, 11.7873, -59.6236, -10.0982
0.897848, -1, 1.38737, 30.5133, 17.5495, 12.0032, -59.3714, -10.2596
0.904913, -1, 1.52387, 30.3935, 17.5946, 12.2182, -59.1202, -10.4202
0.91288, -1, 1.65963, 30.2742, 17.6395, 12.432, -58.8698, -10.5802
0.921739, -1, 1.79452, 30.1556, 17.6842, 12.6451, -58.6204, -10.7396
0.927322, -1, 1.86154, 30.0964, 17.7065, 12.7514, -58.496, -10.8191
0.936309, -1, 1.99492, 29.9783, 17.751, 12.9631, -58.2479, -10.9776
0.943423, -1, 2.12754, 29.8607, 17.7954, 13.1738, -58.0008, -11.1356
0.953357, -1, 2.32502, 29.6853, 17.8612, 13.4882, -57.6316, -11.3713
0.95933, -1, 2.3904, 29.6271, 17.8831, 13.5927, -57.5091, -11.4493
0.967381, -1, 2.52044, 29.511, 17.9268, 13.801, -57.2649, -11.6053
0.975315, -1, 2.64946, 29.3953, 17.9704, 14.0085, -57.0218, -11.7605
0.983341, -1, 2.77768, 29.2799, 18.0138, 14.2152, -56.78, -11.9153
0.991378, -1, 2.9053, 29.1647, 18.0569, 14.4208, -56.539, -12.0695
0.999341, -1, 3.03285, 29.05, 18.0999, 14.6258, -56.2994, -12.2232
1.00742, -1, 3.16038, 28.936, 18.1426, 14.8298, -56.0604, -12.376
1.01532, -1, 3.28785, 28.8224, 18.1851, 15.033, -55.8226, -12.5281
1.02344, -1, 3.41503, 28.7093, 18.2277, 15.2355, -55.5857, -12.6796
1.03131, -1, 3.54202, 28.5967, 18.27, 15.4374, -55.3496, -12.8304
1.03934, -1, 3.6687, 28.4846, 18.3123, 15.6385, -55.1144, -12.9807
1.04739, -1, 3.79508, 28.3728, 18.3542, 15.8385, -54.8798, -13.1305
1.05531, -1, 3.92123, 28.2617, 18.396, 16.0377, -54.6463, -13.2798
1.06332, -1, 4.04714, 28.1512, 18.4377, 16.2363, -54.4135, -13.4285
1.07139, -1, 4.17255, 28.0411, 18.4792, 16.434, -54.1816, -13.5764
1.07933, -1, 4.29741, 27.9314, 18.5205, 16.631, -53.9507, -13.7238
1.08732, -1, 4.42154, 27.8221, 18.5618, 16.827, -53.721, -13.8706
1.09539, -1, 4.54499, 27.713, 18.6028, 17.0224, -53.4921, -14.0169
1.10344, -1, 4.66817, 27.6043, 18.6436, 17.2173, -53.264, -14.1626
1.11138, -1, 4.79064, 27.496, 18.6843, 17.4112, -53.0369, -14.3077
1.11944, -1, 4.91231, 27.3882, 18.7248, 17.6045, -52.8106, -14.4526
1.12731, -1, 5.0333, 27.2807, 18.7653, 17.7968, -52.5852, -14.5967
1.13569, -1, 5.15355, 27.1736, 18.8056, 17.9886, -52.3608, -14.7403
1.1448, -1, 5.27287, 27.0668, 18.8455, 18.18, -52.1371, -14.8832
1.15143, -1, 5.39146, 26.9604, 18.8855, 18.3702, -51.9142, -15.0256
1.15978, -1, 5.50944, 26.8545, 18.9254, 18.5599, -51.692, -15.1676
1.16742, -1, 5.62682, 26.749, 18.9651, 18.7489, -51.4707, -15.3091
1.17543, -1, 5.74394, 26.6441, 19.0046, 18.9374, -51.2501, -15.45
1.18393, -1, 5.86083, 26.5395, 19.044, 19.1254, -51.0302, -15.5906
1.19314, -1, 5.97743, 26.4354, 19.0832, 19.3122, -50.8112, -15.7307
1.19935, -1, 6.09384, 26.3315, 19.1224, 19.4985, -50.5929, -15.8702
1.20815, -1, 6.21023, 26.2278, 19.1613, 19.6842, -50.3754, -16.0092
1.21539, -1, 6.32666, 26.1244, 19.2, 19.8692, -50.1587, -16.1477
1.22342, -1, 6.44307, 26.0215, 19.2387, 20.0535, -49.9426, -16.2857
1.23235, -1, 6.55921, 25.9189, 19.2772, 20.237, -49.7275, -16.4236
1.23958, -1, 6.6751, 25.8166, 19.3156, 20.4199, -49.5131, -16.5608
1.24769, -1, 6.79065, 25.7148, 19.3538, 20.6024, -49.2996, -16.6977
1.25656, -1, 6.90569, 25.6134, 19.3919, 20.7843, -49.0867, -16.834
1.26379, -1, 7.02027, 25.5122, 19.43, 20.9654, -48.8749, -16.9697
1.27193, -1, 7.13445, 25.4114, 19.468, 21.146, -48.6638, -17.1048
1.2807, -1, 7.24811, 25.311, 19.5057, 21.3258, -48.4532, -17.2393
1.28787, -1, 7.36127, 25.2112, 19.5435, 21.5053, -48.2432, -17.3735
1.29648, -1, 7.47402, 25.1116, 19.581, 21.6841, -48.0339, -17.5072
1.30471, -1, 7.53014, 25.062, 19.5997, 21.7732, -47.8252, -17.6404
1.31185, -1, 7.64202, 24.9629, 19.6371, 21.951, -47.7211, -17.707
1.3199, -1, 7.75338, 24.8641, 19.6744, 22.1284, -47.5133, -17.8398
1.3273, -1, 7.86422, 24.7656, 19.7114, 22.3051, -47.3061, -17.9721
1.3353, -1, 7.97468, 24.6672, 19.7484, 22.4816, -47.0996, -18.1039
1.34441, -1, 8.13951, 24.5204, 19.8036, 22.7448, -46.7911, -18.3007
1.3513, -1, 8.19428, 24.4716, 19.8218, 22.8322, -46.6886, -18.3661
1.35938, -1, 8.3035, 24.3741, 19.8583, 23.0066, -46.4842, -18.4967
1.36863, -1, 8.46646, 24.2284, 19.913, 23.2674, -46.179, -18.6919
1.3753, -1, 8.52045, 24.1801, 19.9311, 23.3539, -46.0776, -18.7567
1.38346, -1, 8.62802, 24.0835, 19.9673, 23.5267, -45.8753, -18.8863
1.39288, -1, 8.78895, 23.9391, 20.0215, 23.7846, -45.5732, -19.0796
1.40175, -1, 8.89612, 23.8433, 20.0574, 23.9561, -45.3727, -19.208
1.40737, -1, 8.94968, 23.7957, 20.0753, 24.0417, -45.2727, -19.272
1.41689, -1, 9.1103, 23.6532, 20.1291, 24.2976, -44.9734, -19.4632
1.42574, -1, 9.21736, 23.5586, 20.1647, 24.4675, -44.7746, -19.5905
1.43136, -1, 9.27076, 23.5114, 20.1825, 24.5522, -44.6753, -19.6538
1.44131, -1, 9.43048, 23.3703, 20.2358, 24.8055, -44.3782, -19.8436
1.44731, -1, 9.48359, 23.3234, 20.2535, 24.8898, -44.2796, -19.9066
1.45735, -1, 9.64263, 23.1827, 20.3064, 25.1419, -43.9842, -20.0956
1.46329, -1, 9.69552, 23.136, 20.324, 25.2256, -43.8859, -20.1584
1.4713, -1, 9.80105, 23.0428, 20.359, 25.3926, -43.6901, -20.2833
1.47936, -1, 9.90632, 22.9499, 20.3938, 25.5592, -43.4949, -20.408
1.48734, -1, 10.0112, 22.8571, 20.4287, 25.7255, -43.3004, -20.5324
1.49529, -1, 10.1157, 22.7647, 20.4635, 25.8913, -43.1064, -20.6563
1.5033, -1, 10.2198, 22.6725, 20.498, 26.0566, -42.913, -20.7799
1.51131, -1, 10.3235, 22.5805, 20.5325, 26.2213, -42.7201, -20.9035
1.51937, -1, 10.4267, 22.4887, 20.567, 26.3856, -42.5277, -21.0265
1.52734, -1, 10.5298, 22.3973, 20.6014, 26.5494, -42.3359, -21.1493
1.5353, -1, 10.6325, 22.3062, 20.6357, 26.7128, -42.1445, -21.2717
1.54343, -1, 10.7348, 22.2153, 20.6699, 26.8757, -41.9541, -21.3935
1.55129, -1, 10.8366, 22.1248, 20.7039, 27.0381, -41.764, -21.5152
1.5593, -1, 10.938, 22.0344, 20.7379, 27.1998, -41.5745, -21.6363
1.56736, -1, 11.0391, 21.9443, 20.772, 27.3613, -41.3853, -21.7571
1.57529, -1, 11.1399, 21.8545, 20.8058, 27.5225, -41.1967, -21.8777
1.58331, -1, 11.2405, 21.7647, 20.8394, 27.6833, -41.0085, -21.9979
1.59136, -1, 11.3408, 21.6752, 20.8731, 27.8435, -40.8207, -22.1178
1.5993, -1, 11.4407, 21.586, 20.9066, 28.0032, -40.6336, -22.2375
1.60738, -1, 11.5402, 21.497, 20.9399, 28.1624, -40.4469, -22.3569
1.74745, -1, 13.2049, 20.0199, 21.5111, 30.8866, -37.2576, -24.3952
1.74881, -1, 13.2527, 19.9774, 21.5111, 30.8866, -37.2576, -24.3952
1.75026, -1, 13.2527, 19.9774, 21.5111, 30.8866, -37.2576, -24.3952
1.75228, -1, 13.3005, 19.9349, 21.5271, 30.9627, -37.1684, -24.4522
1.75348, -1, 13.3005, 19.9349, 21.5271, 30.9627, -37.1684, -24.4522
1.75469, -1, 13.3005, 19.9349, 21.5271, 30.9627, -37.1684, -24.4522
1.75674, -1, 13.3482, 19.8925, 21.5431, 31.0388, -37.0793, -24.5091
1.75982, -1, 13.3959, 19.8501, 21.5591, 31.1147, -36.9904, -24.5661
1.7615, -1, 13.3959, 19.8501, 21.5591, 31.1147, -36.9904, -24.5661
1.76276, -1, 13.3959, 19.8501, 21.5591, 31.1147, -36.9904, -24.5661
1.76544, -1, 13.4435, 19.8078, 21.575, 31.1906, -36.9016, -24.623
1.76663, -1, 13.4435, 19.8078, 21.575, 31.1906, -36.9016, -24.623
1.76885, -1, 13.491, 19.7656, 21.5908, 31.2663, -36.8127, -24.6796
1.77022, -1, 13.491, 19.7656, 21.5908, 31.2663, -36.8127, -24.6796
1.77218, -1, 13.5385, 19.7234, 21.6067, 31.342, -36.724, -24.7361
1.77681, -1, 13.586, 19.6812, 21.6225, 31.4175, -36.6355, -24.7928
1.77801, -1, 13.586, 19.6812, 21.6225, 31.4175, -36.6355, -24.7928
1.77988, -1, 13.6334, 19.6391, 21.6384, 31.493, -36.5471, -24.8492
1.78126, -1, 13.6334, 19.6391, 21.6384, 31.493, -36.5471, -24.8492
1.78256, -1, 13.6334, 19.6391, 21.6384, 31.493, -36.5471, -24.8492
1.7845, -1, 13.6806, 19.597, 21.6542, 31.5683, -36.4586, -24.9057
1.78579, -1, 13.6806, 19.597, 21.6542, 31.5683, -36.4586, -24.9057
1.79329, -1, 13.7751, 19.513, 21.6858, 31.7186, -36.2824, -25.0184
1.79986, -1, 13.8223, 19.4292, 21.7172, 31.869, -36.1063, -25.131
1.80781, -1, 13.9165, 19.3874, 21.733, 31.944, -36.0185, -25.2432
1.81714, -1, 14.0576, 19.2624, 21.7802, 32.1684, -35.7557, -25.3554
1.82328, -1, 14.1046, 19.2208, 21.7958, 32.2429, -35.6683, -25.4112
1.83128, -1, 14.1983, 19.1377, 21.8269, 32.3918, -35.4938, -25.5231
1.83933, -1, 14.2917, 19.0549, 21.8581, 32.5405, -35.3199, -25.6345
1.84849, -1, 14.4311, 18.9309, 21.9047, 32.7631, -35.0595, -25.8012
1.85529, -1, 14.4774, 18.8897, 21.9202, 32.8372, -34.973, -25.8566
1.86544, -1, 14.616, 18.7661, 21.9667, 33.0586, -34.7141, -26.0222
1.87128, -1, 14.662, 18.725, 21.9822, 33.1322, -34.6281, -26.0774
1.88068, -1, 14.7999, 18.602, 22.0283, 33.3526, -34.3703, -26.2421
1.88736, -1, 14.8458, 18.5611, 22.0436, 33.4259, -34.2843, -26.297
1.89529, -1, 14.9375, 18.4795, 22.0743, 33.5723, -34.1129, -26.4063
1.90487, -1, 15.0745, 18.3573, 22.1204, 33.7913, -33.8563, -26.57
1.91133, -1, 15.1201, 18.3168, 22.1356, 33.8641, -33.7712, -26.6247
1.9209, -1, 15.2569, 18.1954, 22.1812, 34.0819, -33.5156, -26.7881
1.92887, -1, 15.3025, 18.1549, 22.2118, 34.2268, -33.3456, -26.8965
1.93535, -1, 15.3937, 18.0743, 22.227, 34.2992, -33.2607, -26.9506
1.94484, -1, 15.4849, 17.9937, 22.2572, 34.4438, -33.0914, -27.0586
1.95228, -1, 15.5758, 17.9133, 22.2875, 34.5881, -32.9225, -27.1665
1.96029, -1, 15.6665, 17.8331, 22.3178, 34.7319, -32.7541, -27.2739
1.9685, -1, 15.7571, 17.753, 22.3479, 34.8756, -32.586, -27.3816
1.97529, -1, 15.8475, 17.673, 22.3778, 35.0187, -32.4182, -27.4888
1.98335, -1, 15.9376, 17.5932, 22.4078, 35.1616, -32.2509, -27.5959
1.99127, -1, 16.0275, 17.5136, 22.4378, 35.3043, -32.0837, -27.7028
1.99928, -1, 16.1171, 17.4341, 22.4676, 35.4468, -31.917, -27.8096
2.00731, -1, 16.2065, 17.3547, 22.4973, 35.589, -31.7507, -27.9161
2.01529, -1, 16.2955, 17.2754, 22.5271, 35.7308, -31.5845, -28.0222
2.02334, -1, 16.3843, 17.1964, 22.5568, 35.8723, -31.419, -28.1285
2.03137, -1, 16.4728, 17.1175, 22.5863, 36.0136, -31.2535, -28.234
2.03928, -1, 16.5611, 17.0388, 22.6158, 36.1548, -31.0883, -28.3398
2.04735, -1, 16.6494, 16.9603, 22.6454, 36.2959, -30.9234, -28.4448
2.05532, -1, 16.7376, 16.8819, 22.6749, 36.4364, -30.7587, -28.5502
2.06328, -1, 16.8256, 16.8038, 22.7042, 36.5766, -30.5945, -28.6552
2.07134, -1, 16.9135, 16.7259, 22.7336, 36.7166, -30.4305, -28.7599
2.07927, -1, 17.0012, 16.648, 22.7631, 36.8562, -30.2671, -28.8648
2.08731, -1, 17.0888, 16.5702, 22.7923, 36.9957, -30.1037, -28.969
2.09535, -1, 17.1762, 16.4927, 22.8214, 37.135, -29.9406, -29.0734
2.10327, -1, 17.2624, 16.4158, 22.8504, 37.2739, -29.7777, -29.1772
2.1113, -1, 17.3451, 16.3413, 22.879, 37.4121, -29.6159, -29.2806
2.11934, -1, 17.4227, 16.271, 22.9062, 37.5481, -29.4562, -29.3827
2.12728, -1, 17.4943, 16.2062, 22.9321, 37.6799, -29.3016, -29.4814
2.13532, -1, 17.5604, 16.1476, 22.956, 37.8038, -29.1559, -29.5745
2.14339, -1, 17.62, 16.0953, 22.9778, 37.9162, -29.0239, -29.659
2.15136, -1, 17.6726, 16.0491, 22.997, 38.0131, -28.9093, -29.7321
2.15938, -1, 17.7192, 16.0075, 23.0131, 38.0918, -28.8164, -29.7921
2.16744, -1, 17.7604, 15.9699, 23.0264, 38.1521, -28.7447, -29.8375
2.1754, -1, 17.7963, 15.9375, 23.037, 38.1936, -28.6947, -29.8696
2.18337, -1, 17.8255, 15.9119, 23.0447, 38.2211, -28.6617, -29.8906
2.19145, -1, 17.8487, 15.8936, 23.05, 38.2377, -28.6417, -29.9031
2.19934, -1, 17.8658, 15.881, 23.0534, 38.247, -28.6305, -29.9099
2.2073, -1, 17.8764, 15.873, 23.0554, 38.2517, -28.6248, -29.9132
2.21573, -1, 17.8818, 15.8688, 23.0564, 38.254, -28.6222, -29.9147
2.22344, 2, 17.8842, 15.8665, 23.0569, 38.255, -28.6208, -29.9154
2.23143, 2, 17.885, 15.8653, 23.0571, 38.2555, -28.6202, -29.9158
2.23991, 2, 17.8847, 15.8646, 23.0572, 38.2557, -28.62, -29.9159
2.24834, 2, 17.8841, 15.8642, 23.0573, 38.2558, -28.6199, -29.916
2.25563, 2, 17.8837, 15.864, 23.0573, 38.2559, -28.6199, -29.916
2.26407, 2, 17.8834, 15.8638, 23.0573, 38.2559, -28.6198, -29.916
2.27242, 2, 17.8832, 15.8637, 23.0574, 38.2559, -28.6198, -29.916
2.27981, 2, 17.8832, 15.8636, 23.0574, 38.2559, -28.6198, -29.916
2.28838, 2, 17.8832, 15.8634, 23.0574, 38.2559, -28.6198, -29.9161
2.29584, 2, 17.8834, 15.8632, 23.0574, 38.2559, -28.6199, -29.9161
2.30442, 2, 17.8837, 15.8631, 23.0574, 38.256, -28.6199, -29.9161
2.31215, 2, 17.8841, 15.8629, 23.0574, 38.2559, -28.6199, -29.9161
2.31926, 2, 17.8843, 15.8628, 23.0574, 38.2559, -28.6199, -29.9161
2.32726, 2, 17.885, 15.8627, 23.0574, 38.256, -28.6199, -29.916
2.3363, 2, 17.8858, 15.8625, 23.0574, 38.2559, -28.62, -29.9161
2.34327, 2, 17.8861, 15.8625, 23.0574, 38.256, -28.62, -29.9161
2.35274, 2, 17.8865, 15.8624, 23.0574, 38.256, -28.62, -29.916
2.35931, 2, 17.8867, 15.8624, 23.0574, 38.256, -28.62, -29.916
2.36858, 2, 17.8869, 15.8624, 23.0574, 38.2559, -28.62, -29.916
2.37527, 2, 17.8869, 15.8624, 23.0574, 38.2559, -28.62, -29.916
2.38331, 2, 17.887, 15.8624, 23.0574, 38.2559, -28.62, -29.916
2.39276, 2, 17.887, 15.8624, 23.0574, 38.2559, -28.62, -29.916
2.39926, 2, 17.887, 15.8624, 23.0574, 38.2559, -28.62, -29.916
2.40731, 2, 17.887, 15.8624, 23.0574, 38.2559, -28.6201, -29.916
2.41699, 2, 17.8867, 15.8624, 23.0574, 38.2559, -28.6201, -29.916
2.42515, 2, 17.8866, 15.8623, 23.0574, 38.2559, -28.6201, -29.916
2.43133, 2, 17.8865, 15.8623, 23.0574, 38.2559, -28.6201, -29.916
2.44092, 2, 17.8865, 15.8623, 23.0574, 38.2559, -28.6202, -29.916
2.44924, 2, 17.8864, 15.8623, 23.0574, 38.2559, -28.6202, -29.916
2.45534, 2, 17.8864, 15.8623, 23.0574, 38.2559, -28.6202, -29.916
2.46326, 2, 17.8864, 15.8623, 23.0574, 38.2559, -28.6202, -29.916
2.47126, 2, 17.8865, 15.8623, 23.0574, 38.2559, -28.6202, -29.916
2.47934, 2, 17.8864, 15.8623, 23.0574, 38.2559, -28.6202, -29.916
2.48726, 2, 17.8864, 15.8623, 23.0574, 38.2559, -28.6202, -29.916
2.49527, 2, 17.8864, 15.8623, 23.0574, 38.2559, -28.6202, -29.916
2.50333, 2, 17.8864, 15.8623, 23.0574, 38.2559, -28.6203, -29.916
2.51126, 2, 17.8864, 15.8623, 23.0574, 38.2559, -28.6202, -29.916
2.51926, 2, 17.8864, 15.8623, 23.0574, 38.2559, -28.6202, -29.916
2.52733, 2, 17.8864, 15.8623, 23.0574, 38.2559, -28.6203, -29.916
2.53531, 2, 17.8863, 15.8623, 23.0574, 38.2559, -28.6203, -29.916
2.54326, 2, 17.8863, 15.8623, 23.0574, 38.2559, -28.6203, -29.9159
2.55133, 2, 17.8863, 15.8623, 23.0574, 38.2559, -28.6204, -29.9159
2.55929, 2, 17.8863, 15.8623, 23.0574, 38.2559, -28.6205, -29.9159
2.56726, 2, 17.8863, 15.8623, 23.0574, 38.2559, -28.6205, -29.9159
2.57534, 2, 17.8863, 15.8623, 23.0574, 38.2559, -28.6205, -29.9159
2.58326, 2, 17.8862, 15.8623, 23.0574, 38.2559, -28.6205, -29.9159
2.59129, 2, 17.8862, 15.8623, 23.0574, 38.2559, -28.6204, -29.9158
2.59932, 2, 17.8862, 15.8623, 23.0574, 38.2558, -28.6204, -29.9159
2.60726, 2, 17.8862, 15.8623, 23.0574, 38.2558, -28.6205, -29.9159
2.6153, 2, 17.8862, 15.8623, 23.0574, 38.2558, -28.6206, -29.9159
2.62333, 2, 17.8862, 15.8623, 23.0574, 38.2558, -28.6206, -29.9159
2.63126, 2, 17.8861, 15.8623, 23.0574, 38.2558, -28.6206, -29.9159
2.6393, 2, 17.8861, 15.8623, 23.0574, 38.2559, -28.6206, -29.9159
2.64741, 2, 17.8861, 15.8623, 23.0574, 38.2558, -28.6206, -29.9158
2.65536, 2, 17.8861, 15.8623, 23.0574, 38.2559, -28.6206, -29.9158
2.66336, 2, 17.886, 15.8623, 23.0574, 38.2558, -28.6206, -29.9158
2.67147, 2, 17.886, 15.8623, 23.0574, 38.2558, -28.6206, -29.9158
2.67937, 2, 17.886, 15.8623, 23.0574, 38.2558, -28.6206, -29.9158
2.68732, 2, 17.886, 15.8623, 23.0574, 38.2558, -28.6207, -29.9158
2.69544, 2, 17.8859, 15.8623, 23.0574, 38.2557, -28.6207, -29.9157
2.70334, 2, 17.8859, 15.8623, 23.0574, 38.2558, -28.6208, -29.9157
2.71131, 2, 17.8859, 15.8623, 23.0574, 38.2557, -28.6208, -29.9157
2.71936, 2, 17.8859, 15.8623, 23.0574, 38.2558, -28.6208, -29.9157
2.72741, 2, 17.8858, 15.8623, 23.0574, 38.2558, -28.6208, -29.9157
2.73595, 2, 17.8858, 15.8623, 23.0574, 38.2558, -28.6208, -29.9156
2.74426, 2, 17.8857, 15.8623, 23.0574, 38.2558, -28.6208, -29.9155
2.75154, 2, 17.8857, 15.8623, 23.0574, 38.2558, -28.6208, -29.9155
2.76003, 2, 17.8857, 15.8623, 23.0574, 38.2557, -28.6208, -29.9155
2.7683, 2, 17.8857, 15.8623, 23.0574, 38.2557, -28.6208, -29.9155
2.77575, 2, 17.8856, 15.8623, 23.0574, 38.2558, -28.6208, -29.9155
2.78436, 2, 17.8856, 15.8623, 23.0574, 38.2557, -28.6209, -29.9155
2.79183, 2, 17.8855, 15.8623, 23.0574, 38.2557, -28.6209, -29.9154
2.80044, 2, 17.8855, 15.8623, 23.0574, 38.2557, -28.6209, -29.9154
2.80812, 2, 17.8854, 15.8623, 23.0574, 38.2556, -28.621, -29.9153
2.81587, 2, 17.8854, 15.8623, 23.0574, 38.2556, -28.621, -29.9153
2.82432, 2, 17.8854, 15.8623, 23.0574, 38.2557, -28.621, -29.9153
2.83228, 2, 17.8854, 15.8623, 23.0574, 38.2556, -28.621, -29.9153
2.8393, 2, 17.8853, 15.8623, 23.0574, 38.2556, -28.621, -29.9153
2.84838, 2, 17.8852, 15.8624, 23.0574, 38.2556, -28.621, -29.9153
2.85526, 2, 17.8852, 15.8623, 23.0574, 38.2557, -28.621, -29.9153
2.86329, 2, 17.8852, 15.8623, 23.0574, 38.2556, -28.621, -29.9153
2.8726, 2, 17.8851, 15.8623, 23.0574, 38.2556, -28.621, -29.9152
2.87925, 2, 17.8851, 15.8623, 23.0574, 38.2556, -28.621, -29.9152
2.8873, 2, 17.8851, 15.8623, 23.0574, 38.2556, -28.621, -29.9152
2.89677, 2, 17.885, 15.8623, 23.0574, 38.2556, -28.6211, -29.9153
2.90524, 2, 17.885, 15.8623, 23.0574, 38.2555, -28.6211, -29.9152
2.9113, 2, 17.885, 15.8623, 23.0574, 38.2555, -28.6212, -29.9152
2.92087, 2, 17.8849, 15.8623, 23.0574, 38.2555, -28.6211, -29.9153
2.92944, 2, 17.8848, 15.8623, 23.0574, 38.2555, -28.6211, -29.9152
2.93531, 2, 17.8848, 15.8624, 23.0574, 38.2555, -28.6211, -29.9152
2.94489, 2, 17.8848, 15.8624, 23.0574, 38.2554, -28.6212, -29.9152
2.95317, 2, 17.8847, 15.8624, 23.0574, 38.2554, -28.6212, -29.9152
2.95931, 2, 17.8847, 15.8624, 23.0574, 38.2554, -28.6213, -29.9152
2.96724, 2, 17.8846, 15.8624, 23.0574, 38.2554, -28.6213, -29.9152
2.97525, 2, 17.8846, 15.8624, 23.0574, 38.2554, -28.6213, -29.9152
2.98425, 2, 17.8845, 15.8624, 23.0574, 38.2554, -28.6213, -29.9152
2.99233, 2, 17.8845, 15.8624, 23.0574, 38.2553, -28.6213, -29.9151
3.00028, 2, 17.8844, 15.8624, 23.0574, 38.2553, -28.6213, -29.9152
3.00734, 2, 17.8844, 15.8624, 23.0574, 38.2553, -28.6213, -29.9152
3.01534, 2, 17.8843, 15.8624, 23.0574, 38.2553, -28.6213, -29.9152
3.02324, 2, 17.8843, 15.8624, 23.0574, 38.2553, -28.6213, -29.9151
3.03131, 2, 17.8842, 15.8624, 23.0574, 38.2554, -28.6213, -29.9151
3.03929, 2, 17.8842, 15.8624, 23.0574, 38.2554, -28.6213, -29.9151
3.04724, 2, 17.8841, 15.8624, 23.0574, 38.2553, -28.6213, -29.9151
3.05532, 2, 17.8841, 15.8624, 23.0574, 38.2553, -28.6213, -29.9151
3.06327, 2, 17.884, 15.8624, 23.0574, 38.2553, -28.6213, -29.9152
3.07124, 2, 17.884, 15.8624, 23.0574, 38.2552, -28.6214, -29.9151
3.07931, 2, 17.884, 15.8624, 23.0574, 38.2552, -28.6213, -29.9151
3.08724, 2, 17.8839, 15.8624, 23.0574, 38.2552, -28.6214, -29.9151
3.09525, 2, 17.8839, 15.8624, 23.0574, 38.2552, -28.6214, -29.9151
3.10331, 2, 17.8839, 15.8624, 23.0574, 38.2552, -28.6214, -29.9151
3.11124, 2, 17.8838, 15.8624, 23.0574, 38.2552, -28.6214, -29.9151
3.11926, 2, 17.8838, 15.8624, 23.0574, 38.2552, -28.6214, -29.9151
3.12731, 2, 17.8837, 15.8624, 23.0574, 38.2552, -28.6214, -29.915
3.13525, 2, 17.8837, 15.8624, 23.0574, 38.2552, -28.6214, -29.9151
3.14327, 2, 17.8837, 15.8624, 23.0574, 38.2551, -28.6214, -29.9151
3.15139, 2, 17.8837, 15.8624, 23.0574, 38.2551, -28.6214, -29.915
3.15939, 2, 17.8836, 15.8624, 23.0574, 38.2551, -28.6214, -29.9151
3.16734, 2, 17.8836, 15.8624, 23.0574, 38.2551, -28.6214, -29.915
3.17542, 2, 17.8836, 15.8624, 23.0574, 38.2551, -28.6214, -29.915
3.18335, 2, 17.8835, 15.8624, 23.0574, 38.255, -28.6214, -29.915
3.1913, 2, 17.8835, 15.8624, 23.0574, 38.255, -28.6214, -29.915
3.19931, 2, 17.8835, 15.8625, 23.0574, 38.255, -28.6214, -29.915
3.20731, 2, 17.8835, 15.8625, 23.0574, 38.255, -28.6214, -29.9149
3.21528, 2, 17.8834, 15.8625, 23.0574, 38.255, -28.6215, -29.9149
3.22373, 2, 17.8834, 15.8625, 23.0574, 38.2549, -28.6215, -29.915
3.23224, 2, 17.8834, 15.8625, 23.0574, 38.2549, -28.6215, -29.9149
3.23949, 2, 17.8834, 15.8625, 23.0574, 38.2549, -28.6215, -29.9149
3.24808, 2, 17.8834, 15.8625, 23.0574, 38.2549, -28.6215, -29.915
3.25558, 2, 17.8833, 15.8625, 23.0574, 38.2549, -28.6215, -29.9149
3.26368, 2, 17.8833, 15.8625, 23.0574, 38.2549, -28.6215, -29.9149
3.2721, 2, 17.8833, 15.8625, 23.0574, 38.2549, -28.6215, -29.9149
3.27976, 2, 17.8833, 15.8625, 23.0574, 38.2548, -28.6214, -29.9149
3.28833, 2, 17.8833, 15.8625, 23.0574, 38.2548, -28.6215, -29.9149
3.2958, 2, 17.8833, 15.8625, 23.0574, 38.2548, -28.6215, -29.9149
3.30379, 4, 17.8833, 15.8625, 23.0574, 38.2548, -28.6215, -29.9149
3.31239, 4, 17.8833, 15.8625, 23.0574, 38.2548, -28.6215, -29.9149
3.32018, 4, 17.8833, 15.8625, 23.0574, 38.2548, -28.6215, -29.9149
3.32723, 4, 17.8833, 15.8625, 23.0574, 38.2548, -28.6216, -29.9149
3.3363, 4, 17.8833, 15.8625, 23.0573, 38.2548, -28.6215, -29.9149
3.34323, 4, 17.8833, 15.8625, 23.0573, 38.2547, -28.6215, -29.9149
3.35232, 4, 17.8832, 15.8625, 23.0573, 38.2546, -28.6215, -29.9148
3.35928, 4, 17.8832, 15.8625, 23.0573, 38.2546, -28.6215, -29.9148
3.36862, 4, 17.8832, 15.8625, 23.0573, 38.2546, -28.6215, -29.9148
3.37528, 4, 17.8832, 15.8625, 23.0573, 38.2546, -28.6216, -29.9148
3.3846, 4, 17.8832, 15.8625, 23.0573, 38.2546, -28.6216, -29.9147
3.39123, 4, 17.8832, 15.8625, 23.0574, 38.2546, -28.6216, -29.9147
3.40112, 4, 17.8832, 15.8625, 23.0573, 38.2546, -28.6216, -29.9147
3.42731, 4, 17.8832, 15.8625, 23.0574, 38.2545, -28.6216, -29.9146
3.42939, 4, 17.8832, 15.8625, 23.0574, 38.2545, -28.6216, -29.9146
3.43068, 4, 17.8832, 15.8625, 23.0574, 38.2545, -28.6216, -29.9146
3.43196, 4, 17.8832, 15.8625, 23.0574, 38.2545, -28.6216, -29.9146
3.4393, 4, 17.8832, 15.8625, 23.0574, 38.2545, -28.6216, -29.9146
3.44883, 4, 17.8831, 15.8625, 23.0574, 38.2544, -28.6216, -29.9147
3.45622, 4, 17.8825, 15.8625, 23.0574, 38.2544, -28.6216, -29.9147
3.46431, 4, 17.8799, 15.8625, 23.0575, 38.2539, -28.6217, -29.9145
3.47224, 4, 17.8737, 15.8624, 23.0584, 38.2503, -28.6225, -29.9125
3.47923, 4, 17.8631, 15.8619, 23.0616, 38.2383, -28.6259, -29.9041
3.48724, 4, 17.8468, 15.8603, 23.0696, 38.2109, -28.635, -29.8814
3.49526, 5, 17.822, 15.8567, 23.0862, 38.1574, -28.6535, -29.8357
3.50324, 5, 17.787, 15.8502, 23.1153, 38.063, -28.6859, -29.7543
3.51129, 5, 17.7416, 15.8399, 23.1609, 37.9144, -28.7382, -29.6253
3.51924, 5, 17.6866, 15.8251, 23.2263, 37.7002, -28.8151, -29.4385
3.52727, 5, 17.6217, 15.8056, 23.313, 37.416, -28.919, -29.1904
3.53529, 5, 17.5466, 15.7818, 23.4204, 37.0646, -29.0496, -28.8824
3.54328, 5, 17.4616, 15.7542, 23.5461, 36.655, -29.2042, -28.5224
3.55124, 5, 17.3682, 15.7237, 23.686, 36.2002, -29.3788, -28.1224
3.55929, 5, 17.266, 15.6914, 23.8358, 35.7156, -29.5684, -27.696
3.56733, 5, 17.1547, 15.6584, 23.9914, 35.2153, -29.7678, -27.2559
3.57571, 5, 17.0352, 15.6251, 24.15, 34.7094, -29.9735, -26.8113
3.58323, 5, 16.9099, 15.5922, 24.309, 34.2035, -30.1833, -26.3674
3.59121, 5, 16.7814, 15.5599, 24.4671, 33.7012, -30.396, -25.9276
3.5993, 5, 16.6508, 15.5287, 24.6248, 33.2037, -30.611, -25.4929
3.60722, 5, 16.5192, 15.4984, 24.7823, 32.7111, -30.8282, -25.0635
3.61522, 5, 16.3871, 15.4691, 24.9386, 32.2241, -31.047, -24.6398
3.62406, 5, 16.2552, 15.4409, 25.0935, 31.7428, -31.2679, -24.2211
3.63239, 5, 16.1232, 15.414, 25.2474, 31.267, -31.4906, -23.8081
3.63942, 5, 15.9915, 15.3883, 25.4008, 30.7963, -31.7151, -23.4009
3.64811, 5, 15.86, 15.3637, 25.5533, 30.3312, -31.9413, -22.9991
3.65531, 5, 15.7283, 15.3403, 25.7044, 29.8717, -32.1692, -22.6024
3.66356, 5, 15.5966, 15.3179, 25.8542, 29.4172, -32.3985, -22.2112
3.67208, 5, 15.4652, 15.2967, 26.0033, 28.9681, -32.6295, -21.8252
3.68022, 5, 15.3334, 15.2765, 26.1515, 28.5242, -32.8621, -21.4447
3.68781, 5, 15.2011, 15.2573, 26.2984, 28.0855, -33.0961, -21.0696
3.69657, 5, 15.068, 15.239, 26.4441, 27.6519, -33.3316, -20.6995
3.70336, 5, 14.9339, 15.2219, 26.5887, 27.2227, -33.5684, -20.3346
3.71206, 5, 14.799, 15.2058, 26.7323, 26.7988, -33.8068, -19.9746
3.72101, 5, 14.6633, 15.1905, 26.8749, 26.3799, -34.0467, -19.6192
3.72823, 5, 14.5268, 15.1765, 27.0162, 25.9655, -34.2878, -19.2689
3.73617, 5, 14.3896, 15.1636, 27.1563, 25.556, -34.5303, -18.9234
3.74342, 5, 14.2521, 15.1519, 27.2955, 25.1512, -34.7744, -18.5826
3.75175, 5, 14.1141, 15.1412, 27.4338, 24.7509, -35.0198, -18.2464
3.76041, 5, 13.9759, 15.1315, 27.5708, 24.3552, -35.2665, -17.9149
3.76761, 5, 13.8377, 15.1231, 27.7067, 23.9637, -35.5144, -17.5878
3.77581, 5, 13.6993, 15.116, 27.8414, 23.5765, -35.7636, -17.2652
3.78468, 5, 13.5612, 15.11, 27.975, 23.1937, -36.014, -16.9472
3.79177, 5, 13.4231, 15.105, 28.1075, 22.8151, -36.2654, -16.6336
3.80006, 5, 13.2853, 15.1011, 28.2389, 22.4407, -36.518, -16.3242
3.80863, 5, 13.2164, 15.0983, 28.3691, 22.0704, -36.7716, -16.0192
3.81581, 5, 13.0789, 15.0974, 28.4337, 21.7042, -37.0265, -15.7184
3.82423, 5, 12.872, 15.096, 28.6259, 21.3418, -37.2825, -15.4212
3.83122, 5, 12.8028, 15.096, 28.6895, 21.1622, -37.4109, -15.2741
3.84173, 5, 12.5942, 15.0972, 28.8783, 20.6289, -37.7978, -14.8389
3.84725, 5, 12.5242, 15.0981, 28.9407, 20.4529, -37.9273, -14.6958
3.85524, 5, 12.3838, 15.1008, 29.0646, 20.1039, -38.1872, -14.4123
3.86601, 5, 12.1718, 15.1069, 29.248, 19.5873, -38.5791, -13.9938
3.87253, 5, 12.0297, 15.1125, 29.3689, 19.2475, -38.8415, -13.7196
3.87925, 5, 11.9585, 15.1157, 29.4289, 19.0789, -38.973, -13.5837
3.89017, 5, 11.744, 15.1268, 29.6072, 18.5785, -39.369, -13.1815
3.89526, 5, 11.6723, 15.131, 29.6661, 18.4135, -39.5013, -13.0493
3.90321, 5, 11.5288, 15.1404, 29.7828, 18.0859, -39.7667, -12.7873
3.91423, 5, 11.3133, 15.1569, 29.9557, 17.6008, -40.167, -12.4015
3.91923, 5, 11.2414, 15.1629, 30.0128, 17.4408, -40.3008, -12.2746
3.9288, 5, 11.0258, 15.1827, 30.1822, 16.9654, -40.7033, -11.8986
3.93879, 5, 10.9538, 15.1899, 30.2938, 16.6524, -40.9729, -11.6521
3.94514, 5, 10.8099, 15.2054, 30.3492, 16.3427, -41.2431, -11.4092
3.95122, 5, 10.666, 15.2221, 30.4589, 16.189, -41.3785, -11.2889
3.95927, 5, 10.5222, 15.2398, 30.5673, 15.884, -41.65, -11.0505
3.9683, 5, 10.3785, 15.2587, 30.6745, 15.5821, -41.9227, -10.815
3.97522, 5, 10.2348, 15.279, 30.7806, 15.2829, -42.1961, -10.5826
3.98327, 5, 10.0909, 15.3004, 30.8857, 14.987, -42.4702, -10.3534
3.99121, 5, 9.94676, 15.3228, 30.9896, 14.6939, -42.7449, -10.1275
3.99921, 5, 9.80217, 15.3465, 31.0923, 14.4036, -43.0204, -9.90396
4.00732, 5, 9.65681, 15.3713, 31.1935, 14.1163, -43.2967, -9.68355
4.0153, 5, 9.51083, 15.3971, 31.2934, 13.8315, -43.5737, -9.46572
4.02323, 5, 9.3643, 15.424, 31.3923, 13.5492, -43.8512, -9.25095
4.03124, 5, 9.21718, 15.452, 31.4901, 13.2697, -44.1293, -9.03897
4.03921, 5, 9.06966, 15.4813, 31.5868, 12.9928, -44.408, -8.82931
4.04726, 5, 8.92166, 15.5117, 31.6823, 12.7184, -44.6872, -8.62245
4.05528, 5, 8.77341, 15.5432, 31.7764, 12.4468, -44.9672, -8.41812
4.0632, 5, 8.62512, 15.5757, 31.869, 12.1775, -45.2482, -8.21648
4.0712, 5, 8.47671, 15.6095, 31.9605, 11.9105, -45.5298, -8.01756
4.07927, 5, 8.32824, 15.6444, 32.0508, 11.6462, -45.8118, -7.8211
4.08721, 5, 8.1796, 15.6803, 32.1402, 11.3844, -46.0944, -7.62697
4.09522, 5, 8.03085, 15.7174, 32.2285, 11.1246, -46.3773, -7.43531
4.10326, 5, 7.88215, 15.7556, 32.3154, 10.8671, -46.6608, -7.24609
4.11123, 5, 7.73343, 15.795, 32.4009, 10.6122, -46.9448, -7.05929
4.1192, 5, 7.58492, 15.8353, 32.4849, 10.3592, -47.2291, -6.87506
4.12727, 5, 7.43656, 15.8769, 32.5677, 10.1082, -47.5139, -6.69269
4.1353, 5, 7.28817, 15.9197, 32.6495, 9.85963, -47.7993, -6.51274
4.14323, 5, 7.13965, 15.9635, 32.7303, 9.61324, -48.0853, -6.33474
4.15135, 5, 6.99095, 16.0085, 32.8098, 9.36888, -48.3716, -6.15925
4.15952, 5, 6.8419, 16.0547, 32.8881, 9.12663, -48.6586, -5.98587
4.1673, 5, 6.69247, 16.102, 32.965, 8.88659, -48.9462, -5.81468
4.17537, 5, 6.54257, 16.1504, 33.0405, 8.64862, -49.2342, -5.64572
4.18366, 5, 6.39231, 16.1998, 33.1146, 8.41253, -49.5225, -5.47843
4.19135, 5, 6.24137, 16.2506, 33.1876, 8.17858, -49.8112, -5.31339
4.19941, 5, 6.09006, 16.3024, 33.2595, 7.94668, -50.1001, -5.15005
4.20785, 5, 5.93845, 16.3552, 33.3302, 7.71652, -50.3894, -4.98884
4.21621, 5, 5.7867, 16.4091, 33.3995, 7.48819, -50.6789, -4.82963
4.22332, 5, 5.63493, 16.464, 33.4676, 7.26198, -50.9689, -4.67254
4.23214, 5, 5.48299, 16.5199, 33.5344, 7.03751, -51.2593, -4.51736
4.23936, 5, 5.33083, 16.5769, 33.6, 6.81466, -51.5499, -4.36373
4.24746, 5, 5.17861, 16.635, 33.6642, 6.59351, -51.8409, -4.21194
4.25635, 5, 5.02633, 16.6942, 33.7272, 6.3742, -52.1322, -4.06198
4.26353, 5, 4.87418, 16.7545, 33.7889, 6.15659, -52.4238, -3.91379
4.27169, 5, 4.72215, 16.8159, 33.8492, 5.94046, -52.7157, -3.76757
4.28036, 5, 4.57021, 16.8784, 33.9083, 5.7261, -53.0081, -3.62321
4.28775, 5, 4.41846, 16.942, 33.9662, 5.51356, -53.3005, -3.48056
4.29632, 5, 4.26696, 17.0069, 34.0228, 5.30264, -53.5931, -3.33949
4.30462, 5, 4.11555, 17.0727, 34.0783, 5.09325, -53.886, -3.20008
4.31179, 5, 3.96402, 17.1396, 34.1325, 4.88537, -54.1789, -3.06219
4.32076, 5, 3.8124, 17.2075, 34.1853, 4.67931, -54.4719, -2.92616
4.32719, 5, 3.73653, 17.2417, 34.2113, 4.57688, -54.6184, -2.8587
4.33624, 5, 3.50824, 17.346, 34.2871, 4.27157, -55.0585, -2.65861
4.34324, 5, 3.43191, 17.3814, 34.3118, 4.17048, -55.2053, -2.59269
4.35122, 5, 3.27895, 17.4527, 34.36, 3.96962, -55.4988, -2.46234
4.36031, 5, 3.04868, 17.5616, 34.4302, 3.67115, -55.9398, -2.26924
4.36727, 5, 2.97183, 17.5984, 34.4529, 3.57242, -56.0869, -2.2055
4.3752, 5, 2.81801, 17.6728, 34.4972, 3.37576, -56.3813, -2.07941
4.38452, 5, 2.58686, 17.7866, 34.5614, 3.08341, -56.823, -1.89267
4.39126, 5, 2.50976, 17.825, 34.5822, 2.98671, -56.9702, -1.831
4.39919, 5, 2.35561, 17.9026, 34.6227, 2.79421, -57.2647, -1.70907
4.40986, 5, 2.12439, 18.0208, 34.6812, 2.50799, -57.706, -1.52902
4.41678, 5, 1.9703, 18.101, 34.7185, 2.31879, -58.0003, -1.41046
4.42485, 5, 1.81648, 18.1822, 34.7546, 2.13107, -58.2946, -1.29387
4.43285, 5, 1.66274, 18.2643, 34.7893, 1.94462, -58.5891, -1.17824
4.4408, 5, 1.58596, 18.3473, 34.8226, 1.75947, -58.8838, -1.06363
4.44885, 5, 1.43278, 18.3892, 34.8546, 1.57536, -59.1786, -0.95062
4.45676, 5, 1.28094, 18.4734, 34.8702, 1.48379, -59.3261, -0.894406
4.46515, 5, 1.05989, 18.5981, 34.9154, 1.21216, -59.7671, -0.728441
4.47121, 5, 0.98899, 18.6387, 34.9298, 1.12285, -59.913, -0.67398
4.47919, 5, 0.852279, 18.717, 34.9578, 0.94766, -60.2006, -0.567924
4.48726, 5, 0.722829, 18.7913, 34.9842, 0.779468, -60.4782, -0.466398
4.49519, 5, 0.602101, 18.8608, 35.0082, 0.622129, -60.7391, -0.371783
4.50319, 5, 0.491389, 18.9248, 35.0295, 0.479721, -60.9773, -0.286165
4.51128, 5, 0.391789, 18.9827, 35.0473, 0.355398, -61.1861, -0.211893
4.51919, 5, 0.303923, 19.034, 35.0613, 0.251667, -61.362, -0.14918
4.5272, 5, 0.227409, 19.0788, 35.0719, 0.169002, -61.5025, -0.0995057
4.53534, 5, 0.162447, 19.117, 35.0792, 0.106705, -61.6093, -0.0621926
4.54319, 5, 0.109625, 19.148, 35.0837, 0.0628654, -61.6858, -0.0356872
4.55126, 5, 0.068961, 19.172, 35.0863, 0.0330025, -61.7372, -0.0175842
4.55926, 5, 0.0395758, 19.1897, 35.0877, 0.0140103, -61.7699, -0.00630382
4.58503, 5, -0.0028482, 19.2148, 35.0883, -0.00681174, -61.8051, 0.0054486
4.58828, 5, -0.00506413, 19.2163, 35.0883, -0.00770719, -61.8066, 0.00590051
4.59022, 5, -0.00629201, 19.2172, 35.0882, -0.00834775, -61.8076, 0.0061957
4.59166, 5, -0.00629201, 19.2172, 35.0882, -0.00834775, -61.8076, 0.0061957
4.59926, 5, -0.00685014, 19.2183, 35.0882, -0.00908985, -61.8088, 0.00656393
4.60719, 5, -0.0065285, 19.219, 35.0881, -0.00952713, -61.8094, 0.00669655
4.61619, 5, -0.00694358, 19.2201, 35.0879, -0.00970804, -61.8098, 0.00677929
4.62332, 5, -0.00969242, 19.2233, 35.0872, -0.0100013, -61.8103, 0.00686842
4.63121, 5, -0.0161945, 19.2307, 35.0854, -0.0109518, -61.8122, 0.00711786
4.63926, 6, -0.027417, 19.2441, 35.0815, -0.0141196, -61.8177, 0.00837808
4.64722, 6, -0.0448906, 19.2658, 35.0743, -0.0214576, -61.8302, 0.0121448
4.65546, 6, -0.0700611, 19.2978, 35.0622, -0.035068, -61.8528, 0.0197386
4.66329, 6, -0.104051, 19.3407, 35.0437, -0.0577896, -61.8907, 0.0329361
4.67131, 6, -0.147123, 19.3954, 35.0171, -0.0920712, -61.9501, 0.0535333
4.67965, 6, -0.199723, 19.4637, 34.9811, -0.142033, -62.0348, 0.0823481
4.68729, 6, -0.262374, 19.5465, 34.9346, -0.208044, -62.1483, 0.120327
4.69532, 6, -0.334689, 19.6442, 34.8771, -0.290423, -62.2911, 0.167909
4.70389, 6, -0.41587, 19.7559, 34.809, -0.388947, -62.4623, 0.225463
4.71225, 6, -0.505629, 19.8809, 34.731, -0.500742, -62.6585, 0.29034
4.71948, 6, -0.604, 20.0184, 34.6439, -0.623509, -62.8745, 0.361366
4.7281, 6, -0.710101, 20.1671, 34.5494, -0.753835, -63.1056, 0.437246
4.73531, 6, -0.822808, 20.3259, 34.449, -0.889201, -63.3466, 0.515129
4.7434, 6, -0.94117, 20.4937, 34.3442, -1.02722, -63.5936, 0.595185
4.75224, 6, -1.06441, 20.6679, 34.2361, -1.16581, -63.8435, 0.674927
4.75948, 6, -1.19128, 20.846, 34.1257, -1.30432, -64.0944, 0.754756
4.76791, 6, -1.31988, 21.0262, 34.0133, -1.44198, -64.3456, 0.834199
4.77645, 6, -1.44897, 21.2086, 33.8991, -1.57887, -64.5965, 0.912279
4.78366, 6, -1.57811, 21.3923, 33.7832, -1.71479, -64.8468, 0.990461
4.79184, 6, -1.707, 21.576, 33.666, -1.84989, -65.0967, 1.06713
4.80065, 6, -1.83529, 21.7587, 33.5475, -1.98389, -65.3457, 1.14387
4.80776, 6, -1.96286, 21.9415, 33.4279, -2.11676, -65.5941, 1.21949
4.8163, 6, -2.08973, 22.1249, 33.3068, -2.24854, -65.8418, 1.29421
4.82464, 6, -2.15291, 22.2168, 33.2457, -2.31403, -65.9652, 1.36876
4.83119, 6, -2.27864, 22.4, 33.1224, -2.44425, -66.212, 1.40538
4.84021, 6, -2.46599, 22.6752, 32.9349, -2.63795, -66.5808, 1.51498
4.84718, 6, -2.52821, 22.7675, 32.8718, -2.70205, -66.7033, 1.55115
4.85518, 6, -2.6524, 22.9525, 32.7447, -2.8294, -66.9478, 1.62243
4.86449, 6, -2.83842, 23.2304, 32.5517, -3.01834, -67.3129, 1.72922
4.87122, 6, -2.90031, 23.3234, 32.4868, -3.08072, -67.4341, 1.76405
4.87923, 6, -3.02394, 23.5104, 32.3558, -3.20487, -67.6761, 1.83328
4.88862, 6, -3.20953, 23.7922, 32.1569, -3.38927, -68.0376, 1.93711
4.89517, 6, -3.27131, 23.886, 32.0899, -3.45028, -68.1575, 1.9709
4.90322, 6, -3.39484, 24.0742, 31.9551, -3.57163, -68.3967, 2.03849
4.91309, 6, -3.57996, 24.3586, 31.7506, -3.75183, -68.7543, 2.13912
4.92167, 6, -3.70287, 24.5485, 31.6128, -3.87084, -68.9917, 2.20543
4.92733, 6, -3.76411, 24.643, 31.5434, -3.92991, -69.11, 2.23881
4.93682, 6, -3.94727, 24.9265, 31.3329, -4.10594, -69.4639, 2.33696
4.94558, 6, -4.00813, 25.0214, 31.262, -4.22197, -69.699, 2.40164
4.95125, 6, -4.1295, 25.2113, 31.1193, -4.27974, -69.8162, 2.43424
4.96022, 6, -4.25039, 25.401, 30.9756, -4.39482, -70.05, 2.49843
4.96819, 6, -4.37079, 25.5913, 30.8307, -4.50881, -70.2828, 2.56164
4.9762, 6, -4.49062, 25.7827, 30.6845, -4.62191, -70.5148, 2.62527
4.98317, 6, -4.60984, 25.9747, 30.5367, -4.73405, -70.7456, 2.68794
4.99119, 6, -4.728, 26.1663, 30.3878, -4.84511, -70.9756, 2.74972
4.99923, 6, -4.84525, 26.3586, 30.2379, -4.95549, -71.2046, 2.81184
5.00722, 6, -4.96188, 26.5515, 30.0865, -5.06492, -71.4328, 2.87292
5.01517, 6, -5.07815, 26.7445, 29.9337, -5.17346, -71.6599, 2.93321
5.02324, 6, -5.19404, 26.9372, 29.7795, -5.28125, -71.8863, 2.9941
5.0312, 6, -5.3097, 27.1306, 29.6245, -5.38825, -72.1117, 3.05398
5.03921, 6, -5.42521, 27.3249, 29.468, -5.49441, -72.336, 3.11314
5.04736, 6, -5.54057, 27.519, 29.31, -5.5996, -72.5595, 3.17251
5.05522, 6, -5.65575, 27.7129, 29.1506, -5.70383, -72.7821, 3.23141
5.06317, 6, -5.77094, 27.9076, 28.9905, -5.80738, -73.0038, 3.28966
5.07125, 6, -5.88591, 28.1028, 28.8293, -5.91, -73.2245, 3.34838
5.07923, 6, -6.00076, 28.2976, 28.6664, -6.01187, -73.4441, 3.40676
5.08718, 6, -6.11538, 28.4926, 28.5017, -6.11305, -73.6628, 3.46393
5.09524, 6, -6.22962, 28.6883, 28.3362, -6.21351, -73.8804, 3.52151
5.10317, 6, -6.34328, 28.8846, 28.1697, -6.31324, -74.0972, 3.57913
5.11122, 6, -6.45633, 29.0803, 28.0015, -6.41218, -74.313, 3.63565
5.11917, 6, -6.56882, 29.2757, 27.8317, -6.51014, -74.5277, 3.69218
5.12719, 6, -6.68081, 29.4721, 27.6611, -6.60735, -74.7415, 3.74904
5.13524, 6, -6.79235, 29.669, 27.4897, -6.70363, -74.9544, 3.80485
5.14317, 6, -6.9035, 29.8655, 27.3165, -6.79929, -75.1662, 3.86043
5.15121, 6, -7.01422, 30.0621, 27.1415, -6.8942, -75.3769, 3.91629
5.15931, 6, -7.12436, 30.2599, 26.9657, -6.98842, -75.5867, 3.97163
5.16728, 6, -7.23383, 30.4583, 26.7891, -7.0822, -75.7954, 4.02615
5.17526, 6, -7.34282, 30.6563, 26.6106, -7.17495, -76.003, 4.08101
5.18333, 6, -7.45135, 30.8547, 26.4305, -7.26713, -76.2096, 4.13602
5.19222, 6, -7.55938, 31.0538, 26.2499, -7.35848, -76.4153, 4.18984
5.1993, 6, -7.66695, 31.2528, 26.0681, -7.44868, -76.62, 4.24375
5.2074, 6, -7.774, 31.4512, 25.8842, -7.53853, -76.8238, 4.29781
5.21525, 6, -7.8805, 31.6499, 25.6989, -7.6275, -77.0268, 4.3514
5.22327, 6, -7.98647, 31.8496, 25.5132, -7.71557, -77.2287, 4.40467
5.23134, 6, -8.09207, 32.0491, 25.3259, -7.80336, -77.4296, 4.45861
5.23937, 6, -8.19745, 32.2482, 25.1366, -7.89033, -77.6295, 4.5122
5.24741, 6, -8.30254, 32.448, 24.9466, -7.97639, -77.8283, 4.56482
5.25545, 6, -8.40735, 32.6483, 24.7558, -8.06196, -78.026, 4.61771
5.26353, 6, -8.51179, 32.848, 24.563, -8.14647, -78.2225, 4.67114
5.27168, 6, -8.616, 33.0482, 24.3687, -8.23042, -78.4183, 4.72382
5.28028, 6, -8.72002, 33.2493, 24.1738, -8.31337, -78.6125, 4.77601
5.28768, 6, -8.82375, 33.4507, 23.9776, -8.39581, -78.8059, 4.82893
5.29626, 6, -8.92718, 33.6515, 23.7793, -8.47742, -78.9982, 4.88163
5.30374, 6, -9.03028, 33.8524, 23.5804, -8.55818, -79.1893, 4.93352
5.31236, 6, -9.13299, 34.0541, 23.3805, -8.63852, -79.3796, 4.9857
5.3198, 6, -9.23525, 34.2557, 23.1784, -8.71798, -79.5687, 5.03818
5.32839, 6, -9.33698, 34.4573, 22.9753, -8.79735, -79.7569, 5.0901
5.33576, 6, -9.38764, 34.5584, 22.8735, -8.83649, -79.8506, 5.11584
5.34419, 6, -9.53897, 34.863, 22.5657, -8.9532, -80.1305, 5.19346
5.35116, 6, -9.58923, 34.9645, 22.4621, -8.99163, -80.2233, 5.21961
5.36028, 6, -9.73925, 35.2684, 22.1509, -9.10616, -80.5, 5.29688
5.36725, 6, -9.78903, 35.3699, 22.0465, -9.14367, -80.5918, 5.32248
5.37643, 6, -9.93764, 35.6749, 21.7304, -9.25617, -80.8652, 5.4001
5.38316, 6, -9.98699, 35.7764, 21.6245, -9.29312, -80.9558, 5.42591
5.39256, 6, -10.1344, 36.0811, 21.3051, -9.40349, -81.2259, 5.50258
5.39916, 6, -10.1834, 36.1831, 21.1976, -9.43972, -81.3154, 5.52831
5.40867, 6, -10.3298, 36.4893, 20.8739, -9.5484, -81.5822, 5.60627
5.41668, 6, -10.4269, 36.693, 20.6568, -9.61974, -81.7584, 5.65777
5.42474, 6, -10.5237, 36.8974, 20.4378, -9.69076, -81.9338, 5.70901
5.433, 6, -10.6199, 37.1024, 20.218, -9.76071, -82.1077, 5.76089
5.44073, 6, -10.6678, 37.307, 19.9969, -9.83052, -82.2807, 5.81283
5.44879, 6, -10.763, 37.512, 19.7738, -9.89904, -82.4526, 5.86429
5.45616, 6, -10.8577, 37.6148, 19.6619, -9.93346, -82.5382, 5.89007
5.46415, 6, -10.9518, 37.821, 19.4376, -10.0008, -82.7085, 5.94219
5.47283, 6, -11.0454, 38.0265, 19.2114, -10.0679, -82.8778, 5.99417
5.48019, 6, -11.1385, 38.2318, 18.9838, -10.1342, -83.0459, 6.04562
5.48815, 6, -11.2313, 38.4378, 18.7554, -10.1996, -83.2128, 6.09741
5.49625, 6, -11.3235, 38.6438, 18.5249, -10.265, -83.3788, 6.1497
5.50415, 6, -11.4157, 38.8495, 18.2934, -10.3289, -83.5438, 6.20163
5.51115, 6, -11.5075, 39.0559, 18.0611, -10.3932, -83.7076, 6.25322
5.51915, 6, -11.5992, 39.2632, 17.8267, -10.4558, -83.8703, 6.30544
5.52723, 6, -11.6908, 39.4703, 17.5911, -10.519, -84.032, 6.35789
5.53518, 6, -11.7821, 39.6772, 17.3544, -10.5802, -84.1925, 6.40971
5.54319, 6, -11.8732, 39.8848, 17.1159, -10.6417, -84.3519, 6.4619
5.55122, 6, -11.964, 40.0928, 16.8767, -10.7022, -84.5102, 6.51476
5.55921, 6, -12.0544, 40.3003, 16.636, -10.7618, -84.6674, 6.56718
5.56717, 6, -12.1446, 40.5083, 16.3933, -10.8214, -84.8234, 6.61933
5.57521, 6, -12.2343, 40.7173, 16.1498, -10.8791, -84.9783, 6.67239
5.58315, 6, -12.3237, 40.926, 15.9045, -10.9374, -85.1321, 6.72589
5.59116, 6, -12.4124, 41.1345, 15.6578, -10.9944, -85.2847, 6.77872
5.59922, 6, -12.5008, 41.3436, 15.4104, -11.0506, -85.4362, 6.83165
5.60717, 6, -12.5885, 41.553, 15.1609, -11.1068, -85.5864, 6.88529
5.61516, 6, -12.6743, 41.7605, 14.9108, -11.1612, -85.7356, 6.93883
5.62322, 6, -12.7571, 41.9648, 14.6608, -11.216, -85.8834, 6.992
5.63115, 6, -12.8359, 42.1646, 14.4123, -11.2695, -86.0292, 7.04553
5.63915, 6, -12.9106, 42.3578, 14.169, -11.321, -86.1714, 7.09821
5.64724, 6, -12.9813, 42.5421, 13.933, -11.3712, -86.3079, 7.14854
5.65519, 6, -13.0471, 42.7154, 13.7085, -11.4175, -86.4365, 7.19635
5.66324, 6, -13.1077, 42.876, 13.5007, -11.4595, -86.5542, 7.24131
5.67131, 6, -13.1633, 43.0223, 13.3132, -11.4974, -86.6593, 7.28162
5.67926, 6, -13.2143, 43.1533, 13.1487, -11.5299, -86.7494, 7.31612
5.68728, 6, -13.2601, 43.2676, 13.0096, -11.5563, -86.8246, 7.34501
5.69533, 6, -13.2994, 43.3642, 12.8956, -11.5774, -86.8852, 7.36818
5.70323, 6, -13.3329, 43.4439, 12.8056, -11.5935, -86.9318, 7.38609
5.71136, 6, -13.3605, 43.5078, 12.7369, -11.6055, -86.9667, 7.39965
5.71925, 6, -13.383, 43.5574, 12.6865, -11.6141, -86.9917, 7.40911
5.72724, 6, -13.4004, 43.5942, 12.6511, -11.6199, -87.0085, 7.4156
5.73539, 6, -13.4137, 43.621, 12.6274, -11.6235, -87.0192, 7.41973
5.74338, 6, -13.424, 43.6407, 12.6124, -11.6255, -87.0252, 7.42207
5.75133, 6, -13.4316, 43.6546, 12.6034, -11.6267, -87.0285, 7.42338
5.75944, 6, -13.4365, 43.6632, 12.5982, -11.6272, -87.0301, 7.42405
5.76815, 7, -13.4393, 43.6679, 12.5954, -11.6276, -87.0308, 7.42436
5.77551, 7, -13.4408, 43.6704, 12.5937, -11.6278, -87.0312, 7.42454
5.7841, 7, -13.4413, 43.6719, 12.5925, -11.6279, -87.0313, 7.4246
5.79172, 7, -13.4415, 43.6731, 12.5917, -11.6279, -87.0314, 7.42465
5.8003, 7, -13.4417, 43.6743, 12.5913, -11.628, -87.0314, 7.42467
5.80816, 7, -13.4417, 43.6755, 12.5911, -11.628, -87.0314, 7.4247
5.81576, 7, -13.4417, 43.6769, 12.5911, -11.6281, -87.0314, 7.42467
5.82432, 7, -13.4417, 43.6781, 12.5912, -11.6281, -87.0314, 7.42466
5.83236, 7, -13.4417, 43.6792, 12.5912, -11.6281, -87.0314, 7.42464
5.83919, 7, -13.4417, 43.6796, 12.5912, -11.6281, -87.0314, 7.42462
5.84824, 7, -13.4418, 43.6806, 12.5913, -11.628, -87.0313, 7.42464
5.85514, 7, -13.4417, 43.6809, 12.5913, -11.628, -87.0313, 7.42463
5.86438, 7, -13.4417, 43.6812, 12.5916, -11.628, -87.0311, 7.42469
5.87116, 7, -13.4417, 43.6813, 12.5917, -11.628, -87.0311, 7.4247
5.88055, 7, -13.4417, 43.6811, 12.5918, -11.628, -87.031, 7.42467
5.88727, 7, -13.4417, 43.681, 12.5918, -11.628, -87.031, 7.42467
