hehonglu123/ABB_Primitive_Study/realrobot/movel_30_car/curve_exe_v1000_z10.csv
timestamp, cmd_num, J1, J2, J3, J4, J5, J6
0.000358, -1, -13.4404, 43.6799, 12.593, -11.6275, -87.0288, 7.425
0.002829, -1, -13.4404, 43.6799, 12.593, -11.6275, -87.0288, 7.42495
0.028533, -1, -13.4404, 43.6799, 12.593, -11.6275, -87.0288, 7.42498
0.029834, -1, -13.4404, 43.6799, 12.593, -11.6275, -87.0288, 7.42498
0.031912, -1, -13.4404, 43.6799, 12.593, -11.6275, -87.0288, 7.42498
0.033103, -1, -13.4404, 43.6799, 12.593, -11.6275, -87.0288, 7.42498
0.039371, -1, -13.4404, 43.6799, 12.593, -11.6275, -87.0288, 7.42499
0.047105, -1, -13.4403, 43.6798, 12.593, -11.6275, -87.0287, 7.42497
0.055302, -1, -13.439, 43.679, 12.5931, -11.6275, -87.0287, 7.42493
0.06325, -1, -13.4352, 43.6763, 12.5935, -11.6274, -87.0287, 7.42496
0.071354, -1, -13.4281, 43.6708, 12.5945, -11.6267, -87.0277, 7.42473
0.079423, -1, -13.4174, 43.6621, 12.5965, -11.6233, -87.0238, 7.42329
0.088318, -1, -13.4012, 43.6493, 12.5999, -11.6149, -87.014, 7.41793
0.095535, -1, -13.3778, 43.6305, 12.6054, -11.5986, -86.9949, 7.40591
0.104086, -1, -13.3461, 43.6044, 12.6137, -11.5708, -86.9621, 7.38545
0.112352, -1, -13.3058, 43.5703, 12.6251, -11.5272, -86.9121, 7.35356
0.119618, -1, -13.2554, 43.5267, 12.6401, -11.4634, -86.8386, 7.30726
0.128102, -1, -13.1937, 43.4726, 12.6597, -11.3773, -86.7387, 7.243
0.13639, -1, -13.1586, 43.4415, 12.6712, -11.3244, -86.6777, 7.20396
0.143959, -1, -13.0361, 43.3312, 12.7122, -11.1268, -86.4481, 7.05762
0.152017, -1, -12.9394, 43.2434, 12.7457, -10.9618, -86.2561, 6.93507
0.158976, -1, -12.8866, 43.1953, 12.7643, -10.8699, -86.149, 6.86666
0.168043, -1, -12.7113, 43.0357, 12.8258, -10.5601, -85.7877, 6.63532
0.17491, -1, -12.6477, 42.9779, 12.8481, -10.4467, -85.6555, 6.55057
0.185253, -1, -12.442, 42.7914, 12.9202, -10.0838, -85.2315, 6.27946
0.190953, -1, -12.3691, 42.7255, 12.9456, -9.95678, -85.083, 6.18438
0.200395, -1, -12.1404, 42.519, 13.0248, -9.56393, -84.6238, 5.89023
0.206904, -1, -12.0614, 42.4477, 13.052, -9.43032, -84.4673, 5.79004
0.214965, -1, -11.8993, 42.3023, 13.1072, -9.16062, -84.1518, 5.58765
0.224524, -1, -11.6482, 42.0784, 13.1916, -8.75251, -83.6747, 5.2821
0.233448, -1, -11.4778, 41.9271, 13.2485, -8.4794, -83.3552, 5.07773
0.23903, -1, -11.3921, 41.851, 13.277, -8.34273, -83.1953, 4.97532
0.248564, -1, -11.1343, 41.6227, 13.3627, -7.93232, -82.7149, 4.668
0.257468, -1, -11.0483, 41.5469, 13.3914, -7.79539, -82.3944, 4.46282
0.263911, -1, -10.876, 41.3954, 13.4488, -7.52171, -82.234, 4.36021
0.271955, -1, -10.7037, 41.2439, 13.5064, -7.24789, -81.9131, 4.15517
0.279968, -1, -10.5312, 41.0922, 13.5641, -6.97372, -81.5923, 3.95017
0.287929, -1, -10.3586, 40.9405, 13.6218, -6.69983, -81.2717, 3.74508
0.295939, -1, -10.1862, 40.7891, 13.6794, -6.42607, -80.9511, 3.53996
0.304005, -1, -10.0143, 40.6376, 13.7368, -6.15232, -80.631, 3.33475
0.31196, -1, -9.84266, 40.4859, 13.7942, -5.87868, -80.3111, 3.12974
0.31991, -1, -9.67166, 40.3337, 13.8515, -5.60527, -79.9913, 2.92501
0.327906, -1, -9.50125, 40.1814, 13.9087, -5.33194, -79.6717, 2.72051
0.335967, -1, -9.33164, 40.0294, 13.966, -5.05871, -79.3521, 2.51598
0.343909, -1, -9.16255, 39.8774, 14.0232, -4.78584, -79.0327, 2.31169
0.351908, -1, -8.99373, 39.7253, 14.0803, -4.51335, -78.7134, 2.10753
0.358953, -1, -8.8248, 39.5733, 14.1373, -4.24132, -78.3945, 1.90383
0.367908, -1, -8.65558, 39.4217, 14.1943, -3.96985, -78.0765, 1.70032
0.375915, -1, -8.48598, 39.2708, 14.2512, -3.69854, -77.7589, 1.497
0.3849, -1, -8.31615, 39.1203, 14.3082, -3.42751, -77.4417, 1.29402
0.391915, -1, -8.14627, 38.97, 14.365, -3.1573, -77.1254, 1.09146
0.399965, -1, -7.97622, 38.8198, 14.4217, -2.88745, -76.8097, 0.889453
0.408949, -1, -7.80616, 38.67, 14.4783, -2.61802, -76.4943, 0.687866
0.415965, -1, -7.63578, 38.5207, 14.5347, -2.34935, -76.1794, 0.486603
0.423966, -1, -7.46536, 38.3717, 14.591, -2.08124, -75.8652, 0.285843
0.432038, -1, -7.29521, 38.2229, 14.6473, -1.81335, -75.5516, 0.0854298
0.439915, -1, -7.12566, 38.0739, 14.7035, -1.54606, -75.2388, -0.114661
0.447967, -1, -6.957, 37.9253, 14.7596, -1.27972, -74.9268, -0.314035
0.455903, -1, -6.78941, 37.777, 14.8154, -1.01386, -74.6157, -0.512749
0.463902, -1, -6.62272, 37.6291, 14.8709, -0.748821, -74.3054, -0.711315
0.471979, -1, -6.45693, 37.4814, 14.9264, -0.484703, -73.9958, -0.909177
0.479897, -1, -6.29248, 37.334, 14.9817, -0.221043, -73.6871, -1.10678
0.487912, -1, -6.12908, 37.1871, 15.0369, 0.0419625, -73.3792, -1.30361
0.49597, -1, -5.96647, 37.0411, 15.0921, 0.304072, -73.0722, -1.4998
0.503903, -1, -5.80433, 36.8957, 15.147, 0.565288, -72.7665, -1.69524
0.511925, -1, -5.64238, 36.7506, 15.2015, 0.825806, -72.4615, -1.89021
0.519964, -1, -5.48038, 36.606, 15.256, 1.08529, -72.1574, -2.08457
0.527901, -1, -5.31836, 36.4619, 15.3105, 1.34399, -71.8544, -2.27838
0.535908, -1, -5.15649, 36.3184, 15.3648, 1.60207, -71.5522, -2.47148
0.543968, -1, -4.99478, 36.1754, 15.4189, 1.85928, -71.2512, -2.66378
0.551913, -1, -4.83322, 36.0328, 15.4728, 2.1153, -70.9513, -2.85574
0.560096, -1, -4.67193, 35.8903, 15.5264, 2.37052, -70.6525, -3.04692
0.567908, -1, -4.5106, 35.7482, 15.5798, 2.62465, -70.3547, -3.23757
0.575928, -1, -4.3494, 35.6069, 15.633, 2.87764, -70.0582, -3.4273
0.584766, -1, -4.18871, 35.4662, 15.6859, 3.12987, -69.763, -3.61621
0.591996, -1, -4.029, 35.3257, 15.7388, 3.38157, -69.4686, -3.8043
0.600035, -1, -3.87048, 35.1856, 15.7915, 3.63221, -69.1753, -3.99187
0.608743, -1, -3.71333, 35.0459, 15.8438, 3.88174, -68.8829, -4.17871
0.616003, -1, -3.55717, 34.9071, 15.8959, 4.13035, -68.5917, -4.36493
0.624008, -1, -3.40192, 34.7689, 15.9478, 4.37815, -68.3014, -4.55053
0.633223, -1, -3.24764, 34.6313, 15.9996, 4.62474, -68.0122, -4.73507
0.639603, -1, -3.17088, 34.5627, 16.0512, 4.87059, -67.7241, -4.91884
0.648001, -1, -2.94229, 34.3575, 16.1029, 5.1158, -67.4374, -5.10222
0.655936, -1, -2.79082, 34.2215, 16.1541, 5.35975, -67.1519, -5.28468
0.663959, -1, -2.63975, 34.0863, 16.2051, 5.60253, -66.8676, -5.46656
0.672139, -1, -2.48866, 33.9517, 16.2559, 5.84442, -66.5847, -5.64775
0.678939, -1, -2.41303, 33.8846, 16.2812, 5.965, -66.4437, -5.73793
0.688187, -1, -2.18668, 33.6838, 16.357, 6.32485, -66.0221, -6.0075
0.694887, -1, -2.11137, 33.6171, 16.3821, 6.44432, -65.882, -6.09692
0.702942, -1, -1.96105, 33.4839, 16.4322, 6.68277, -65.6028, -6.27538
0.712404, -1, -1.73657, 33.2855, 16.5067, 7.03861, -65.1862, -6.54175
0.721213, -1, -1.58715, 33.1537, 16.556, 7.27436, -64.9098, -6.71853
0.726949, -1, -1.51249, 33.088, 16.5806, 7.39182, -64.772, -6.80676
0.736457, -1, -1.28892, 32.8915, 16.6544, 7.74306, -64.3606, -7.06982
0.745341, -1, -1.14084, 32.7613, 16.7033, 7.97592, -64.0878, -7.24441
0.7511, -1, -1.06724, 32.6965, 16.7277, 8.09202, -63.9518, -7.33136
0.760512, -1, -0.920949, 32.5674, 16.7764, 8.43896, -63.5456, -7.59118
0.767934, -1, -0.775946, 32.4388, 16.8248, 8.55416, -63.4108, -7.67751
0.774952, -1, -0.631858, 32.3109, 16.873, 8.78386, -63.1422, -7.84949
0.783936, -1, -0.488604, 32.1835, 16.921, 9.01239, -62.8746, -8.02057
0.791899, -1, -0.346614, 32.0565, 16.9689, 9.23981, -62.6083, -8.19078
0.799005, -1, -0.205539, 31.9303, 17.0165, 9.46648, -62.3431, -8.36021
0.807936, -1, -0.065564, 31.8047, 17.0638, 9.69204, -62.079, -8.52903
0.815924, -1, 0.0736143, 31.6794, 17.1111, 9.91639, -61.8159, -8.6971
0.822944, -1, 0.212569, 31.5547, 17.1579, 10.14, -61.5539, -8.8646
0.831887, -1, 0.351567, 31.4303, 17.2046, 10.3628, -61.293, -9.03124
0.839893, -1, 0.490589, 31.3063, 17.2511, 10.5843, -61.033, -9.19717
0.846884, -1, 0.629538, 31.183, 17.2975, 10.8051, -60.7743, -9.36236
0.85589, -1, 0.768172, 31.0603, 17.3436, 11.0249, -60.5167, -9.52675
0.863881, -1, 0.90636, 30.938, 17.3895, 11.2438, -60.2603, -9.69071
0.870876, -1, 1.04402, 30.8162, 17.4354, 11.4618, -60.0048, -9.85394
0.879889, -1, 1.18145, 30.6948, 17.481, 11.6787, -59.7508, -10.0167
0.887902, -1, 1.31855, 30.5739, 17.5262, 11.8949, -59.498, -10.1784
0.896883, -1, 1.4553, 30.4538, 17.5715, 12.1103, -59.2463, -10.3395
0.903882, -1, 1.59146, 30.3344, 17.6165, 12.3247, -58.9955, -10.4998
0.911907, -1, 1.72682, 30.2154, 17.6614, 12.5381, -58.7455, -10.6594
0.919951, -1, 1.86116, 30.097, 17.706, 12.7508, -58.4966, -10.8186
0.927894, -1, 1.99458, 29.9789, 17.7505, 12.9626, -58.2484, -10.9771
0.935927, -1, 2.12721, 29.8613, 17.7949, 13.1733, -58.0014, -11.1351
0.943895, -1, 2.25914, 29.7442, 17.8389, 13.3831, -57.755, -11.2923
0.951884, -1, 2.3901, 29.6277, 17.8827, 13.5922, -57.5097, -11.4487
0.959953, -1, 2.52011, 29.5116, 17.9264, 13.8006, -57.2655, -11.6047
0.967888, -1, 2.64916, 29.3959, 17.9699, 14.008, -57.0225, -11.7599
0.975879, -1, 2.77735, 29.2805, 18.0133, 14.2146, -56.7807, -11.9147
0.983995, -1, 2.90498, 29.1653, 18.0565, 14.4203, -56.5397, -12.0689
0.991886, -1, 3.03248, 29.0506, 18.0995, 14.6253, -56.3001, -12.2225
0.999886, -1, 3.15997, 28.9365, 18.1422, 14.8294, -56.0611, -12.3754
1.00797, -1, 3.28748, 28.8229, 18.1848, 15.0326, -55.8233, -12.5276
1.01589, -1, 3.41472, 28.7098, 18.2273, 15.235, -55.5863, -12.679
1.0239, -1, 3.54164, 28.5973, 18.2697, 15.4368, -55.3503, -12.8298
1.03196, -1, 3.66829, 28.4851, 18.3119, 15.6379, -55.115, -12.9803
1.03988, -1, 3.79464, 28.3733, 18.3539, 15.8379, -54.8805, -13.1299
1.04789, -1, 3.92072, 28.2622, 18.3957, 16.0372, -54.647, -13.2792
1.05606, -1, 4.04664, 28.1517, 18.4374, 16.2358, -54.4141, -13.4281
1.06393, -1, 4.17208, 28.0416, 18.4789, 16.4335, -54.1823, -13.576
1.07189, -1, 4.29686, 27.9319, 18.5202, 16.6304, -53.9515, -13.7234
1.08022, -1, 4.42099, 27.8226, 18.5615, 16.8264, -53.7216, -13.8702
1.08732, -1, 4.54451, 27.7135, 18.6026, 17.0219, -53.4928, -14.0164
1.09597, -1, 4.66759, 27.6048, 18.6434, 17.2167, -53.2648, -14.1621
1.10448, -1, 4.79007, 27.4966, 18.6841, 17.4106, -53.0376, -14.3073
1.11198, -1, 4.9118, 27.3887, 18.7246, 17.6039, -52.8114, -14.4522
1.12005, -1, 5.03279, 27.2812, 18.7651, 17.7963, -52.586, -14.5963
1.12847, -1, 5.15313, 27.1741, 18.8054, 17.9881, -52.3614, -14.7399
1.13553, -1, 5.21291, 27.1207, 18.8254, 18.0839, -52.2495, -14.8828
1.14402, -1, 5.39112, 26.961, 18.8853, 18.3697, -51.9149, -15.0252
1.15288, -1, 5.50904, 26.855, 18.9251, 18.5594, -51.6927, -15.1671
1.15998, -1, 5.62643, 26.7495, 18.9648, 18.7484, -51.4715, -15.3087
1.16804, -1, 5.74353, 26.6446, 19.0043, 18.9369, -51.2507, -15.4495
1.17488, -1, 5.80201, 26.5923, 19.024, 19.031, -51.1408, -15.5199
1.18293, -1, 5.91873, 26.4879, 19.0633, 19.2183, -50.9214, -15.6603
1.19224, -1, 6.09335, 26.3319, 19.122, 19.4979, -50.5936, -15.8698
1.19887, -1, 6.15153, 26.2801, 19.1415, 19.5909, -50.4848, -15.9393
1.20828, -1, 6.32615, 26.1249, 19.1997, 19.8686, -50.1594, -16.1474
1.21491, -1, 6.38439, 26.0733, 19.219, 19.9608, -50.0513, -16.2165
1.22525, -1, 6.55869, 25.9194, 19.2769, 20.2365, -49.7283, -16.4232
1.23093, -1, 6.61665, 25.8683, 19.2961, 20.3279, -49.6209, -16.4919
1.24049, -1, 6.79012, 25.7154, 19.3535, 20.6019, -49.3004, -16.6973
1.24945, -1, 6.90514, 25.614, 19.3916, 20.7838, -49.0874, -16.8335
1.25494, -1, 6.9625, 25.5634, 19.4107, 20.8743, -48.9814, -16.9013
1.26459, -1, 7.13396, 25.412, 19.4677, 21.1455, -48.6645, -17.1042
1.27191, -1, 7.19085, 25.3617, 19.4866, 21.2354, -48.5592, -17.1715
1.27893, -1, 7.30424, 25.2617, 19.5243, 21.415, -48.3489, -17.3058
1.28792, -1, 7.41709, 25.162, 19.562, 21.5942, -48.1392, -17.4398
1.29588, -1, 7.52952, 25.0626, 19.5994, 21.7726, -47.9302, -17.5734
1.30392, -1, 7.64149, 24.9635, 19.6368, 21.9505, -47.7219, -17.7064
1.31187, -1, 7.7528, 24.8648, 19.6741, 22.1278, -47.5141, -17.8394
1.31991, -1, 7.86362, 24.7663, 19.7111, 22.3046, -47.3068, -17.9716
1.32689, -1, 7.97405, 24.6679, 19.7481, 22.481, -47.1004, -18.1034
1.33586, -1, 8.08406, 24.5699, 19.785, 22.6566, -46.8945, -18.2348
1.34387, -1, 8.1937, 24.4722, 19.8216, 22.8316, -46.6894, -18.3656
1.35193, -1, 8.30287, 24.3747, 19.858, 23.0061, -46.485, -18.4963
1.35988, -1, 8.4117, 24.2775, 19.8945, 23.1799, -46.2813, -18.6266
1.36787, -1, 8.51989, 24.1807, 19.9308, 23.3533, -46.0784, -18.7562
1.37487, -1, 8.62749, 24.084, 19.967, 23.526, -45.8761, -18.8858
1.38387, -1, 8.73479, 23.9877, 20.0032, 23.6982, -45.6746, -19.0149
1.39287, -1, 8.84196, 23.8918, 20.0392, 23.8698, -45.4736, -19.1432
1.39993, -1, 8.94911, 23.7962, 20.0751, 24.0411, -45.2734, -19.2714
1.40786, -1, 9.05622, 23.7012, 20.111, 24.2118, -45.0738, -19.399
1.41589, -1, 9.16331, 23.6065, 20.1467, 24.382, -44.8747, -19.5261
1.42394, -1, 9.27018, 23.512, 20.1822, 24.5517, -44.6761, -19.6532
1.43189, -1, 9.37678, 23.4178, 20.2179, 24.7206, -44.4779, -19.7799
1.43998, -1, 9.48308, 23.3239, 20.2533, 24.8892, -44.2804, -19.906
1.44788, -1, 9.58914, 23.2301, 20.2885, 25.0574, -44.0833, -20.0321
1.45588, -1, 9.69494, 23.1366, 20.3237, 25.225, -43.8867, -20.1577
1.46393, -1, 9.80048, 23.0434, 20.3588, 25.3921, -43.6907, -20.2827
1.47187, -1, 9.90574, 22.9504, 20.3936, 25.5586, -43.4957, -20.4074
1.47988, -1, 10.0106, 22.8577, 20.4285, 25.7248, -43.3012, -20.5318
1.48798, -1, 10.1151, 22.7652, 20.4632, 25.8907, -43.1072, -20.6557
1.49587, -1, 10.2192, 22.673, 20.4977, 26.056, -42.9137, -20.7792
1.50388, -1, 10.3229, 22.581, 20.5322, 26.2207, -42.7209, -20.9027
1.51193, -1, 10.4261, 22.4893, 20.5667, 26.3849, -42.5285, -21.0258
1.51987, -1, 10.5292, 22.3978, 20.6011, 26.5488, -42.3368, -21.1486
1.52789, -1, 10.6319, 22.3067, 20.6354, 26.7122, -42.1454, -21.271
1.53593, -1, 10.7342, 22.2159, 20.6696, 26.875, -41.9548, -21.3928
1.54387, -1, 10.8361, 22.1253, 20.7035, 27.0374, -41.7648, -21.5145
1.55249, -1, 10.9375, 22.0349, 20.7376, 27.1992, -41.5752, -21.6356
1.55986, -1, 11.0386, 21.9448, 20.7716, 27.3607, -41.3861, -21.7563
1.56787, -1, 11.1394, 21.855, 20.8054, 27.5219, -41.1974, -21.8771
1.57667, -1, 11.24, 21.7652, 20.839, 27.6826, -41.0093, -21.9971
1.58396, -1, 11.3403, 21.6756, 20.8727, 27.8428, -40.8216, -22.1171
1.59192, -1, 11.4402, 21.5864, 20.9062, 28.0026, -40.6344, -22.2369
1.60112, -1, 11.5397, 21.4974, 20.9395, 28.1617, -40.4477, -22.3563
1.60741, -1, 11.6389, 21.4086, 20.9729, 28.3207, -40.2613, -22.4751
1.61603, -1, 11.7379, 21.3202, 21.0062, 28.4793, -40.0758, -22.5938
1.62403, -1, 11.8368, 21.232, 21.0392, 28.6374, -39.8904, -22.712
1.63197, -1, 11.9358, 21.1442, 21.0723, 28.795, -39.7057, -22.8298
1.64005, -1, 12.0347, 21.0565, 21.1054, 28.9522, -39.5214, -22.9478
1.6479, -1, 12.1335, 20.9691, 21.1383, 29.1091, -39.3377, -23.0651
1.65593, -1, 12.2322, 20.8819, 21.171, 29.2659, -39.1543, -23.1822
1.66398, -1, 12.3305, 20.795, 21.2039, 29.4222, -38.9715, -23.2992
1.67201, -1, 12.4287, 20.7082, 21.2365, 29.578, -38.7894, -23.4159
1.67886, -1, 12.4777, 20.6649, 21.2528, 29.6557, -38.6983, -23.4742
1.68818, -1, 12.6244, 20.5353, 21.3016, 29.8881, -38.426, -23.6482
1.69487, -1, 12.6731, 20.4921, 21.3179, 29.9654, -38.3355, -23.7061
1.70432, -1, 12.8189, 20.363, 21.3662, 30.197, -38.0649, -23.8791
1.71237, -1, 12.9158, 20.277, 21.3984, 30.3508, -37.8851, -23.9941
1.72031, -1, 13.0124, 20.1912, 21.4307, 30.5042, -37.7056, -24.109
1.72836, -1, 13.1087, 20.1057, 21.4628, 30.657, -37.5266, -24.2236
1.73648, -1, 13.2045, 20.0205, 21.4947, 30.8096, -37.3476, -24.3377
1.74441, -1, 13.3001, 19.9354, 21.5266, 30.962, -37.1693, -24.452
1.75243, -1, 13.3478, 19.8506, 21.5586, 31.1141, -36.9912, -24.5658
1.7605, -1, 13.4431, 19.8083, 21.5903, 31.2656, -36.8134, -24.6791
1.76785, -1, 13.5381, 19.7239, 21.6061, 31.3413, -36.7248, -24.7357
1.7759, -1, 13.6329, 19.6396, 21.6379, 31.4923, -36.5479, -24.8489
1.78391, -1, 13.7274, 19.5555, 21.6696, 31.6428, -36.3713, -24.9616
1.79085, -1, 13.8218, 19.4716, 21.7011, 31.7933, -36.195, -25.0741
1.79984, -1, 13.916, 19.388, 21.7325, 31.9434, -36.0193, -25.1867
1.8079, -1, 14.01, 19.3045, 21.764, 32.093, -35.844, -25.2989
1.81485, -1, 14.104, 19.2213, 21.7953, 32.2423, -35.6691, -25.4107
1.82389, -1, 14.1977, 19.1382, 21.8264, 32.3912, -35.4946, -25.5226
1.83191, -1, 14.2911, 19.0554, 21.8576, 32.5398, -35.3206, -25.634
1.83889, -1, 14.3841, 18.9727, 21.8888, 32.6882, -35.1469, -25.7453
1.84784, -1, 14.4769, 18.8902, 21.9198, 32.8365, -34.9738, -25.856
1.85485, -1, 14.5693, 18.8077, 21.9508, 32.9842, -34.8012, -25.9665
1.86384, -1, 14.6615, 18.7254, 21.9818, 33.1315, -34.6289, -26.0768
1.87186, -1, 14.7535, 18.6434, 22.0126, 33.2785, -34.457, -26.1866
1.87887, -1, 14.8454, 18.5616, 22.0433, 33.4252, -34.2852, -26.2965
1.88784, -1, 14.937, 18.48, 22.074, 33.5716, -34.1137, -26.4057
1.89686, -1, 15.0284, 18.3985, 22.1048, 33.7177, -33.9426, -26.515
1.90391, -1, 15.1197, 18.3173, 22.1353, 33.8634, -33.7719, -26.6242
1.9129, -1, 15.2109, 18.2363, 22.1658, 34.0088, -33.6016, -26.7332
1.91983, -1, 15.3021, 18.1554, 22.1963, 34.1536, -33.4314, -26.8419
1.92791, -1, 15.3932, 18.0747, 22.2267, 34.2984, -33.2615, -26.9501
1.93584, -1, 15.4843, 17.9942, 22.257, 34.4431, -33.0923, -27.0582
1.94389, -1, 15.5753, 17.9138, 22.2873, 34.5874, -32.9234, -27.166
1.95193, -1, 15.6661, 17.8336, 22.3176, 34.7312, -32.755, -27.2735
1.95984, -1, 15.7567, 17.7535, 22.3477, 34.8748, -32.5869, -27.3811
1.96781, -1, 15.847, 17.6736, 22.3776, 35.018, -32.4191, -27.4883
1.97584, -1, 15.9371, 17.5937, 22.4076, 35.1609, -32.2517, -27.5954
1.98387, -1, 16.0271, 17.514, 22.4377, 35.3037, -32.0845, -27.7023
1.99195, -1, 16.1167, 17.4345, 22.4675, 35.4462, -31.9179, -27.8091
1.99984, -1, 16.206, 17.3551, 22.4972, 35.5884, -31.7515, -27.9157
2.00784, -1, 16.2951, 17.2758, 22.527, 35.7302, -31.5853, -28.0217
2.01602, -1, 16.3839, 17.1968, 22.5567, 35.8717, -31.4198, -28.1278
2.02384, -1, 16.4724, 17.1179, 22.5863, 36.013, -31.2542, -28.2335
2.03185, -1, 16.5607, 17.0392, 22.6158, 36.1543, -31.0891, -28.3392
2.03993, -1, 16.649, 16.9607, 22.6455, 36.2953, -30.9242, -28.4442
2.04784, -1, 16.7372, 16.8823, 22.675, 36.4358, -30.7596, -28.5495
2.05584, -1, 16.8252, 16.8042, 22.7043, 36.5761, -30.5954, -28.6545
2.06391, -1, 16.9131, 16.7263, 22.7336, 36.7159, -30.4313, -28.7592
2.07186, -1, 17.0008, 16.6484, 22.7631, 36.8556, -30.268, -28.8642
2.07986, -1, 17.0885, 16.5707, 22.7924, 36.9951, -30.1044, -28.9685
2.08795, -1, 17.1759, 16.4931, 22.8215, 37.1343, -29.9414, -29.0729
2.09591, -1, 17.262, 16.4162, 22.8505, 37.2732, -29.7785, -29.1765
2.10395, -1, 17.3447, 16.3417, 22.879, 37.4113, -29.6168, -29.28
2.11206, -1, 17.4223, 16.2713, 22.9063, 37.5474, -29.457, -29.382
2.11995, -1, 17.4939, 16.2064, 22.9322, 37.6792, -29.3025, -29.4809
2.12795, -1, 17.5602, 16.1478, 22.9562, 37.8032, -29.1567, -29.5741
2.13602, -1, 17.6198, 16.0955, 22.978, 37.9156, -29.0246, -29.6585
2.14384, -1, 17.6723, 16.0493, 22.9972, 38.0127, -28.9099, -29.7316
2.1519, -1, 17.719, 16.0078, 23.0133, 38.0914, -28.8169, -29.7917
2.15998, -1, 17.7603, 15.9701, 23.0266, 38.1518, -28.7451, -29.8372
2.16805, -1, 17.7961, 15.9377, 23.0373, 38.1934, -28.6949, -29.8695
2.17497, -1, 17.8115, 15.924, 23.0415, 38.2087, -28.6766, -29.8812
2.18447, -1, 17.8486, 15.8937, 23.0502, 38.2377, -28.6418, -29.9031
2.1921, -1, 17.8657, 15.8811, 23.0537, 38.247, -28.6305, -29.9098
2.19895, -1, 17.8718, 15.8765, 23.0548, 38.2497, -28.6272, -29.9118
2.20858, 2, 17.8817, 15.8688, 23.0566, 38.2539, -28.6221, -29.9147
2.21643, 2, 17.8842, 15.8666, 23.0571, 38.255, -28.6208, -29.9155
2.22431, 2, 17.8849, 15.8653, 23.0573, 38.2555, -28.6203, -29.9159
2.23249, 2, 17.8847, 15.8646, 23.0574, 38.2557, -28.62, -29.916
2.24044, 2, 17.8841, 15.8642, 23.0575, 38.2558, -28.6199, -29.916
2.24837, 2, 17.8836, 15.864, 23.0575, 38.2559, -28.6198, -29.9161
2.25657, 2, 17.8833, 15.8639, 23.0575, 38.2559, -28.6199, -29.9161
2.26476, 2, 17.8832, 15.8638, 23.0575, 38.2559, -28.6199, -29.9161
2.27184, 2, 17.8831, 15.8637, 23.0575, 38.2559, -28.6198, -29.9161
2.28046, 2, 17.8831, 15.8636, 23.0575, 38.2559, -28.6199, -29.916
2.28783, 2, 17.8832, 15.8635, 23.0575, 38.2559, -28.6198, -29.916
2.2967, 2, 17.8835, 15.8633, 23.0575, 38.2559, -28.6199, -29.916
2.30388, 2, 17.8839, 15.8632, 23.0575, 38.256, -28.6199, -29.916
2.31184, 2, 17.8843, 15.863, 23.0575, 38.256, -28.6199, -29.916
2.31984, 2, 17.8849, 15.8629, 23.0575, 38.2559, -28.6199, -29.916
2.32792, 2, 17.8855, 15.8627, 23.0575, 38.2559, -28.62, -29.916
2.33583, 2, 17.886, 15.8626, 23.0576, 38.2559, -28.6199, -29.916
2.34383, 2, 17.8864, 15.8626, 23.0575, 38.2559, -28.6199, -29.9161
2.35189, 2, 17.8867, 15.8625, 23.0576, 38.2559, -28.6199, -29.9161
2.35982, 2, 17.8869, 15.8625, 23.0576, 38.256, -28.6199, -29.9161
2.36783, 2, 17.8869, 15.8625, 23.0576, 38.256, -28.6199, -29.9161
2.3759, 2, 17.887, 15.8625, 23.0576, 38.256, -28.62, -29.9161
2.38382, 2, 17.887, 15.8625, 23.0576, 38.256, -28.62, -29.9161
2.39183, 2, 17.887, 15.8625, 23.0576, 38.2559, -28.62, -29.916
2.40143, 2, 17.887, 15.8625, 23.0576, 38.2559, -28.6201, -29.916
2.40782, 2, 17.8869, 15.8625, 23.0576, 38.2559, -28.6201, -29.916
2.41684, 2, 17.8867, 15.8625, 23.0576, 38.2559, -28.6201, -29.916
2.42389, 2, 17.8866, 15.8625, 23.0576, 38.2559, -28.6201, -29.916
2.43183, 2, 17.8865, 15.8624, 23.0576, 38.2559, -28.6201, -29.916
2.43983, 2, 17.8865, 15.8624, 23.0575, 38.2559, -28.6202, -29.916
2.44793, 2, 17.8865, 15.8624, 23.0575, 38.2559, -28.6202, -29.916
2.45587, 2, 17.8865, 15.8624, 23.0575, 38.2559, -28.6202, -29.916
2.46383, 2, 17.8865, 15.8624, 23.0576, 38.2559, -28.6202, -29.916
2.47191, 2, 17.8865, 15.8624, 23.0576, 38.256, -28.6202, -29.916
2.47982, 2, 17.8864, 15.8624, 23.0576, 38.2559, -28.6203, -29.916
2.48785, 2, 17.8864, 15.8624, 23.0576, 38.2559, -28.6203, -29.916
2.49593, 2, 17.8864, 15.8624, 23.0576, 38.2559, -28.6203, -29.916
2.50382, 2, 17.8864, 15.8624, 23.0576, 38.2559, -28.6203, -29.916
2.51188, 2, 17.8864, 15.8624, 23.0576, 38.2559, -28.6203, -29.916
2.51989, 2, 17.8864, 15.8624, 23.0576, 38.2559, -28.6203, -29.916
2.52782, 2, 17.8864, 15.8624, 23.0576, 38.2559, -28.6203, -29.9159
2.53582, 2, 17.8863, 15.8624, 23.0576, 38.2559, -28.6204, -29.9159
2.5439, 2, 17.8863, 15.8624, 23.0576, 38.2559, -28.6204, -29.916
2.55183, 2, 17.8863, 15.8624, 23.0575, 38.2558, -28.6204, -29.916
2.55983, 2, 17.8863, 15.8624, 23.0576, 38.2559, -28.6204, -29.9159
2.5679, 2, 17.8862, 15.8624, 23.0575, 38.2559, -28.6204, -29.9159
2.57582, 2, 17.8862, 15.8624, 23.0575, 38.2559, -28.6205, -29.9159
2.58387, 2, 17.8862, 15.8624, 23.0575, 38.2558, -28.6205, -29.9159
2.59194, 2, 17.8862, 15.8624, 23.0576, 38.2559, -28.6205, -29.9159
2.5999, 2, 17.8862, 15.8624, 23.0576, 38.2558, -28.6205, -29.9159
2.60793, 2, 17.8862, 15.8624, 23.0576, 38.2558, -28.6205, -29.9159
2.61603, 2, 17.8861, 15.8624, 23.0576, 38.2558, -28.6205, -29.9159
2.62394, 2, 17.8861, 15.8624, 23.0575, 38.2559, -28.6206, -29.9158
2.63195, 2, 17.8861, 15.8624, 23.0575, 38.2559, -28.6206, -29.9158
2.64001, 2, 17.8861, 15.8624, 23.0575, 38.2558, -28.6206, -29.9158
2.64782, 2, 17.8861, 15.8624, 23.0575, 38.2558, -28.6206, -29.9158
2.65588, 2, 17.886, 15.8624, 23.0575, 38.2558, -28.6206, -29.9158
2.66396, 2, 17.886, 15.8624, 23.0575, 38.2558, -28.6207, -29.9157
2.67082, 2, 17.886, 15.8624, 23.0575, 38.2559, -28.6207, -29.9157
2.67997, 2, 17.8859, 15.8624, 23.0575, 38.2558, -28.6207, -29.9156
2.68807, 2, 17.8859, 15.8624, 23.0575, 38.2558, -28.6207, -29.9156
2.69483, 2, 17.8859, 15.8624, 23.0575, 38.2558, -28.6208, -29.9156
2.70466, 2, 17.8859, 15.8624, 23.0576, 38.2558, -28.6208, -29.9156
2.71225, 2, 17.8858, 15.8625, 23.0576, 38.2558, -28.6208, -29.9155
2.71883, 2, 17.8858, 15.8625, 23.0576, 38.2558, -28.6208, -29.9155
2.7286, 2, 17.8858, 15.8625, 23.0575, 38.2557, -28.6208, -29.9156
2.73638, 2, 17.8857, 15.8624, 23.0575, 38.2557, -28.6208, -29.9155
2.74439, 2, 17.8857, 15.8624, 23.0575, 38.2557, -28.6208, -29.9155
2.75262, 2, 17.8857, 15.8624, 23.0576, 38.2557, -28.6208, -29.9155
2.76043, 2, 17.8856, 15.8624, 23.0576, 38.2556, -28.6208, -29.9155
2.76833, 2, 17.8856, 15.8624, 23.0576, 38.2556, -28.6208, -29.9154
2.77662, 2, 17.8856, 15.8624, 23.0575, 38.2557, -28.6209, -29.9153
2.78391, 2, 17.8855, 15.8624, 23.0575, 38.2557, -28.6209, -29.9154
2.79182, 2, 17.8855, 15.8625, 23.0575, 38.2556, -28.6209, -29.9154
2.80004, 2, 17.8855, 15.8625, 23.0575, 38.2557, -28.621, -29.9153
2.80785, 2, 17.8854, 15.8625, 23.0575, 38.2557, -28.621, -29.9153
2.8158, 2, 17.8854, 15.8624, 23.0576, 38.2556, -28.621, -29.9153
2.82383, 2, 17.8854, 15.8625, 23.0575, 38.2556, -28.6209, -29.9153
2.83082, 2, 17.8853, 15.8625, 23.0576, 38.2557, -28.621, -29.9153
2.8398, 2, 17.8853, 15.8625, 23.0575, 38.2556, -28.621, -29.9153
2.84781, 2, 17.8852, 15.8625, 23.0575, 38.2556, -28.621, -29.9153
2.85586, 2, 17.8852, 15.8624, 23.0575, 38.2556, -28.621, -29.9153
2.8638, 2, 17.8851, 15.8624, 23.0575, 38.2556, -28.6211, -29.9153
2.87182, 2, 17.8851, 15.8624, 23.0575, 38.2556, -28.6212, -29.9152
2.87988, 2, 17.8851, 15.8624, 23.0575, 38.2556, -28.6211, -29.9153
2.88791, 2, 17.885, 15.8624, 23.0575, 38.2556, -28.6211, -29.9152
2.89581, 2, 17.885, 15.8625, 23.0575, 38.2556, -28.6211, -29.9152
2.90388, 2, 17.8849, 15.8625, 23.0575, 38.2556, -28.6211, -29.9152
2.91286, 2, 17.8849, 15.8625, 23.0575, 38.2556, -28.6211, -29.9152
2.9198, 2, 17.8849, 15.8625, 23.0575, 38.2555, -28.6212, -29.9152
2.92883, 2, 17.8848, 15.8625, 23.0575, 38.2555, -28.6212, -29.9151
2.9358, 2, 17.8848, 15.8625, 23.0575, 38.2556, -28.6212, -29.9151
2.9438, 2, 17.8847, 15.8625, 23.0575, 38.2555, -28.6212, -29.9152
2.95193, 2, 17.8846, 15.8625, 23.0575, 38.2555, -28.6212, -29.9152
2.95981, 2, 17.8846, 15.8625, 23.0575, 38.2555, -28.6212, -29.9152
2.96777, 2, 17.8845, 15.8624, 23.0575, 38.2554, -28.6212, -29.9152
2.97587, 2, 17.8845, 15.8625, 23.0575, 38.2554, -28.6212, -29.9151
2.98381, 2, 17.8845, 15.8625, 23.0575, 38.2554, -28.6212, -29.9151
2.99184, 2, 17.8844, 15.8625, 23.0575, 38.2554, -28.6212, -29.9151
2.99991, 2, 17.8844, 15.8625, 23.0575, 38.2554, -28.6212, -29.9151
3.0078, 2, 17.8843, 15.8625, 23.0575, 38.2554, -28.6213, -29.9151
3.0158, 2, 17.8843, 15.8625, 23.0575, 38.2554, -28.6213, -29.9151
3.02389, 2, 17.8842, 15.8625, 23.0575, 38.2554, -28.6213, -29.9151
3.03182, 2, 17.8842, 15.8625, 23.0575, 38.2553, -28.6213, -29.9151
3.0398, 2, 17.8841, 15.8625, 23.0575, 38.2554, -28.6213, -29.9151
3.04787, 2, 17.8841, 15.8625, 23.0575, 38.2553, -28.6213, -29.915
3.0558, 2, 17.8841, 15.8625, 23.0575, 38.2553, -28.6214, -29.9151
3.0638, 2, 17.884, 15.8625, 23.0575, 38.2553, -28.6213, -29.9151
3.07189, 2, 17.884, 15.8625, 23.0575, 38.2552, -28.6214, -29.9151
3.07981, 2, 17.8839, 15.8625, 23.0575, 38.2552, -28.6214, -29.9151
3.08781, 2, 17.8839, 15.8625, 23.0575, 38.2552, -28.6214, -29.9151
3.09592, 2, 17.8838, 15.8625, 23.0575, 38.2552, -28.6214, -29.9151
3.1039, 2, 17.8838, 15.8625, 23.0575, 38.2552, -28.6214, -29.9151
3.11192, 2, 17.8838, 15.8625, 23.0575, 38.2552, -28.6214, -29.9151
3.12001, 2, 17.8837, 15.8625, 23.0575, 38.2552, -28.6214, -29.9151
3.12792, 2, 17.8837, 15.8625, 23.0575, 38.2551, -28.6214, -29.9151
3.13592, 2, 17.8837, 15.8625, 23.0575, 38.2551, -28.6214, -29.915
3.14401, 2, 17.8836, 15.8625, 23.0575, 38.2551, -28.6214, -29.915
3.15182, 2, 17.8836, 15.8625, 23.0575, 38.2551, -28.6214, -29.915
3.15985, 2, 17.8836, 15.8625, 23.0575, 38.2551, -28.6214, -29.915
3.16797, 2, 17.8835, 15.8625, 23.0575, 38.2551, -28.6214, -29.915
3.17583, 2, 17.8835, 15.8625, 23.0575, 38.255, -28.6214, -29.915
3.18411, 2, 17.8835, 15.8625, 23.0575, 38.255, -28.6214, -29.9149
3.1908, 2, 17.8834, 15.8625, 23.0575, 38.255, -28.6214, -29.915
3.20004, 2, 17.8834, 15.8625, 23.0575, 38.2549, -28.6215, -29.9149
3.20687, 2, 17.8834, 15.8625, 23.0575, 38.2549, -28.6215, -29.9149
3.21735, 2, 17.8834, 15.8625, 23.0575, 38.2549, -28.6215, -29.915
3.22284, 2, 17.8834, 15.8625, 23.0575, 38.2549, -28.6215, -29.915
3.23271, 2, 17.8833, 15.8625, 23.0575, 38.2549, -28.6215, -29.9149
3.24032, 2, 17.8833, 15.8625, 23.0575, 38.2549, -28.6215, -29.9149
3.24838, 2, 17.8833, 15.8625, 23.0575, 38.2549, -28.6215, -29.9149
3.25651, 2, 17.8833, 15.8626, 23.0575, 38.2549, -28.6215, -29.9149
3.26439, 2, 17.8833, 15.8626, 23.0575, 38.2548, -28.6215, -29.9149
3.27177, 2, 17.8833, 15.8626, 23.0575, 38.2548, -28.6215, -29.9149
3.27984, 2, 17.8832, 15.8626, 23.0575, 38.2548, -28.6215, -29.9149
3.28889, 2, 17.8832, 15.8626, 23.0575, 38.2548, -28.6215, -29.9148
3.29576, 4, 17.8832, 15.8626, 23.0575, 38.2548, -28.6215, -29.9148
3.30383, 4, 17.8832, 15.8625, 23.0575, 38.2547, -28.6215, -29.9148
3.3118, 4, 17.8832, 15.8626, 23.0575, 38.2547, -28.6215, -29.9148
3.31979, 4, 17.8832, 15.8626, 23.0575, 38.2547, -28.6215, -29.9148
3.32786, 4, 17.8832, 15.8626, 23.0575, 38.2546, -28.6215, -29.9148
3.33582, 4, 17.8832, 15.8626, 23.0575, 38.2546, -28.6215, -29.9148
3.34379, 4, 17.8832, 15.8626, 23.0575, 38.2546, -28.6215, -29.9147
3.35185, 4, 17.8832, 15.8626, 23.0575, 38.2546, -28.6215, -29.9147
3.35979, 4, 17.8832, 15.8626, 23.0575, 38.2546, -28.6215, -29.9147
3.36779, 4, 17.8832, 15.8626, 23.0575, 38.2546, -28.6215, -29.9147
3.37585, 4, 17.8832, 15.8626, 23.0575, 38.2546, -28.6215, -29.9147
3.38379, 4, 17.8832, 15.8626, 23.0575, 38.2546, -28.6215, -29.9147
3.3918, 4, 17.8832, 15.8626, 23.0575, 38.2545, -28.6215, -29.9147
3.42208, 4, 17.8832, 15.8626, 23.0575, 38.2545, -28.6215, -29.9147
3.42393, 4, 17.8831, 15.8626, 23.0575, 38.2545, -28.6215, -29.9147
3.42679, 4, 17.8831, 15.8626, 23.0575, 38.2545, -28.6215, -29.9147
3.42861, 4, 17.8831, 15.8626, 23.0575, 38.2545, -28.6215, -29.9147
3.43459, 4, 17.8831, 15.8626, 23.0575, 38.2545, -28.6215, -29.9147
3.43983, 4, 17.883, 15.8626, 23.0575, 38.2545, -28.6215, -29.9146
3.44779, 4, 17.8824, 15.8626, 23.0575, 38.2545, -28.6216, -29.9146
3.45585, 4, 17.8798, 15.8626, 23.0576, 38.254, -28.6216, -29.9144
3.46379, 4, 17.8737, 15.8625, 23.0585, 38.2503, -28.6225, -29.9124
3.47181, 4, 17.8631, 15.8619, 23.0616, 38.2384, -28.626, -29.9041
3.47985, 4, 17.8467, 15.8603, 23.0697, 38.2111, -28.635, -29.8814
3.48776, 5, 17.8217, 15.8567, 23.0863, 38.1573, -28.6536, -29.8355
3.49582, 5, 17.7854, 15.8502, 23.1155, 38.0622, -28.6861, -29.7536
3.63695, 5, 14.5707, 15.1974, 26.9534, 26.1358, -34.2154, -19.4375
3.63816, 5, 14.5707, 15.1974, 26.9534, 26.1358, -34.2154, -19.4375
3.64018, 5, 14.4342, 15.1843, 27.0931, 25.7244, -34.4572, -19.0903
3.64137, 5, 14.4342, 15.1843, 27.0931, 25.7244, -34.4572, -19.0903
3.64268, 5, 14.4342, 15.1843, 27.0931, 25.7244, -34.4572, -19.0903
3.64542, 5, 14.2974, 15.1724, 27.2316, 25.318, -34.7005, -18.7476
3.64728, 5, 14.2974, 15.1724, 27.2316, 25.318, -34.7005, -18.7476
3.65012, 5, 14.1605, 15.1617, 27.3693, 24.9164, -34.9452, -18.4091
3.65219, 5, 14.0233, 15.1522, 27.506, 24.5194, -35.1913, -18.075
3.65349, 5, 14.0233, 15.1522, 27.506, 24.5194, -35.1913, -18.075
3.65467, 5, 14.0233, 15.1522, 27.506, 24.5194, -35.1913, -18.075
3.65668, 5, 13.8861, 15.1437, 27.6416, 24.1261, -35.4387, -17.7455
3.65788, 5, 13.8861, 15.1437, 27.6416, 24.1261, -35.4387, -17.7455
3.65972, 5, 13.7489, 15.1363, 27.7759, 23.7366, -35.6872, -17.4206
3.66107, 5, 13.7489, 15.1363, 27.7759, 23.7366, -35.6872, -17.4206
3.66262, 5, 13.7489, 15.1363, 27.7759, 23.7366, -35.6872, -17.4206
3.66474, 5, 13.6116, 15.1299, 27.9089, 23.3512, -35.9367, -17.1003
3.66595, 5, 13.6116, 15.1299, 27.9089, 23.3512, -35.9367, -17.1003
3.66881, 5, 13.4743, 15.1248, 28.041, 22.9701, -36.1874, -16.7844
3.67005, 5, 13.4743, 15.1248, 28.041, 22.9701, -36.1874, -16.7844
3.67208, 5, 13.337, 15.1208, 28.1723, 22.5935, -36.4394, -16.4726
3.67335, 5, 13.337, 15.1208, 28.1723, 22.5935, -36.4394, -16.4726
3.68179, 5, 13.0625, 15.116, 28.4312, 21.8529, -36.9469, -15.8617
3.68802, 5, 12.7871, 15.1151, 28.6854, 21.1291, -37.4591, -15.2664
3.6961, 5, 12.51, 15.1182, 28.9356, 20.4196, -37.9759, -14.6875
3.7028, 5, 12.3709, 15.1215, 29.0589, 20.0698, -38.2361, -14.4039
3.71214, 5, 11.9526, 15.138, 29.4217, 19.0442, -39.0224, -13.5745
3.71878, 5, 11.8127, 15.1458, 29.5406, 18.7097, -39.2861, -13.3052
3.72825, 5, 11.3904, 15.1759, 29.8894, 17.7265, -40.0832, -12.5192
3.7363, 5, 11.1059, 15.2016, 30.1162, 17.0877, -40.6189, -12.0126
3.74442, 5, 10.818, 15.2318, 30.3386, 16.4612, -41.1583, -11.5194
3.75084, 5, 10.6728, 15.2485, 30.4478, 16.1532, -41.4291, -11.2776
3.76035, 5, 10.3812, 15.3057, 30.7685, 15.2467, -42.2474, -10.5702
3.76844, 5, 10.0894, 15.3495, 30.9771, 14.6572, -42.7966, -10.1145
3.77478, 5, 9.7976, 15.3732, 31.0794, 14.3671, -43.0722, -9.89089
3.78377, 5, 9.50612, 15.4239, 31.2802, 13.7947, -43.6255, -9.45212
3.79182, 5, 9.21472, 15.4793, 31.4767, 13.2323, -44.181, -9.02467
3.79878, 5, 8.92229, 15.5391, 31.6687, 12.6813, -44.7392, -8.60766
3.80779, 5, 8.62863, 15.6034, 31.8551, 12.1402, -45.3006, -8.20165
3.81577, 5, 8.33372, 15.6723, 32.0367, 11.6086, -45.8649, -7.80575
3.82379, 5, 8.03697, 15.7455, 32.2142, 11.0873, -46.4306, -7.41978
3.83184, 5, 7.73784, 15.823, 32.3865, 10.575, -46.9976, -7.04366
3.8398, 5, 7.43749, 15.905, 32.5533, 10.0711, -47.5668, -6.67661
3.84678, 5, 7.13683, 15.9916, 32.7158, 9.57625, -48.1384, -6.31829
3.85581, 5, 6.8362, 16.0826, 32.8736, 9.08998, -48.7125, -5.96918
3.86379, 5, 6.53608, 16.1779, 33.0262, 8.61191, -49.2887, -5.62874
3.87336, 5, 6.08555, 16.3294, 33.2454, 7.90995, -50.1541, -5.1333
3.87977, 5, 5.93492, 16.3821, 33.3161, 7.67988, -50.4432, -4.97212
3.88777, 5, 5.63346, 16.4907, 33.4538, 7.22551, -51.0228, -4.65574
3.89583, 5, 5.33131, 16.6038, 33.5863, 6.77805, -51.6038, -4.34668
3.90536, 5, 5.02751, 16.7216, 33.7137, 6.33768, -52.1862, -4.04516
3.91177, 5, 4.72201, 16.8437, 33.8359, 5.90438, -52.7702, -3.75075
3.91984, 5, 4.4153, 16.97, 33.953, 5.47772, -53.355, -3.46366
3.92777, 5, 4.1083, 17.1004, 34.065, 5.05751, -53.9401, -3.18325
3.93577, 5, 3.80193, 17.2348, 34.1719, 4.64377, -54.526, -2.90939
3.94385, 5, 3.4966, 17.3733, 34.2738, 4.2363, -55.1125, -2.64204
3.95177, 5, 3.19246, 17.5159, 34.3705, 3.83492, -55.6999, -2.38113
3.95977, 5, 2.89133, 17.6609, 34.462, 3.43958, -56.2884, -2.12608
3.9678, 5, 2.59524, 17.8073, 34.5484, 3.05073, -56.8749, -1.87761
3.97576, 5, 2.30528, 17.9539, 34.6294, 2.67062, -57.4557, -1.63678
3.98378, 5, 2.02166, 18.1001, 34.7047, 2.30218, -58.0266, -1.40535
3.99204, 5, 1.74656, 18.2447, 34.7739, 1.94852, -58.5828, -1.18478
3.99977, 5, 1.48114, 18.3881, 34.8357, 1.61329, -59.1169, -0.976968
4.0078, 5, 1.22558, 18.5325, 34.8881, 1.29971, -59.6225, -0.78403
4.01658, 5, 0.980838, 18.6806, 34.9285, 1.00978, -60.0952, -0.606604
4.02383, 5, 0.747488, 18.8345, 34.9541, 0.743764, -60.5331, -0.445238
4.03176, 6, 0.524005, 18.9959, 34.9621, 0.500158, -60.9388, -0.298378
4.04531, 6, 0.200896, 19.2573, 34.933, 0.168864, -61.4976, -0.100088
4.04779, 6, 0.0955374, 19.3503, 34.9111, 0.0647264, -61.6748, -0.0381767
4.05578, 6, -0.112399, 19.5458, 34.8479, -0.138358, -62.0233, 0.0820021
4.06381, 6, -0.316886, 19.7566, 34.7584, -0.339643, -62.3724, 0.200201
4.07183, 6, -0.520861, 19.986, 34.6434, -0.544609, -62.7314, 0.319812
4.07977, 6, -0.727473, 20.2345, 34.5047, -0.757155, -63.1073, 0.443122
4.08803, 6, -0.937755, 20.5027, 34.3457, -0.980094, -63.5052, 0.57169
4.0958, 6, -1.15241, 20.7898, 34.1693, -1.21382, -63.9263, 0.705949
4.10384, 6, -1.37293, 21.0939, 33.9769, -1.45706, -64.3692, 0.845305
4.11212, 6, -1.5997, 21.4143, 33.7702, -1.7079, -64.8298, 0.98831
4.11936, 6, -1.83104, 21.7475, 33.5521, -1.96371, -65.3036, 1.13373
4.12793, 6, -2.06571, 22.0923, 33.3233, -2.22106, -65.7858, 1.27982
4.13631, 6, -2.30397, 22.447, 33.0846, -2.47804, -66.2719, 1.42517
4.14335, 6, -2.42471, 22.628, 32.8388, -2.7332, -66.7591, 1.56897
4.15178, 6, -2.79234, 23.1808, 32.5863, -2.98498, -67.2446, 1.71078
4.16033, 6, -3.04003, 23.5542, 32.3278, -3.23322, -67.7276, 1.85022
4.16677, 6, -3.16417, 23.7414, 32.1968, -3.35602, -67.968, 1.91896
4.17586, 6, -3.53618, 24.3058, 31.7948, -3.71899, -68.6845, 2.12184
4.18477, 6, -3.78229, 24.6833, 31.52, -3.95644, -69.1586, 2.25467
4.19198, 6, -4.02654, 25.0614, 31.2391, -4.19008, -69.6295, 2.385
4.19882, 6, -4.14824, 25.2505, 31.0966, -4.30558, -69.8639, 2.4497
4.20816, 6, -4.51192, 25.8204, 30.6624, -4.64682, -70.561, 2.64034
4.21477, 6, -4.6323, 26.0112, 30.5149, -4.75861, -70.7915, 2.70279
4.22499, 6, -4.98957, 26.5858, 30.065, -5.08901, -71.4775, 2.88777
4.2323, 6, -5.22453, 26.97, 29.7577, -5.30507, -71.9304, 3.00905
4.24029, 6, -5.45712, 27.356, 29.4457, -5.51756, -72.3797, 3.1283
4.24931, 6, -5.68709, 27.7433, 29.1282, -5.72682, -72.8253, 3.24625
4.25641, 6, -5.91476, 28.1319, 28.8065, -5.93271, -73.2672, 3.36319
4.26434, 6, -6.02796, 28.5217, 28.4792, -6.13561, -73.7051, 3.47843
4.27315, 6, -6.25356, 28.7175, 28.3136, -6.23594, -73.9227, 3.59283
4.27877, 6, -6.47787, 29.1094, 27.9782, -6.43394, -74.3549, 3.64942
4.28886, 6, -6.81221, 29.6986, 27.4653, -6.72473, -74.9958, 3.81809
4.29575, 6, -6.92327, 29.8952, 27.2916, -6.82021, -75.2074, 3.87375
4.3038, 6, -7.14481, 30.2897, 26.9409, -7.00908, -75.6274, 3.98429
4.31175, 6, -7.36519, 30.685, 26.5849, -7.19483, -76.0435, 4.09382
4.31983, 6, -7.58366, 31.0814, 26.2239, -7.37769, -76.4553, 4.20248
4.32677, 6, -7.80016, 31.4782, 25.857, -7.55751, -76.8637, 4.31034
4.33575, 6, -8.01462, 31.8763, 25.485, -7.7344, -77.2678, 4.41767
4.34379, 6, -8.22691, 32.2748, 25.1078, -7.90853, -77.6678, 4.52459
4.35181, 6, -8.4369, 32.6741, 24.726, -8.07953, -78.0635, 4.63061
4.35978, 6, -8.64471, 33.0746, 24.3387, -8.24765, -78.455, 4.73636
4.36781, 6, -8.85055, 33.4762, 23.9461, -8.41295, -78.842, 4.84163
4.37476, 6, -9.05463, 33.8785, 23.5485, -8.5753, -79.225, 4.9463
4.38375, 6, -9.25697, 34.2813, 23.1456, -8.73511, -79.604, 5.05097
4.39175, 6, -9.45782, 34.6857, 22.7373, -8.89207, -79.9788, 5.1547
4.40186, 6, -9.75726, 35.2942, 22.1154, -9.12193, -80.5335, 5.3103
4.4078, 6, -9.85664, 35.4973, 21.9056, -9.19717, -80.7164, 5.36192
4.41676, 6, -10.0546, 35.9037, 21.482, -9.34555, -81.0787, 5.46537
4.4228, 6, -10.2513, 36.3114, 21.053, -9.49137, -81.4364, 5.56871
4.43175, 6, -10.4464, 36.7196, 20.6185, -9.63461, -81.7899, 5.67199
4.43975, 6, -10.6399, 37.1281, 20.1788, -9.77519, -82.139, 5.77529
4.44789, 6, -10.8318, 37.5378, 19.7338, -9.91284, -82.4836, 5.87857
4.45576, 6, -11.021, 37.9478, 19.2838, -10.0478, -82.8239, 5.9821
4.46375, 6, -11.2062, 38.3564, 18.8292, -10.18, -83.1596, 6.08554
4.47182, 6, -11.3868, 38.7619, 18.3715, -10.3093, -83.4902, 6.18927
4.47975, 6, -11.5628, 39.1639, 17.9121, -10.4355, -83.8149, 6.2924
4.48784, 6, -11.7337, 39.5598, 17.4531, -10.558, -84.1318, 6.39477
4.4958, 6, -11.8989, 39.9476, 16.998, -10.6758, -84.4394, 6.49559
4.50375, 6, -12.0576, 40.3242, 16.5506, -10.7885, -84.7353, 6.5941
4.51181, 6, -12.2097, 40.6884, 16.1144, -10.8946, -85.017, 6.68997
4.51979, 6, -12.3547, 41.037, 15.6938, -10.9941, -85.2827, 6.78144
4.52784, 6, -12.4917, 41.3682, 15.2925, -11.0864, -85.5307, 6.86803
4.53579, 6, -12.6199, 41.6786, 14.9144, -11.1705, -85.7594, 6.94954
4.54379, 6, -12.7388, 41.967, 14.5623, -11.2476, -85.9683, 7.02473
4.55175, 6, -12.8476, 42.232, 14.24, -11.3158, -86.1565, 7.09401
4.55977, 6, -12.9458, 42.4708, 13.9479, -11.3771, -86.3243, 7.15547
4.56789, 6, -13.0333, 42.6831, 13.6875, -11.4295, -86.4709, 7.21051
4.57577, 6, -13.1101, 42.871, 13.4602, -11.4748, -86.5975, 7.25889
4.58378, 6, -13.1766, 43.034, 13.2647, -11.5134, -86.704, 7.2997
4.59181, 6, -13.2334, 43.1717, 13.1003, -11.5444, -86.7911, 7.33331
4.59978, 6, -13.2805, 43.2862, 12.9664, -11.5692, -86.8615, 7.36012
4.60791, 6, -13.3191, 43.3798, 12.8601, -11.588, -86.9155, 7.38069
4.6159, 6, -13.3506, 43.4548, 12.7784, -11.602, -86.9558, 7.39627
4.62385, 6, -13.3757, 43.5137, 12.718, -11.612, -86.9849, 7.40731
4.63189, 6, -13.3953, 43.5586, 12.6751, -11.6187, -87.0047, 7.41487
4.63991, 6, -13.41, 43.5922, 12.6459, -11.623, -87.0173, 7.41967
4.64792, 6, -13.421, 43.6173, 12.6268, -11.6255, -87.0247, 7.42253
4.65604, 6, -13.4295, 43.6362, 12.6147, -11.6268, -87.0286, 7.42403
4.66275, 6, -13.4328, 43.6434, 12.6104, -11.6272, -87.0297, 7.42447
4.67178, 6, -13.4393, 43.6579, 12.6027, -11.6278, -87.0313, 7.42509
4.68019, 7, -13.4415, 43.6633, 12.6, -11.628, -87.0318, 7.42519
4.68675, 7, -13.4421, 43.6653, 12.5989, -11.6281, -87.0319, 7.42521
4.696, 7, -13.4431, 43.6694, 12.5965, -11.6282, -87.032, 7.42531
4.70278, 7, -13.4433, 43.6703, 12.5958, -11.6282, -87.032, 7.42532
4.71209, 7, -13.4438, 43.6726, 12.5944, -11.6282, -87.0321, 7.42535
4.71877, 7, -13.4439, 43.6732, 12.5941, -11.6282, -87.032, 7.42535
4.72832, 7, -13.444, 43.675, 12.5934, -11.6282, -87.032, 7.42536
4.73631, 7, -13.444, 43.676, 12.5932, -11.6283, -87.0319, 7.42536
4.74427, 7, -13.4439, 43.6769, 12.593, -11.6283, -87.0319, 7.42537
4.75237, 7, -13.4438, 43.6777, 12.5928, -11.6283, -87.0317, 7.42535
4.76038, 7, -13.4437, 43.6783, 12.5927, -11.6283, -87.0316, 7.42538
4.76835, 7, -13.4436, 43.6788, 12.5927, -11.6283, -87.0315, 7.42533
4.77636, 7, -13.4436, 43.6791, 12.5927, -11.6282, -87.0314, 7.4253
4.78374, 7, -13.4435, 43.6794, 12.5926, -11.6283, -87.0313, 7.42531
4.79174, 7, -13.4434, 43.6797, 12.5926, -11.6283, -87.0312, 7.42532
4.79976, 7, -13.4433, 43.6798, 12.5927, -11.6283, -87.0311, 7.42537
