hehonglu123/ABB_Primitive_Study/realrobot/movel_30_car/curve_exe_v300_z1.csv
timestamp, cmd_num, J1, J2, J3, J4, J5, J6
0.000371, -1, -13.4403, 43.6803, 12.5927, -11.628, -87.0287, 7.42449
0.002225, -1, -13.4403, 43.6803, 12.5927, -11.628, -87.0287, 7.42449
0.008027, -1, -13.4403, 43.6803, 12.5927, -11.628, -87.0287, 7.42447
0.029461, -1, -13.4403, 43.6803, 12.5928, -11.628, -87.0286, 7.42445
0.030722, -1, -13.4403, 43.6803, 12.5928, -11.628, -87.0286, 7.42445
0.032998, -1, -13.4403, 43.6802, 12.5927, -11.628, -87.0286, 7.42449
0.040286, -1, -13.4403, 43.6803, 12.5927, -11.628, -87.0287, 7.42445
0.047877, -1, -13.44, 43.6802, 12.5927, -11.6279, -87.0286, 7.42449
0.056292, -1, -13.4386, 43.6793, 12.5928, -11.628, -87.0286, 7.42451
0.063104, -1, -13.4371, 43.6782, 12.593, -11.6279, -87.0286, 7.42451
0.07116, -1, -13.4319, 43.674, 12.5937, -11.6277, -87.0282, 7.42448
0.080612, -1, -13.4172, 43.6619, 12.5966, -11.6246, -87.0234, 7.42401
0.087108, -1, -13.41, 43.6561, 12.5982, -11.6213, -87.0194, 7.42317
0.095206, -1, -13.3907, 43.6403, 12.6026, -11.6096, -87.0054, 7.41706
0.104477, -1, -13.3468, 43.6037, 12.6142, -11.5729, -86.9617, 7.39127
0.111185, -1, -13.3279, 43.5876, 12.6196, -11.5535, -86.9391, 7.37733
0.119163, -1, -13.2829, 43.5488, 12.6327, -11.5002, -86.8781, 7.3392
0.128973, -1, -13.1952, 43.4713, 12.6606, -11.3797, -86.7381, 7.25034
0.137431, -1, -13.1224, 43.4061, 12.6847, -11.2675, -86.6083, 7.16779
0.143156, -1, -13.0817, 43.3693, 12.6984, -11.2016, -86.5318, 7.11921
0.152748, -1, -12.9414, 43.2418, 12.7469, -10.9642, -86.2555, 6.94282
0.161594, -1, -12.833, 43.143, 12.7851, -10.7746, -86.0344, 6.80155
0.167188, -1, -12.7746, 43.0897, 12.8056, -10.6712, -85.9138, 6.72436
0.176939, -1, -12.6499, 42.9162, 12.8727, -10.3316, -85.5178, 6.47053
0.184106, -1, -12.5152, 42.854, 12.8968, -10.2104, -85.3763, 6.37999
0.191166, -1, -12.3714, 42.7239, 12.947, -9.95903, -85.0825, 6.19188
0.199112, -1, -12.2205, 42.5877, 12.9995, -9.69863, -84.7783, 5.99677
0.208109, -1, -12.0637, 42.4462, 13.0535, -9.43229, -84.4668, 5.79712
0.215184, -1, -11.9016, 42.3008, 13.1089, -9.16256, -84.1514, 5.59441
0.223171, -1, -11.735, 42.1522, 13.165, -8.89071, -83.8337, 5.39051
0.23117, -1, -11.5654, 42.0014, 13.2216, -8.61776, -83.5147, 5.18604
0.239112, -1, -11.3943, 41.8495, 13.2787, -8.34448, -83.1949, 4.98125
0.247117, -1, -11.2226, 41.6973, 13.3358, -8.07082, -82.8746, 4.77597
0.256102, -1, -11.0505, 41.5454, 13.3931, -7.79692, -82.5543, 4.57087
0.263133, -1, -10.8784, 41.3939, 13.4505, -7.52308, -82.2336, 4.36527
0.271112, -1, -10.706, 41.2423, 13.5081, -7.24913, -81.9127, 4.15979
0.279178, -1, -10.5335, 41.0906, 13.5658, -6.97496, -81.5919, 3.95447
0.287103, -1, -10.3609, 40.9389, 13.6235, -6.70105, -81.2714, 3.74902
0.295125, -1, -10.1886, 40.7875, 13.681, -6.42727, -80.9507, 3.54379
0.303169, -1, -10.0166, 40.636, 13.7384, -6.1534, -80.6306, 3.33833
0.311208, -1, -9.84508, 40.4844, 13.7958, -5.87977, -80.3108, 3.13318
0.31944, -1, -9.67415, 40.3322, 13.8531, -5.60625, -79.991, 2.92823
0.327102, -1, -9.50367, 40.18, 13.9104, -5.33283, -79.6714, 2.72352
0.335112, -1, -9.33397, 40.028, 13.9677, -5.05948, -79.3518, 2.5188
0.344111, -1, -9.16486, 39.8761, 14.0248, -4.7867, -79.0324, 2.31439
0.351104, -1, -8.99596, 39.7241, 14.0818, -4.51423, -78.7132, 2.10996
0.359112, -1, -8.82696, 39.5721, 14.1389, -4.24209, -78.3943, 1.90608
0.367944, -1, -8.65766, 39.4205, 14.1958, -3.97052, -78.0762, 1.70236
0.376183, -1, -8.48796, 39.2695, 14.2527, -3.6992, -77.7587, 1.49892
0.383152, -1, -8.31811, 39.119, 14.3096, -3.42817, -77.4416, 1.29581
0.392644, -1, -8.14815, 38.9687, 14.3664, -3.15794, -77.1253, 1.09296
0.399204, -1, -7.97799, 38.8185, 14.4231, -2.88808, -76.8095, 0.89085
0.407271, -1, -7.80788, 38.6686, 14.4797, -2.61863, -76.4941, 0.689131
0.415222, -1, -7.6375, 38.5195, 14.5361, -2.34994, -76.1793, 0.487808
0.42412, -1, -7.46714, 38.3705, 14.5923, -2.0817, -75.865, 0.286873
0.431314, -1, -7.29699, 38.2216, 14.6486, -1.81374, -75.5513, 0.0863064
0.439112, -1, -7.12743, 38.0727, 14.7048, -1.54653, -75.2386, -0.113881
0.447134, -1, -6.95878, 37.9241, 14.7609, -1.28007, -74.9267, -0.313372
0.455232, -1, -6.79115, 37.776, 14.8167, -1.01422, -74.6154, -0.512327
0.463174, -1, -6.62442, 37.6281, 14.8721, -0.74923, -74.3052, -0.710861
0.471281, -1, -6.45861, 37.4805, 14.9275, -0.48511, -73.9956, -0.908804
0.479415, -1, -6.29417, 37.333, 14.9829, -0.221376, -73.6869, -1.10652
0.487353, -1, -6.13065, 37.1861, 15.0381, 0.0417503, -73.3791, -1.30331
0.495428, -1, -5.96798, 37.0402, 15.0932, 0.303829, -73.0721, -1.49944
0.503649, -1, -5.80585, 36.8948, 15.148, 0.565045, -72.7663, -1.69501
0.512974, -1, -5.64387, 36.7497, 15.2026, 0.825578, -72.4613, -1.89005
0.520239, -1, -5.48182, 36.605, 15.2571, 1.08507, -72.1572, -2.08447
0.527703, -1, -5.3198, 36.4609, 15.3115, 1.34376, -71.8543, -2.27821
0.537033, -1, -5.15789, 36.3175, 15.3657, 1.60182, -71.5521, -2.47139
0.544207, -1, -4.99608, 36.1745, 15.4199, 1.8591, -71.251, -2.66376
0.551869, -1, -4.83441, 36.0318, 15.4737, 2.11514, -70.9511, -2.85562
0.561233, -1, -4.67308, 35.8894, 15.5273, 2.37035, -70.6522, -3.04681
0.567144, -1, -4.59241, 35.8183, 15.5541, 2.49755, -70.5031, -3.14222
0.576207, -1, -4.35058, 35.6061, 15.6339, 2.87751, -70.0579, -3.42741
0.583093, -1, -4.27007, 35.5357, 15.6604, 3.0037, -69.9102, -3.52197
0.592191, -1, -4.03008, 35.325, 15.7396, 3.38145, -69.4685, -3.80445
0.599127, -1, -3.95071, 35.255, 15.766, 3.50693, -69.3217, -3.89832
0.608426, -1, -3.71438, 35.0453, 15.8446, 3.88155, -68.8828, -4.17882
0.615142, -1, -3.63618, 34.9757, 15.8706, 4.006, -68.737, -4.27196
0.62459, -1, -3.40295, 34.7683, 15.9485, 4.37795, -68.3013, -4.55072
0.631104, -1, -3.32567, 34.6994, 15.9744, 4.50136, -68.1565, -4.64308
0.641285, -1, -3.09534, 34.4936, 16.0519, 4.87047, -67.724, -4.91908
0.647092, -1, -3.01913, 34.4252, 16.0777, 4.99318, -67.5805, -5.01079
0.656651, -1, -2.79168, 34.2209, 16.1548, 5.35961, -67.1518, -5.28486
0.664745, -1, -2.64049, 34.0857, 16.2057, 5.60247, -66.8675, -5.46672
0.67271, -1, -2.56492, 34.0183, 16.2565, 5.84429, -66.5846, -5.64794
0.68064, -1, -2.41375, 33.884, 16.2818, 5.96481, -66.4436, -5.82803
0.688714, -1, -2.26273, 33.7501, 16.3324, 6.20514, -66.1622, -6.0077
0.696102, -1, -2.11203, 33.6166, 16.3827, 6.44426, -65.8819, -6.09708
0.703153, -1, -1.96168, 33.4835, 16.4328, 6.68271, -65.6025, -6.27547
0.71214, -1, -1.8119, 33.3511, 16.4825, 6.92021, -65.3246, -6.45328
0.720081, -1, -1.66244, 33.2191, 16.5319, 7.15656, -65.0476, -6.63035
0.727114, -1, -1.51312, 33.0876, 16.5812, 7.39173, -64.7718, -6.80676
0.735147, -1, -1.36397, 32.9566, 16.6304, 7.62615, -64.4972, -6.98229
0.743153, -1, -1.21529, 32.8259, 16.6795, 7.85957, -64.2239, -7.15715
0.751104, -1, -1.06778, 32.6961, 16.7283, 8.09195, -63.9517, -7.33133
0.759087, -1, -0.921483, 32.5671, 16.7769, 8.32346, -63.6805, -7.5048
0.768094, -1, -0.776446, 32.4386, 16.8252, 8.55419, -63.4107, -7.67764
0.775086, -1, -0.632311, 32.3106, 16.8734, 8.78389, -63.142, -7.8497
0.783088, -1, -0.489003, 32.1832, 16.9214, 9.01235, -62.8744, -8.02079
0.792086, -1, -0.346983, 32.0562, 16.9693, 9.23975, -62.6081, -8.191
0.799085, -1, -0.206001, 31.93, 17.0169, 9.46639, -62.3429, -8.36048
0.807086, -1, -0.0659406, 31.8043, 17.0642, 9.69197, -62.0788, -8.52932
0.816095, -1, 0.0732722, 31.6791, 17.1114, 9.91632, -61.8157, -8.69722
0.825085, -1, 0.212235, 31.5544, 17.1583, 10.14, -61.5537, -8.86493
0.832222, -1, 0.351209, 31.43, 17.2049, 10.3628, -61.2928, -9.03162
0.840082, -1, 0.490275, 31.306, 17.2515, 10.5843, -61.0329, -9.19757
0.84709, -1, 0.62922, 31.1827, 17.2978, 10.8051, -60.7741, -9.36278
0.855086, -1, 0.767812, 31.06, 17.344, 11.0248, -60.5165, -9.52713
0.864082, -1, 0.906022, 30.9377, 17.3898, 11.2438, -60.2601, -9.69116
0.872131, -1, 1.04372, 30.8159, 17.4357, 11.4617, -60.0048, -9.85421
0.879179, -1, 1.18108, 30.6946, 17.4813, 11.6787, -59.7507, -10.017
0.887148, -1, 1.31826, 30.5737, 17.5265, 11.8949, -59.4978, -10.1787
0.895284, -1, 1.45499, 30.4536, 17.5717, 12.1103, -59.2462, -10.3398
0.903247, -1, 1.59118, 30.3341, 17.6167, 12.3247, -58.9953, -10.5001
0.911194, -1, 1.7266, 30.2152, 17.6616, 12.5381, -58.7454, -10.6597
0.91919, -1, 1.86096, 30.0968, 17.7063, 12.7508, -58.4965, -10.8189
0.927275, -1, 1.99439, 29.9788, 17.7508, 12.9626, -58.2483, -10.9773
0.935122, -1, 2.12705, 29.8612, 17.7951, 13.1733, -58.0013, -11.1352
0.943097, -1, 2.25891, 29.7441, 17.839, 13.3831, -57.7548, -11.2926
0.951419, -1, 2.38993, 29.6276, 17.8828, 13.5922, -57.5096, -11.4491
0.959175, -1, 2.52004, 29.5115, 17.9265, 13.8006, -57.2654, -11.605
0.967251, -1, 2.64905, 29.3957, 17.9701, 14.0081, -57.0224, -11.7602
0.975341, -1, 2.77727, 29.2803, 18.0135, 14.2147, -56.7805, -11.915
0.983297, -1, 2.90487, 29.1651, 18.0566, 14.4203, -56.5396, -12.0692
0.991453, -1, 3.0324, 29.0504, 18.0996, 14.6253, -56.2999, -12.2229
0.999619, -1, 3.15991, 28.9363, 18.1423, 14.8293, -56.061, -12.3758
1.00826, -1, 3.28735, 28.8227, 18.1848, 15.0326, -55.8231, -12.528
1.01561, -1, 3.41448, 28.7096, 18.2274, 15.235, -55.5862, -12.6794
1.02424, -1, 3.54142, 28.5971, 18.2697, 15.4369, -55.3501, -12.8302
1.03238, -1, 3.66809, 28.4849, 18.312, 15.638, -55.1149, -12.9806
1.03969, -1, 3.79449, 28.3732, 18.354, 15.838, -54.8804, -13.1302
1.04827, -1, 3.92058, 28.2621, 18.3957, 16.0373, -54.6469, -13.2795
1.05642, -1, 3.98361, 28.2068, 18.4166, 16.2358, -54.4139, -13.4283
1.06381, -1, 4.1093, 28.0965, 18.4582, 16.4334, -54.1821, -13.5762
1.07218, -1, 4.2968, 27.9319, 18.5202, 16.6305, -53.9513, -13.7236
1.07907, -1, 4.35896, 27.8771, 18.5409, 16.7286, -53.8363, -13.7971
1.08714, -1, 4.48278, 27.7679, 18.582, 16.9243, -53.6069, -13.9435
1.09657, -1, 4.66764, 27.6047, 18.6434, 17.2168, -53.2645, -14.1624
1.10312, -1, 4.72896, 27.5505, 18.6638, 17.3139, -53.1508, -14.235
1.11113, -1, 4.85103, 27.4425, 18.7043, 17.5074, -52.9242, -14.38
1.12052, -1, 5.03282, 27.2811, 18.7651, 17.7963, -52.5857, -14.5965
1.12931, -1, 5.1531, 27.174, 18.8054, 17.9882, -52.3613, -14.7401
1.13512, -1, 5.21288, 27.1206, 18.8254, 18.0839, -52.2494, -14.8116
1.145, -1, 5.39101, 26.9609, 18.8854, 18.3697, -51.9147, -15.0254
1.1534, -1, 5.50898, 26.8549, 18.9253, 18.5595, -51.6925, -15.1672
1.15908, -1, 5.56776, 26.8021, 18.9451, 18.6541, -51.5818, -15.238
1.1689, -1, 5.74345, 26.6446, 19.0045, 18.937, -51.2506, -15.4496
1.17738, -1, 5.80193, 26.5922, 19.0242, 19.1249, -51.0308, -15.5903
1.18307, -1, 5.9187, 26.4878, 19.0635, 19.2184, -50.9212, -15.6605
1.19208, -1, 6.03524, 26.3838, 19.1027, 19.4049, -50.7025, -15.8002
1.20007, -1, 6.15163, 26.28, 19.1418, 19.5909, -50.4846, -15.9394
1.20707, -1, 6.26799, 26.1764, 19.1806, 19.7763, -50.2675, -16.0781
1.21509, -1, 6.38443, 26.0732, 19.2193, 19.9609, -50.0511, -16.2165
1.22408, -1, 6.50078, 25.9706, 19.2579, 20.1449, -49.8356, -16.3544
1.2311, -1, 6.61674, 25.8682, 19.2963, 20.328, -49.6207, -16.4919
1.23909, -1, 6.73248, 25.7661, 19.3347, 20.5107, -49.4067, -16.629
1.24713, -1, 6.84778, 25.6645, 19.3728, 20.693, -49.1936, -16.7655
1.25508, -1, 6.96259, 25.5633, 19.4109, 20.8744, -48.9812, -16.9013
1.26308, -1, 7.07701, 25.4622, 19.449, 21.0553, -48.7698, -17.0368
1.27207, -1, 7.19089, 25.3616, 19.4868, 21.2354, -48.559, -17.1715
1.28013, -1, 7.30431, 25.2615, 19.5245, 21.415, -48.3487, -17.3059
1.28808, -1, 7.41722, 25.1618, 19.5622, 21.5943, -48.139, -17.4399
1.29606, -1, 7.52962, 25.0624, 19.5996, 21.7727, -47.93, -17.5733
1.30561, -1, 7.64156, 24.9634, 19.637, 22.0392, -47.6177, -17.7731
1.31208, -1, 7.75292, 24.8646, 19.6743, 22.1278, -47.5139, -17.8394
1.32008, -1, 7.86381, 24.766, 19.7112, 22.3046, -47.3067, -17.9716
1.32813, -1, 7.97424, 24.6676, 19.7483, 22.481, -47.1002, -18.1035
1.33518, -1, 8.08422, 24.5696, 19.7852, 22.6566, -46.8943, -18.2348
1.34313, -1, 8.1938, 24.4719, 19.8217, 22.8316, -46.6892, -18.3656
1.35107, -1, 8.30305, 24.3744, 19.8582, 23.006, -46.4847, -18.4964
1.35919, -1, 8.41186, 24.2772, 19.8947, 23.1799, -46.2812, -18.6267
1.36707, -1, 8.52, 24.1804, 19.931, 23.3533, -46.0782, -18.7565
1.37507, -1, 8.62761, 24.0838, 19.9672, 23.5261, -45.876, -18.8861
1.38407, -1, 8.73492, 23.9874, 20.0034, 23.6983, -45.6744, -19.0152
1.39214, -1, 8.84208, 23.8915, 20.0393, 23.8699, -45.4734, -19.1436
1.39922, -1, 8.94918, 23.796, 20.0752, 24.0412, -45.2732, -19.2717
1.40728, -1, 9.05624, 23.7009, 20.1112, 24.212, -45.0737, -19.3994
1.41517, -1, 9.16335, 23.6062, 20.1468, 24.382, -44.8746, -19.5266
1.42318, -1, 9.27025, 23.5118, 20.1823, 24.5517, -44.6759, -19.6535
1.43238, -1, 9.37687, 23.4176, 20.2179, 24.7206, -44.4777, -19.7803
1.43911, -1, 9.48322, 23.3237, 20.2533, 24.8893, -44.2801, -19.9064
1.44715, -1, 9.58928, 23.2299, 20.2885, 25.0575, -44.0831, -20.0325
1.4551, -1, 9.69511, 23.1363, 20.3238, 25.2251, -43.8865, -20.1581
1.46406, -1, 9.80061, 23.0431, 20.3589, 25.3921, -43.6907, -20.283
1.47148, -1, 9.90589, 22.9502, 20.3937, 25.5587, -43.4955, -20.4078
1.47924, -1, 10.0108, 22.8574, 20.4286, 25.7249, -43.301, -20.5322
1.48729, -1, 10.1153, 22.7649, 20.4634, 25.8909, -43.107, -20.6561
1.49546, -1, 10.2194, 22.6728, 20.4978, 26.0561, -42.9136, -20.7798
1.50341, -1, 10.323, 22.5808, 20.5324, 26.2209, -42.7208, -20.9032
1.51149, -1, 10.4262, 22.489, 20.5668, 26.385, -42.5283, -21.0262
1.51963, -1, 10.5293, 22.3976, 20.6012, 26.5489, -42.3366, -21.149
1.52896, -1, 10.632, 22.3065, 20.6355, 26.7123, -42.1452, -21.2714
1.53617, -1, 10.7343, 22.2157, 20.6697, 26.8751, -41.9547, -21.3932
1.54379, -1, 10.8362, 22.1251, 20.7037, 27.0376, -41.7646, -21.5148
1.55354, -1, 10.9375, 22.0347, 20.7377, 27.1993, -41.5751, -21.6359
1.55968, -1, 10.9881, 21.9896, 20.7548, 27.3608, -41.386, -21.7566
1.56828, -1, 11.1394, 21.8548, 20.8055, 27.522, -41.1972, -21.8773
1.57505, -1, 11.1898, 21.8099, 20.8223, 27.6025, -41.1031, -21.9374
1.5841, -1, 11.3403, 21.6755, 20.8728, 27.8429, -40.8214, -22.1174
1.59106, -1, 11.3904, 21.6308, 20.8896, 27.9229, -40.7277, -22.1774
1.60022, -1, 11.5398, 21.4973, 20.9397, 28.1618, -40.4476, -22.3566
1.6071, -1, 11.5895, 21.4529, 20.9564, 28.2413, -40.3543, -22.416
1.61636, -1, 11.738, 21.3201, 21.0064, 28.4794, -40.0757, -22.5939
1.62313, -1, 11.7875, 21.276, 21.0229, 28.5585, -39.9829, -22.653
1.63253, -1, 11.9359, 21.1441, 21.0725, 28.7951, -39.7055, -22.8298
1.63906, -1, 11.9854, 21.1002, 21.0891, 28.8738, -39.6133, -22.8887
1.64858, -1, 12.1337, 20.969, 21.1385, 29.1093, -39.3376, -23.0649
1.65913, -1, 12.2324, 20.8818, 21.1712, 29.2659, -39.1542, -23.182
1.66307, -1, 12.2816, 20.8383, 21.1876, 29.3442, -39.0627, -23.2405
1.67268, -1, 12.4289, 20.7081, 21.2367, 29.578, -38.7892, -23.4157
1.68068, -1, 12.4779, 20.6215, 21.2692, 29.7333, -38.6072, -23.532
1.68865, -1, 12.5757, 20.5783, 21.2855, 29.8107, -38.5163, -23.648
1.69605, -1, 12.6733, 20.492, 21.318, 29.9655, -38.3354, -23.7059
1.7041, -1, 12.7706, 20.4059, 21.3504, 30.12, -38.1548, -23.8212
1.71209, -1, 12.8675, 20.3199, 21.3825, 30.274, -37.9747, -23.9362
1.72005, -1, 12.9643, 20.234, 21.4148, 30.4276, -37.7951, -24.0513
1.72811, -1, 13.0607, 20.1484, 21.447, 30.5808, -37.6159, -24.1658
1.73609, -1, 13.1567, 20.0631, 21.479, 30.7335, -37.4368, -24.2803
1.74407, -1, 13.2523, 19.978, 21.5109, 30.8861, -37.2582, -24.3944
1.7521, -1, 13.3478, 19.893, 21.5429, 31.0383, -37.08, -24.5085
1.76005, -1, 13.443, 19.8083, 21.5746, 31.1901, -36.9022, -24.6223
1.76805, -1, 13.538, 19.7239, 21.6063, 31.3414, -36.7246, -24.7355
1.77613, -1, 13.6329, 19.6396, 21.638, 31.4924, -36.5477, -24.8486
1.78407, -1, 13.7274, 19.5556, 21.6697, 31.6429, -36.3711, -24.9615
1.79212, -1, 13.8218, 19.4716, 21.7012, 31.7933, -36.1949, -25.0741
1.80005, -1, 13.9161, 19.3879, 21.7327, 31.9434, -36.0191, -25.1866
1.80805, -1, 14.0103, 19.3045, 21.7642, 32.0931, -35.8438, -25.2986
1.81705, -1, 14.1043, 19.2212, 21.7955, 32.2424, -35.6689, -25.4106
1.82406, -1, 14.1979, 19.1382, 21.8266, 32.3914, -35.4944, -25.5225
1.83205, -1, 14.2914, 19.0553, 21.8577, 32.54, -35.3205, -25.634
1.84015, -1, 14.3844, 18.9726, 21.8889, 32.6884, -35.1468, -25.7454
1.84809, -1, 14.4771, 18.8901, 21.9199, 32.8366, -34.9737, -25.8561
1.85512, -1, 14.5695, 18.8077, 21.9508, 32.9843, -34.801, -25.9666
1.86305, -1, 14.6617, 18.7254, 21.9819, 33.1317, -34.6287, -26.077
1.87205, -1, 14.7536, 18.6434, 22.0127, 33.2786, -34.4568, -26.1868
1.88007, -1, 14.8455, 18.5616, 22.0433, 33.4253, -34.285, -26.2968
1.88709, -1, 14.937, 18.4799, 22.074, 33.5718, -34.1135, -26.4061
1.89605, -1, 15.0284, 18.3984, 22.1048, 33.7179, -33.9424, -26.5154
1.90415, -1, 15.1197, 18.3172, 22.1353, 33.8636, -33.7717, -26.6246
1.91118, -1, 15.2109, 18.2362, 22.1658, 34.009, -33.6014, -26.7334
1.91923, -1, 15.3021, 18.1554, 22.1962, 34.1538, -33.4313, -26.8421
1.92716, -1, 15.3933, 18.0746, 22.2267, 34.2987, -33.2613, -26.9503
1.93511, -1, 15.4844, 17.994, 22.2569, 34.4432, -33.0922, -27.0584
1.94318, -1, 15.5754, 17.9137, 22.2872, 34.5876, -32.9232, -27.1662
1.95108, -1, 15.6662, 17.8334, 22.3175, 34.7314, -32.7549, -27.2737
1.9591, -1, 15.7568, 17.7534, 22.3476, 34.875, -32.5868, -27.3813
1.96749, -1, 15.8471, 17.6734, 22.3775, 35.0182, -32.419, -27.4884
1.97521, -1, 15.9373, 17.5936, 22.4075, 35.161, -32.2516, -27.5955
1.98324, -1, 16.0272, 17.5139, 22.4375, 35.3039, -32.0843, -27.7025
1.9914, -1, 16.1169, 17.4344, 22.4673, 35.4463, -31.9178, -27.8093
1.9994, -1, 16.2062, 17.355, 22.497, 35.5885, -31.7513, -27.9161
2.00744, -1, 16.2953, 17.2757, 22.5268, 35.7304, -31.5852, -28.0221
2.01585, -1, 16.384, 17.1967, 22.5565, 35.8718, -31.4196, -28.1282
2.02421, -1, 16.4725, 17.1178, 22.586, 36.0131, -31.2541, -28.2337
2.03156, -1, 16.5608, 17.0391, 22.6156, 36.1543, -31.0889, -28.3394
2.04064, -1, 16.6491, 16.9606, 22.6452, 36.2953, -30.9241, -28.4445
2.04827, -1, 16.7372, 16.8822, 22.6747, 36.4359, -30.7594, -28.5499
2.05567, -1, 16.8252, 16.8041, 22.704, 36.5761, -30.5951, -28.6549
2.06413, -1, 16.9131, 16.7261, 22.7334, 36.716, -30.4311, -28.7595
2.07162, -1, 16.957, 16.6872, 22.7481, 36.786, -30.3493, -28.8119
2.08007, -1, 17.0885, 16.5706, 22.7921, 36.9952, -30.1042, -28.9687
2.08709, -1, 17.1322, 16.5317, 22.8067, 37.0649, -30.0226, -29.021
2.09624, -1, 17.262, 16.4161, 22.8503, 37.2733, -29.7784, -29.1769
2.10304, -1, 17.3039, 16.3784, 22.8646, 37.3426, -29.6973, -29.2287
2.11261, -1, 17.4223, 16.2712, 22.9061, 37.5475, -29.4568, -29.3824
2.11905, -1, 17.4588, 16.238, 22.9193, 37.6142, -29.3787, -29.4325
2.12871, -1, 17.5601, 16.1477, 22.9559, 37.8033, -29.1565, -29.5743
2.13654, -1, 17.6197, 16.0955, 22.9778, 37.9158, -29.0245, -29.6587
2.14304, -1, 17.6468, 16.0716, 22.9877, 37.9665, -28.9647, -29.6967
2.15298, -1, 17.7189, 16.0077, 23.013, 38.0915, -28.8167, -29.7919
2.16082, -1, 17.7602, 15.97, 23.0264, 38.1519, -28.7451, -29.8374
2.16704, -1, 17.7789, 15.9531, 23.0321, 38.1748, -28.7175, -29.8551
2.17668, -1, 17.8253, 15.912, 23.0447, 38.2211, -28.6618, -29.8906
2.18471, -1, 17.8376, 15.902, 23.05, 38.2377, -28.6417, -29.9032
2.1926, -1, 17.8578, 15.8867, 23.0519, 38.2431, -28.6352, -29.9071
2.20003, -1, 17.8717, 15.8764, 23.0546, 38.2498, -28.6271, -29.9119
2.20804, -1, 17.8796, 15.8705, 23.056, 38.2531, -28.6232, -29.9142
2.215, 2, 17.8832, 15.8674, 23.0567, 38.2547, -28.6213, -29.9152
2.22405, 2, 17.8848, 15.8657, 23.057, 38.2554, -28.6205, -29.9157
2.23203, 2, 17.885, 15.8648, 23.0572, 38.2557, -28.6201, -29.916
2.23907, 2, 17.8845, 15.8643, 23.0573, 38.2558, -28.62, -29.9161
2.24703, 2, 17.884, 15.864, 23.0573, 38.2559, -28.6199, -29.9161
2.25603, 2, 17.8836, 15.8639, 23.0573, 38.2559, -28.6199, -29.9162
2.26303, 2, 17.8833, 15.8638, 23.0573, 38.256, -28.6198, -29.9162
2.27103, 2, 17.8833, 15.8637, 23.0574, 38.256, -28.6198, -29.9162
2.28007, 2, 17.8832, 15.8635, 23.0574, 38.2559, -28.6198, -29.9162
2.28703, 2, 17.8833, 15.8634, 23.0574, 38.2559, -28.6199, -29.9162
2.29503, 2, 17.8836, 15.8632, 23.0574, 38.256, -28.6199, -29.9162
2.30404, 2, 17.884, 15.863, 23.0574, 38.2559, -28.6199, -29.9162
2.31103, 2, 17.8844, 15.8628, 23.0574, 38.256, -28.6199, -29.9162
2.32003, 2, 17.885, 15.8627, 23.0574, 38.256, -28.6199, -29.9162
2.32803, 2, 17.8857, 15.8625, 23.0574, 38.256, -28.6199, -29.9162
2.3361, 2, 17.8861, 15.8624, 23.0574, 38.256, -28.62, -29.9162
2.34407, 2, 17.8865, 15.8624, 23.0574, 38.256, -28.62, -29.9162
2.35212, 2, 17.8868, 15.8624, 23.0574, 38.256, -28.62, -29.9161
2.36009, 2, 17.887, 15.8624, 23.0574, 38.256, -28.62, -29.9162
2.36704, 2, 17.8871, 15.8624, 23.0574, 38.256, -28.62, -29.9162
2.37603, 2, 17.8871, 15.8624, 23.0574, 38.256, -28.62, -29.9161
2.38411, 2, 17.8871, 15.8624, 23.0574, 38.256, -28.62, -29.9161
2.39108, 2, 17.8871, 15.8624, 23.0574, 38.256, -28.62, -29.9161
2.40003, 2, 17.8871, 15.8624, 23.0575, 38.256, -28.62, -29.9162
2.40813, 2, 17.887, 15.8623, 23.0574, 38.256, -28.6201, -29.9162
2.41514, 2, 17.8868, 15.8623, 23.0574, 38.2559, -28.6201, -29.9161
2.4232, 2, 17.8867, 15.8623, 23.0574, 38.256, -28.6201, -29.9161
2.43114, 2, 17.8866, 15.8622, 23.0575, 38.256, -28.6202, -29.9161
2.43911, 2, 17.8866, 15.8622, 23.0574, 38.256, -28.6201, -29.9161
2.44716, 2, 17.8866, 15.8622, 23.0574, 38.256, -28.6202, -29.9161
2.45506, 2, 17.8866, 15.8622, 23.0574, 38.256, -28.6202, -29.916
2.46307, 2, 17.8865, 15.8622, 23.0574, 38.2559, -28.6203, -29.916
2.47119, 2, 17.8865, 15.8622, 23.0574, 38.256, -28.6203, -29.9161
2.47921, 2, 17.8865, 15.8622, 23.0574, 38.256, -28.6203, -29.9161
2.48758, 2, 17.8865, 15.8622, 23.0574, 38.2559, -28.6203, -29.9161
2.49535, 2, 17.8865, 15.8622, 23.0574, 38.2559, -28.6203, -29.9161
2.50332, 2, 17.8865, 15.8622, 23.0574, 38.2559, -28.6203, -29.9161
2.5118, 2, 17.8865, 15.8622, 23.0574, 38.2559, -28.6203, -29.916
2.5201, 2, 17.8865, 15.8623, 23.0574, 38.2559, -28.6203, -29.916
2.52752, 2, 17.8865, 15.8623, 23.0574, 38.2559, -28.6203, -29.916
2.53613, 2, 17.8864, 15.8622, 23.0574, 38.2559, -28.6203, -29.916
2.54362, 2, 17.8864, 15.8622, 23.0574, 38.2559, -28.6203, -29.916
2.5522, 2, 17.8864, 15.8622, 23.0574, 38.2559, -28.6204, -29.916
2.55982, 2, 17.8864, 15.8622, 23.0574, 38.256, -28.6203, -29.916
2.56803, 2, 17.8864, 15.8622, 23.0574, 38.2559, -28.6204, -29.916
2.57504, 2, 17.8863, 15.8623, 23.0574, 38.2559, -28.6204, -29.916
2.58408, 2, 17.8863, 15.8623, 23.0574, 38.2559, -28.6205, -29.916
2.59107, 2, 17.8863, 15.8623, 23.0574, 38.2559, -28.6205, -29.916
2.60021, 2, 17.8863, 15.8623, 23.0574, 38.2559, -28.6205, -29.916
2.60703, 2, 17.8863, 15.8623, 23.0574, 38.2559, -28.6205, -29.916
2.61507, 2, 17.8862, 15.8623, 23.0574, 38.2559, -28.6206, -29.9159
2.62438, 2, 17.8862, 15.8623, 23.0574, 38.2559, -28.6206, -29.9159
2.63102, 2, 17.8862, 15.8623, 23.0574, 38.2559, -28.6206, -29.9159
2.64046, 2, 17.8862, 15.8623, 23.0574, 38.2559, -28.6206, -29.9158
2.64857, 2, 17.8862, 15.8623, 23.0574, 38.2558, -28.6206, -29.9158
2.65695, 2, 17.8861, 15.8623, 23.0574, 38.2558, -28.6206, -29.9158
2.66462, 2, 17.8861, 15.8623, 23.0574, 38.2559, -28.6206, -29.9158
2.67266, 2, 17.8861, 15.8623, 23.0574, 38.2559, -28.6206, -29.9157
2.68114, 2, 17.886, 15.8623, 23.0574, 38.2559, -28.6206, -29.9157
2.68708, 2, 17.886, 15.8623, 23.0574, 38.2558, -28.6206, -29.9156
2.69703, 2, 17.886, 15.8623, 23.0574, 38.2558, -28.6207, -29.9156
2.70301, 2, 17.886, 15.8623, 23.0574, 38.2558, -28.6207, -29.9156
2.71202, 2, 17.886, 15.8623, 23.0574, 38.2558, -28.6207, -29.9156
2.72007, 2, 17.8859, 15.8623, 23.0574, 38.2557, -28.6207, -29.9156
2.72826, 2, 17.8859, 15.8623, 23.0574, 38.2557, -28.6208, -29.9156
2.73602, 2, 17.8859, 15.8623, 23.0574, 38.2558, -28.6208, -29.9156
2.74412, 2, 17.8858, 15.8623, 23.0574, 38.2557, -28.6208, -29.9156
2.75202, 2, 17.8858, 15.8623, 23.0574, 38.2557, -28.6209, -29.9155
2.76002, 2, 17.8857, 15.8623, 23.0574, 38.2557, -28.6209, -29.9155
2.76807, 2, 17.8857, 15.8623, 23.0574, 38.2557, -28.6209, -29.9155
2.77602, 2, 17.8857, 15.8623, 23.0574, 38.2557, -28.6209, -29.9155
2.78407, 2, 17.8856, 15.8623, 23.0574, 38.2557, -28.6209, -29.9155
2.79216, 2, 17.8856, 15.8623, 23.0574, 38.2558, -28.621, -29.9154
2.80002, 2, 17.8856, 15.8623, 23.0574, 38.2557, -28.621, -29.9155
2.80803, 2, 17.8855, 15.8623, 23.0574, 38.2557, -28.621, -29.9154
2.81609, 2, 17.8855, 15.8623, 23.0574, 38.2557, -28.621, -29.9154
2.82591, 2, 17.8854, 15.8623, 23.0574, 38.2557, -28.621, -29.9154
2.83201, 2, 17.8853, 15.8623, 23.0574, 38.2557, -28.621, -29.9154
2.84009, 2, 17.8853, 15.8623, 23.0574, 38.2557, -28.621, -29.9155
2.84805, 2, 17.8853, 15.8623, 23.0574, 38.2556, -28.621, -29.9154
2.85607, 2, 17.8852, 15.8623, 23.0574, 38.2556, -28.621, -29.9154
2.8641, 2, 17.8852, 15.8623, 23.0574, 38.2556, -28.621, -29.9154
2.87202, 2, 17.8851, 15.8623, 23.0574, 38.2557, -28.6211, -29.9154
2.88002, 2, 17.8851, 15.8623, 23.0574, 38.2556, -28.6211, -29.9154
2.88808, 2, 17.8851, 15.8623, 23.0574, 38.2557, -28.6212, -29.9154
2.89506, 2, 17.885, 15.8623, 23.0574, 38.2557, -28.6211, -29.9154
2.90404, 2, 17.885, 15.8623, 23.0574, 38.2556, -28.6212, -29.9154
2.91211, 2, 17.8849, 15.8623, 23.0574, 38.2556, -28.6212, -29.9154
2.92002, 2, 17.8849, 15.8623, 23.0574, 38.2555, -28.6212, -29.9154
2.92718, 2, 17.8848, 15.8623, 23.0574, 38.2556, -28.6212, -29.9154
2.93513, 2, 17.8848, 15.8623, 23.0574, 38.2556, -28.6212, -29.9154
2.94302, 2, 17.8847, 15.8623, 23.0574, 38.2555, -28.6212, -29.9153
2.95109, 2, 17.8847, 15.8623, 23.0574, 38.2555, -28.6212, -29.9153
2.95905, 2, 17.8846, 15.8623, 23.0574, 38.2555, -28.6212, -29.9153
2.96705, 2, 17.8846, 15.8623, 23.0574, 38.2555, -28.6212, -29.9153
2.97523, 2, 17.8845, 15.8623, 23.0574, 38.2555, -28.6212, -29.9153
2.98342, 2, 17.8845, 15.8623, 23.0574, 38.2554, -28.6213, -29.9153
2.99121, 2, 17.8844, 15.8623, 23.0574, 38.2554, -28.6212, -29.9152
2.99943, 2, 17.8844, 15.8623, 23.0574, 38.2554, -28.6213, -29.9152
3.00737, 2, 17.8843, 15.8624, 23.0574, 38.2554, -28.6213, -29.9152
3.01542, 2, 17.8843, 15.8623, 23.0574, 38.2554, -28.6213, -29.9152
3.02361, 2, 17.8843, 15.8624, 23.0574, 38.2553, -28.6213, -29.9152
3.03217, 2, 17.8842, 15.8624, 23.0574, 38.2553, -28.6213, -29.9151
3.03954, 2, 17.8842, 15.8624, 23.0574, 38.2553, -28.6213, -29.9151
3.04812, 2, 17.8841, 15.8624, 23.0574, 38.2553, -28.6213, -29.9151
3.05562, 2, 17.8841, 15.8624, 23.0574, 38.2552, -28.6213, -29.9151
3.06414, 2, 17.884, 15.8624, 23.0574, 38.2553, -28.6213, -29.9152
3.07171, 2, 17.884, 15.8624, 23.0574, 38.2552, -28.6213, -29.9151
3.0803, 2, 17.884, 15.8624, 23.0574, 38.2552, -28.6213, -29.9151
3.087, 2, 17.8839, 15.8624, 23.0574, 38.2552, -28.6213, -29.915
3.0961, 2, 17.8839, 15.8624, 23.0574, 38.2552, -28.6213, -29.9151
3.103, 2, 17.8838, 15.8624, 23.0574, 38.2552, -28.6214, -29.9151
3.11217, 2, 17.8838, 15.8624, 23.0574, 38.2551, -28.6213, -29.915
3.11907, 2, 17.8838, 15.8624, 23.0574, 38.2551, -28.6213, -29.915
3.12865, 2, 17.8837, 15.8624, 23.0574, 38.2551, -28.6214, -29.915
3.13635, 2, 17.8836, 15.8624, 23.0574, 38.2551, -28.6214, -29.915
3.14309, 2, 17.8836, 15.8624, 23.0574, 38.255, -28.6214, -29.915
3.1526, 2, 17.8836, 15.8624, 23.0574, 38.255, -28.6214, -29.915
3.16052, 2, 17.8836, 15.8624, 23.0574, 38.255, -28.6214, -29.915
3.16865, 2, 17.8835, 15.8624, 23.0574, 38.255, -28.6214, -29.9149
3.1768, 2, 17.8835, 15.8624, 23.0574, 38.255, -28.6215, -29.9149
3.18464, 2, 17.8835, 15.8624, 23.0574, 38.255, -28.6215, -29.9149
3.19265, 2, 17.8835, 15.8624, 23.0574, 38.255, -28.6215, -29.9149
3.20063, 2, 17.8835, 15.8624, 23.0574, 38.2549, -28.6215, -29.9149
3.20801, 2, 17.8835, 15.8624, 23.0574, 38.2549, -28.6215, -29.9149
3.21616, 2, 17.8835, 15.8624, 23.0574, 38.2549, -28.6215, -29.9149
3.22298, 2, 17.8835, 15.8624, 23.0574, 38.2549, -28.6215, -29.9149
3.23202, 2, 17.8834, 15.8625, 23.0574, 38.2549, -28.6215, -29.9149
3.24001, 2, 17.8834, 15.8625, 23.0574, 38.2549, -28.6215, -29.9149
3.24703, 2, 17.8834, 15.8625, 23.0574, 38.2548, -28.6215, -29.9149
3.255, 2, 17.8834, 15.8624, 23.0574, 38.2548, -28.6215, -29.9149
3.26402, 2, 17.8834, 15.8625, 23.0574, 38.2548, -28.6215, -29.9149
3.27204, 2, 17.8834, 15.8625, 23.0574, 38.2548, -28.6215, -29.9149
3.28, 2, 17.8834, 15.8625, 23.0574, 38.2548, -28.6216, -29.9148
3.28803, 2, 17.8834, 15.8625, 23.0574, 38.2548, -28.6216, -29.9148
3.29618, 4, 17.8833, 15.8625, 23.0574, 38.2547, -28.6216, -29.9148
3.30402, 4, 17.8833, 15.8625, 23.0574, 38.2547, -28.6216, -29.9148
3.312, 4, 17.8833, 15.8625, 23.0574, 38.2547, -28.6215, -29.9148
3.32007, 4, 17.8833, 15.8625, 23.0574, 38.2547, -28.6216, -29.9147
3.328, 4, 17.8833, 15.8625, 23.0574, 38.2547, -28.6216, -29.9147
3.337, 4, 17.8833, 15.8625, 23.0574, 38.2546, -28.6216, -29.9147
3.34408, 4, 17.8833, 15.8625, 23.0574, 38.2546, -28.6215, -29.9147
3.35203, 4, 17.8833, 15.8625, 23.0574, 38.2546, -28.6215, -29.9147
3.35907, 4, 17.8833, 15.8625, 23.0574, 38.2546, -28.6215, -29.9146
3.36807, 4, 17.8833, 15.8625, 23.0574, 38.2546, -28.6215, -29.9146
3.376, 4, 17.8833, 15.8625, 23.0574, 38.2546, -28.6216, -29.9147
3.38402, 4, 17.8833, 15.8625, 23.0574, 38.2546, -28.6216, -29.9146
3.39207, 4, 17.8832, 15.8625, 23.0574, 38.2545, -28.6216, -29.9146
3.40114, 4, 17.8832, 15.8625, 23.0574, 38.2545, -28.6215, -29.9146
3.42278, 4, 17.8832, 15.8625, 23.0574, 38.2545, -28.6216, -29.9146
3.4242, 4, 17.8832, 15.8625, 23.0574, 38.2545, -28.6216, -29.9146
3.4254, 4, 17.8832, 15.8625, 23.0574, 38.2545, -28.6216, -29.9146
3.43111, 4, 17.8832, 15.8625, 23.0574, 38.2544, -28.6216, -29.9146
3.44001, 4, 17.8832, 15.8625, 23.0574, 38.2544, -28.6216, -29.9146
3.44807, 4, 17.8825, 15.8625, 23.0574, 38.2544, -28.6216, -29.9145
3.456, 4, 17.8798, 15.8625, 23.0575, 38.2539, -28.6216, -29.9143
3.4631, 4, 17.8737, 15.8624, 23.0584, 38.2502, -28.6225, -29.9124
3.47105, 4, 17.8635, 15.8619, 23.0616, 38.2384, -28.6259, -29.904
3.47912, 4, 17.8492, 15.8604, 23.0692, 38.2119, -28.6346, -29.882
3.48723, 4, 17.8296, 15.8571, 23.0842, 38.1627, -28.6517, -29.8397
3.49525, 5, 17.8039, 15.8516, 23.1089, 38.0808, -28.6797, -29.7688
3.50327, 5, 17.7722, 15.8433, 23.1454, 37.9605, -28.7218, -29.6639
3.51137, 5, 17.7348, 15.8321, 23.1949, 37.7971, -28.7801, -29.5208
3.51943, 5, 17.6921, 15.818, 23.2571, 37.592, -28.8537, -29.3409
3.52807, 5, 17.6434, 15.8014, 23.3307, 37.35, -28.9424, -29.1285
3.53555, 5, 17.5889, 15.783, 23.4135, 37.0789, -29.0426, -28.8897
3.5441, 5, 17.5293, 15.7631, 23.503, 36.787, -29.1519, -28.6322
3.55158, 5, 17.4645, 15.7422, 23.5969, 36.4826, -29.2676, -28.3631
3.56019, 5, 17.3952, 15.721, 23.6931, 36.1714, -29.3871, -28.0886
3.56762, 5, 17.359, 15.7103, 23.7415, 36.0148, -29.5093, -27.8121
3.57601, 5, 17.2462, 15.6781, 23.8873, 35.5448, -29.6329, -27.5359
3.58419, 5, 17.1693, 15.6571, 23.9845, 35.2327, -29.7574, -27.2611
3.59101, 5, 17.1305, 15.6467, 24.0331, 35.0773, -29.8202, -27.1244
3.60004, 5, 17.0132, 15.6156, 24.1787, 34.6142, -30.0092, -26.7173
3.60698, 5, 16.9741, 15.6055, 24.2271, 34.4607, -30.0727, -26.5825
3.61621, 5, 16.8568, 15.5759, 24.3717, 34.0034, -30.264, -26.1812
3.62305, 5, 16.8177, 15.5661, 24.4196, 33.852, -30.3282, -26.0486
3.63236, 5, 16.7008, 15.5378, 24.5626, 33.401, -30.5218, -25.6545
3.639, 5, 16.6619, 15.5286, 24.6101, 33.2518, -30.5866, -25.5241
3.64845, 5, 16.5453, 15.5015, 24.7525, 32.8074, -30.7822, -25.1364
3.65498, 5, 16.5065, 15.4926, 24.7998, 32.6601, -30.8476, -25.0082
3.66463, 5, 16.3905, 15.4668, 24.9413, 32.2219, -31.0449, -24.6271
3.67256, 5, 16.3131, 15.4499, 25.035, 31.9321, -31.1771, -24.3752
3.68059, 5, 16.2354, 15.4332, 25.128, 31.6445, -31.3103, -24.1253
3.68888, 5, 16.1574, 15.417, 25.2206, 31.359, -31.4439, -23.8774
3.69654, 5, 16.1182, 15.409, 25.2668, 31.2169, -31.511, -23.6318
3.70457, 5, 16.0394, 15.3933, 25.359, 30.9342, -31.6458, -23.5097
3.71201, 5, 15.9604, 15.3779, 25.451, 30.6536, -31.781, -23.2668
3.72004, 5, 15.8809, 15.3629, 25.5427, 30.3748, -31.9171, -23.0258
3.72798, 5, 15.8011, 15.3485, 25.6339, 30.098, -32.0535, -22.7868
3.73599, 5, 15.721, 15.3344, 25.7245, 29.8233, -32.1907, -22.55
3.74403, 5, 15.6406, 15.3205, 25.8146, 29.5506, -32.3282, -22.3152
3.75203, 5, 15.56, 15.3072, 25.9043, 29.2795, -32.4666, -22.082
3.76, 5, 15.4796, 15.2945, 25.9938, 29.0104, -32.6052, -21.8509
3.76805, 5, 15.3991, 15.2822, 26.083, 28.7434, -32.7445, -21.6217
3.77498, 5, 15.3185, 15.2702, 26.1719, 28.478, -32.8841, -21.3946
3.784, 5, 15.2379, 15.2584, 26.2604, 28.2145, -33.0247, -21.1694
3.79204, 5, 15.1574, 15.2471, 26.3483, 27.9528, -33.1655, -20.9459
3.79899, 5, 15.0769, 15.2362, 26.4356, 27.693, -33.3069, -20.7245
3.80801, 5, 14.9965, 15.2258, 26.5225, 27.4348, -33.4486, -20.5049
3.81606, 5, 14.9159, 15.2156, 26.6091, 27.1784, -33.5909, -20.2874
3.82298, 5, 14.8352, 15.2058, 26.6954, 26.9238, -33.7339, -20.0713
3.832, 5, 14.7545, 15.1963, 26.7814, 26.6708, -33.8772, -19.8569
3.84005, 5, 14.6735, 15.1871, 26.867, 26.4198, -34.0211, -19.6441
3.84799, 5, 14.5924, 15.1785, 26.9521, 26.1706, -34.1654, -19.4332
3.85606, 5, 14.511, 15.1705, 27.0367, 25.923, -34.3102, -19.2241
3.86407, 5, 14.4293, 15.1627, 27.1208, 25.6769, -34.4556, -19.0168
3.87198, 5, 14.3473, 15.1554, 27.2045, 25.4328, -34.6016, -18.811
3.8804, 5, 14.265, 15.1486, 27.288, 25.1903, -34.7481, -18.607
3.88798, 5, 14.1826, 15.142, 27.3711, 24.9494, -34.895, -18.4046
3.89599, 5, 14.1001, 15.1357, 27.4539, 24.7102, -35.0424, -18.2041
3.90479, 5, 14.0176, 15.1298, 27.5362, 24.4728, -35.1903, -18.0053
3.91107, 5, 13.935, 15.1244, 27.6182, 24.2367, -35.3386, -17.8081
3.92002, 5, 13.8524, 15.1195, 27.6996, 24.0021, -35.4874, -17.6123
3.9288, 5, 13.7698, 15.115, 27.7805, 23.7692, -35.6368, -17.4183
3.93598, 5, 13.6872, 15.1109, 27.861, 23.5378, -35.7864, -17.2256
3.94316, 5, 13.6049, 15.1072, 27.9411, 23.3078, -35.9367, -17.0349
3.95108, 5, 13.5226, 15.1038, 28.0209, 23.0794, -36.0872, -16.8458
3.95998, 5, 13.4402, 15.1008, 28.1003, 22.8527, -36.2381, -16.6583
3.96714, 5, 13.3577, 15.0982, 28.1793, 22.6275, -36.3893, -16.472
3.97506, 5, 13.2749, 15.0961, 28.258, 22.4037, -36.5411, -16.2875
3.984, 5, 13.1919, 15.0944, 28.336, 22.1813, -36.693, -16.1044
3.99199, 5, 13.1087, 15.0931, 28.4137, 21.9606, -36.8457, -15.923
4.00088, 5, 13.0252, 15.0922, 28.4908, 21.7412, -36.9986, -15.7432
4.008, 5, 12.9415, 15.0917, 28.5676, 21.5232, -37.152, -15.5644
4.01598, 5, 12.8575, 15.0915, 28.644, 21.3065, -37.3056, -15.3872
4.02493, 5, 12.7733, 15.0915, 28.7201, 21.0915, -37.4598, -15.2111
4.03207, 5, 12.6889, 15.0917, 28.7958, 20.8778, -37.6142, -15.0365
4.03961, 5, 12.6044, 15.0922, 28.8712, 20.6653, -37.7693, -14.8633
4.04888, 5, 12.5198, 15.093, 28.9461, 20.4542, -37.9247, -14.6917
4.05609, 5, 12.4352, 15.0941, 29.0205, 20.2444, -38.0805, -14.5214
4.06361, 5, 12.3506, 15.0957, 29.0944, 20.0359, -38.2369, -14.352
4.07225, 5, 12.266, 15.0976, 29.1678, 19.8287, -38.3934, -14.1842
4.07899, 5, 12.2238, 15.0987, 29.2044, 19.7255, -38.4718, -14.1007
4.08805, 5, 12.0968, 15.1026, 29.3135, 19.4182, -38.7077, -13.8523
4.09497, 5, 12.0544, 15.1041, 29.3497, 19.3165, -38.7864, -13.7703
4.10409, 5, 11.9273, 15.1094, 29.4576, 19.0133, -39.0231, -13.5262
4.11097, 5, 11.8849, 15.1114, 29.4934, 18.9128, -39.1022, -13.4455
4.1202, 5, 11.7574, 15.118, 29.6001, 18.6132, -39.3398, -13.2048
4.12702, 5, 11.7149, 15.1205, 29.6355, 18.514, -39.4192, -13.1252
4.13645, 5, 11.587, 15.1285, 29.7409, 18.2182, -39.6577, -12.8883
4.14297, 5, 11.5443, 15.1315, 29.7758, 18.1202, -39.7374, -12.81
4.15252, 5, 11.4158, 15.1411, 29.8797, 17.8278, -39.9771, -12.5772
4.16053, 5, 11.3298, 15.1482, 29.9486, 17.6347, -40.1373, -12.4238
4.16854, 5, 11.2437, 15.1556, 30.0172, 17.4426, -40.2977, -12.2716
4.17657, 5, 11.1575, 15.1633, 30.0853, 17.2517, -40.4584, -12.1203
4.18459, 5, 11.0712, 15.1716, 30.153, 17.0618, -40.6195, -11.9704
4.19285, 5, 10.9849, 15.1801, 30.2203, 16.8731, -40.7809, -11.8215
4.20076, 5, 10.8985, 15.1889, 30.2871, 16.6857, -40.9427, -11.674
4.20798, 5, 10.8554, 15.1935, 30.3203, 16.5923, -41.0236, -11.6007
4.21597, 5, 10.7691, 15.2031, 30.3864, 16.4065, -41.1858, -11.4551
4.22403, 5, 10.6828, 15.2133, 30.4521, 16.2217, -41.3482, -11.3107
4.23198, 5, 10.5965, 15.2239, 30.5173, 16.0382, -41.511, -11.1673
4.23997, 5, 10.5103, 15.2348, 30.5821, 15.8558, -41.6739, -11.0248
4.24802, 5, 10.424, 15.2461, 30.6466, 15.6746, -41.8373, -10.8836
4.256, 5, 10.3378, 15.2579, 30.7106, 15.4944, -42.0011, -10.7432
4.26399, 5, 10.2513, 15.2703, 30.7743, 15.3151, -42.1652, -10.6042
4.27339, 5, 10.1213, 15.2897, 30.8689, 15.0486, -42.4119, -10.3976
4.27898, 5, 10.0778, 15.2963, 30.9002, 14.9602, -42.4943, -10.3293
4.28797, 5, 9.99071, 15.3097, 30.9627, 14.7844, -42.6592, -10.1937
4.29496, 5, 9.90343, 15.3237, 31.0246, 14.6093, -42.8243, -10.0591
4.30399, 5, 9.81604, 15.3382, 31.086, 14.4352, -42.9898, -9.92509
4.31203, 5, 9.7285, 15.3531, 31.1469, 14.2622, -43.1554, -9.79235
4.31997, 5, 9.6407, 15.3682, 31.2073, 14.0904, -43.3214, -9.6607
4.32798, 5, 9.55275, 15.3837, 31.2675, 13.9195, -43.4877, -9.52982
4.33603, 5, 9.46465, 15.3997, 31.3272, 13.7495, -43.654, -9.40013
4.34501, 5, 9.37656, 15.4161, 31.3865, 13.5803, -43.8205, -9.27141
4.35197, 5, 9.28846, 15.4327, 31.4454, 13.4121, -43.9871, -9.14383
4.3601, 5, 9.20045, 15.4499, 31.5038, 13.2449, -44.1541, -9.01713
4.36797, 5, 9.11234, 15.4677, 31.5618, 13.0786, -44.3212, -8.89136
4.37597, 5, 9.02419, 15.4858, 31.6194, 12.9132, -44.4885, -8.76644
4.38405, 5, 8.93602, 15.5041, 31.6764, 12.7486, -44.656, -8.64236
4.39197, 5, 8.84778, 15.5231, 31.733, 12.5851, -44.8238, -8.51933
4.39997, 5, 8.75946, 15.5425, 31.7893, 12.4225, -44.992, -8.3972
4.40804, 5, 8.67109, 15.562, 31.8449, 12.261, -45.1604, -8.27591
4.41596, 5, 8.58267, 15.5821, 31.9002, 12.1002, -45.3292, -8.15591
4.42411, 5, 8.49417, 15.6026, 31.9551, 11.9401, -45.4981, -8.03681
4.43197, 5, 8.40552, 15.6234, 32.0095, 11.7811, -45.6673, -7.91853
4.43997, 5, 8.31664, 15.6446, 32.0635, 11.623, -45.8367, -7.80122
4.44805, 5, 8.2276, 15.6663, 32.1172, 11.4658, -46.0064, -7.68458
4.45596, 5, 8.13842, 15.6882, 32.1703, 11.3094, -46.1761, -7.5689
4.46398, 5, 8.04915, 15.7106, 32.223, 11.1536, -46.346, -7.45416
4.47209, 5, 7.95998, 15.7335, 32.2753, 10.9986, -46.5161, -7.3401
4.47997, 5, 7.87077, 15.7566, 32.3271, 10.8446, -46.6863, -7.22722
4.48797, 5, 7.78147, 15.7803, 32.3785, 10.6915, -46.8565, -7.11506
4.49605, 5, 7.69212, 15.8043, 32.4294, 10.5392, -47.0271, -7.00373
4.50397, 5, 7.60282, 15.8287, 32.4799, 10.3877, -47.1975, -6.89363
4.51197, 5, 7.51374, 15.8536, 32.5298, 10.2367, -47.3683, -6.78382
4.52004, 5, 7.42473, 15.8789, 32.5794, 10.0866, -47.5392, -6.67502
4.52807, 5, 7.33569, 15.9046, 32.6285, 9.93721, -47.7105, -6.5668
4.53555, 5, 7.24671, 15.9306, 32.6772, 9.78878, -47.8819, -6.45955
4.54412, 5, 7.15745, 15.9571, 32.7255, 9.64107, -48.0534, -6.35313
4.5515, 5, 7.06801, 15.9839, 32.7734, 9.49407, -48.2251, -6.24709
4.56008, 5, 6.97839, 16.0112, 32.8207, 9.34758, -48.3971, -6.14241
4.56756, 5, 6.93351, 16.025, 32.8677, 9.20221, -48.5691, -6.03812
4.57616, 5, 6.79857, 16.0669, 32.9142, 9.05749, -48.7416, -5.9348
4.5838, 5, 6.7535, 16.0812, 32.9372, 8.91371, -48.9142, -5.83224
4.59253, 5, 6.66322, 16.1243, 33.0058, 8.7706, -49.087, -5.73054
4.60001, 5, 6.52761, 16.1536, 33.0509, 8.62832, -49.26, -5.62957
4.60695, 5, 6.48238, 16.1683, 33.0733, 8.55736, -49.3464, -5.5794
4.61616, 5, 6.34663, 16.2133, 33.1398, 8.34546, -49.6061, -5.42913
4.623, 5, 6.30138, 16.2285, 33.1617, 8.27529, -49.6927, -5.37954
4.63232, 5, 6.16552, 16.2746, 33.2269, 8.06585, -49.9526, -5.23183
4.639, 5, 6.12029, 16.2902, 33.2483, 7.99634, -50.0393, -5.18275
4.64834, 5, 5.98463, 16.3374, 33.3121, 7.78884, -50.2995, -5.03718
4.65499, 5, 5.9394, 16.3534, 33.3332, 7.71992, -50.3863, -4.98898
4.66453, 5, 5.80373, 16.4018, 33.3955, 7.51425, -50.6469, -4.84558
4.67248, 5, 5.71317, 16.4346, 33.4367, 7.37796, -50.8208, -4.75068
4.68058, 5, 5.62264, 16.4678, 33.4773, 7.24261, -50.9947, -4.65716
4.6886, 5, 5.53198, 16.5013, 33.5174, 7.10788, -51.1689, -4.56354
4.69668, 5, 5.44116, 16.5352, 33.5572, 6.97377, -51.3431, -4.47127
4.83286, 5, 3.93757, 17.1517, 34.1456, 4.84714, -54.2344, -3.03474
4.83486, 5, 3.89188, 17.172, 34.1614, 4.7852, -54.3224, -2.99393
4.83611, 5, 3.89188, 17.172, 34.1614, 4.7852, -54.3224, -2.99393
4.83796, 5, 3.84615, 17.1923, 34.1772, 4.72348, -54.4102, -2.95297
4.83936, 5, 3.84615, 17.1923, 34.1772, 4.72348, -54.4102, -2.95297
4.84055, 5, 3.84615, 17.1923, 34.1772, 4.72348, -54.4102, -2.95297
4.84336, 5, 3.80038, 17.2128, 34.1929, 4.66194, -54.4982, -2.91209
4.84612, 5, 3.75459, 17.2333, 34.2085, 4.60048, -54.5862, -2.87165
4.84746, 5, 3.75459, 17.2333, 34.2085, 4.60048, -54.5862, -2.87165
4.84873, 5, 3.75459, 17.2333, 34.2085, 4.60048, -54.5862, -2.87165
4.85151, 5, 3.70878, 17.2539, 34.2239, 4.5391, -54.6741, -2.83154
4.8528, 5, 3.70878, 17.2539, 34.2239, 4.5391, -54.6741, -2.83154
4.85483, 5, 3.66293, 17.2747, 34.2392, 4.47788, -54.7619, -2.79142
4.85602, 5, 3.66293, 17.2747, 34.2392, 4.47788, -54.7619, -2.79142
4.85788, 5, 3.66293, 17.2955, 34.2543, 4.41689, -54.8499, -2.7512
4.85979, 5, 3.61702, 17.2955, 34.2543, 4.41689, -54.8499, -2.7512
4.86098, 5, 3.61702, 17.2955, 34.2543, 4.41689, -54.8499, -2.7512
4.86307, 5, 3.57104, 17.3164, 34.2694, 4.356, -54.9379, -2.71119
4.86434, 5, 3.57104, 17.3164, 34.2694, 4.356, -54.9379, -2.71119
4.86703, 5, 3.52502, 17.3374, 34.2844, 4.2952, -55.0259, -2.67161
4.86826, 5, 3.52502, 17.3374, 34.2844, 4.2952, -55.0259, -2.67161
4.87201, 5, 3.47896, 17.3586, 34.2993, 4.23444, -55.1139, -2.63219
4.87995, 5, 3.38681, 17.4012, 34.3287, 4.11338, -55.29, -2.55307
4.89146, 5, 3.24867, 17.4657, 34.3717, 3.93274, -55.5542, -2.43663
4.89499, 5, 3.20267, 17.4874, 34.3858, 3.87291, -55.6424, -2.39781
4.90396, 5, 3.11066, 17.5312, 34.4139, 3.75368, -55.8188, -2.32038
4.91203, 5, 3.01868, 17.5753, 34.4415, 3.6349, -55.9954, -2.24415
4.91995, 5, 2.9267, 17.6198, 34.4684, 3.51665, -56.1721, -2.16745
4.92798, 5, 2.8348, 17.6646, 34.4949, 3.39875, -56.3488, -2.09221
4.93601, 5, 2.74294, 17.7099, 34.521, 3.28119, -56.5255, -2.01689
4.94395, 5, 2.65107, 17.7555, 34.5467, 3.16428, -56.7022, -1.94226
4.95196, 5, 2.5593, 17.8014, 34.5718, 3.04774, -56.879, -1.86861
4.96002, 5, 2.46747, 17.8477, 34.5965, 2.93193, -57.0558, -1.79449
4.96795, 5, 2.37553, 17.8943, 34.6207, 2.81649, -57.2325, -1.72166
4.97595, 5, 2.28357, 17.9412, 34.6445, 2.70168, -57.4092, -1.64908
4.98401, 5, 2.19142, 17.9883, 34.6678, 2.58721, -57.5858, -1.57703
4.99196, 5, 2.09915, 18.0359, 34.6905, 2.47301, -57.7621, -1.50602
4.99995, 5, 2.00683, 18.0839, 34.7128, 2.35947, -57.9387, -1.43453
5.00802, 5, 1.91453, 18.1322, 34.7347, 2.24637, -58.1153, -1.36441
5.01595, 5, 1.82227, 18.1809, 34.7562, 2.13388, -58.2919, -1.29463
5.02405, 5, 1.73, 18.23, 34.7772, 2.02197, -58.4685, -1.22479
5.03207, 5, 1.63765, 18.2795, 34.7976, 1.91048, -58.6452, -1.15619
5.0396, 5, 1.54533, 18.3294, 34.8176, 1.79966, -58.8219, -1.08695
5.0481, 5, 1.45322, 18.3796, 34.837, 1.68894, -58.9987, -1.01874
5.05606, 5, 1.36141, 18.4302, 34.8561, 1.57854, -59.1756, -0.951324
5.06377, 5, 1.26971, 18.4813, 34.8749, 1.46877, -59.3527, -0.883354
5.07213, 5, 1.17803, 18.5326, 34.8929, 1.35938, -59.5298, -0.816735
5.07968, 5, 1.13219, 18.5583, 34.9107, 1.25062, -59.7068, -0.750357
5.08866, 5, 0.994426, 18.6362, 34.9281, 1.14235, -59.8837, -0.683981
5.09609, 5, 0.902516, 18.6883, 34.9447, 1.03433, -60.0607, -0.618791
5.10293, 5, 0.856521, 18.7145, 34.9528, 0.980609, -60.1492, -0.586293
5.11231, 5, 0.718482, 18.7936, 34.9767, 0.819706, -60.4144, -0.488791
5.11893, 5, 0.672712, 18.8201, 34.9846, 0.766223, -60.5027, -0.456915
5.12814, 5, 0.538459, 18.8986, 35.007, 0.606749, -60.7672, -0.361435
5.13493, 5, 0.495242, 18.9244, 35.0142, 0.554055, -60.8548, -0.32971
5.14438, 5, 0.369107, 19.003, 35.0337, 0.399783, -61.1131, -0.238222
5.15234, 5, 0.286638, 19.0592, 35.0426, 0.30156, -61.2784, -0.179662
5.15916, 6, 0.2457, 19.0888, 35.0451, 0.254226, -61.3582, -0.151303
5.16694, 6, 0.164489, 19.1513, 35.0453, 0.163415, -61.5116, -0.0975673
5.17648, 6, 0.0434635, 19.255, 35.0301, 0.0364339, -61.7279, -0.0227324
5.18463, 6, -0.0373026, 19.3312, 35.0076, -0.0441691, -61.8657, 0.0252714
5.19254, 6, -0.117594, 19.4109, 34.9757, -0.123166, -62.0018, 0.0721557
5.20058, 6, -0.157088, 19.493, 34.9349, -0.202855, -62.1395, 0.118535
5.20883, 6, -0.234053, 19.5354, 34.9117, -0.284092, -62.2809, 0.16596
5.21594, 6, -0.308257, 19.624, 34.8608, -0.325701, -62.3531, 0.190361
5.22394, 6, -0.38094, 19.7184, 34.805, -0.410123, -62.5008, 0.24005
5.23199, 6, -0.453856, 19.8178, 34.746, -0.49588, -62.6511, 0.289769
5.23994, 6, -0.528268, 19.9208, 34.6847, -0.5822, -62.803, 0.339793
5.24795, 6, -0.604392, 20.0265, 34.6221, -0.668578, -62.9554, 0.390367
5.25594, 6, -0.681786, 20.1337, 34.5585, -0.754641, -63.1082, 0.440516
5.26396, 6, -0.7598, 20.2412, 34.4941, -0.840265, -63.2609, 0.489912
5.272, 6, -0.838121, 20.3493, 34.4292, -0.925803, -63.4136, 0.539163
5.27999, 6, -0.916238, 20.4579, 34.3636, -1.01114, -63.5661, 0.588735
5.28796, 6, -0.994104, 20.5669, 34.2977, -1.09573, -63.7182, 0.637526
5.29598, 6, -1.07189, 20.6759, 34.2313, -1.18019, -63.8702, 0.685448
5.30394, 6, -1.1498, 20.785, 34.1643, -1.26395, -64.0218, 0.733521
5.31194, 6, -1.2279, 20.8942, 34.0969, -1.34718, -64.1732, 0.781894
5.31892, 6, -1.30624, 21.0033, 34.0289, -1.42999, -64.3244, 0.829334
5.32795, 6, -1.3844, 21.1127, 33.9603, -1.51233, -64.4755, 0.876133
5.33594, 6, -1.4622, 21.2223, 33.8912, -1.59447, -64.626, 0.922943
5.344, 6, -1.53978, 21.332, 33.8216, -1.67587, -64.7765, 0.969976
5.35194, 6, -1.61695, 21.4419, 33.7515, -1.75753, -64.9265, 1.01629
5.35994, 6, -1.69375, 21.5519, 33.6809, -1.83836, -65.0764, 1.06204
5.36807, 6, -1.7704, 21.6619, 33.6099, -1.91929, -65.226, 1.10797
5.37494, 6, -1.84694, 21.772, 33.5385, -1.99927, -65.3753, 1.1542
5.38394, 6, -1.9233, 21.8825, 33.4666, -2.07913, -65.5243, 1.19968
5.392, 6, -1.99949, 21.9933, 33.3942, -2.15858, -65.6732, 1.24442
5.39993, 6, -2.07531, 22.1042, 33.3213, -2.23735, -65.8217, 1.28914
5.40835, 6, -2.15081, 22.2153, 33.2479, -2.31608, -65.97, 1.33434
5.41501, 6, -2.22621, 22.3264, 33.174, -2.39423, -66.1179, 1.37871
5.424, 6, -2.30171, 22.4376, 33.0996, -2.4722, -66.2658, 1.4225
5.43282, 6, -2.37742, 22.549, 33.0248, -2.54933, -66.4132, 1.4662
5.43994, 6, -2.45332, 22.6607, 32.9495, -2.62669, -66.5606, 1.51003
5.44794, 6, -2.52923, 22.7726, 32.8739, -2.7033, -66.7076, 1.55348
5.45684, 6, -2.60496, 22.8845, 32.7979, -2.77995, -66.8545, 1.59611
5.46393, 6, -2.68046, 22.9965, 32.7213, -2.85603, -67.001, 1.63856
5.47193, 6, -2.75577, 23.1086, 32.6441, -2.93208, -67.1472, 1.68123
5.48073, 6, -2.83076, 23.2206, 32.5664, -3.00725, -67.2929, 1.72402
5.48793, 6, -2.90585, 23.3329, 32.4882, -3.0821, -67.4387, 1.76569
5.49594, 6, -2.98081, 23.4455, 32.4095, -3.15652, -67.5838, 1.80704
5.50475, 6, -3.05564, 23.5581, 32.3306, -3.23053, -67.7289, 1.84844
5.51193, 6, -3.13007, 23.6709, 32.2513, -3.30437, -67.8735, 1.89034
5.5202, 6, -3.20416, 23.7837, 32.1715, -3.37788, -68.0181, 1.93163
5.52735, 6, -3.27794, 23.8966, 32.0913, -3.4512, -68.1618, 1.97215
5.53545, 6, -3.35151, 24.0097, 32.0104, -3.52413, -68.3055, 2.01259
5.54432, 6, -3.42516, 24.1232, 31.9289, -3.59694, -68.4486, 2.05313
5.55146, 6, -3.49878, 24.2367, 31.847, -3.6691, -68.5918, 2.09377
5.55951, 6, -3.5723, 24.3504, 31.7649, -3.74098, -68.7346, 2.13374
5.56845, 6, -3.64565, 24.4641, 31.6822, -3.81269, -68.8774, 2.1733
5.5755, 6, -3.68227, 24.521, 31.6408, -3.88397, -69.0195, 2.21297
5.58382, 6, -3.79173, 24.6916, 31.5157, -3.95474, -69.1614, 2.25301
5.59283, 6, -3.86465, 24.8055, 31.4317, -4.02516, -69.303, 2.29271
5.60089, 6, -3.93763, 24.9196, 31.3471, -4.09536, -69.4445, 2.33148
5.60797, 6, -4.01053, 25.0339, 31.2621, -4.16509, -69.5856, 2.37008
5.61685, 6, -4.08332, 25.1482, 31.1765, -4.23442, -69.7265, 2.40879
5.62506, 6, -4.15591, 25.2627, 31.0905, -4.30355, -69.867, 2.44793
5.63216, 6, -4.22814, 25.3772, 31.0042, -4.37271, -70.0073, 2.48654
5.63891, 6, -4.26418, 25.4345, 30.9609, -4.40682, -70.0774, 2.50557
5.64831, 6, -4.372, 25.6071, 30.8304, -4.50974, -70.287, 2.56235
5.65493, 6, -4.40785, 25.6647, 30.7866, -4.54345, -70.3567, 2.58133
5.66448, 6, -4.51532, 25.8375, 30.6545, -4.64532, -70.5651, 2.63861
5.67246, 6, -4.5867, 25.9528, 30.5657, -4.71214, -70.7036, 2.67605
5.67892, 6, -4.62231, 26.0104, 30.5211, -4.74589, -70.7727, 2.6946
5.68848, 6, -4.72841, 26.1831, 30.3869, -4.84538, -70.9797, 2.75014
5.69649, 6, -4.76368, 26.2408, 30.2969, -4.91213, -71.1171, 2.7874
5.70292, 6, -4.834, 26.3562, 30.2518, -4.94501, -71.1858, 2.80602
5.71193, 6, -4.9043, 26.4719, 30.1611, -5.01039, -71.3226, 2.8431
5.71994, 6, -4.97469, 26.5875, 30.07, -5.07621, -71.4594, 2.87945
5.72691, 6, -5.04495, 26.7032, 29.9783, -5.14067, -71.5956, 2.9156
5.73592, 6, -5.11526, 26.8188, 29.886, -5.20612, -71.7316, 2.95184
5.74398, 6, -5.1854, 26.9347, 29.7932, -5.27013, -71.8673, 2.98843
5.75195, 6, -5.25545, 27.0509, 29.7001, -5.33507, -72.0026, 3.02491
5.75993, 6, -5.32543, 27.1674, 29.6067, -5.39869, -72.1378, 3.06077
5.76797, 6, -5.39537, 27.284, 29.5128, -5.46272, -72.2721, 3.09626
5.77593, 6, -5.46521, 27.4006, 29.4186, -5.52616, -72.4065, 3.13174
5.78397, 6, -5.53495, 27.5172, 29.3238, -5.58909, -72.5403, 3.16736
5.79197, 6, -5.6045, 27.6337, 29.2283, -5.65224, -72.6741, 3.20308
5.79993, 6, -5.6737, 27.7503, 29.1323, -5.71393, -72.8073, 3.23819
5.80793, 6, -5.74274, 27.8672, 29.0359, -5.77673, -72.9405, 3.27307
5.81598, 6, -5.81155, 27.9841, 28.9393, -5.83808, -73.0731, 3.30806
5.82399, 6, -5.88016, 28.1009, 28.8422, -5.90001, -73.2054, 3.34338
5.83191, 6, -5.9486, 28.2178, 28.7447, -5.96111, -73.3372, 3.37886
5.84, 6, -6.01699, 28.3346, 28.6465, -6.02186, -73.4687, 3.41385
5.84896, 6, -6.08513, 28.4517, 28.5477, -6.08313, -73.6, 3.44828
5.85591, 6, -6.15311, 28.5688, 28.4484, -6.14309, -73.7308, 3.48244
5.86403, 6, -6.22093, 28.6861, 28.3488, -6.20408, -73.8614, 3.51691
5.87198, 6, -6.28858, 28.8037, 28.249, -6.26354, -73.9915, 3.55178
5.87993, 6, -6.35626, 28.9214, 28.1487, -6.32354, -74.1214, 3.58649
5.88798, 6, -6.42381, 29.0391, 28.048, -6.38306, -74.2508, 3.6204
5.89592, 6, -6.49134, 29.1568, 27.9466, -6.44179, -74.3801, 3.6541
5.90404, 6, -6.55871, 29.2747, 27.8446, -6.50116, -74.5088, 3.68786
5.91191, 6, -6.62581, 29.3927, 27.7421, -6.55885, -74.6373, 3.72184
5.91994, 6, -6.6928, 29.5108, 27.6394, -6.61748, -74.7655, 3.75594
5.92798, 6, -6.75957, 29.6289, 27.5364, -6.67517, -74.8932, 3.78964
5.93594, 6, -6.8263, 29.747, 27.4331, -6.7323, -75.0208, 3.82287
5.94398, 6, -6.89286, 29.8652, 27.329, -6.79038, -75.1475, 3.85607
5.95198, 6, -6.95943, 29.9836, 27.2243, -6.84666, -75.2744, 3.88929
5.95994, 6, -7.02581, 30.102, 27.119, -6.90403, -75.4006, 3.92287
5.96793, 6, -7.09184, 30.2206, 27.0134, -6.96063, -75.5266, 3.95633
5.97598, 6, -7.15784, 30.3393, 26.9076, -7.01671, -75.6522, 3.98922
5.98397, 6, -7.22351, 30.4581, 26.8015, -7.07358, -75.7772, 4.02154
5.99193, 6, -7.28899, 30.5769, 26.6949, -7.12874, -75.9021, 4.05415
5.99999, 6, -7.35437, 30.6958, 26.5875, -7.18465, -76.0264, 4.08708
6.00793, 6, -7.41961, 30.8148, 26.4795, -7.24012, -76.1505, 4.12035
6.01605, 6, -7.48458, 30.9338, 26.3711, -7.29478, -76.274, 4.15305
6.024, 6, -7.54927, 31.053, 26.2624, -7.3502, -76.3975, 4.18533
6.03195, 6, -7.61384, 31.1721, 26.1535, -7.40408, -76.5204, 4.2174
6.04028, 6, -7.67826, 31.2912, 26.0441, -7.45811, -76.643, 4.24953
6.04743, 6, -7.7425, 31.4104, 25.934, -7.51246, -76.7655, 4.28202
6.05602, 6, -7.80662, 31.5297, 25.8232, -7.56545, -76.8874, 4.31454
6.06448, 6, -7.87055, 31.6491, 25.7119, -7.61915, -77.0094, 4.3468
6.07148, 6, -7.90248, 31.7688, 25.6004, -7.67219, -77.1308, 4.3785
6.07999, 6, -7.99808, 31.8884, 25.4886, -7.72432, -77.2519, 4.41048
6.08872, 6, -8.06166, 32.0082, 25.3766, -7.77753, -77.3725, 4.44263
6.09595, 6, -8.12516, 32.128, 25.2638, -7.82966, -77.4928, 4.47511
6.10301, 6, -8.1569, 32.188, 25.2071, -7.85546, -77.5529, 4.49133
6.1128, 6, -8.25202, 32.368, 25.0364, -7.93406, -77.7321, 4.53945
6.12003, 6, -8.31526, 32.4881, 24.9221, -7.98506, -77.8514, 4.5709
6.12694, 6, -8.34694, 32.5481, 24.8649, -8.01058, -77.9109, 4.58659
6.13701, 6, -8.44177, 32.7282, 24.6927, -8.08786, -78.0884, 4.63395
6.14426, 6, -8.50476, 32.8482, 24.5771, -8.13796, -78.2065, 4.66611
6.15092, 6, -8.53619, 32.9082, 24.519, -8.16318, -78.2652, 4.68223
6.16113, 6, -8.63013, 33.0887, 24.3441, -8.23918, -78.4413, 4.72979
6.16699, 6, -8.66139, 33.1489, 24.2855, -8.26376, -78.4999, 4.74541
6.17675, 6, -8.75483, 33.3297, 24.1095, -8.33814, -78.674, 4.79215
6.18529, 6, -8.81692, 33.4502, 23.9918, -8.38772, -78.7901, 4.82378
6.19097, 6, -8.8479, 33.5105, 23.9327, -8.41196, -78.8478, 4.83968
6.20056, 6, -8.9403, 33.6914, 23.7545, -8.48557, -79.0206, 4.88733
6.20866, 6, -8.971, 33.8122, 23.635, -8.53436, -79.1354, 4.91827
6.21654, 6, -9.03236, 33.8727, 23.5751, -8.55808, -79.1925, 4.94934
6.22396, 6, -9.09359, 33.9937, 23.4551, -8.60604, -79.3068, 4.96487
6.23193, 6, -9.15478, 34.1147, 23.3348, -8.65478, -79.4207, 4.99588
6.23995, 6, -9.21589, 34.2358, 23.2138, -8.70192, -79.534, 5.02749
6.2479, 6, -9.27683, 34.3568, 23.0923, -8.74948, -79.6473, 5.05905
6.25591, 6, -9.3377, 34.478, 22.9704, -8.7976, -79.76, 5.09014
6.264, 6, -9.3984, 34.5995, 22.848, -8.84417, -79.8725, 5.12088
6.27194, 6, -9.45896, 34.721, 22.7251, -8.89086, -79.9848, 5.1515
6.27991, 6, -9.51948, 34.8427, 22.6018, -8.93811, -80.0965, 5.18234
6.28796, 6, -9.57978, 34.9642, 22.478, -8.98401, -80.2081, 5.21358
6.2959, 6, -9.63989, 35.0856, 22.3538, -9.0298, -80.3191, 5.24506
6.30398, 6, -9.69978, 35.2071, 22.2292, -9.07626, -80.4298, 5.27598
6.31196, 6, -9.75963, 35.3289, 22.104, -9.12137, -80.5401, 5.30658
6.3199, 6, -9.81937, 35.4508, 21.9782, -9.16601, -80.6499, 5.33706
6.32792, 6, -9.87876, 35.5726, 21.852, -9.21152, -80.7595, 5.36791
6.33688, 6, -9.93808, 35.6943, 21.7253, -9.2563, -80.8687, 5.39914
6.34396, 6, -9.99722, 35.816, 21.5983, -9.3003, -80.9771, 5.43047
6.35439, 6, -10.0857, 35.9991, 21.4067, -9.36738, -81.1396, 5.4766
6.35889, 6, -10.1151, 36.0603, 21.3425, -9.38927, -81.1933, 5.49183
6.36791, 6, -10.1739, 36.1827, 21.2139, -9.43231, -81.3006, 5.52259
6.37597, 6, -10.2325, 36.3052, 21.0849, -9.47598, -81.4077, 5.55361
6.38401, 6, -10.2911, 36.4277, 20.9555, -9.51999, -81.5141, 5.58509
6.3919, 6, -10.3493, 36.55, 20.8258, -9.56263, -81.6204, 5.61654
6.3999, 6, -10.4075, 36.6726, 20.6954, -9.60531, -81.7262, 5.64765
6.40797, 6, -10.4655, 36.7954, 20.5644, -9.64869, -81.8314, 5.67846
6.4159, 6, -10.5233, 36.9183, 20.4329, -9.691, -81.9366, 5.709
6.42402, 6, -10.5807, 37.0409, 20.3012, -9.73268, -82.0412, 5.73979
6.43196, 6, -10.638, 37.1635, 20.1689, -9.7751, -82.145, 5.77105
6.43992, 6, -10.6952, 37.2861, 20.0362, -9.81726, -82.2488, 5.8025
6.44794, 6, -10.7522, 37.4089, 19.9028, -9.85818, -82.3521, 5.83357
6.45596, 6, -10.8089, 37.5319, 19.769, -9.89927, -82.455, 5.86443
6.46397, 6, -10.8654, 37.655, 19.6348, -9.94079, -82.5578, 5.89519
6.47191, 6, -10.9219, 37.7781, 19.5002, -9.98116, -82.6599, 5.92626
6.47996, 6, -10.9782, 37.9013, 19.3649, -10.021, -82.7617, 5.95769
6.48789, 6, -11.0345, 38.0245, 19.2292, -10.0614, -82.8633, 5.98918
6.4959, 6, -11.0908, 38.1479, 19.093, -10.1016, -82.9643, 6.02015
6.50403, 6, -11.1469, 38.2714, 18.9564, -10.1407, -83.065, 6.05088
6.51189, 6, -11.203, 38.395, 18.8192, -10.1798, -83.1653, 6.08154
6.52006, 6, -11.2591, 38.5187, 18.6816, -10.2196, -83.265, 6.11258
6.52791, 6, -11.3151, 38.6425, 18.5435, -10.2586, -83.3646, 6.14402
6.5359, 6, -11.3708, 38.7661, 18.4049, -10.2968, -83.4639, 6.17552
6.54424, 6, -11.4265, 38.8899, 18.266, -10.3354, -83.5625, 6.20661
6.55142, 6, -11.482, 39.014, 18.1265, -10.3742, -83.6611, 6.2375
6.56, 6, -11.5374, 39.1382, 17.9864, -10.4122, -83.7592, 6.26833
6.5684, 6, -11.5926, 39.2625, 17.8457, -10.4496, -83.8566, 6.29951
6.57546, 6, -11.6202, 39.3867, 17.7048, -10.4876, -83.9539, 6.33106
6.58405, 6, -11.7027, 39.5109, 17.5635, -10.5257, -84.0507, 6.36268
6.59203, 6, -11.7573, 39.6352, 17.4216, -10.5625, -84.147, 6.39393
6.59888, 6, -11.7846, 39.6975, 17.3504, -10.5807, -84.1951, 6.40944
6.60799, 6, -11.8663, 39.8845, 17.1358, -10.6359, -84.3387, 6.45609
6.61607, 6, -11.9205, 40.009, 16.9925, -10.6728, -84.4337, 6.48753
6.62288, 6, -11.9476, 40.0712, 16.9207, -10.6909, -84.4811, 6.50343
6.63211, 6, -12.0287, 40.2578, 16.7044, -10.7444, -84.623, 6.55113
6.63889, 6, -12.0556, 40.3201, 16.6319, -10.7624, -84.6701, 6.56677
6.64821, 6, -12.1364, 40.5076, 16.4137, -10.8164, -84.8107, 6.61344
6.65493, 6, -12.1632, 40.5701, 16.3408, -10.8338, -84.8574, 6.62913
6.6645, 6, -12.2435, 40.7578, 16.1214, -10.8855, -84.9965, 6.67682
6.67255, 6, -12.2969, 40.883, 15.9745, -10.9202, -85.0889, 6.70932
6.68041, 6, -12.3501, 41.0082, 15.8269, -10.9552, -85.1808, 6.74159
6.68852, 6, -12.4031, 41.1335, 15.6791, -10.9892, -85.2723, 6.77339
6.69646, 6, -12.4561, 41.2591, 15.5309, -11.0227, -85.3633, 6.80499
6.70452, 6, -12.5089, 41.3848, 15.3819, -11.0565, -85.4541, 6.83661
6.71267, 6, -12.5352, 41.5105, 15.2323, -11.0905, -85.5443, 6.86874
6.71988, 6, -12.5878, 41.5733, 15.1574, -11.1072, -85.5891, 6.88492
6.72789, 6, -12.6403, 41.6989, 15.0073, -11.1399, -85.6787, 6.91742
6.73595, 6, -12.6924, 41.8246, 14.8568, -11.1723, -85.7679, 6.94949
6.74395, 6, -12.7443, 41.9505, 14.7055, -11.2052, -85.8568, 6.98151
6.75193, 6, -12.7963, 42.0766, 14.5534, -11.2383, -85.945, 7.01348
6.75988, 6, -12.848, 42.2028, 14.4011, -11.2706, -86.0332, 7.04591
6.76788, 6, -12.8996, 42.3288, 14.2487, -11.3022, -86.121, 7.07876
6.77597, 6, -12.9511, 42.4547, 14.0956, -11.3339, -86.2079, 7.11133
6.78394, 6, -13.0023, 42.5807, 13.9418, -11.3661, -86.2949, 7.1434
6.79188, 6, -13.0528, 42.7061, 13.7876, -11.3977, -86.381, 7.17546
6.79994, 6, -13.1012, 42.8288, 13.6344, -11.4284, -86.4666, 7.20747
6.80789, 6, -13.1461, 42.9466, 13.4832, -11.4585, -86.5513, 7.23985
6.8159, 6, -13.1869, 43.0578, 13.3364, -11.4882, -86.6337, 7.27177
6.82401, 6, -13.2246, 43.1617, 13.1967, -11.5167, -86.7125, 7.30188
6.83188, 6, -13.2592, 43.2574, 13.0675, -11.5424, -86.7843, 7.32937
6.83989, 6, -13.2901, 43.343, 12.9523, -11.5649, -86.8486, 7.35387
6.84795, 6, -13.3178, 43.4178, 12.8541, -11.5835, -86.9022, 7.37427
6.85696, 6, -13.3432, 43.482, 12.7746, -11.5981, -86.9447, 7.39061
6.86396, 6, -13.3665, 43.5362, 12.7132, -11.6089, -86.9765, 7.4029
6.87195, 6, -13.3872, 43.5798, 12.6686, -11.6163, -86.9987, 7.41128
6.87994, 6, -13.4041, 43.6127, 12.6381, -11.6211, -87.013, 7.41688
6.88785, 6, -13.4172, 43.637, 12.6186, -11.624, -87.0216, 7.42031
6.89601, 6, -13.4269, 43.6542, 12.6069, -11.6257, -87.0263, 7.42215
6.90395, 6, -13.4334, 43.6655, 12.6, -11.6267, -87.0288, 7.42316
6.91184, 7, -13.4373, 43.6717, 12.5964, -11.6272, -87.03, 7.42364
6.91995, 7, -13.4394, 43.6747, 12.5944, -11.6274, -87.0306, 7.42392
6.92789, 7, -13.4405, 43.6761, 12.5932, -11.6276, -87.0309, 7.42406
6.93589, 7, -13.4411, 43.6768, 12.5922, -11.6276, -87.031, 7.4241
6.94404, 7, -13.4414, 43.6771, 12.5914, -11.6277, -87.0311, 7.42413
6.95188, 7, -13.4415, 43.6772, 12.5908, -11.6277, -87.0312, 7.42416
6.95988, 7, -13.4416, 43.6775, 12.5904, -11.6278, -87.0312, 7.42423
6.96794, 7, -13.4417, 43.6778, 12.5901, -11.6278, -87.0312, 7.42422
6.97589, 7, -13.4417, 43.6784, 12.5899, -11.6278, -87.0312, 7.4242
6.98393, 7, -13.4417, 43.6791, 12.5896, -11.6278, -87.0312, 7.42425
6.99204, 7, -13.4417, 43.6798, 12.5895, -11.6279, -87.0312, 7.42426
6.99988, 7, -13.4417, 43.6804, 12.5893, -11.6279, -87.0313, 7.42431
7.00789, 7, -13.4418, 43.6811, 12.5893, -11.628, -87.0312, 7.4243
7.01596, 7, -13.4419, 43.6816, 12.5892, -11.6279, -87.0312, 7.42431
7.02394, 7, -13.442, 43.6819, 12.5892, -11.628, -87.0312, 7.42431
