hehonglu123/ABB_Primitive_Study/realrobot/movel_30_car/curve_exe_v500_z1.csv
timestamp, cmd_num, J1, J2, J3, J4, J5, J6
0.000385, -1, -13.4405, 43.6797, 12.5936, -11.6278, -87.0287, 7.42467
0.002156, -1, -13.4405, 43.6797, 12.5936, -11.6278, -87.0287, 7.42467
0.008751, -1, -13.4405, 43.6797, 12.5936, -11.6278, -87.0288, 7.42466
0.029341, -1, -13.4405, 43.6797, 12.5936, -11.6278, -87.0288, 7.42476
0.030579, -1, -13.4405, 43.6797, 12.5936, -11.6278, -87.0288, 7.42476
0.035359, -1, -13.4405, 43.6797, 12.5936, -11.6278, -87.0288, 7.42477
0.039735, -1, -13.4405, 43.6797, 12.5936, -11.6278, -87.0288, 7.42474
0.04856, -1, -13.4405, 43.6797, 12.5936, -11.6278, -87.0288, 7.42475
0.055826, -1, -13.44, 43.6794, 12.5936, -11.6278, -87.0288, 7.42472
0.063881, -1, -13.4376, 43.6778, 12.5939, -11.6278, -87.0288, 7.4247
0.072281, -1, -13.4323, 43.6737, 12.5946, -11.6275, -87.0284, 7.42465
0.080056, -1, -13.4236, 43.6665, 12.5961, -11.6259, -87.0262, 7.42439
0.088028, -1, -13.4105, 43.6558, 12.5989, -11.6205, -87.0197, 7.42263
0.094571, -1, -13.4016, 43.6487, 12.6008, -11.6155, -87.0139, 7.42001
0.104108, -1, -13.3635, 43.6176, 12.6102, -11.5872, -86.9803, 7.40025
0.112109, -1, -13.3278, 43.5876, 12.6201, -11.5522, -86.9395, 7.37491
0.120448, -1, -13.2827, 43.5488, 12.6333, -11.4987, -86.8785, 7.33659
0.128086, -1, -13.2562, 43.5256, 12.6414, -11.4643, -86.8385, 7.28206
0.135553, -1, -13.1946, 43.4715, 12.661, -11.3781, -86.7386, 7.24763
0.143608, -1, -13.1216, 43.4064, 12.6851, -11.2659, -86.6087, 7.16504
0.15156, -1, -13.0371, 43.3301, 12.7136, -11.1276, -86.4479, 7.06249
0.159625, -1, -12.9404, 43.2423, 12.7472, -10.9627, -86.256, 6.93997
0.167607, -1, -12.8319, 43.1435, 12.7853, -10.7731, -86.0349, 6.79864
0.17559, -1, -12.7123, 43.0347, 12.8273, -10.561, -85.7877, 6.64018
0.183557, -1, -12.5825, 42.9168, 12.8728, -10.3301, -85.5182, 6.46765
0.191581, -1, -12.443, 42.7903, 12.9217, -10.0847, -85.2314, 6.28416
0.199619, -1, -12.2954, 42.657, 12.9731, -9.82837, -84.9319, 6.09216
0.207598, -1, -12.1414, 42.5179, 13.0264, -9.5647, -84.6236, 5.89455
0.215602, -1, -11.9819, 42.3743, 13.081, -9.29659, -84.3098, 5.69337
0.22356, -1, -11.8174, 42.2272, 13.1368, -9.02564, -83.993, 5.48998
0.231632, -1, -11.6491, 42.0773, 13.1932, -8.75322, -83.6746, 5.28588
0.239632, -1, -11.4787, 41.9259, 13.2501, -8.48004, -83.3551, 5.08144
0.247559, -1, -11.3073, 41.7738, 13.3072, -8.20668, -83.0352, 4.87639
0.255634, -1, -11.1353, 41.6217, 13.3644, -7.93289, -82.7148, 4.67135
0.265374, -1, -10.9632, 41.4701, 13.4217, -7.65905, -82.3942, 4.46607
0.271553, -1, -10.7909, 41.3187, 13.4793, -7.38535, -82.0735, 4.26072
0.279685, -1, -10.6184, 41.1671, 13.5369, -7.11126, -81.7525, 4.05536
0.288597, -1, -10.4458, 41.0153, 13.5946, -6.83717, -81.4319, 3.85022
0.29555, -1, -10.2733, 40.8638, 13.6522, -6.56338, -81.1113, 3.64488
0.303615, -1, -10.1011, 40.7124, 13.7097, -6.28962, -80.7908, 3.43973
0.311552, -1, -9.92928, 40.5608, 13.7671, -6.01589, -80.4709, 3.2344
0.319695, -1, -9.75803, 40.4089, 13.8244, -5.74237, -80.1511, 3.02951
0.32754, -1, -9.58734, 40.2566, 13.8817, -5.46898, -79.8314, 2.82466
0.335569, -1, -9.41726, 40.1044, 13.939, -5.19558, -79.5118, 2.62001
0.343662, -1, -9.24789, 39.9525, 13.9962, -4.92248, -79.1923, 2.41546
0.351547, -1, -9.07899, 39.8005, 14.0532, -4.6499, -78.873, 2.21116
0.359638, -1, -8.91016, 39.6484, 14.1103, -4.37759, -78.5539, 2.00711
0.367628, -1, -8.7411, 39.4966, 14.1673, -4.10574, -78.2353, 1.80334
0.375557, -1, -8.57165, 39.3453, 14.2242, -3.83438, -77.9176, 1.59974
0.38361, -1, -8.40192, 39.1946, 14.2811, -3.56319, -77.6002, 1.39654
0.392169, -1, -8.23212, 39.0443, 14.338, -3.29261, -77.2835, 1.19365
0.399596, -1, -8.06209, 38.894, 14.3947, -3.02254, -76.9675, 0.991225
0.407556, -1, -7.89194, 38.7439, 14.4514, -2.75286, -76.6519, 0.789361
0.41635, -1, -7.72174, 38.5944, 14.5079, -2.48385, -76.3368, 0.587874
0.423548, -1, -7.55131, 38.4454, 14.5642, -2.21547, -76.0223, 0.386697
0.431599, -1, -7.38102, 38.2965, 14.6204, -1.94739, -75.7083, 0.186113
0.440421, -1, -7.21115, 38.1476, 14.6767, -1.67979, -75.395, -0.0143198
0.44755, -1, -7.04201, 37.9987, 14.7328, -1.41295, -75.0826, -0.214089
0.455842, -1, -6.87385, 37.8503, 14.7888, -1.14681, -74.771, -0.413272
0.463625, -1, -6.70672, 37.7023, 14.8444, -0.881319, -74.4604, -0.611897
0.471643, -1, -6.54035, 37.5545, 14.8999, -0.616826, -74.1504, -0.810192
0.480027, -1, -6.37518, 37.4069, 14.9552, -0.352961, -73.8412, -1.00789
0.488498, -1, -6.21131, 37.2597, 15.0105, -0.0895255, -73.533, -1.20518
0.49566, -1, -6.04831, 37.1133, 15.0657, 0.17307, -73.2255, -1.40152
0.504146, -1, -5.88594, 36.9676, 15.1207, 0.434728, -72.9191, -1.5974
0.512491, -1, -5.72395, 36.8224, 15.1754, 0.695629, -72.6138, -1.79267
0.519653, -1, -5.56199, 36.6776, 15.2299, 0.955647, -72.3092, -1.98742
0.52834, -1, -5.39994, 36.5331, 15.2844, 1.21464, -72.0057, -2.18145
0.536494, -1, -5.23798, 36.3894, 15.3388, 1.47306, -71.7032, -2.37507
0.543654, -1, -5.07616, 36.2462, 15.3929, 1.73071, -71.4014, -2.56778
0.552588, -1, -4.91446, 36.1034, 15.447, 1.98735, -71.101, -2.75994
0.560681, -1, -4.75303, 35.9609, 15.5007, 2.24299, -70.8017, -2.95135
0.5679, -1, -4.59169, 35.8186, 15.5543, 2.49768, -70.5033, -3.14225
0.576761, -1, -4.43046, 35.6769, 15.6075, 2.75122, -70.2061, -3.33256
0.584004, -1, -4.2694, 35.5359, 15.6606, 3.00376, -69.9103, -3.52187
0.592102, -1, -4.10914, 35.3953, 15.7134, 3.25579, -69.6155, -3.71047
0.60094, -1, -3.95006, 35.2551, 15.7663, 3.50702, -69.3217, -3.89819
0.608089, -1, -3.79226, 35.1152, 15.8188, 3.75703, -69.0288, -4.08535
0.616139, -1, -3.63564, 34.9758, 15.8709, 4.00611, -68.737, -4.27181
0.624938, -1, -3.55764, 34.9065, 15.9229, 4.25437, -68.4462, -4.45788
0.632091, -1, -3.40238, 34.7684, 15.9488, 4.37811, -68.3012, -4.64283
0.640119, -1, -3.24808, 34.6308, 16.0006, 4.62472, -68.0121, -4.73501
0.647529, -1, -3.09485, 34.4937, 16.0522, 4.87053, -67.7241, -4.91892
0.655523, -1, -2.94273, 34.357, 16.1038, 5.11577, -67.4375, -5.10217
0.663588, -1, -2.79122, 34.221, 16.1551, 5.35977, -67.1519, -5.28476
0.67155, -1, -2.64007, 34.0858, 16.2061, 5.60259, -66.8676, -5.46664
0.679573, -1, -2.48894, 33.9512, 16.2569, 5.84441, -66.5846, -5.64794
0.687579, -1, -2.33777, 33.8171, 16.3075, 6.08526, -66.3029, -5.82805
0.695556, -1, -2.1869, 33.6833, 16.3579, 6.32494, -66.0219, -6.0077
0.70353, -1, -2.03634, 33.5499, 16.4081, 6.56371, -65.7421, -6.18638
0.712978, -1, -1.81154, 33.3511, 16.4828, 6.92037, -65.3247, -6.45337
0.719585, -1, -1.7368, 33.285, 16.5076, 7.03869, -65.1861, -6.54196
0.727522, -1, -1.58739, 33.1533, 16.5569, 7.27437, -64.9097, -6.71864
0.735593, -1, -1.43815, 33.022, 16.6061, 7.50915, -64.6345, -6.89468
0.743532, -1, -1.28914, 32.8911, 16.6553, 7.74311, -64.3604, -7.06979
0.751555, -1, -1.14106, 32.7608, 16.7041, 7.97592, -64.0876, -7.24442
0.761057, -1, -0.994143, 32.6314, 16.7529, 8.20792, -63.8161, -7.41823
0.76753, -1, -0.848541, 32.5027, 16.8014, 8.43905, -63.5455, -7.59135
0.776554, -1, -0.704008, 32.3744, 16.8496, 8.66928, -63.2763, -7.7638
0.783554, -1, -0.560296, 32.2467, 16.8977, 8.8983, -63.0082, -7.93526
0.791554, -1, -0.417632, 32.1195, 16.9456, 9.12628, -62.7412, -8.10598
0.799596, -1, -0.276125, 31.9929, 16.9934, 9.3533, -62.4755, -8.27575
0.80753, -1, -0.135598, 31.867, 17.0408, 9.57947, -62.2108, -8.44488
0.815522, -1, 0.00398626, 31.7415, 17.088, 9.80435, -61.9472, -8.61337
0.823595, -1, 0.14298, 31.6166, 17.1351, 10.0283, -61.6847, -8.78123
0.831646, -1, 0.281949, 31.492, 17.1818, 10.2516, -61.4232, -8.94838
0.839523, -1, 0.421032, 31.3678, 17.2285, 10.4738, -61.1628, -9.11461
0.847652, -1, 0.560041, 31.2441, 17.2749, 10.6949, -60.9033, -9.28024
0.855541, -1, 0.6988, 31.1212, 17.3211, 10.9151, -60.6452, -9.445
0.863611, -1, 0.837168, 30.9987, 17.3671, 11.1345, -60.3883, -9.60917
0.8716, -1, 0.975162, 30.8766, 17.413, 11.3529, -60.1324, -9.77269
0.879535, -1, 1.11268, 30.7551, 17.4587, 11.5704, -59.8776, -9.93567
0.887593, -1, 1.24988, 30.634, 17.5041, 11.7869, -59.6241, -10.098
0.895604, -1, 1.38676, 30.5135, 17.5494, 12.0028, -59.3719, -10.2593
0.903533, -1, 1.52325, 30.3938, 17.5945, 12.2177, -59.1207, -10.4199
0.911521, -1, 1.6591, 30.2745, 17.6394, 12.4316, -58.8703, -10.5799
0.919603, -1, 1.79403, 30.1558, 17.6842, 12.6447, -58.621, -10.7392
0.927547, -1, 1.92787, 30.0376, 17.7287, 12.8569, -58.3723, -10.8983
0.935593, -1, 2.06092, 29.9197, 17.7731, 13.0681, -58.1247, -11.0564
0.943858, -1, 2.19317, 29.8023, 17.8173, 13.2784, -57.878, -11.214
0.951524, -1, 2.32463, 29.6856, 17.8611, 13.4878, -57.6322, -11.3709
0.959627, -1, 2.45518, 29.5693, 17.9048, 13.6965, -57.3874, -11.5271
0.967766, -1, 2.5848, 29.4533, 17.9485, 13.9045, -57.1437, -11.6827
0.975631, -1, 2.71335, 29.3377, 17.992, 14.1115, -56.9013, -11.8376
0.983759, -1, 2.84124, 29.2224, 18.0352, 14.3176, -56.6599, -11.9921
0.992134, -1, 2.96878, 29.1074, 18.0783, 14.523, -56.4196, -12.1459
0.999704, -1, 3.0963, 28.9931, 18.1211, 14.7275, -56.1803, -12.2992
1.00759, -1, 3.22379, 28.8793, 18.1637, 14.9311, -55.942, -12.4518
1.01564, -1, 3.35111, 28.766, 18.2063, 15.134, -55.7046, -12.6036
1.02384, -1, 3.47813, 28.6532, 18.2488, 15.3361, -55.4681, -12.7547
1.03158, -1, 3.60494, 28.5409, 18.291, 15.5376, -55.2324, -12.9053
1.03992, -1, 3.73148, 28.4289, 18.3332, 15.7382, -54.9976, -13.0553
1.04773, -1, 3.85765, 28.3174, 18.375, 15.9378, -54.7636, -13.2047
1.05574, -1, 3.98367, 28.2066, 18.4167, 16.1366, -54.5304, -13.3538
1.06412, -1, 4.10933, 28.0963, 18.4584, 16.3348, -54.2979, -13.5022
1.07052, -1, 4.17199, 28.0413, 18.4791, 16.4335, -54.1822, -13.5761
1.07991, -1, 4.35899, 27.8769, 18.541, 16.7287, -53.8364, -13.7969
1.08839, -1, 4.48277, 27.7677, 18.5822, 16.9243, -53.607, -13.9434
1.09605, -1, 4.60606, 27.6587, 18.6231, 17.1195, -53.3785, -14.0894
1.10407, -1, 4.72893, 27.5502, 18.6639, 17.314, -53.1509, -14.2349
1.11217, -1, 4.85105, 27.4422, 18.7045, 17.5074, -52.9243, -14.3799
1.12011, -1, 4.97243, 27.3346, 18.745, 17.7004, -52.6984, -14.5247
1.12808, -1, 5.03287, 27.2809, 18.7652, 17.8923, -52.4734, -14.6685
1.13639, -1, 5.15313, 27.1738, 18.8055, 17.9882, -52.2494, -14.8117
1.14352, -1, 5.27245, 27.0671, 18.8455, 18.1795, -52.1377, -14.883
1.15152, -1, 5.39101, 26.9607, 18.8855, 18.3698, -51.9148, -15.0255
1.15958, -1, 5.509, 26.8547, 18.9253, 18.5595, -51.6925, -15.1674
1.16751, -1, 5.62649, 26.7492, 18.965, 18.7484, -51.4713, -15.3089
1.17551, -1, 5.74354, 26.6443, 19.0046, 18.937, -51.2507, -15.4498
1.18359, -1, 5.86047, 26.5398, 19.0439, 19.1249, -51.0309, -15.5904
1.19151, -1, 5.97703, 26.4356, 19.0831, 19.3117, -50.8117, -15.7304
1.19957, -1, 6.09343, 26.3317, 19.1223, 19.498, -50.5934, -15.87
1.20751, -1, 6.20983, 26.228, 19.1611, 19.6838, -50.376, -16.0089
1.21553, -1, 6.32622, 26.1246, 19.1999, 19.8687, -50.1593, -16.1475
1.22361, -1, 6.44264, 26.0216, 19.2385, 20.053, -49.9433, -16.2856
1.23151, -1, 6.55878, 25.9191, 19.2771, 20.2366, -49.7281, -16.4234
1.23951, -1, 6.67464, 25.8169, 19.3155, 20.4194, -49.5136, -16.5605
1.24758, -1, 6.79015, 25.7151, 19.3537, 20.602, -49.3001, -16.6974
1.25723, -1, 6.9052, 25.6137, 19.4109, 20.8745, -48.9812, -16.9014
1.26351, -1, 7.01985, 25.5125, 19.43, 20.965, -48.8754, -16.9693
1.27162, -1, 7.13398, 25.4117, 19.4679, 21.1456, -48.6643, -17.1043
1.28064, -1, 7.24762, 25.3113, 19.5056, 21.3253, -48.4538, -17.2389
1.28751, -1, 7.36078, 25.2115, 19.5434, 21.5048, -48.2438, -17.3731
1.2956, -1, 7.4735, 25.1119, 19.5809, 21.6836, -48.0345, -17.5069
1.30351, -1, 7.58564, 25.0127, 19.6183, 21.8617, -47.8258, -17.6401
1.3115, -1, 7.6973, 24.9138, 19.6557, 22.0393, -47.6177, -17.7732
1.31958, -1, 7.80838, 24.8152, 19.6928, 22.2162, -47.4103, -17.9058
1.32751, -1, 7.91909, 24.7167, 19.7298, 22.393, -47.2033, -18.0377
1.33558, -1, 8.02923, 24.6185, 19.7669, 22.569, -46.9972, -18.1693
1.34357, -1, 8.13904, 24.5206, 19.8036, 22.7443, -46.7917, -18.3004
1.35157, -1, 8.24846, 24.423, 19.8401, 22.919, -46.5869, -18.4311
1.3596, -1, 8.3575, 24.3257, 19.8766, 23.0931, -46.3829, -18.5615
1.36752, -1, 8.46599, 24.2287, 19.913, 23.2668, -46.1797, -18.6916
1.37551, -1, 8.57385, 24.1319, 19.9492, 23.4399, -45.9768, -18.8212
1.38359, -1, 8.68128, 24.0355, 19.9855, 23.6123, -45.7751, -18.9505
1.39157, -1, 8.78851, 23.9393, 20.0216, 23.7841, -45.5738, -19.0792
1.39951, -1, 8.89563, 23.8436, 20.0575, 23.9556, -45.3732, -19.2075
1.40767, -1, 9.00275, 23.7483, 20.0935, 24.1267, -45.1734, -19.3353
1.4155, -1, 9.10987, 23.6534, 20.1293, 24.2971, -44.974, -19.4627
1.42351, -1, 9.2169, 23.5589, 20.1649, 24.467, -44.7751, -19.59
1.43202, -1, 9.32364, 23.4646, 20.2005, 24.6362, -44.5767, -19.7166
1.4395, -1, 9.43007, 23.3705, 20.236, 24.805, -44.3787, -19.8432
1.44772, -1, 9.53626, 23.2766, 20.2713, 24.9735, -44.1816, -19.9693
1.45636, -1, 9.64225, 23.183, 20.3065, 25.1414, -43.9848, -20.0951
1.46355, -1, 9.74788, 23.0896, 20.3417, 25.3087, -43.7884, -20.2204
1.47194, -1, 9.85332, 22.9965, 20.3766, 25.4755, -43.593, -20.3454
1.4804, -1, 9.95835, 22.9037, 20.4115, 25.6418, -43.3982, -20.4698
1.48768, -1, 10.063, 22.811, 20.4464, 25.808, -43.2039, -20.594
1.496, -1, 10.1673, 22.7188, 20.481, 25.9735, -43.0102, -20.7178
1.50441, -1, 10.2712, 22.6267, 20.5154, 26.1385, -42.8171, -20.8412
1.5115, -1, 10.3747, 22.5348, 20.55, 26.3029, -42.6244, -20.9645
1.52024, -1, 10.4778, 22.4432, 20.5844, 26.467, -42.4324, -21.0875
1.52851, -1, 10.5807, 22.352, 20.6187, 26.6306, -42.2409, -21.2101
1.53557, -1, 10.6832, 22.261, 20.653, 26.7938, -42.0498, -21.3322
1.54441, -1, 10.7853, 22.1703, 20.6871, 26.9564, -41.8596, -21.454
1.55312, -1, 10.887, 22.0799, 20.721, 27.1184, -41.6698, -21.5752
1.55975, -1, 10.9881, 21.9896, 20.7551, 27.28, -41.4805, -21.6962
1.56867, -1, 11.089, 21.8997, 20.789, 27.4414, -41.2915, -21.817
1.57584, -1, 11.1898, 21.8098, 20.8226, 27.6025, -41.1032, -21.9373
1.58401, -1, 11.2902, 21.7202, 20.8563, 27.7629, -40.9151, -22.0574
1.59277, -1, 11.3903, 21.6308, 20.8899, 27.9229, -40.7278, -22.1773
1.60004, -1, 11.4901, 21.5417, 20.9233, 28.0823, -40.5407, -22.2968
1.60807, -1, 11.5894, 21.4529, 20.9567, 28.2413, -40.3543, -22.416
1.61688, -1, 11.6885, 21.3642, 20.99, 28.4001, -40.1684, -22.5348
1.62408, -1, 11.7874, 21.2759, 21.0232, 28.5586, -39.9828, -22.6532
1.63212, -1, 11.8369, 21.1879, 21.0563, 28.7164, -39.7978, -22.7712
1.63949, -1, 11.9359, 21.144, 21.0728, 28.7952, -39.7055, -22.8301
1.64749, -1, 12.0348, 21.0564, 21.106, 28.9525, -39.5212, -22.948
1.65654, -1, 12.183, 20.9253, 21.1552, 29.1877, -39.2458, -23.124
1.66357, -1, 12.2323, 20.8817, 21.1715, 29.266, -39.1542, -23.1824
1.67149, -1, 12.3307, 20.7948, 21.2044, 29.4223, -38.9714, -23.2995
1.67949, -1, 12.4288, 20.7081, 21.237, 29.578, -38.7892, -23.4161
1.68757, -1, 12.5268, 20.6215, 21.2695, 29.7333, -38.6072, -23.5325
1.69549, -1, 12.6245, 20.5351, 21.302, 29.8883, -38.4257, -23.6483
1.70351, -1, 12.7219, 20.4488, 21.3345, 30.0428, -38.2449, -23.764
1.71154, -1, 12.819, 20.3628, 21.3667, 30.1971, -38.0646, -23.8793
1.71951, -1, 12.9159, 20.2769, 21.3989, 30.3508, -37.8848, -23.9942
1.72754, -1, 13.0125, 20.1911, 21.4312, 30.5043, -37.7053, -24.1091
1.73556, -1, 13.1087, 20.1056, 21.4633, 30.6571, -37.5263, -24.2237
1.74349, -1, 13.2045, 20.0204, 21.4952, 30.8098, -37.3474, -24.3378
1.75149, -1, 13.3, 19.9353, 21.5271, 30.9622, -37.169, -24.4521
1.75958, -1, 13.3954, 19.8505, 21.559, 31.1143, -36.9911, -24.5659
1.76749, -1, 13.4906, 19.766, 21.5908, 31.2658, -36.8133, -24.6793
1.7765, -1, 13.5855, 19.6817, 21.6225, 31.4171, -36.6362, -24.7926
1.78356, -1, 13.6802, 19.5975, 21.6542, 31.5678, -36.4593, -24.9054
1.79254, -1, 13.7746, 19.5134, 21.6858, 31.7182, -36.2829, -25.0183
1.79956, -1, 13.8689, 19.4297, 21.7172, 31.8685, -36.1069, -25.1306
1.8075, -1, 13.9631, 19.3461, 21.7487, 32.0184, -35.9314, -25.2428
1.81549, -1, 14.0572, 19.2628, 21.7801, 32.1679, -35.7563, -25.3549
1.82356, -1, 14.151, 19.1796, 21.8113, 32.317, -35.5815, -25.4667
1.83149, -1, 14.2446, 19.0967, 21.8424, 32.4657, -35.4074, -25.5784
1.83951, -1, 14.3379, 19.0139, 21.8736, 32.6142, -35.2336, -25.6898
1.84757, -1, 14.4307, 18.9313, 21.9046, 32.7626, -35.06, -25.8006
1.85549, -1, 14.5233, 18.8489, 21.9356, 32.9106, -34.8872, -25.9115
1.8635, -1, 14.6156, 18.7665, 21.9666, 33.0581, -34.7146, -26.0216
1.87158, -1, 14.7076, 18.6843, 21.9976, 33.2052, -34.5427, -26.1318
1.8795, -1, 14.7995, 18.6024, 22.0282, 33.3521, -34.3709, -26.2417
1.88749, -1, 14.8912, 18.5207, 22.0589, 33.4986, -34.1991, -26.3512
1.89561, -1, 14.9828, 18.4391, 22.0897, 33.6449, -34.028, -26.4607
1.90349, -1, 15.0741, 18.3577, 22.1203, 33.7907, -33.857, -26.5697
1.91159, -1, 15.1652, 18.2767, 22.1508, 33.9363, -33.6866, -26.679
1.91954, -1, 15.2565, 18.1958, 22.1813, 34.0814, -33.5163, -26.7876
1.92748, -1, 15.3477, 18.115, 22.2118, 34.2263, -33.3462, -26.896
1.93557, -1, 15.4389, 18.0343, 22.2421, 34.3709, -33.1766, -27.0043
1.94349, -1, 15.53, 17.9539, 22.2724, 34.5154, -33.0076, -27.1122
1.95149, -1, 15.6208, 17.8736, 22.3027, 34.6595, -32.839, -27.22
1.95993, -1, 15.7115, 17.7934, 22.3329, 34.8032, -32.6707, -27.3273
1.96756, -1, 15.802, 17.7134, 22.3628, 34.9467, -32.5028, -27.4349
1.97591, -1, 15.8922, 17.6335, 22.3928, 35.0896, -32.3351, -27.5419
1.98361, -1, 15.9823, 17.5537, 22.4228, 35.2324, -32.1679, -27.6488
1.9916, -1, 16.0721, 17.4742, 22.4528, 35.3751, -32.0009, -27.756
1.99994, -1, 16.1615, 17.3947, 22.4825, 35.5174, -31.8345, -27.8624
2.0076, -1, 16.2507, 17.3154, 22.5122, 35.6594, -31.6681, -27.9689
2.0155, -1, 16.3396, 17.2362, 22.542, 35.8011, -31.5023, -28.0748
2.02395, -1, 16.4282, 17.1573, 22.5716, 35.9425, -31.3369, -28.1807
2.03152, -1, 16.5166, 17.0785, 22.6011, 36.0837, -31.1714, -28.2864
2.03954, -1, 16.6048, 16.9999, 22.6307, 36.2249, -31.0065, -28.3916
2.04767, -1, 16.6931, 16.9214, 22.6603, 36.3657, -30.8417, -28.497
2.05599, -1, 16.7812, 16.8432, 22.6896, 36.506, -30.6772, -28.602
2.06378, -1, 16.8692, 16.7651, 22.719, 36.6461, -30.5131, -28.707
2.07192, -1, 16.957, 16.6872, 22.7484, 36.7859, -30.3493, -28.8117
2.07991, -1, 17.0446, 16.6094, 22.7778, 36.9254, -30.1861, -28.9164
2.08799, -1, 17.1322, 16.5317, 22.807, 37.0649, -30.0227, -29.0208
2.09604, -1, 17.2193, 16.4544, 22.836, 37.2038, -29.8598, -29.1248
2.10439, -1, 17.3039, 16.3785, 22.8649, 37.3426, -29.6972, -29.2285
2.11226, -1, 17.3843, 16.3058, 22.8929, 37.4799, -29.5363, -29.3313
2.12014, -1, 17.4589, 16.2381, 22.9194, 37.6141, -29.3787, -29.4322
2.12812, -1, 17.5279, 16.1763, 22.9444, 37.7425, -29.2278, -29.5283
2.13639, -1, 17.591, 16.1209, 22.9674, 37.8611, -29.0884, -29.6177
2.1441, -1, 17.6199, 16.0955, 22.978, 37.9665, -28.9646, -29.6965
2.1515, -1, 17.6724, 16.0493, 22.9972, 38.0128, -28.9097, -29.7316
2.16039, -1, 17.719, 15.9884, 23.0202, 38.1242, -28.7781, -29.8163
2.16752, -1, 17.7603, 15.9701, 23.0265, 38.1519, -28.745, -29.8373
2.17548, -1, 17.7961, 15.9376, 23.0372, 38.1935, -28.6948, -29.8695
2.18349, -1, 17.8254, 15.912, 23.0449, 38.2211, -28.6618, -29.8905
2.1915, -1, 17.8486, 15.8936, 23.0501, 38.2378, -28.6418, -29.9031
2.19948, -1, 17.8656, 15.8809, 23.0536, 38.2471, -28.6305, -29.9097
2.20749, -1, 17.8763, 15.873, 23.0556, 38.2517, -28.6249, -29.913
2.21693, 2, 17.8832, 15.8674, 23.0569, 38.2546, -28.6213, -29.9152
2.22346, 2, 17.8842, 15.8665, 23.057, 38.255, -28.6208, -29.9155
2.23152, 2, 17.885, 15.8653, 23.0573, 38.2555, -28.6202, -29.9158
2.23954, 2, 17.8847, 15.8646, 23.0574, 38.2558, -28.62, -29.9159
2.24757, 2, 17.8841, 15.8642, 23.0574, 38.2559, -28.6199, -29.916
2.25552, 2, 17.8836, 15.864, 23.0575, 38.2559, -28.6199, -29.916
2.26354, 2, 17.8833, 15.8638, 23.0575, 38.2559, -28.6198, -29.916
2.27311, 2, 17.8832, 15.8637, 23.0575, 38.256, -28.6198, -29.916
2.27948, 2, 17.8832, 15.8636, 23.0575, 38.256, -28.6198, -29.9161
2.28753, 2, 17.8832, 15.8634, 23.0575, 38.256, -28.6198, -29.9161
2.29548, 2, 17.8834, 15.8632, 23.0575, 38.256, -28.6199, -29.9161
2.30448, 2, 17.8837, 15.8631, 23.0575, 38.256, -28.6199, -29.9161
2.31158, 2, 17.8841, 15.8629, 23.0575, 38.256, -28.6199, -29.9161
2.31947, 2, 17.8846, 15.8627, 23.0575, 38.256, -28.6199, -29.9161
2.32747, 2, 17.8853, 15.8626, 23.0575, 38.256, -28.6199, -29.9161
2.33555, 2, 17.8858, 15.8625, 23.0575, 38.256, -28.6199, -29.916
2.34347, 2, 17.8862, 15.8624, 23.0575, 38.256, -28.6199, -29.916
2.35147, 2, 17.8865, 15.8624, 23.0575, 38.2559, -28.6199, -29.916
2.35954, 2, 17.8867, 15.8624, 23.0575, 38.256, -28.62, -29.9161
2.36747, 2, 17.8869, 15.8623, 23.0575, 38.256, -28.62, -29.916
2.37553, 2, 17.887, 15.8624, 23.0575, 38.2559, -28.62, -29.916
2.38354, 2, 17.887, 15.8623, 23.0575, 38.256, -28.62, -29.916
2.39152, 2, 17.887, 15.8623, 23.0575, 38.2559, -28.62, -29.9161
2.39952, 2, 17.887, 15.8624, 23.0575, 38.2559, -28.62, -29.916
2.40753, 2, 17.887, 15.8624, 23.0575, 38.2559, -28.6201, -29.916
2.41548, 2, 17.8868, 15.8623, 23.0575, 38.2559, -28.6201, -29.916
2.4235, 2, 17.8867, 15.8623, 23.0575, 38.2559, -28.6201, -29.916
2.43153, 2, 17.8866, 15.8622, 23.0575, 38.2559, -28.6202, -29.916
2.43947, 2, 17.8866, 15.8622, 23.0575, 38.2559, -28.6201, -29.916
2.44747, 2, 17.8865, 15.8622, 23.0575, 38.2559, -28.6201, -29.916
2.45554, 2, 17.8865, 15.8622, 23.0575, 38.2559, -28.6202, -29.916
2.4635, 2, 17.8865, 15.8622, 23.0575, 38.2559, -28.6202, -29.916
2.47153, 2, 17.8865, 15.8622, 23.0575, 38.2559, -28.6203, -29.916
2.47964, 2, 17.8865, 15.8622, 23.0575, 38.2559, -28.6203, -29.916
2.48758, 2, 17.8865, 15.8622, 23.0575, 38.2559, -28.6203, -29.9159
2.49559, 2, 17.8864, 15.8622, 23.0575, 38.2559, -28.6202, -29.9159
2.50365, 2, 17.8865, 15.8622, 23.0575, 38.2559, -28.6203, -29.9159
2.51152, 2, 17.8865, 15.8622, 23.0575, 38.2558, -28.6203, -29.916
2.51948, 2, 17.8865, 15.8622, 23.0575, 38.2559, -28.6203, -29.916
2.52755, 2, 17.8865, 15.8622, 23.0575, 38.2559, -28.6203, -29.916
2.53551, 2, 17.8864, 15.8622, 23.0575, 38.2559, -28.6204, -29.9159
2.54357, 2, 17.8864, 15.8622, 23.0575, 38.2559, -28.6204, -29.9159
2.55163, 2, 17.8864, 15.8622, 23.0575, 38.2559, -28.6204, -29.9159
2.55962, 2, 17.8863, 15.8622, 23.0575, 38.2559, -28.6204, -29.9159
2.56786, 2, 17.8863, 15.8622, 23.0575, 38.2559, -28.6204, -29.9159
2.57586, 2, 17.8863, 15.8622, 23.0575, 38.2559, -28.6204, -29.9159
2.58382, 2, 17.8862, 15.8622, 23.0575, 38.2559, -28.6204, -29.9159
2.59198, 2, 17.8862, 15.8622, 23.0575, 38.2559, -28.6205, -29.9159
2.60056, 2, 17.8862, 15.8622, 23.0575, 38.2559, -28.6205, -29.9158
2.60798, 2, 17.8862, 15.8622, 23.0575, 38.2559, -28.6206, -29.9158
2.6161, 2, 17.8862, 15.8622, 23.0575, 38.2559, -28.6206, -29.9158
2.62404, 2, 17.8861, 15.8622, 23.0575, 38.2559, -28.6206, -29.9158
2.63205, 2, 17.8862, 15.8622, 23.0575, 38.2559, -28.6206, -29.9158
2.64011, 2, 17.8861, 15.8622, 23.0575, 38.2559, -28.6207, -29.9158
2.64747, 2, 17.8861, 15.8622, 23.0575, 38.2559, -28.6207, -29.9158
2.65547, 2, 17.8861, 15.8622, 23.0575, 38.2559, -28.6207, -29.9158
2.6635, 2, 17.886, 15.8622, 23.0575, 38.2559, -28.6207, -29.9158
2.67147, 2, 17.886, 15.8622, 23.0575, 38.2558, -28.6207, -29.9158
2.67946, 2, 17.886, 15.8622, 23.0575, 38.2558, -28.6207, -29.9157
2.6875, 2, 17.886, 15.8623, 23.0575, 38.2558, -28.6207, -29.9157
2.69548, 2, 17.8859, 15.8622, 23.0575, 38.2558, -28.6208, -29.9156
2.70345, 2, 17.8859, 15.8622, 23.0575, 38.2558, -28.6208, -29.9156
2.7129, 2, 17.8859, 15.8622, 23.0575, 38.2558, -28.6208, -29.9156
2.71947, 2, 17.8858, 15.8622, 23.0575, 38.2558, -28.6208, -29.9156
2.72745, 2, 17.8858, 15.8623, 23.0575, 38.2558, -28.6208, -29.9156
2.73708, 2, 17.8858, 15.8622, 23.0575, 38.2558, -28.6208, -29.9155
2.74347, 2, 17.8857, 15.8622, 23.0575, 38.2558, -28.6208, -29.9155
2.75155, 2, 17.8857, 15.8623, 23.0575, 38.2557, -28.6208, -29.9155
2.75954, 2, 17.8857, 15.8623, 23.0575, 38.2558, -28.6208, -29.9155
2.76746, 2, 17.8856, 15.8623, 23.0575, 38.2557, -28.6209, -29.9155
2.77647, 2, 17.8856, 15.8623, 23.0575, 38.2557, -28.6209, -29.9155
2.78351, 2, 17.8856, 15.8623, 23.0575, 38.2557, -28.621, -29.9155
2.79147, 2, 17.8855, 15.8623, 23.0575, 38.2557, -28.621, -29.9155
2.79946, 2, 17.8855, 15.8623, 23.0575, 38.2557, -28.621, -29.9155
2.8075, 2, 17.8854, 15.8623, 23.0575, 38.2557, -28.621, -29.9154
2.81552, 2, 17.8854, 15.8623, 23.0575, 38.2557, -28.621, -29.9154
2.82345, 2, 17.8853, 15.8623, 23.0575, 38.2557, -28.621, -29.9154
2.8315, 2, 17.8853, 15.8623, 23.0575, 38.2557, -28.621, -29.9154
2.83947, 2, 17.8853, 15.8623, 23.0575, 38.2557, -28.621, -29.9154
2.84746, 2, 17.8852, 15.8623, 23.0575, 38.2556, -28.6211, -29.9153
2.85552, 2, 17.8852, 15.8623, 23.0575, 38.2556, -28.6211, -29.9153
2.86347, 2, 17.8851, 15.8623, 23.0575, 38.2556, -28.621, -29.9153
2.87145, 2, 17.8851, 15.8623, 23.0575, 38.2556, -28.6211, -29.9153
2.87954, 2, 17.8851, 15.8623, 23.0575, 38.2556, -28.6211, -29.9153
2.88747, 2, 17.885, 15.8623, 23.0575, 38.2556, -28.6212, -29.9153
2.89546, 2, 17.885, 15.8623, 23.0575, 38.2556, -28.6212, -29.9153
2.90355, 2, 17.8849, 15.8623, 23.0575, 38.2555, -28.6212, -29.9153
2.91147, 2, 17.8849, 15.8623, 23.0575, 38.2555, -28.6212, -29.9153
2.91946, 2, 17.8849, 15.8623, 23.0575, 38.2555, -28.6212, -29.9153
2.92754, 2, 17.8848, 15.8623, 23.0575, 38.2555, -28.6212, -29.9153
2.93548, 2, 17.8848, 15.8623, 23.0575, 38.2555, -28.6212, -29.9152
2.94345, 2, 17.8847, 15.8623, 23.0575, 38.2555, -28.6212, -29.9152
2.95151, 2, 17.8847, 15.8623, 23.0575, 38.2555, -28.6212, -29.9152
2.95948, 2, 17.8846, 15.8623, 23.0575, 38.2555, -28.6212, -29.9152
2.96748, 2, 17.8846, 15.8623, 23.0575, 38.2554, -28.6212, -29.9152
2.97562, 2, 17.8845, 15.8623, 23.0575, 38.2554, -28.6213, -29.9153
2.98359, 2, 17.8845, 15.8623, 23.0575, 38.2554, -28.6212, -29.9152
2.99155, 2, 17.8844, 15.8623, 23.0575, 38.2554, -28.6213, -29.9152
2.99962, 2, 17.8844, 15.8623, 23.0575, 38.2554, -28.6213, -29.9151
3.00759, 2, 17.8843, 15.8623, 23.0575, 38.2554, -28.6213, -29.9151
3.01552, 2, 17.8843, 15.8623, 23.0575, 38.2554, -28.6213, -29.9151
3.02366, 2, 17.8843, 15.8623, 23.0575, 38.2554, -28.6213, -29.9151
3.0315, 2, 17.8842, 15.8623, 23.0575, 38.2553, -28.6213, -29.9151
3.03948, 2, 17.8842, 15.8623, 23.0575, 38.2553, -28.6213, -29.9151
3.04764, 2, 17.8841, 15.8623, 23.0575, 38.2553, -28.6214, -29.9151
3.0556, 2, 17.8841, 15.8623, 23.0575, 38.2553, -28.6213, -29.9151
3.06362, 2, 17.884, 15.8623, 23.0575, 38.2552, -28.6213, -29.9151
3.0723, 2, 17.884, 15.8623, 23.0575, 38.2552, -28.6213, -29.9151
3.0798, 2, 17.884, 15.8623, 23.0575, 38.2552, -28.6214, -29.9151
3.0878, 2, 17.884, 15.8623, 23.0575, 38.2552, -28.6214, -29.9151
3.09632, 2, 17.8839, 15.8624, 23.0575, 38.2552, -28.6214, -29.9151
3.10395, 2, 17.8839, 15.8624, 23.0575, 38.2551, -28.6214, -29.9151
3.11257, 2, 17.8838, 15.8624, 23.0575, 38.2551, -28.6214, -29.9151
3.12059, 2, 17.8838, 15.8624, 23.0575, 38.2551, -28.6214, -29.915
3.12802, 2, 17.8837, 15.8624, 23.0575, 38.2551, -28.6214, -29.915
3.13609, 2, 17.8837, 15.8624, 23.0575, 38.2551, -28.6214, -29.915
3.14436, 2, 17.8837, 15.8624, 23.0575, 38.2551, -28.6214, -29.915
3.15145, 2, 17.8836, 15.8624, 23.0575, 38.2551, -28.6214, -29.915
3.15948, 2, 17.8836, 15.8624, 23.0575, 38.2551, -28.6214, -29.915
3.16848, 2, 17.8836, 15.8624, 23.0575, 38.2551, -28.6214, -29.915
3.17546, 2, 17.8835, 15.8624, 23.0575, 38.2551, -28.6214, -29.915
3.18348, 2, 17.8835, 15.8624, 23.0575, 38.255, -28.6214, -29.9149
3.19154, 2, 17.8835, 15.8624, 23.0575, 38.2549, -28.6214, -29.915
3.19952, 2, 17.8835, 15.8624, 23.0575, 38.2549, -28.6214, -29.9149
3.20747, 2, 17.8834, 15.8624, 23.0575, 38.2549, -28.6214, -29.9149
3.21561, 2, 17.8834, 15.8624, 23.0575, 38.2549, -28.6214, -29.9149
3.22497, 2, 17.8834, 15.8624, 23.0575, 38.2549, -28.6215, -29.9149
3.23144, 2, 17.8834, 15.8624, 23.0575, 38.2549, -28.6215, -29.9149
3.24104, 2, 17.8834, 15.8624, 23.0575, 38.2549, -28.6214, -29.9149
3.24744, 2, 17.8834, 15.8624, 23.0575, 38.2549, -28.6214, -29.9149
3.25548, 2, 17.8834, 15.8624, 23.0575, 38.2548, -28.6215, -29.9149
3.26525, 2, 17.8833, 15.8624, 23.0575, 38.2548, -28.6215, -29.9149
3.27144, 2, 17.8833, 15.8624, 23.0575, 38.2547, -28.6215, -29.9149
3.27942, 2, 17.8833, 15.8624, 23.0575, 38.2547, -28.6215, -29.9149
3.2875, 2, 17.8833, 15.8624, 23.0575, 38.2548, -28.6215, -29.9149
3.29547, 2, 17.8833, 15.8624, 23.0575, 38.2547, -28.6215, -29.9149
3.30343, 4, 17.8833, 15.8624, 23.0575, 38.2547, -28.6215, -29.9149
3.31151, 4, 17.8833, 15.8624, 23.0575, 38.2547, -28.6215, -29.9148
3.31954, 4, 17.8833, 15.8625, 23.0575, 38.2546, -28.6215, -29.9147
3.32743, 4, 17.8833, 15.8625, 23.0575, 38.2546, -28.6215, -29.9147
3.33551, 4, 17.8833, 15.8625, 23.0575, 38.2546, -28.6215, -29.9147
3.34344, 4, 17.8833, 15.8625, 23.0575, 38.2546, -28.6215, -29.9148
3.35144, 4, 17.8833, 15.8625, 23.0575, 38.2546, -28.6215, -29.9148
3.3595, 4, 17.8832, 15.8625, 23.0575, 38.2546, -28.6215, -29.9148
3.36743, 4, 17.8832, 15.8625, 23.0575, 38.2546, -28.6215, -29.9148
3.37545, 4, 17.8832, 15.8625, 23.0575, 38.2546, -28.6215, -29.9148
3.38362, 4, 17.8832, 15.8625, 23.0575, 38.2546, -28.6215, -29.9147
3.39144, 4, 17.8832, 15.8625, 23.0575, 38.2546, -28.6215, -29.9147
3.3996, 4, 17.8832, 15.8625, 23.0575, 38.2545, -28.6216, -29.9146
3.42639, 4, 17.8832, 15.8625, 23.0575, 38.2545, -28.6216, -29.9146
3.42773, 4, 17.8831, 15.8625, 23.0575, 38.2545, -28.6216, -29.9146
3.42905, 4, 17.8831, 15.8625, 23.0575, 38.2545, -28.6216, -29.9146
3.4315, 4, 17.8831, 15.8625, 23.0575, 38.2545, -28.6216, -29.9146
3.43944, 4, 17.8831, 15.8625, 23.0575, 38.2545, -28.6216, -29.9147
3.44743, 4, 17.8829, 15.8625, 23.0575, 38.2544, -28.6216, -29.9147
3.45546, 4, 17.8815, 15.8625, 23.0575, 38.2543, -28.6216, -29.9146
3.46344, 4, 17.8772, 15.8625, 23.0579, 38.2528, -28.6219, -29.9138
3.47173, 4, 17.869, 15.8622, 23.0597, 38.2457, -28.6237, -29.9094
3.47951, 4, 17.8558, 15.8613, 23.0649, 38.2271, -28.6295, -29.8949
3.48759, 4, 17.8356, 15.8588, 23.0767, 38.1884, -28.6428, -29.862
3.49578, 5, 17.8058, 15.8539, 23.0989, 38.1161, -28.6675, -29.8
3.50354, 5, 17.7656, 15.8456, 23.1357, 37.9965, -28.7091, -29.6962
3.51164, 5, 17.7154, 15.8331, 23.1908, 37.816, -28.7735, -29.5393
3.51996, 5, 17.6555, 15.8159, 23.2668, 37.5669, -28.8635, -29.3218
3.52744, 5, 17.5855, 15.7942, 23.364, 37.2483, -28.9812, -29.0433
3.53553, 5, 17.5053, 15.7684, 23.4809, 36.8664, -29.124, -28.708
3.54427, 5, 17.4159, 15.7393, 23.6143, 36.4324, -29.2893, -28.3264
3.55153, 5, 17.3183, 15.7078, 23.7597, 35.9606, -29.472, -27.9115
3.55963, 5, 17.2115, 15.675, 23.9127, 35.4667, -29.667, -27.4769
3.56843, 5, 17.0958, 15.6418, 24.0701, 34.9625, -29.8701, -27.0337
3.57583, 5, 16.9731, 15.6086, 24.2291, 34.4562, -30.078, -26.5891
3.58377, 5, 16.8459, 15.576, 24.3877, 33.9517, -30.2893, -26.1469
3.59251, 5, 16.7164, 15.5443, 24.5455, 33.4518, -30.5032, -25.7097
3.59997, 5, 16.5852, 15.5135, 24.7031, 32.9566, -30.7194, -25.2775
3.60858, 5, 16.4533, 15.4837, 24.8601, 32.4668, -30.9374, -24.8509
3.61672, 5, 16.3212, 15.4549, 25.0157, 31.9827, -31.1572, -24.4296
3.62404, 5, 16.1893, 15.4273, 25.17, 31.5042, -31.379, -24.0137
3.63199, 5, 16.0575, 15.4011, 25.3236, 31.0309, -31.6026, -23.6037
3.64002, 5, 15.9916, 15.3883, 25.4002, 30.5629, -31.8279, -23.1991
3.64808, 5, 15.86, 15.3637, 25.5527, 30.1007, -32.055, -22.7998
3.65543, 5, 15.7284, 15.3403, 25.7039, 29.8716, -32.1691, -22.6022
3.66342, 5, 15.5967, 15.318, 25.8537, 29.4172, -32.3985, -22.2111
3.67147, 5, 15.4652, 15.2967, 26.0028, 28.9681, -32.6295, -21.8251
3.67941, 5, 15.3335, 15.2766, 26.151, 28.5241, -32.862, -21.4447
3.68744, 5, 15.2012, 15.2573, 26.2979, 28.0855, -33.0961, -21.0695
3.69547, 5, 15.068, 15.2391, 26.4436, 27.6517, -33.3316, -20.6995
3.83958, 5, 12.5941, 15.0972, 28.8779, 20.6289, -37.7977, -14.8388
3.84077, 5, 12.5941, 15.0972, 28.8779, 20.6289, -37.7977, -14.8388
3.84279, 5, 12.5242, 15.0981, 28.9403, 20.4529, -37.9273, -14.6957
3.84399, 5, 12.5242, 15.0981, 28.9403, 20.4529, -37.9273, -14.6957
3.84618, 5, 12.454, 15.0993, 29.0024, 20.2779, -38.0571, -14.5535
3.8475, 5, 12.454, 15.0993, 29.0024, 20.2779, -38.0571, -14.5535
3.84876, 5, 12.454, 15.0993, 29.0024, 20.2779, -38.0571, -14.5535
3.85251, 5, 12.3837, 15.1008, 29.0642, 20.1038, -38.1872, -14.4122
3.85462, 5, 12.3133, 15.1026, 29.1256, 19.9307, -38.3176, -14.2718
3.85582, 5, 12.3133, 15.1026, 29.1256, 19.9307, -38.3176, -14.2718
3.85707, 5, 12.3133, 15.1026, 29.1256, 19.9307, -38.3176, -14.2718
3.85902, 5, 12.2426, 15.1047, 29.1867, 19.7586, -38.4482, -14.1323
3.8603, 5, 12.2426, 15.1047, 29.1867, 19.7586, -38.4482, -14.1323
3.86405, 5, 12.1717, 15.107, 29.2476, 19.5873, -38.5791, -13.9938
3.86593, 5, 12.1007, 15.1096, 29.3081, 19.4169, -38.7102, -13.8561
3.86822, 5, 12.1007, 15.1096, 29.3081, 19.4169, -38.7102, -13.8561
3.87036, 5, 12.0296, 15.1126, 29.3684, 19.2474, -38.8415, -13.7194
3.87188, 5, 12.0296, 15.1126, 29.3684, 19.2474, -38.8415, -13.7194
3.87375, 5, 12.0296, 15.1126, 29.3684, 19.2474, -38.8415, -13.7194
3.87524, 5, 11.9584, 15.1158, 29.4284, 19.0789, -38.973, -13.5837
3.87644, 5, 11.9584, 15.1158, 29.4284, 19.0789, -38.973, -13.5837
3.87842, 5, 11.8871, 15.1193, 29.4881, 18.9112, -39.1047, -13.4488
3.88221, 5, 11.8156, 15.123, 29.5476, 18.7444, -39.2368, -13.3148
3.88865, 5, 11.744, 15.1269, 29.6067, 18.5785, -39.369, -13.1816
3.89542, 5, 11.6006, 15.1356, 29.7241, 18.2493, -39.6339, -12.9179
3.90342, 5, 11.457, 15.1457, 29.8402, 17.9233, -39.8998, -12.6579
3.91248, 5, 11.3133, 15.157, 29.9552, 17.6008, -40.1669, -12.4015
3.92021, 5, 11.1695, 15.1694, 30.0691, 17.2815, -40.4347, -12.1484
3.92741, 5, 11.0257, 15.1828, 30.1817, 16.9653, -40.7032, -11.8987
3.93626, 5, 10.8819, 15.1976, 30.2933, 16.6525, -40.9727, -11.6523
3.94343, 5, 10.7379, 15.2137, 30.4038, 16.3427, -41.243, -11.4093
3.95142, 5, 10.5941, 15.2309, 30.5128, 16.036, -41.5141, -11.1694
3.96024, 5, 10.4503, 15.2492, 30.6206, 15.7327, -41.7862, -10.9326
3.96743, 5, 10.3067, 15.2688, 30.7273, 15.4321, -42.0592, -10.6985
3.97547, 5, 10.1629, 15.2897, 30.8329, 15.1345, -42.3329, -10.4677
3.98449, 5, 10.0189, 15.3115, 30.9374, 14.8401, -42.6074, -10.2403
3.99151, 5, 9.87454, 15.3346, 31.0408, 14.5483, -42.8825, -10.0154
3.99959, 5, 9.72957, 15.3589, 31.1427, 14.2595, -43.1584, -9.79348
4.0087, 5, 9.5839, 15.3842, 31.2433, 13.9736, -43.4351, -9.57426
4.01553, 5, 9.43762, 15.4105, 31.3427, 13.69, -43.7124, -9.35794
4.02359, 5, 9.29077, 15.4379, 31.441, 13.4091, -43.9902, -9.14466
4.03637, 5, 9.14353, 15.4666, 31.5383, 13.131, -44.2685, -8.93391
4.03975, 5, 8.9957, 15.4965, 31.6344, 12.8553, -44.5475, -8.72558
4.04745, 5, 8.84755, 15.5274, 31.7292, 12.5823, -44.8271, -8.52004
4.05628, 5, 8.69924, 15.5594, 31.8226, 12.3119, -45.1076, -8.31691
4.06369, 5, 8.55085, 15.5925, 31.9146, 12.0438, -45.3889, -8.11669
4.07163, 5, 8.40241, 15.6269, 32.0054, 11.7781, -45.6707, -7.91898
4.07973, 5, 8.25389, 15.6623, 32.0953, 11.515, -45.953, -7.72369
4.08817, 5, 8.10515, 15.6988, 32.1841, 11.2543, -46.2358, -7.53084
4.09578, 5, 7.95643, 15.7364, 32.2718, 10.9955, -46.5191, -7.34045
4.1039, 5, 7.80773, 15.7752, 32.358, 10.7394, -46.8027, -7.15242
4.11201, 5, 7.65914, 15.815, 32.4428, 10.4854, -47.0868, -6.96696
4.11995, 5, 7.51075, 15.856, 32.5261, 10.2335, -47.3714, -6.78364
4.12854, 5, 7.36241, 15.8982, 32.6085, 9.98369, -47.6565, -6.60252
4.13629, 5, 7.28823, 15.9414, 32.6898, 9.73616, -47.9423, -6.42357
4.14399, 5, 7.13974, 15.9635, 32.73, 9.61321, -48.2284, -6.24665
4.15198, 5, 6.99098, 16.0085, 32.8096, 9.36877, -48.3716, -6.07231
4.16064, 5, 6.76728, 16.0782, 32.9265, 9.00632, -48.8023, -5.89994
4.1674, 5, 6.69251, 16.102, 32.9647, 8.88658, -48.9462, -5.81467
4.17545, 5, 6.5426, 16.1504, 33.0402, 8.64856, -49.2342, -5.64572
4.18341, 5, 6.39228, 16.1999, 33.1144, 8.41249, -49.5226, -5.47839
4.1914, 5, 6.24138, 16.2505, 33.1874, 8.17857, -49.8112, -5.31327
4.19946, 5, 6.09005, 16.3023, 33.2593, 7.94665, -50.1001, -5.14994
4.20741, 5, 5.93846, 16.3551, 33.33, 7.71645, -50.3893, -4.98877
4.21545, 5, 5.78675, 16.4089, 33.3994, 7.48813, -50.6788, -4.82957
4.22489, 5, 5.55906, 16.4916, 33.501, 7.14945, -51.1139, -4.59463
4.23142, 5, 5.48304, 16.5196, 33.5343, 7.03746, -51.2592, -4.51723
4.23946, 5, 5.33095, 16.5765, 33.5999, 6.81448, -51.5499, -4.36358
4.24983, 5, 5.10257, 16.6641, 33.6958, 6.48344, -51.9863, -4.13664
4.25542, 5, 5.02646, 16.6938, 33.7272, 6.37398, -52.1319, -4.06181
4.265, 5, 4.87434, 16.7846, 33.8192, 6.04808, -52.5695, -3.84019
4.27143, 5, 4.72235, 16.8155, 33.8492, 5.9402, -52.7155, -3.76732
4.27943, 5, 4.5704, 16.878, 33.9083, 5.72588, -53.0079, -3.62281
4.28841, 5, 4.4186, 16.9415, 33.9663, 5.51327, -53.3003, -3.48013
4.29539, 5, 4.2671, 17.0064, 34.0229, 5.30238, -53.5928, -3.33912
4.30341, 5, 4.11565, 17.0723, 34.0784, 5.09295, -53.8856, -3.19971
4.31146, 5, 3.96412, 17.1392, 34.1326, 4.88513, -54.1786, -3.06193
4.31942, 5, 3.81253, 17.207, 34.1855, 4.67905, -54.4716, -2.92579
4.32741, 5, 3.66062, 17.2759, 34.237, 4.47452, -54.7648, -2.79112
4.33546, 5, 3.50833, 17.3457, 34.2873, 4.27135, -55.0583, -2.65825
4.3434, 5, 3.35554, 17.4166, 34.3362, 4.06957, -55.3518, -2.52694
4.3514, 5, 3.20234, 17.4884, 34.3837, 3.86959, -55.6456, -2.39734
4.35948, 5, 3.04878, 17.5613, 34.4302, 3.67099, -55.9397, -2.26905
4.3674, 5, 2.89506, 17.6353, 34.4751, 3.47374, -56.2339, -2.14208
4.37541, 5, 2.74114, 17.7103, 34.5188, 3.27782, -56.5284, -2.01656
4.38347, 5, 2.587, 17.7864, 34.5613, 3.08337, -56.8229, -1.89263
4.39142, 5, 2.4328, 17.8636, 34.6024, 2.89021, -57.1174, -1.76986
4.39972, 5, 2.27863, 17.9417, 34.6424, 2.69855, -57.4118, -1.64881
4.4074, 5, 2.12446, 18.0208, 34.681, 2.50791, -57.706, -1.52916
4.41545, 5, 1.97035, 18.101, 34.7183, 2.31875, -58.0003, -1.41067
4.42347, 5, 1.8165, 18.1822, 34.7544, 2.13098, -58.2947, -1.29406
4.4314, 5, 1.66273, 18.2644, 34.7891, 1.94454, -58.5892, -1.17841
4.43951, 5, 1.50929, 18.3474, 34.8224, 1.75948, -58.8838, -1.0638
4.4482, 5, 1.35627, 18.4314, 34.8545, 1.57532, -59.1786, -0.950746
4.45541, 5, 1.20473, 18.5159, 34.8854, 1.39261, -59.4736, -0.838725
4.46354, 5, 1.05671, 18.5997, 34.9151, 1.21163, -59.7678, -0.728249
4.47223, 5, 0.914149, 18.6814, 34.9437, 1.03302, -60.06, -0.619733
4.47945, 5, 0.777678, 18.76, 34.9711, 0.858917, -60.3466, -0.514323
4.48775, 5, 0.647481, 18.836, 34.9963, 0.691908, -60.6228, -0.414054
4.49632, 5, 0.523684, 18.9114, 35.0177, 0.535828, -60.8827, -0.320074
4.50349, 5, 0.405161, 18.9885, 35.0335, 0.393459, -61.1211, -0.235107
4.51215, 6, 0.28943, 19.0709, 35.0407, 0.265999, -61.336, -0.158579
4.52037, 6, 0.174328, 19.1602, 35.0374, 0.152456, -61.5283, -0.0908627
4.52741, 6, 0.0594683, 19.2573, 35.0213, 0.0492715, -61.7044, -0.0296819
4.53613, 6, -0.0538965, 19.3615, 34.9913, -0.0491591, -61.873, 0.0292383
4.54495, 6, -0.165377, 19.4722, 34.9473, -0.148279, -62.0438, 0.0877564
4.55143, 6, -0.274084, 19.5903, 34.8898, -0.252698, -62.2251, 0.148634
4.56034, 6, -0.380108, 19.7162, 34.8198, -0.365629, -62.4216, 0.214926
4.56765, 6, -0.485025, 19.8507, 34.7393, -0.487534, -62.6348, 0.285686
4.57566, 6, -0.59185, 19.995, 34.6499, -0.616921, -62.8622, 0.360524
4.58456, 6, -0.702845, 20.1494, 34.5534, -0.751589, -63.1003, 0.43876
4.59176, 6, -0.81899, 20.313, 34.4516, -0.889276, -63.3452, 0.517857
4.59986, 6, -0.939717, 20.4839, 34.346, -1.02846, -63.5942, 0.598426
4.6087, 6, -1.06395, 20.6598, 34.2377, -1.16757, -63.8449, 0.678216
4.61592, 6, -1.19061, 20.8384, 34.1273, -1.30641, -64.0963, 0.758045
4.62396, 6, -1.31866, 21.019, 34.0149, -1.44427, -64.3476, 0.837276
4.63297, 6, -1.44732, 21.2018, 33.9008, -1.58135, -64.5986, 0.915261
4.63998, 6, -1.51183, 21.3863, 33.785, -1.71732, -64.8489, 0.993345
4.64805, 6, -1.70563, 21.571, 33.6679, -1.85237, -65.0987, 1.06987
4.6554, 6, -1.77018, 21.6629, 33.609, -1.91947, -65.2232, 1.10816
4.66339, 6, -1.89902, 21.8463, 33.4901, -2.05264, -65.4719, 1.18444
4.67144, 6, -2.02758, 22.0301, 33.37, -2.18476, -65.7199, 1.25912
4.67938, 6, -2.15533, 22.2142, 33.2483, -2.31587, -65.9671, 1.33392
4.68738, 6, -2.28235, 22.3978, 33.1251, -2.44615, -66.2138, 1.40746
4.69661, 6, -2.47098, 22.6733, 32.9378, -2.63973, -66.5825, 1.51685
4.70338, 6, -2.53352, 22.7656, 32.8747, -2.70388, -66.7051, 1.55298
4.71144, 6, -2.65827, 22.9507, 32.7476, -2.83112, -66.9495, 1.62418
4.71939, 6, -2.78286, 23.1358, 32.6194, -2.95722, -67.193, 1.69547
4.72981, 6, -2.96913, 23.4146, 32.4245, -3.14427, -67.5569, 1.80006
4.73544, 6, -3.03094, 23.5082, 32.3589, -3.20609, -67.6777, 1.8347
4.74549, 6, -3.2156, 23.7898, 32.1601, -3.39053, -68.0391, 1.93832
4.75138, 6, -3.27687, 23.8836, 32.0932, -3.45158, -68.1591, 1.97205
4.75946, 6, -3.39937, 24.072, 31.9584, -3.573, -68.3982, 2.03961
4.76901, 6, -3.58343, 24.3569, 31.7538, -3.7531, -68.7558, 2.14011
4.77542, 6, -3.64482, 24.452, 31.6851, -3.81266, -68.8746, 2.17311
4.7844, 6, -3.76745, 24.6416, 31.5466, -3.93091, -69.1114, 2.23966
4.79138, 6, -3.88974, 24.8306, 31.4068, -4.04823, -69.3475, 2.30535
4.79939, 6, -4.01168, 25.0203, 31.2654, -4.16487, -69.5829, 2.36977
4.80745, 6, -4.13309, 25.2104, 31.1227, -4.28048, -69.8175, 2.43476
4.8155, 6, -4.25395, 25.4002, 30.9791, -4.3955, -70.0513, 2.49891
4.82339, 6, -4.37446, 25.5907, 30.8342, -4.50945, -70.2843, 2.56204
4.83144, 6, -4.49455, 25.7823, 30.6878, -4.62245, -70.5162, 2.62561
4.83939, 6, -4.61411, 25.9742, 30.54, -4.73447, -70.7469, 2.68807
4.84739, 6, -4.73286, 26.1659, 30.3911, -4.84544, -70.9769, 2.74989
4.85546, 6, -4.85067, 26.358, 30.2412, -4.95575, -71.2058, 2.812
4.86338, 6, -4.96755, 26.5509, 30.0899, -5.06523, -71.4339, 2.87316
4.87143, 6, -5.08368, 26.7439, 29.9369, -5.17386, -71.6611, 2.93356
4.8794, 6, -5.19922, 26.9366, 29.7827, -5.28168, -71.8872, 2.99453
4.88738, 6, -5.31462, 27.1301, 29.6275, -5.38868, -72.1126, 3.05444
4.89548, 6, -5.43002, 27.3243, 29.4711, -5.49471, -72.3368, 3.11366
4.90338, 6, -5.54528, 27.5184, 29.313, -5.5999, -72.5602, 3.17309
4.91138, 6, -5.66023, 27.7123, 29.1537, -5.70408, -72.7827, 3.23199
4.91945, 6, -5.77496, 27.907, 28.9935, -5.80765, -73.0042, 3.2903
4.92738, 6, -5.88949, 28.1024, 28.8323, -5.91039, -73.2249, 3.34909
4.93539, 6, -6.00393, 28.2974, 28.6693, -6.01229, -73.4443, 3.40742
4.94348, 6, -6.11828, 28.4922, 28.5046, -6.11345, -73.6629, 3.46473
4.95138, 6, -6.23245, 28.6879, 28.339, -6.21394, -73.8805, 3.52228
4.95946, 6, -6.34622, 28.8842, 28.1725, -6.31356, -74.0972, 3.57994
4.96738, 6, -6.45943, 29.0799, 28.0043, -6.41247, -74.3131, 3.63636
4.97542, 6, -6.57193, 29.2753, 27.8346, -6.51045, -74.5276, 3.69286
4.9836, 6, -6.68382, 29.4717, 27.6639, -6.60768, -74.7414, 3.74963
4.99148, 6, -6.79534, 29.6687, 27.4925, -6.704, -74.9544, 3.80538
4.99948, 6, -6.90655, 29.8653, 27.3193, -6.79967, -75.1662, 3.86098
5.00754, 6, -7.01738, 30.0619, 27.1444, -6.89446, -75.377, 3.91672
5.0155, 6, -7.12774, 30.2597, 26.9686, -6.98871, -75.5868, 3.97203
5.02344, 6, -7.23744, 30.4581, 26.7919, -7.08246, -75.7955, 4.02644
5.03277, 6, -7.34635, 30.6561, 26.6135, -7.17519, -76.0032, 4.08129
5.0394, 6, -7.45478, 30.8546, 26.4334, -7.26745, -76.2098, 4.13613
5.04748, 6, -7.56265, 31.0539, 26.2528, -7.35879, -76.4155, 4.18995
5.05578, 6, -7.67006, 31.2527, 26.0711, -7.44901, -76.6203, 4.24386
5.06349, 6, -7.77704, 31.4511, 25.8872, -7.53881, -76.8242, 4.29796
5.07167, 6, -7.88353, 31.65, 25.7018, -7.62778, -77.0272, 4.35142
5.07968, 6, -7.98943, 31.8498, 25.5159, -7.71586, -77.2292, 4.40469
5.08767, 6, -8.09484, 32.0493, 25.3286, -7.80366, -77.4301, 4.45861
5.09583, 6, -8.19993, 32.2484, 25.1395, -7.89059, -77.63, 4.51224
5.10425, 6, -8.30479, 32.4482, 24.9495, -7.97673, -77.8289, 4.5649
5.1119, 6, -8.40953, 32.6484, 24.7587, -8.06224, -78.0266, 4.6178
5.12048, 6, -8.51408, 32.8484, 24.5657, -8.14669, -78.2233, 4.67115
5.12798, 6, -8.61845, 33.0485, 24.3713, -8.23064, -78.419, 4.72381
5.13602, 6, -8.72255, 33.2496, 24.1765, -8.31347, -78.6133, 4.77614
5.14402, 6, -8.82632, 33.451, 23.9802, -8.3959, -78.8067, 4.82901
5.15233, 6, -8.87806, 33.5514, 23.782, -8.47758, -78.9989, 4.88155
5.15937, 6, -8.98125, 33.7522, 23.6826, -8.51817, -79.0947, 4.9075
5.16844, 6, -9.13536, 34.0545, 23.3831, -8.6387, -79.3804, 4.9855
5.17537, 6, -9.18653, 34.1553, 23.2822, -8.67855, -79.4751, 5.01178
5.18337, 6, -9.28856, 34.3567, 23.0793, -8.75774, -79.6637, 5.06415
5.1926, 6, -9.44057, 34.6602, 22.7738, -8.87538, -79.9449, 5.14137
5.19936, 6, -9.49097, 34.7618, 22.6712, -8.91437, -80.0381, 5.16726
5.20739, 6, -9.59142, 34.9648, 22.4645, -8.99167, -80.2239, 5.21947
5.21687, 6, -9.74123, 35.2687, 22.153, -9.10625, -80.5006, 5.29677
5.22337, 6, -9.79094, 35.3702, 22.0486, -9.14375, -80.5923, 5.32238
5.23145, 6, -9.89006, 35.5736, 21.8381, -9.21893, -80.7748, 5.37411
5.24099, 6, -10.0381, 35.878, 21.5204, -9.33017, -81.0465, 5.45147
5.24937, 6, -10.1362, 36.0813, 21.3069, -9.40355, -81.2262, 5.50255
5.25544, 6, -10.1852, 36.1833, 21.1994, -9.43982, -81.3157, 5.52826
5.26337, 6, -10.2828, 36.3875, 20.9836, -9.51258, -81.4936, 5.58029
5.27318, 6, -10.4285, 36.6932, 20.6584, -9.61985, -81.7585, 5.6578
5.27945, 6, -10.4768, 36.7953, 20.549, -9.65556, -81.8463, 5.68344
5.28895, 6, -10.5733, 37.0002, 20.3295, -9.7257, -82.0211, 5.73493
5.29535, 6, -10.6693, 37.2049, 20.1092, -9.79591, -82.1944, 5.78712
5.30344, 6, -10.7645, 37.4096, 19.8868, -9.86478, -82.3668, 5.83875
5.31137, 6, -10.8591, 37.615, 19.6632, -9.93351, -82.5382, 5.89024
5.31942, 6, -10.9531, 37.8211, 19.4389, -10.0009, -82.7085, 5.94238
5.32744, 6, -11.0466, 38.0268, 19.2126, -10.0679, -82.8778, 5.99441
5.33537, 6, -11.1397, 38.2322, 18.985, -10.1343, -83.0458, 6.04589
5.34343, 6, -11.2325, 38.4381, 18.7566, -10.1997, -83.2129, 6.09763
5.35136, 6, -11.3249, 38.6441, 18.5261, -10.265, -83.3789, 6.14993
5.35936, 6, -11.417, 38.8498, 18.2945, -10.329, -83.5438, 6.2019
5.36744, 6, -11.5089, 39.0562, 18.0622, -10.3933, -83.7077, 6.25347
5.37536, 6, -11.6005, 39.2636, 17.8278, -10.4558, -83.8704, 6.30575
5.38337, 6, -11.6921, 39.4707, 17.5921, -10.5191, -84.0322, 6.35826
5.39143, 6, -11.7833, 39.6776, 17.3554, -10.5802, -84.1927, 6.41005
5.39938, 6, -11.8744, 39.8851, 17.1168, -10.6417, -84.352, 6.46215
5.40737, 6, -11.9652, 40.0929, 16.8776, -10.7022, -84.5103, 6.51496
5.41542, 6, -12.0556, 40.3005, 16.6369, -10.7619, -84.6676, 6.5674
5.42336, 6, -12.1456, 40.5085, 16.3942, -10.8215, -84.8236, 6.61955
5.43136, 6, -12.2353, 40.7175, 16.1507, -10.8793, -84.9785, 6.67259
5.43944, 6, -12.3246, 40.9263, 15.9053, -10.9375, -85.1323, 6.72608
5.44741, 6, -12.4133, 41.1348, 15.6585, -10.9945, -85.2849, 6.77887
5.45537, 6, -12.5013, 41.3435, 15.4111, -11.0507, -85.4365, 6.8318
5.46343, 6, -12.588, 41.5517, 15.1621, -11.1068, -85.5865, 6.88534
5.47141, 6, -12.6731, 41.758, 14.9126, -11.1611, -85.7356, 6.93889
5.47939, 6, -12.7561, 41.9625, 14.6632, -11.2158, -85.8828, 6.99181
5.48755, 6, -12.8363, 42.1638, 14.4149, -11.2691, -86.028, 7.04518
5.49545, 6, -12.9125, 42.3588, 14.171, -11.3205, -86.1698, 7.09782
5.50355, 6, -12.9839, 42.5443, 13.934, -11.3709, -86.3067, 7.14825
5.51159, 6, -13.0505, 42.7191, 13.7079, -11.4175, -86.4364, 7.19652
5.51947, 6, -13.1116, 42.8815, 13.4975, -11.46, -86.556, 7.24198
5.52755, 6, -13.1669, 43.0288, 13.3063, -11.4989, -86.6634, 7.28316
5.53536, 6, -13.2168, 43.1598, 13.1384, -11.5323, -86.7559, 7.31855
5.5434, 6, -13.2617, 43.2742, 12.9968, -11.5593, -86.8331, 7.34813
5.55151, 6, -13.301, 43.3715, 12.8814, -11.5806, -86.8943, 7.37158
5.55941, 6, -13.3351, 43.4518, 12.7913, -11.5966, -86.9406, 7.38946
5.56762, 6, -13.3635, 43.516, 12.7242, -11.6082, -86.9744, 7.40251
5.57564, 6, -13.3864, 43.5652, 12.6763, -11.6161, -86.9976, 7.41141
5.58364, 6, -13.4042, 43.6013, 12.6437, -11.6213, -87.0127, 7.41727
5.59224, 6, -13.4175, 43.6272, 12.6226, -11.6244, -87.0217, 7.42076
5.5998, 6, -13.4272, 43.6455, 12.6096, -11.6261, -87.0267, 7.42262
5.60778, 6, -13.4339, 43.6577, 12.6019, -11.627, -87.0292, 7.42365
5.6162, 7, -13.4381, 43.6648, 12.5977, -11.6274, -87.0305, 7.42419
5.624, 7, -13.4403, 43.6685, 12.5953, -11.6277, -87.0311, 7.42444
5.63254, 7, -13.4415, 43.6705, 12.5937, -11.6278, -87.0314, 7.42456
5.64, 7, -13.4418, 43.6718, 12.5926, -11.628, -87.0315, 7.42461
5.64847, 7, -13.4419, 43.6728, 12.5918, -11.628, -87.0315, 7.42464
5.65598, 7, -13.4419, 43.6733, 12.5915, -11.628, -87.0315, 7.42468
5.66335, 7, -13.442, 43.6745, 12.5912, -11.628, -87.0315, 7.42467
5.67243, 7, -13.442, 43.6765, 12.5911, -11.628, -87.0314, 7.42466
5.68026, 7, -13.442, 43.6772, 12.5912, -11.6281, -87.0314, 7.42466
5.68736, 7, -13.4421, 43.6784, 12.5912, -11.628, -87.0314, 7.42468
5.69653, 7, -13.442, 43.68, 12.5912, -11.628, -87.0313, 7.4247
5.70334, 7, -13.442, 43.6804, 12.5912, -11.628, -87.0313, 7.42471
5.7114, 7, -13.442, 43.681, 12.5914, -11.6281, -87.0313, 7.42469
5.7194, 7, -13.442, 43.6813, 12.5916, -11.628, -87.0312, 7.42469
5.72736, 7, -13.442, 43.6814, 12.5918, -11.628, -87.0311, 7.42466
5.7375, 7, -13.4419, 43.6812, 12.5919, -11.6281, -87.031, 7.42466
