hehonglu123/ABB_Primitive_Study/realrobot/movel_30_car/curve_exe_v1500_z20.csv
timestamp, cmd_num, J1, J2, J3, J4, J5, J6
0.000361, -1, -13.4406, 43.6798, 12.5933, -11.6275, -87.0288, 7.42499
0.002231, -1, -13.4406, 43.6798, 12.5933, -11.6275, -87.0288, 7.42499
0.008326, -1, -13.4406, 43.6798, 12.5933, -11.6275, -87.0288, 7.42497
0.036151, -1, -13.4406, 43.6798, 12.5933, -11.6275, -87.0287, 7.42501
0.037384, -1, -13.4406, 43.6798, 12.5933, -11.6275, -87.0287, 7.42501
0.038644, -1, -13.4406, 43.6798, 12.5933, -11.6275, -87.0287, 7.42501
0.040935, -1, -13.4406, 43.6798, 12.5933, -11.6275, -87.0287, 7.42501
0.048158, -1, -13.4404, 43.6797, 12.5933, -11.6275, -87.0288, 7.42504
0.055679, -1, -13.4401, 43.6795, 12.5934, -11.6275, -87.0287, 7.42505
0.064052, -1, -13.4355, 43.6762, 12.5938, -11.6274, -87.0286, 7.42506
0.071684, -1, -13.4324, 43.6739, 12.5942, -11.6273, -87.0283, 7.42501
0.080272, -1, -13.4177, 43.662, 12.597, -11.6235, -87.0236, 7.42363
0.087067, -1, -13.4105, 43.6562, 12.5985, -11.62, -87.0197, 7.4218
0.095116, -1, -13.3909, 43.6407, 12.6029, -11.6081, -87.0057, 7.41336
0.104279, -1, -13.3467, 43.6043, 12.6143, -11.571, -86.9618, 7.38601
0.11105, -1, -13.3277, 43.5884, 12.6197, -11.5515, -86.9393, 7.37168
0.119102, -1, -13.2825, 43.5497, 12.6327, -11.4981, -86.8783, 7.33301
0.128463, -1, -13.1944, 43.4724, 12.6604, -11.3775, -86.7384, 7.24343
0.135058, -1, -13.1593, 43.4413, 12.6719, -11.3247, -86.6774, 7.20433
0.143097, -1, -13.0806, 43.3706, 12.6981, -11.1995, -86.532, 7.11206
0.152636, -1, -12.9401, 43.2433, 12.7465, -10.9621, -86.2557, 6.93553
0.161446, -1, -12.8316, 43.1445, 12.7846, -10.7725, -86.0346, 6.79425
0.167114, -1, -12.7731, 43.0913, 12.8051, -10.6691, -85.9141, 6.71705
0.176714, -1, -12.5823, 42.9178, 12.8721, -10.3295, -85.518, 6.46335
0.185435, -1, -12.5137, 42.8556, 12.8962, -10.2084, -85.2312, 6.28001
0.191124, -1, -12.3699, 42.7255, 12.9464, -9.95703, -85.0828, 6.185
0.200664, -1, -12.219, 42.5892, 12.9988, -9.69673, -84.7785, 5.99002
0.208037, -1, -12.0622, 42.4477, 13.0528, -9.43052, -84.467, 5.79062
0.215109, -1, -11.9001, 42.3022, 13.1081, -9.16086, -84.1516, 5.58827
0.223095, -1, -11.7335, 42.1536, 13.1641, -8.8891, -83.8339, 5.38472
0.231071, -1, -11.564, 42.0028, 13.2208, -8.61624, -83.5149, 5.18056
0.24024, -1, -11.3928, 41.851, 13.2778, -8.34298, -83.1951, 4.97592
0.24804, -1, -11.2211, 41.6987, 13.335, -8.06945, -82.8749, 4.77098
0.256049, -1, -11.049, 41.5468, 13.3922, -7.79561, -82.5544, 4.56605
0.263044, -1, -10.8768, 41.3954, 13.4496, -7.5219, -82.2338, 4.36074
0.272038, -1, -10.7044, 41.2439, 13.5072, -7.24808, -81.9129, 4.15572
0.280112, -1, -10.5319, 41.0922, 13.5649, -6.97391, -81.5921, 3.95068
0.287056, -1, -10.3592, 40.9405, 13.6226, -6.70008, -81.2715, 3.74551
0.29506, -1, -10.1869, 40.7891, 13.6802, -6.42637, -80.9509, 3.54035
0.304104, -1, -10.0148, 40.6376, 13.7376, -6.15258, -80.6308, 3.33512
0.311101, -1, -9.84322, 40.4859, 13.795, -5.87898, -80.311, 3.13024
0.319376, -1, -9.67229, 40.3337, 13.8522, -5.60551, -79.9913, 2.92551
0.327055, -1, -9.50193, 40.1814, 13.9095, -5.33221, -79.6716, 2.72099
0.335048, -1, -9.33229, 40.0294, 13.9668, -5.05888, -79.3521, 2.51648
0.344079, -1, -9.16317, 39.8774, 14.0239, -4.78601, -79.0326, 2.31219
0.352111, -1, -8.99436, 39.7254, 14.081, -4.51364, -78.7135, 2.10802
0.360107, -1, -8.82546, 39.5734, 14.138, -4.2415, -78.3945, 1.90417
0.367903, -1, -8.6562, 39.4217, 14.195, -3.97002, -78.0764, 1.70066
0.376103, -1, -8.48659, 39.2708, 14.2519, -3.69878, -77.7589, 1.49737
0.383067, -1, -8.31675, 39.1202, 14.3088, -3.42778, -77.4417, 1.29445
0.392503, -1, -8.14685, 38.9699, 14.3656, -3.15758, -77.1254, 1.0918
0.399138, -1, -7.97671, 38.8197, 14.4224, -2.88772, -76.8097, 0.889789
0.407238, -1, -7.80659, 38.6699, 14.4789, -2.61837, -76.4944, 0.688134
0.415142, -1, -7.63626, 38.5207, 14.5353, -2.3497, -76.1795, 0.48691
0.424029, -1, -7.46588, 38.3717, 14.5916, -2.08153, -75.8653, 0.286142
0.432038, -1, -7.29567, 38.2228, 14.6479, -1.81358, -75.5515, 0.0857686
0.44088, -1, -7.12611, 38.0739, 14.7041, -1.54633, -75.2388, -0.114344
0.448066, -1, -6.9575, 37.9253, 14.7602, -1.27998, -74.9269, -0.313677
0.455147, -1, -6.78991, 37.7771, 14.816, -1.01415, -74.6157, -0.512581
0.4631, -1, -6.62319, 37.6291, 14.8715, -0.749135, -74.3055, -0.711072
0.471157, -1, -6.45735, 37.4815, 14.9269, -0.484998, -73.9958, -0.909004
0.479441, -1, -6.29293, 37.3341, 14.9823, -0.221401, -73.6871, -1.10656
0.487231, -1, -6.12948, 37.1872, 15.0375, 0.0416732, -73.3793, -1.30338
0.495569, -1, -5.96685, 37.0411, 15.0926, 0.303748, -73.0723, -1.49946
0.503463, -1, -5.80476, 36.8957, 15.1475, 0.565014, -72.7666, -1.69507
0.511437, -1, -5.64285, 36.7507, 15.2021, 0.825558, -72.4615, -1.89007
0.519551, -1, -5.48086, 36.606, 15.2566, 1.08506, -72.1575, -2.08441
0.52814, -1, -5.31883, 36.4618, 15.311, 1.34376, -71.8545, -2.27823
0.535588, -1, -5.15694, 36.3184, 15.3653, 1.60179, -71.5523, -2.47134
0.543804, -1, -4.99525, 36.1754, 15.4194, 1.85898, -71.2513, -2.6636
0.552144, -1, -4.83368, 36.0328, 15.4733, 2.11504, -70.9514, -2.85547
0.559649, -1, -4.75302, 35.9615, 15.5269, 2.37019, -70.6526, -3.04652
0.568045, -1, -4.51106, 35.7483, 15.5804, 2.62439, -70.3547, -3.23716
0.575749, -1, -4.43044, 35.6775, 15.607, 2.751, -70.2063, -3.42696
0.584962, -1, -4.18922, 35.4662, 15.6864, 3.12962, -69.763, -3.61598
0.592252, -1, -4.02949, 35.3258, 15.7393, 3.38135, -69.4688, -3.80417
0.599095, -1, -3.9501, 35.2557, 15.7657, 3.50678, -69.322, -3.89796
0.60905, -1, -3.71388, 35.046, 15.8443, 3.88149, -68.8831, -4.17838
0.616399, -1, -3.55772, 34.9071, 15.8964, 4.13011, -68.5919, -4.36463
0.623041, -1, -3.47997, 34.838, 15.9223, 4.2541, -68.4466, -4.45761
0.633742, -1, -3.24812, 34.6314, 16, 4.62454, -68.0123, -4.73484
0.640855, -1, -3.09489, 34.4943, 16.0516, 4.87028, -67.7244, -4.91864
0.648614, -1, -2.94271, 34.3576, 16.1032, 5.11549, -67.4376, -5.10185
0.65654, -1, -2.79123, 34.2215, 16.1545, 5.35944, -67.1521, -5.2845
0.663086, -1, -2.71562, 34.1538, 16.1799, 5.48097, -67.0097, -5.37553
0.672658, -1, -2.48896, 33.9517, 16.2562, 5.84409, -66.5849, -5.64769
0.681806, -1, -2.33788, 33.8176, 16.3068, 6.08494, -66.3031, -5.82774
0.68878, -1, -2.26244, 33.7507, 16.3321, 6.20491, -66.1626, -6.00743
0.697441, -1, -2.11173, 33.6171, 16.3824, 6.44409, -65.8822, -6.18606
0.703061, -1, -1.96137, 33.484, 16.4325, 6.68249, -65.6029, -6.27518
0.712024, -1, -1.8117, 33.3517, 16.4822, 6.92002, -65.325, -6.453
0.720075, -1, -1.66234, 33.2197, 16.5316, 7.15634, -65.048, -6.63002
0.727029, -1, -1.513, 33.0882, 16.5809, 7.39162, -64.7722, -6.80658
0.73605, -1, -1.36394, 32.9571, 16.6301, 7.62589, -64.4977, -6.98203
0.744063, -1, -1.21527, 32.8265, 16.6792, 7.85936, -64.2242, -7.15688
0.751047, -1, -1.0677, 32.6966, 16.728, 8.0917, -63.952, -7.33098
0.760045, -1, -0.921431, 32.5676, 16.7767, 8.32323, -63.6809, -7.50439
0.768025, -1, -0.776401, 32.439, 16.825, 8.55391, -63.4111, -7.67725
0.775028, -1, -0.632304, 32.311, 16.8732, 8.78363, -63.1424, -7.84923
0.784042, -1, -0.489007, 32.1836, 16.9212, 9.01207, -62.8748, -8.02037
0.792017, -1, -0.346925, 32.0566, 16.9691, 9.23955, -62.6086, -8.19063
0.799028, -1, -0.205865, 31.9304, 17.0167, 9.46614, -62.3433, -8.36003
0.808021, -1, -0.0658238, 31.8047, 17.064, 9.69165, -62.0792, -8.52874
0.81608, -1, 0.0733584, 31.6795, 17.1113, 9.91605, -61.8162, -8.69674
0.825027, -1, 0.212257, 31.5547, 17.1581, 10.1397, -61.5542, -8.86426
0.832015, -1, 0.351224, 31.4303, 17.2048, 10.3625, -61.2932, -9.03094
0.841096, -1, 0.490205, 31.3064, 17.2513, 10.5841, -61.0333, -9.19691
0.847046, -1, 0.62913, 31.183, 17.2976, 10.8048, -60.7745, -9.36208
0.855034, -1, 0.767744, 31.0604, 17.3438, 11.0245, -60.517, -9.52651
0.864037, -1, 0.905924, 30.9381, 17.3897, 11.2436, -60.2606, -9.69042
0.872062, -1, 1.0436, 30.8163, 17.4355, 11.4615, -60.0052, -9.85359
0.8791, -1, 1.18094, 30.695, 17.4811, 11.6784, -59.7511, -10.0163
0.888084, -1, 1.31806, 30.5741, 17.5264, 11.8946, -59.4982, -10.1781
0.896019, -1, 1.4548, 30.454, 17.5717, 12.11, -59.2466, -10.3391
0.904016, -1, 1.59103, 30.3345, 17.6167, 12.3245, -58.9958, -10.4995
0.912089, -1, 1.72646, 30.2155, 17.6616, 12.5379, -58.7458, -10.6591
0.920019, -1, 1.86088, 30.0971, 17.7062, 12.7505, -58.4969, -10.8182
0.927216, -1, 1.9943, 29.9791, 17.7507, 12.9623, -58.2488, -10.9767
0.935173, -1, 2.12693, 29.8614, 17.795, 13.173, -58.0016, -11.1347
0.943037, -1, 2.25882, 29.7443, 17.839, 13.3827, -57.7553, -11.292
0.951165, -1, 2.38979, 29.6278, 17.8828, 13.5919, -57.51, -11.4485
0.959054, -1, 2.51991, 29.5117, 17.9266, 13.8003, -57.2658, -11.6044
0.967091, -1, 2.64894, 29.3959, 17.9702, 14.0077, -57.0227, -11.7597
0.975163, -1, 2.77712, 29.2805, 18.0135, 14.2144, -56.7809, -11.9144
0.983197, -1, 2.90472, 29.1653, 18.0567, 14.42, -56.5399, -12.0687
0.991306, -1, 3.03223, 29.0506, 18.0997, 14.625, -56.3003, -12.2224
0.999371, -1, 3.15966, 28.9366, 18.1424, 14.829, -56.0614, -12.3752
1.00821, -1, 3.28711, 28.823, 18.185, 15.0322, -55.8236, -12.5274
1.01546, -1, 3.41427, 28.7099, 18.2275, 15.2347, -55.5866, -12.6789
1.02357, -1, 3.54124, 28.5974, 18.2699, 15.4365, -55.3506, -12.8297
1.03237, -1, 3.66792, 28.4852, 18.3121, 15.6377, -55.1153, -12.9801
1.03956, -1, 3.79428, 28.3734, 18.3541, 15.8376, -54.8808, -13.1297
1.04816, -1, 3.92036, 28.2623, 18.3959, 16.0369, -54.6474, -13.279
1.0564, -1, 3.98339, 28.1518, 18.4376, 16.2355, -54.4144, -13.4279
1.06365, -1, 4.10909, 28.0967, 18.4791, 16.4332, -54.1826, -13.5758
1.07204, -1, 4.29661, 27.932, 18.5204, 16.6301, -53.9517, -13.7232
1.07905, -1, 4.3588, 27.8773, 18.5411, 16.7283, -53.8367, -13.7967
1.08702, -1, 4.48257, 27.7681, 18.5822, 16.9239, -53.6073, -13.9431
1.0961, -1, 4.66737, 27.6048, 18.6436, 17.2165, -53.265, -14.162
1.10305, -1, 4.72868, 27.5506, 18.6639, 17.3135, -53.1513, -14.2346
1.11103, -1, 4.85077, 27.4426, 18.7045, 17.5071, -52.9247, -14.3796
1.12036, -1, 5.03256, 27.2812, 18.7653, 17.796, -52.5861, -14.5961
1.12711, -1, 5.09282, 27.2276, 18.7854, 17.8919, -52.4738, -14.6679
1.13507, -1, 5.21257, 27.1207, 18.8256, 18.0837, -52.2498, -14.8114
1.14448, -1, 5.3907, 26.961, 18.8855, 18.3694, -51.9152, -15.0251
1.15325, -1, 5.50867, 26.855, 18.9254, 18.5591, -51.693, -15.1669
1.15902, -1, 5.56748, 26.8022, 18.9452, 18.6538, -51.5823, -15.2377
1.16858, -1, 5.74316, 26.6447, 19.0046, 18.9366, -51.2511, -15.4494
1.17732, -1, 5.86006, 26.5401, 19.0439, 19.1245, -51.0312, -15.59
1.18304, -1, 5.91839, 26.4879, 19.0636, 19.2181, -50.9216, -15.6602
1.19255, -1, 6.03488, 26.3839, 19.1028, 19.4046, -50.7029, -15.7999
1.20002, -1, 6.15122, 26.2801, 19.1418, 19.5906, -50.4851, -15.9391
1.20701, -1, 6.26764, 26.1766, 19.1806, 19.776, -50.2679, -16.0779
1.21712, -1, 6.44223, 26.022, 19.2386, 20.0527, -49.9437, -16.2851
1.22308, -1, 6.50035, 25.9707, 19.2579, 20.1446, -49.836, -16.354
1.23205, -1, 6.61637, 25.8683, 19.2963, 20.3276, -49.6212, -16.4915
1.24, -1, 6.73215, 25.7663, 19.3346, 20.5103, -49.4072, -16.6287
1.248, -1, 6.84748, 25.6647, 19.3727, 20.6926, -49.194, -16.7652
1.2551, -1, 6.96225, 25.5634, 19.4109, 20.8741, -48.9816, -16.901
1.26305, -1, 7.07662, 25.4623, 19.449, 21.055, -48.7703, -17.0366
1.27199, -1, 7.19051, 25.3618, 19.4868, 21.2351, -48.5594, -17.1713
1.27901, -1, 7.30391, 25.2617, 19.5245, 21.4147, -48.3492, -17.3056
1.28803, -1, 7.41687, 25.1619, 19.5621, 21.5939, -48.1395, -17.4396
1.296, -1, 7.52928, 25.0626, 19.5995, 21.7724, -47.9305, -17.5732
1.30301, -1, 7.64119, 24.9635, 19.6369, 21.9502, -47.7221, -17.7062
1.31201, -1, 7.75255, 24.8647, 19.6742, 22.1274, -47.5144, -17.8392
1.32001, -1, 7.86334, 24.7662, 19.7111, 22.3042, -47.3071, -17.9715
1.32701, -1, 7.97379, 24.6678, 19.7482, 22.4807, -47.1006, -18.1033
1.336, -1, 8.08381, 24.5698, 19.7851, 22.6563, -46.8948, -18.2345
1.344, -1, 8.19339, 24.4721, 19.8216, 22.8312, -46.6896, -18.3654
1.35209, -1, 8.30265, 24.3746, 19.8581, 23.0057, -46.4852, -18.496
1.36002, -1, 8.41143, 24.2774, 19.8946, 23.1796, -46.2816, -18.6263
1.36708, -1, 8.51961, 24.1806, 19.9309, 23.353, -46.0786, -18.7559
1.37603, -1, 8.62727, 24.084, 19.9671, 23.5257, -45.8764, -18.8854
1.38401, -1, 8.73455, 23.9876, 20.0033, 23.6979, -45.6748, -19.0146
1.39206, -1, 8.84174, 23.8917, 20.0392, 23.8694, -45.4738, -19.1429
1.40001, -1, 8.94892, 23.7962, 20.0751, 24.0407, -45.2737, -19.2711
1.40721, -1, 9.05599, 23.7011, 20.1111, 24.2115, -45.0741, -19.3987
1.41515, -1, 9.1631, 23.6064, 20.1468, 24.3817, -44.875, -19.5259
1.42311, -1, 9.26996, 23.512, 20.1823, 24.5513, -44.6764, -19.6528
1.43234, -1, 9.37659, 23.4178, 20.2179, 24.7203, -44.4782, -19.7796
1.43915, -1, 9.48289, 23.3239, 20.2532, 24.8888, -44.2807, -19.9056
1.44719, -1, 9.58899, 23.2301, 20.2885, 25.0571, -44.0836, -20.0318
1.45504, -1, 9.6948, 23.1365, 20.3237, 25.2247, -43.887, -20.1574
1.464, -1, 9.80029, 23.0434, 20.3587, 25.3917, -43.6911, -20.2823
1.47199, -1, 9.90555, 22.9504, 20.3936, 25.5583, -43.496, -20.4072
1.48091, -1, 10.0104, 22.8577, 20.4285, 25.7245, -43.3015, -20.5315
1.48801, -1, 10.1149, 22.7652, 20.4632, 25.8904, -43.1076, -20.6555
1.496, -1, 10.219, 22.673, 20.4976, 26.0557, -42.914, -20.7791
1.50495, -1, 10.3227, 22.5811, 20.5322, 26.2205, -42.7212, -20.9026
1.512, -1, 10.4259, 22.4893, 20.5666, 26.3847, -42.5287, -21.0256
1.52006, -1, 10.5289, 22.3978, 20.601, 26.5485, -42.337, -21.1485
1.5275, -1, 10.6316, 22.3067, 20.6353, 26.7119, -42.1457, -21.2709
1.53555, -1, 10.7339, 22.2159, 20.6694, 26.8747, -41.9552, -21.3926
1.54413, -1, 10.8358, 22.1253, 20.7034, 27.0372, -41.7651, -21.5142
1.55156, -1, 10.9373, 22.035, 20.7373, 27.1989, -41.5756, -21.6353
1.55981, -1, 11.0384, 21.9449, 20.7714, 27.3604, -41.3864, -21.7562
1.56821, -1, 11.1392, 21.855, 20.8051, 27.5216, -41.1978, -21.8768
1.57501, -1, 11.1895, 21.8101, 20.8219, 27.6021, -41.1037, -21.9369
1.58403, -1, 11.3401, 21.6757, 20.8724, 27.8425, -40.8219, -22.1169
1.59102, -1, 11.3901, 21.6311, 20.8892, 27.9225, -40.7283, -22.1769
1.60005, -1, 11.5396, 21.4975, 20.9392, 28.1614, -40.448, -22.3561
1.60703, -1, 11.5892, 21.4531, 20.9559, 28.2409, -40.3547, -22.4156
1.61623, -1, 11.7377, 21.3203, 21.0059, 28.4791, -40.076, -22.5937
1.62305, -1, 11.7871, 21.2762, 21.0224, 28.5581, -39.9832, -22.6528
1.63248, -1, 11.9355, 21.1443, 21.072, 28.7948, -39.706, -22.8298
1.639, -1, 11.985, 21.1005, 21.0886, 28.8734, -39.6138, -22.8886
1.64846, -1, 12.1333, 20.9692, 21.138, 29.1088, -39.338, -23.0649
1.65678, -1, 12.232, 20.882, 21.1707, 29.2656, -39.1546, -23.182
1.6646, -1, 12.3303, 20.795, 21.2035, 29.4218, -38.9718, -23.2991
1.67254, -1, 12.4285, 20.7083, 21.2361, 29.5776, -38.7896, -23.4156
1.68059, -1, 12.5264, 20.6218, 21.2687, 29.7328, -38.6076, -23.5321
1.6887, -1, 12.6242, 20.5354, 21.3012, 29.8878, -38.4263, -23.648
1.69652, -1, 12.6729, 20.4922, 21.3175, 29.9651, -38.3358, -23.7059
1.70401, -1, 12.7702, 20.4061, 21.3498, 30.1196, -38.1552, -23.8214
1.71208, -1, 12.8672, 20.3201, 21.3819, 30.2736, -37.9752, -23.9363
1.71999, -1, 12.9639, 20.2341, 21.4142, 30.4272, -37.7956, -24.0515
1.72799, -1, 13.0604, 20.1485, 21.4465, 30.5804, -37.6163, -24.166
1.73599, -1, 13.1565, 20.0631, 21.4785, 30.7331, -37.4373, -24.2805
1.74398, -1, 13.2521, 19.978, 21.5104, 30.8856, -37.2587, -24.3947
1.75205, -1, 13.3476, 19.893, 21.5424, 31.0378, -37.0804, -24.5086
1.75999, -1, 13.4428, 19.8083, 21.5742, 31.1896, -36.9026, -24.6223
1.76801, -1, 13.5378, 19.7239, 21.606, 31.341, -36.7251, -24.7355
1.77603, -1, 13.6326, 19.6397, 21.6377, 31.492, -36.5482, -24.8486
1.78398, -1, 13.7272, 19.5556, 21.6694, 31.6425, -36.3716, -24.9615
1.79099, -1, 13.8216, 19.4717, 21.7009, 31.7929, -36.1953, -25.0739
1.79998, -1, 13.9158, 19.3881, 21.7324, 31.943, -36.0196, -25.1865
1.808, -1, 14.0098, 19.3046, 21.7639, 32.0927, -35.8443, -25.2986
1.81499, -1, 14.1038, 19.2214, 21.7953, 32.242, -35.6694, -25.4105
1.82398, -1, 14.1975, 19.1384, 21.8264, 32.3909, -35.4949, -25.5224
1.833, -1, 14.2909, 19.0555, 21.8576, 32.5395, -35.3209, -25.6338
1.83899, -1, 14.384, 18.9728, 21.8887, 32.688, -35.1473, -25.7451
1.848, -1, 14.4767, 18.8903, 21.9198, 32.8362, -34.9741, -25.8557
1.85601, -1, 14.5692, 18.8079, 21.9508, 32.9839, -34.8015, -25.9662
1.86405, -1, 14.6613, 18.7256, 21.9818, 33.1312, -34.6292, -26.0765
1.872, -1, 14.7532, 18.6436, 22.0126, 33.2782, -34.4572, -26.1863
1.88002, -1, 14.8451, 18.5617, 22.0433, 33.4249, -34.2855, -26.2962
1.88801, -1, 14.9367, 18.4801, 22.074, 33.5712, -34.114, -26.4056
1.89598, -1, 15.0282, 18.3986, 22.1048, 33.7174, -33.9429, -26.5148
1.90405, -1, 15.1194, 18.3174, 22.1353, 33.8631, -33.7723, -26.624
1.91198, -1, 15.2106, 18.2365, 22.1658, 34.0084, -33.6018, -26.733
1.91998, -1, 15.3019, 18.1556, 22.1963, 34.1533, -33.4317, -26.8417
1.92806, -1, 15.393, 18.0749, 22.2268, 34.2981, -33.2618, -26.95
1.93598, -1, 15.4841, 17.9944, 22.257, 34.4428, -33.0926, -27.058
1.94397, -1, 15.5751, 17.914, 22.2873, 34.5871, -32.9237, -27.1659
1.95205, -1, 15.6659, 17.8338, 22.3176, 34.7309, -32.7553, -27.2733
1.96, -1, 15.7565, 17.7537, 22.3477, 34.8746, -32.5872, -27.3809
1.96709, -1, 15.8468, 17.6738, 22.3776, 35.0177, -32.4194, -27.488
1.97506, -1, 15.937, 17.594, 22.4076, 35.1606, -32.252, -27.5951
1.98313, -1, 16.0269, 17.5143, 22.4377, 35.3034, -32.0848, -27.702
1.99123, -1, 16.1164, 17.4348, 22.4675, 35.4459, -31.9182, -27.8089
1.99926, -1, 16.2058, 17.3555, 22.4972, 35.5881, -31.7518, -27.9154
2.00728, -1, 16.2949, 17.2762, 22.527, 35.7299, -31.5856, -28.0215
2.0154, -1, 16.3836, 17.1972, 22.5567, 35.8714, -31.4201, -28.1276
2.02346, -1, 16.4722, 17.1183, 22.5863, 36.0127, -31.2546, -28.2332
2.03207, -1, 16.5604, 17.0396, 22.6158, 36.1539, -31.0895, -28.3388
2.04047, -1, 16.6487, 16.9611, 22.6454, 36.2949, -30.9246, -28.4439
2.04761, -1, 16.7369, 16.8827, 22.6749, 36.4354, -30.7599, -28.5493
2.05609, -1, 16.8249, 16.8045, 22.7042, 36.5757, -30.5957, -28.6542
2.06414, -1, 16.9128, 16.7266, 22.7335, 36.7156, -30.4317, -28.7589
2.07173, -1, 16.9567, 16.6877, 22.7483, 36.8553, -30.2683, -28.8638
2.07998, -1, 17.0882, 16.571, 22.7923, 36.9948, -30.1048, -28.9681
2.08705, -1, 17.132, 16.5322, 22.8069, 37.0645, -30.0232, -29.0204
2.09603, -1, 17.2617, 16.4166, 22.8504, 37.2729, -29.7788, -29.1762
2.10308, -1, 17.3036, 16.3789, 22.8648, 37.3422, -29.6977, -29.2281
2.11222, -1, 17.4221, 16.2717, 22.9063, 37.5471, -29.4573, -29.3817
2.11898, -1, 17.4586, 16.2385, 22.9194, 37.6138, -29.3792, -29.4318
2.1286, -1, 17.5599, 16.1482, 22.9561, 37.8029, -29.1569, -29.5738
2.1365, -1, 17.6196, 16.0959, 22.9779, 37.9154, -29.0248, -29.6583
2.14441, -1, 17.6721, 16.0496, 22.9971, 38.0125, -28.9101, -29.7314
2.15287, -1, 17.7188, 16.0081, 23.0131, 38.0913, -28.817, -29.7916
2.16054, -1, 17.76, 15.9704, 23.0264, 38.1517, -28.7452, -29.8372
2.16855, -1, 17.7959, 15.9379, 23.0371, 38.1933, -28.695, -29.8694
2.17654, -1, 17.8252, 15.9123, 23.0447, 38.2209, -28.662, -29.8906
2.18483, -1, 17.8485, 15.8938, 23.05, 38.2377, -28.6419, -29.9031
2.191, -1, 17.8578, 15.8869, 23.0519, 38.2431, -28.6354, -29.907
2.19997, -1, 17.8717, 15.8766, 23.0546, 38.2498, -28.6272, -29.9118
2.20871, 2, 17.8795, 15.8707, 23.056, 38.2531, -28.6232, -29.9141
2.21601, 2, 17.8832, 15.8676, 23.0567, 38.2545, -28.6213, -29.9152
2.22397, 2, 17.8848, 15.8659, 23.057, 38.2553, -28.6205, -29.9157
2.23201, 2, 17.8849, 15.865, 23.0572, 38.2556, -28.6201, -29.9159
2.23998, 2, 17.8844, 15.8644, 23.0573, 38.2558, -28.6199, -29.916
2.24798, 2, 17.8838, 15.8641, 23.0573, 38.2558, -28.6199, -29.9161
2.25601, 2, 17.8835, 15.864, 23.0573, 38.2559, -28.6199, -29.916
2.26399, 2, 17.8833, 15.8639, 23.0573, 38.2559, -28.6199, -29.9161
2.27196, 2, 17.8832, 15.8638, 23.0573, 38.2559, -28.6198, -29.9161
2.28, 2, 17.8832, 15.8636, 23.0573, 38.2559, -28.6198, -29.9161
2.288, 2, 17.8832, 15.8635, 23.0573, 38.2559, -28.6199, -29.9161
2.29598, 2, 17.8835, 15.8633, 23.0574, 38.2559, -28.6199, -29.9161
2.30401, 2, 17.8839, 15.8632, 23.0574, 38.2559, -28.6199, -29.916
2.31198, 2, 17.8843, 15.863, 23.0574, 38.2559, -28.6199, -29.9161
2.31996, 2, 17.8849, 15.8628, 23.0574, 38.2559, -28.6199, -29.9161
2.32803, 2, 17.8855, 15.8627, 23.0574, 38.2559, -28.6199, -29.9161
2.33701, 2, 17.886, 15.8626, 23.0574, 38.2559, -28.62, -29.916
2.34396, 2, 17.8864, 15.8626, 23.0574, 38.2559, -28.62, -29.916
2.35201, 2, 17.8867, 15.8625, 23.0574, 38.2559, -28.62, -29.916
2.36001, 2, 17.8868, 15.8625, 23.0574, 38.2559, -28.62, -29.916
2.36703, 2, 17.8869, 15.8625, 23.0574, 38.2559, -28.62, -29.916
2.37603, 2, 17.887, 15.8625, 23.0574, 38.2559, -28.62, -29.916
2.38401, 2, 17.887, 15.8625, 23.0574, 38.2559, -28.62, -29.916
2.39197, 2, 17.887, 15.8625, 23.0574, 38.2559, -28.62, -29.916
2.4, 2, 17.887, 15.8625, 23.0574, 38.2559, -28.6201, -29.916
2.40799, 2, 17.8869, 15.8625, 23.0574, 38.2559, -28.6201, -29.916
2.41597, 2, 17.8867, 15.8625, 23.0574, 38.2559, -28.6202, -29.916
2.42401, 2, 17.8866, 15.8624, 23.0574, 38.2559, -28.6202, -29.916
2.43204, 2, 17.8865, 15.8624, 23.0574, 38.2558, -28.6202, -29.916
2.43915, 2, 17.8865, 15.8624, 23.0574, 38.2558, -28.6202, -29.916
2.44714, 2, 17.8864, 15.8624, 23.0574, 38.2559, -28.6202, -29.916
2.45498, 2, 17.8864, 15.8624, 23.0574, 38.2559, -28.6202, -29.916
2.46398, 2, 17.8864, 15.8624, 23.0574, 38.2559, -28.6202, -29.916
2.472, 2, 17.8864, 15.8624, 23.0574, 38.2559, -28.6203, -29.916
2.47999, 2, 17.8864, 15.8624, 23.0574, 38.2559, -28.6203, -29.916
2.48716, 2, 17.8864, 15.8624, 23.0574, 38.2559, -28.6203, -29.916
2.49519, 2, 17.8864, 15.8624, 23.0574, 38.2558, -28.6203, -29.916
2.50327, 2, 17.8864, 15.8624, 23.0574, 38.2558, -28.6203, -29.9159
2.51177, 2, 17.8864, 15.8624, 23.0574, 38.2559, -28.6203, -29.9159
2.52004, 2, 17.8864, 15.8624, 23.0574, 38.2558, -28.6203, -29.9159
2.52807, 2, 17.8863, 15.8624, 23.0574, 38.2558, -28.6204, -29.916
2.53589, 2, 17.8863, 15.8624, 23.0574, 38.2558, -28.6204, -29.9159
2.54412, 2, 17.8863, 15.8623, 23.0574, 38.2558, -28.6205, -29.9159
2.55155, 2, 17.8863, 15.8624, 23.0574, 38.2558, -28.6205, -29.9159
2.56007, 2, 17.8863, 15.8624, 23.0574, 38.2558, -28.6205, -29.9159
2.56753, 2, 17.8863, 15.8624, 23.0574, 38.2558, -28.6205, -29.9158
2.57614, 2, 17.8862, 15.8624, 23.0574, 38.2558, -28.6205, -29.9159
2.58382, 2, 17.8862, 15.8623, 23.0574, 38.2558, -28.6205, -29.9159
2.59205, 2, 17.8862, 15.8624, 23.0574, 38.2558, -28.6205, -29.9159
2.59896, 2, 17.8862, 15.8624, 23.0574, 38.2558, -28.6206, -29.9158
2.60809, 2, 17.8862, 15.8624, 23.0574, 38.2559, -28.6206, -29.9158
2.615, 2, 17.8862, 15.8624, 23.0574, 38.2558, -28.6206, -29.9158
2.62443, 2, 17.8862, 15.8624, 23.0574, 38.2558, -28.6206, -29.9158
2.631, 2, 17.8861, 15.8624, 23.0574, 38.2558, -28.6206, -29.9158
2.64039, 2, 17.8861, 15.8624, 23.0574, 38.2557, -28.6206, -29.9158
2.64844, 2, 17.8861, 15.8624, 23.0574, 38.2557, -28.6206, -29.9158
2.65681, 2, 17.8861, 15.8624, 23.0574, 38.2557, -28.6206, -29.9157
2.66451, 2, 17.886, 15.8624, 23.0574, 38.2557, -28.6206, -29.9157
2.67281, 2, 17.886, 15.8624, 23.0574, 38.2558, -28.6206, -29.9157
2.68082, 2, 17.886, 15.8624, 23.0574, 38.2557, -28.6207, -29.9156
2.68857, 2, 17.8859, 15.8624, 23.0574, 38.2557, -28.6207, -29.9156
2.69671, 2, 17.8859, 15.8624, 23.0574, 38.2557, -28.6207, -29.9156
2.70479, 2, 17.8859, 15.8624, 23.0574, 38.2557, -28.6208, -29.9156
2.712, 2, 17.8859, 15.8624, 23.0574, 38.2557, -28.6208, -29.9156
2.71999, 2, 17.8858, 15.8624, 23.0574, 38.2557, -28.6207, -29.9156
2.72875, 2, 17.8858, 15.8624, 23.0574, 38.2557, -28.6208, -29.9156
2.73599, 2, 17.8858, 15.8624, 23.0574, 38.2557, -28.6208, -29.9156
2.74396, 2, 17.8858, 15.8624, 23.0574, 38.2557, -28.6208, -29.9155
2.75195, 2, 17.8857, 15.8624, 23.0574, 38.2557, -28.6208, -29.9154
2.75999, 2, 17.8857, 15.8624, 23.0574, 38.2557, -28.6209, -29.9154
2.768, 2, 17.8856, 15.8624, 23.0574, 38.2557, -28.6209, -29.9154
2.77595, 2, 17.8856, 15.8624, 23.0574, 38.2557, -28.6209, -29.9154
2.78399, 2, 17.8856, 15.8624, 23.0574, 38.2557, -28.6209, -29.9154
2.79196, 2, 17.8855, 15.8624, 23.0574, 38.2557, -28.6209, -29.9155
2.79997, 2, 17.8855, 15.8624, 23.0574, 38.2556, -28.6209, -29.9154
2.80698, 2, 17.8855, 15.8624, 23.0573, 38.2557, -28.6209, -29.9154
2.81597, 2, 17.8854, 15.8624, 23.0573, 38.2556, -28.621, -29.9153
2.82395, 2, 17.8854, 15.8624, 23.0573, 38.2556, -28.621, -29.9153
2.83202, 2, 17.8853, 15.8624, 23.0574, 38.2557, -28.621, -29.9153
2.84105, 2, 17.8853, 15.8624, 23.0574, 38.2556, -28.621, -29.9154
2.84797, 2, 17.8853, 15.8624, 23.0574, 38.2556, -28.621, -29.9153
2.85599, 2, 17.8852, 15.8624, 23.0574, 38.2556, -28.6211, -29.9154
2.864, 2, 17.8852, 15.8624, 23.0574, 38.2556, -28.6211, -29.9153
2.87195, 2, 17.8851, 15.8624, 23.0573, 38.2556, -28.6212, -29.9153
2.88008, 2, 17.8851, 15.8624, 23.0574, 38.2556, -28.6212, -29.9153
2.88696, 2, 17.885, 15.8624, 23.0574, 38.2556, -28.6212, -29.9153
2.89597, 2, 17.885, 15.8624, 23.0573, 38.2556, -28.6212, -29.9153
2.904, 2, 17.885, 15.8624, 23.0574, 38.2556, -28.6212, -29.9152
2.91196, 2, 17.885, 15.8624, 23.0574, 38.2556, -28.6212, -29.9153
2.91995, 2, 17.8849, 15.8624, 23.0574, 38.2556, -28.6212, -29.9152
2.92801, 2, 17.8849, 15.8624, 23.0574, 38.2555, -28.6212, -29.9152
2.93598, 2, 17.8848, 15.8624, 23.0574, 38.2555, -28.6213, -29.9152
2.94395, 2, 17.8848, 15.8624, 23.0574, 38.2555, -28.6212, -29.9152
2.952, 2, 17.8847, 15.8624, 23.0574, 38.2555, -28.6212, -29.9152
2.96005, 2, 17.8847, 15.8624, 23.0573, 38.2555, -28.6212, -29.9152
2.96704, 2, 17.8846, 15.8624, 23.0574, 38.2555, -28.6212, -29.9152
2.97502, 2, 17.8846, 15.8624, 23.0574, 38.2555, -28.6213, -29.9152
2.98303, 2, 17.8845, 15.8625, 23.0574, 38.2555, -28.6213, -29.9152
2.99113, 2, 17.8844, 15.8625, 23.0574, 38.2555, -28.6213, -29.9152
2.99924, 2, 17.8844, 15.8625, 23.0574, 38.2555, -28.6213, -29.9151
3.0072, 2, 17.8844, 15.8625, 23.0574, 38.2554, -28.6213, -29.9152
3.01532, 2, 17.8843, 15.8625, 23.0574, 38.2554, -28.6213, -29.9151
3.02344, 2, 17.8843, 15.8625, 23.0574, 38.2553, -28.6213, -29.9151
3.03209, 2, 17.8842, 15.8625, 23.0574, 38.2553, -28.6213, -29.9151
3.03952, 2, 17.8842, 15.8625, 23.0574, 38.2553, -28.6213, -29.9151
3.04813, 2, 17.8842, 15.8625, 23.0574, 38.2553, -28.6213, -29.9152
3.0555, 2, 17.8841, 15.8625, 23.0574, 38.2553, -28.6213, -29.9151
3.06406, 2, 17.8841, 15.8625, 23.0574, 38.2552, -28.6213, -29.9151
3.07211, 2, 17.884, 15.8625, 23.0574, 38.2552, -28.6213, -29.9151
3.07947, 2, 17.884, 15.8625, 23.0574, 38.2552, -28.6213, -29.915
3.088, 2, 17.8839, 15.8625, 23.0574, 38.2552, -28.6213, -29.915
3.09499, 2, 17.8839, 15.8625, 23.0574, 38.2552, -28.6213, -29.915
3.10401, 2, 17.8839, 15.8625, 23.0574, 38.2552, -28.6213, -29.9151
3.111, 2, 17.8839, 15.8625, 23.0574, 38.2552, -28.6213, -29.9151
3.12024, 2, 17.8838, 15.8625, 23.0574, 38.2552, -28.6213, -29.915
3.12695, 2, 17.8838, 15.8625, 23.0574, 38.2552, -28.6213, -29.915
3.13624, 2, 17.8837, 15.8625, 23.0574, 38.2552, -28.6214, -29.915
3.14298, 2, 17.8837, 15.8625, 23.0574, 38.2552, -28.6214, -29.915
3.15238, 2, 17.8837, 15.8625, 23.0573, 38.2552, -28.6214, -29.915
3.16044, 2, 17.8836, 15.8625, 23.0573, 38.2552, -28.6214, -29.915
3.1686, 2, 17.8836, 15.8625, 23.0573, 38.2552, -28.6214, -29.915
3.17649, 2, 17.8836, 15.8625, 23.0573, 38.2551, -28.6214, -29.915
3.18448, 2, 17.8835, 15.8625, 23.0573, 38.255, -28.6214, -29.9149
3.19259, 2, 17.8835, 15.8625, 23.0573, 38.2551, -28.6214, -29.9149
3.20056, 2, 17.8835, 15.8625, 23.0573, 38.255, -28.6214, -29.9149
3.20795, 2, 17.8835, 15.8625, 23.0573, 38.255, -28.6214, -29.9149
3.21776, 2, 17.8834, 15.8625, 23.0574, 38.255, -28.6214, -29.9149
3.2259, 2, 17.8834, 15.8625, 23.0574, 38.255, -28.6214, -29.9149
3.23194, 2, 17.8834, 15.8625, 23.0574, 38.255, -28.6214, -29.9149
3.24004, 2, 17.8834, 15.8625, 23.0573, 38.2549, -28.6214, -29.9149
3.24694, 2, 17.8834, 15.8625, 23.0573, 38.2549, -28.6215, -29.9149
3.25593, 2, 17.8834, 15.8625, 23.0574, 38.2549, -28.6215, -29.9149
3.26398, 2, 17.8834, 15.8625, 23.0574, 38.2549, -28.6215, -29.9149
3.27191, 2, 17.8834, 15.8625, 23.0573, 38.2548, -28.6215, -29.9148
3.27994, 2, 17.8834, 15.8625, 23.0573, 38.2548, -28.6215, -29.9148
3.28802, 2, 17.8833, 15.8625, 23.0573, 38.2548, -28.6215, -29.9148
3.29592, 4, 17.8833, 15.8625, 23.0573, 38.2548, -28.6215, -29.9149
3.30396, 4, 17.8833, 15.8625, 23.0573, 38.2548, -28.6215, -29.9149
3.31198, 4, 17.8833, 15.8625, 23.0573, 38.2548, -28.6215, -29.9148
3.31995, 4, 17.8833, 15.8625, 23.0573, 38.2548, -28.6215, -29.9148
3.32795, 4, 17.8833, 15.8625, 23.0573, 38.2548, -28.6215, -29.9147
3.33785, 4, 17.8833, 15.8626, 23.0573, 38.2547, -28.6216, -29.9147
3.34395, 4, 17.8833, 15.8626, 23.0573, 38.2547, -28.6216, -29.9147
3.35193, 4, 17.8833, 15.8625, 23.0574, 38.2547, -28.6216, -29.9147
3.36009, 4, 17.8833, 15.8625, 23.0573, 38.2547, -28.6216, -29.9147
3.368, 4, 17.8833, 15.8626, 23.0573, 38.2547, -28.6216, -29.9147
3.37593, 4, 17.8833, 15.8626, 23.0573, 38.2546, -28.6216, -29.9147
3.384, 4, 17.8832, 15.8625, 23.0573, 38.2546, -28.6216, -29.9147
3.39198, 4, 17.8832, 15.8626, 23.0573, 38.2546, -28.6216, -29.9147
3.401, 4, 17.8832, 15.8626, 23.0573, 38.2546, -28.6216, -29.9148
3.42315, 4, 17.8832, 15.8626, 23.0573, 38.2546, -28.6215, -29.9147
3.42496, 4, 17.8832, 15.8626, 23.0573, 38.2546, -28.6215, -29.9147
3.42755, 4, 17.8832, 15.8626, 23.0573, 38.2546, -28.6215, -29.9147
3.44938, 4, 17.8825, 15.8626, 23.0574, 38.2545, -28.6216, -29.9146
3.4514, 4, 17.8816, 15.8626, 23.0574, 38.2544, -28.6216, -29.9146
3.45274, 4, 17.8816, 15.8626, 23.0574, 38.2544, -28.6216, -29.9146
3.45592, 4, 17.8799, 15.8626, 23.0575, 38.254, -28.6217, -29.9144
3.464, 4, 17.8737, 15.8625, 23.0584, 38.2504, -28.6225, -29.9124
3.47195, 4, 17.8631, 15.862, 23.0616, 38.2384, -28.626, -29.904
3.47993, 4, 17.8467, 15.8603, 23.0696, 38.211, -28.635, -29.8813
3.48823, 4, 17.8217, 15.8567, 23.0863, 38.1573, -28.6535, -29.8355
3.49593, 5, 17.7855, 15.8502, 23.1155, 38.0622, -28.6861, -29.7534
3.50401, 5, 17.7359, 15.8397, 23.1622, 37.911, -28.7394, -29.6221
3.51201, 5, 17.671, 15.8243, 23.2312, 37.6875, -28.8197, -29.4278
3.51994, 5, 17.5884, 15.8034, 23.3265, 37.3789, -28.9328, -29.159
3.52812, 5, 17.4859, 15.7767, 23.4513, 36.9754, -29.0838, -28.8068
3.53542, 5, 17.3613, 15.7438, 23.6075, 36.4712, -29.2768, -28.3662
3.54403, 5, 17.2129, 15.705, 23.7957, 35.8651, -29.5148, -27.8369
3.55229, 5, 17.0393, 15.661, 24.0157, 35.1605, -29.7995, -27.221
3.55949, 5, 16.8402, 15.6125, 24.2676, 34.3622, -30.1325, -26.524
3.56806, 5, 16.6153, 15.5604, 24.5485, 33.4751, -30.5149, -25.7542
3.57632, 5, 16.4931, 15.5335, 24.6995, 33.0016, -30.9465, -24.9208
3.58346, 5, 16.229, 15.4785, 25.021, 32.0014, -31.1809, -24.4813
3.59202, 5, 15.7877, 15.396, 25.5455, 30.3864, -31.9584, -23.0905
3.60101, 5, 15.4662, 15.343, 25.9179, 29.2508, -32.5342, -22.1185
3.60798, 5, 15.1255, 15.2935, 26.3042, 28.087, -33.1522, -21.1254
3.615, 5, 14.9489, 15.2706, 26.5008, 27.4986, -33.4753, -20.6258
3.62423, 5, 14.3951, 15.2109, 27.0987, 25.7265, -34.4942, -19.1287
3.63095, 5, 14.2036, 15.1946, 27.2989, 25.1401, -34.848, -18.6355
3.64042, 5, 13.6126, 15.159, 27.8947, 23.4097, -35.9408, -17.1888
3.64901, 5, 13.208, 15.147, 28.2837, 22.2878, -36.6893, -16.261
3.65633, 5, 12.7969, 15.1445, 28.6641, 21.1982, -37.452, -15.3632
3.66297, 5, 12.589, 15.1469, 28.8512, 20.6651, -37.8381, -14.9261
3.67245, 5, 11.9586, 15.1691, 29.3975, 19.1122, -39.0115, -13.6663
3.68049, 5, 11.5328, 15.1963, 29.749, 18.1177, -39.8041, -12.865
3.68877, 5, 11.1037, 15.2337, 30.0901, 17.1535, -40.6052, -12.0969
3.69651, 5, 10.8879, 15.2561, 30.4206, 16.2157, -41.4153, -11.3575
3.70465, 5, 10.4552, 15.3084, 30.5818, 15.3059, -42.2329, -10.6457
3.71192, 5, 10.0221, 15.3708, 30.8968, 14.8617, -42.644, -10.3008
3.71994, 5, 9.58857, 15.4434, 31.2008, 13.993, -43.4706, -9.63055
3.72796, 5, 9.1535, 15.526, 31.4948, 13.1465, -44.3036, -8.98485
3.73597, 5, 8.7146, 15.6185, 31.7779, 12.3236, -45.1439, -8.364
3.74394, 5, 8.27196, 15.7211, 32.0497, 11.5245, -45.9897, -7.76686
3.75197, 5, 7.82582, 15.8338, 32.311, 10.7477, -46.8389, -7.19196
3.75992, 5, 7.3783, 15.9568, 32.5609, 9.98938, -47.6926, -6.63786
3.76797, 5, 6.93078, 16.0901, 32.8004, 9.24953, -48.5525, -6.10418
3.77596, 5, 6.4836, 16.2332, 33.0288, 8.53007, -49.4164, -5.5908
3.78296, 5, 6.03521, 16.3857, 33.2455, 7.82967, -50.2818, -5.09564
3.79853, 5, 5.1363, 16.7155, 33.6463, 6.47961, -52.0223, -4.15885
3.79987, 5, 5.1363, 16.7155, 33.6463, 6.47961, -52.0223, -4.15885
3.80692, 5, 4.69038, 16.8914, 33.8289, 5.83147, -52.8927, -3.71773
3.81592, 5, 4.25149, 17.0725, 33.9996, 5.20359, -53.7561, -3.29565
3.82393, 5, 3.82391, 17.2565, 34.1583, 4.59862, -54.6081, -2.89346
3.83198, 5, 3.41038, 17.4421, 34.3035, 4.02096, -55.4422, -2.51397
3.83993, 5, 3.01098, 17.6283, 34.4343, 3.47362, -56.2494, -2.15804
3.84892, 5, 2.62646, 17.8133, 34.551, 2.96049, -57.0202, -1.82802
3.85491, 5, 2.25707, 17.9968, 34.6525, 2.48442, -57.7485, -1.52504
3.86392, 5, 1.90379, 18.1811, 34.7383, 2.04655, -58.4303, -1.24932
3.87192, 5, 1.56743, 18.3687, 34.8072, 1.64556, -59.0651, -0.999043
3.87997, 5, 1.24767, 18.561, 34.8575, 1.27883, -59.6551, -0.772467
3.88795, 5, 0.944621, 18.7594, 34.8867, 0.94236, -60.2039, -0.56645
3.89596, 6, 0.656596, 18.9665, 34.8917, 0.631497, -60.7183, -0.377831
3.90393, 6, 0.38063, 19.1851, 34.8695, 0.340586, -61.206, -0.202971
3.91191, 6, 0.114242, 19.4159, 34.8172, 0.0638101, -61.6753, -0.0379978
3.91999, 6, -0.145034, 19.6626, 34.7336, -0.203902, -62.1352, 0.120226
3.92792, 6, -0.399921, 19.93, 34.6182, -0.466804, -62.5928, 0.274545
3.93595, 6, -0.654684, 20.22, 34.4722, -0.72956, -63.0559, 0.427848
3.9441, 6, -0.913921, 20.5352, 34.2982, -0.996009, -63.5311, 0.582299
3.95106, 6, -1.18149, 20.8764, 34.0981, -1.26897, -64.0243, 0.739415
3.95992, 6, -1.45894, 21.2443, 33.873, -1.55155, -64.5403, 0.901151
3.968, 6, -1.74597, 21.6383, 33.6251, -1.84488, -65.0814, 1.06808
3.97593, 6, -2.04162, 22.058, 33.3552, -2.14895, -65.6495, 1.24073
3.98392, 6, -2.34621, 22.5019, 33.0621, -2.46338, -66.2438, 1.41837
3.992, 6, -2.65932, 22.969, 32.7467, -2.78685, -66.8629, 1.60037
3.99992, 6, -2.98005, 23.4561, 32.4085, -3.11749, -67.503, 1.78602
4.00792, 6, -3.30891, 23.9609, 32.0491, -3.45367, -68.1607, 1.97377
4.016, 6, -3.64556, 24.4817, 31.6693, -3.79265, -68.8322, 2.16325
4.02393, 6, -3.98797, 25.0158, 31.2701, -4.13198, -69.5136, 2.353
4.03195, 6, -4.33497, 25.5614, 30.8532, -4.46906, -70.1994, 2.54156
4.04025, 6, -4.68411, 26.1177, 30.4206, -4.80198, -70.8834, 2.72791
4.04745, 6, -5.03318, 26.6836, 29.9732, -5.12951, -71.5631, 2.91158
4.05627, 6, -5.38071, 27.257, 29.5119, -5.4504, -72.2376, 3.09189
4.06347, 6, -5.72495, 27.8348, 29.0382, -5.76404, -72.9049, 3.26925
4.07203, 6, -6.06624, 28.416, 28.5529, -6.07074, -73.5641, 3.44383
4.08043, 6, -6.23595, 28.7078, 28.0555, -6.37012, -74.2145, 3.61549
4.08805, 6, -6.73984, 29.5868, 27.5464, -6.66273, -74.8563, 3.78483
4.09595, 6, -7.07149, 30.1757, 27.0253, -6.94843, -75.4893, 3.9516
4.10296, 6, -7.23623, 30.471, 26.7602, -7.08876, -75.8026, 4.03423
4.11091, 6, -7.56328, 31.063, 26.2217, -7.36441, -76.4226, 4.19794
4.12004, 6, -8.04608, 31.9543, 25.3918, -7.7653, -77.3367, 4.44017
4.12699, 6, -8.20427, 32.2518, 25.1096, -7.89559, -77.6367, 4.52024
4.13704, 6, -8.66883, 33.1439, 24.2474, -8.27603, -78.52, 4.75817
4.14426, 6, -8.97017, 33.7371, 23.661, -8.52069, -79.095, 4.91515
4.15092, 6, -9.11818, 34.0322, 23.3649, -8.64044, -79.3782, 4.99309
4.16042, 6, -9.54956, 34.9105, 22.4682, -8.98783, -80.2088, 5.22349
4.16844, 6, -9.82626, 35.487, 21.8669, -9.20825, -80.7431, 5.37403
4.17715, 6, -10.0957, 36.0544, 21.2666, -9.41891, -81.2578, 5.5215
4.18291, 6, -10.228, 36.3337, 20.9681, -9.52036, -81.5072, 5.59399
4.19246, 6, -10.6145, 37.1507, 20.0837, -9.80872, -82.2222, 5.80481
4.20132, 6, -10.8619, 37.6773, 19.5072, -9.98693, -82.6697, 5.93954
4.20693, 6, -10.9815, 37.9343, 19.2238, -10.0718, -82.8844, 6.00492
4.21694, 6, -11.3208, 38.6777, 18.3958, -10.3104, -83.4917, 6.19361
4.22396, 6, -11.4276, 38.9154, 18.1283, -10.3845, -83.6824, 6.25364
4.23194, 6, -11.6325, 39.3742, 17.6076, -10.5249, -84.0457, 6.36995
4.23992, 6, -11.8253, 39.8108, 17.1063, -10.6557, -84.3861, 6.48067
4.24794, 6, -12.0057, 40.2244, 16.6256, -10.7767, -84.7041, 6.58597
4.25592, 6, -12.1738, 40.6155, 16.167, -10.8883, -84.9997, 6.68612
4.26394, 6, -12.3301, 40.9822, 15.7315, -10.9912, -85.2738, 6.78026
4.27197, 6, -12.4747, 41.3247, 15.3209, -11.0852, -85.5263, 6.86848
4.27993, 6, -12.6078, 41.6415, 14.9373, -11.1703, -85.7576, 6.95067
4.28791, 6, -12.7296, 41.933, 14.5822, -11.2477, -85.9677, 7.02626
4.29594, 6, -12.8401, 42.1995, 14.2577, -11.3162, -86.1565, 7.09559
4.30391, 6, -12.9392, 42.4394, 13.9638, -11.3775, -86.3244, 7.15727
4.31191, 6, -13.027, 42.6532, 13.702, -11.4301, -86.4713, 7.21229
4.31994, 6, -13.1041, 42.8429, 13.4737, -11.4754, -86.598, 7.26058
4.32793, 6, -13.1711, 43.0082, 13.2772, -11.5141, -86.7047, 7.3014
4.33589, 6, -13.2286, 43.1484, 13.1117, -11.5451, -86.7919, 7.33486
4.34496, 6, -13.2767, 43.2653, 12.9768, -11.5697, -86.8624, 7.36155
4.35197, 6, -13.3163, 43.3613, 12.8696, -11.5886, -86.9164, 7.38215
4.36099, 6, -13.3488, 43.4387, 12.7869, -11.6025, -86.9567, 7.39757
4.36794, 6, -13.3747, 43.4995, 12.7257, -11.6125, -86.9858, 7.40852
4.37591, 6, -13.395, 43.5461, 12.682, -11.6192, -87.0055, 7.41599
4.38392, 6, -13.4103, 43.5811, 12.6521, -11.6234, -87.018, 7.42073
4.39195, 6, -13.422, 43.6074, 12.6322, -11.6259, -87.0254, 7.42332
4.39996, 6, -13.4306, 43.6272, 12.6194, -11.6272, -87.0293, 7.42469
4.40792, 6, -13.4368, 43.6412, 12.6114, -11.6278, -87.0311, 7.4254
4.41594, 6, -13.4406, 43.6504, 12.6063, -11.6282, -87.032, 7.42573
4.42391, 7, -13.4427, 43.6566, 12.6031, -11.6283, -87.0323, 7.42583
4.43192, 7, -13.4436, 43.661, 12.6006, -11.6283, -87.0325, 7.42593
4.43997, 7, -13.4441, 43.6643, 12.5987, -11.6284, -87.0326, 7.426
4.44791, 7, -13.4444, 43.6669, 12.5972, -11.6285, -87.0326, 7.42604
4.45593, 7, -13.4446, 43.6692, 12.5961, -11.6285, -87.0326, 7.42604
4.46393, 7, -13.4447, 43.6712, 12.5954, -11.6285, -87.0325, 7.42599
4.47191, 7, -13.4447, 43.673, 12.5948, -11.6285, -87.0324, 7.42598
4.47995, 7, -13.4446, 43.6746, 12.5944, -11.6286, -87.0323, 7.426
4.48793, 7, -13.4445, 43.6759, 12.594, -11.6286, -87.0322, 7.42597
4.49591, 7, -13.4444, 43.6769, 12.5937, -11.6286, -87.0321, 7.42601
4.50392, 7, -13.4442, 43.6777, 12.5936, -11.6285, -87.0319, 7.42601
4.51192, 7, -13.4439, 43.6783, 12.5935, -11.6285, -87.0318, 7.42598
4.51993, 7, -13.4437, 43.6787, 12.5934, -11.6285, -87.0316, 7.42589
4.52793, 7, -13.4435, 43.6789, 12.5934, -11.6285, -87.0314, 7.42584
4.53597, 7, -13.4433, 43.6791, 12.5933, -11.6285, -87.0313, 7.42583
