hehonglu123/ABB_Primitive_Study/realrobot/movel_30_car/curve_exe_v500_z10.csv
timestamp, cmd_num, J1, J2, J3, J4, J5, J6
0.000369, -1, -13.4405, 43.6797, 12.5936, -11.6278, -87.0287, 7.42464
0.002216, -1, -13.4405, 43.6797, 12.5936, -11.6278, -87.0287, 7.42464
0.008059, -1, -13.4405, 43.6797, 12.5936, -11.6278, -87.0287, 7.42465
0.029812, -1, -13.4405, 43.6797, 12.5936, -11.6278, -87.0288, 7.42467
0.031692, -1, -13.4405, 43.6797, 12.5936, -11.6278, -87.0287, 7.42466
0.034477, -1, -13.4405, 43.6797, 12.5936, -11.6278, -87.0287, 7.42466
0.038739, -1, -13.4405, 43.6797, 12.5936, -11.6278, -87.0287, 7.42468
0.047858, -1, -13.4403, 43.6796, 12.5936, -11.6278, -87.0287, 7.42474
0.055767, -1, -13.4391, 43.6788, 12.5937, -11.6278, -87.0287, 7.42469
0.063808, -1, -13.4354, 43.676, 12.5941, -11.6277, -87.0286, 7.42469
0.072213, -1, -13.4284, 43.6705, 12.5952, -11.6271, -87.0277, 7.42463
0.078725, -1, -13.4236, 43.6665, 12.5961, -11.6261, -87.0263, 7.42447
0.088713, -1, -13.4017, 43.6489, 12.6009, -11.6158, -87.014, 7.42022
0.096165, -1, -13.3783, 43.63, 12.6064, -11.5996, -86.9949, 7.40925
0.104141, -1, -13.3467, 43.6039, 12.6149, -11.5719, -86.9621, 7.38929
0.1129, -1, -13.3063, 43.5697, 12.6263, -11.5283, -86.9121, 7.35779
0.120708, -1, -13.2559, 43.526, 12.6414, -11.4647, -86.8386, 7.31187
0.128267, -1, -13.1943, 43.4718, 12.6611, -11.3785, -86.7387, 7.24778
0.137045, -1, -13.1213, 43.4067, 12.6851, -11.2663, -86.6088, 7.16522
0.14272, -1, -13.0806, 43.3699, 12.6988, -11.2005, -86.5323, 7.11671
0.152314, -1, -12.9899, 43.2878, 12.7472, -10.9631, -86.2561, 6.94018
0.16118, -1, -12.8316, 43.1437, 12.7853, -10.7736, -86.035, 6.79882
0.168511, -1, -12.7731, 43.0904, 12.8059, -10.6701, -85.9144, 6.72161
0.175726, -1, -12.6483, 42.9769, 12.8496, -10.448, -85.6555, 6.55564
0.183719, -1, -12.5135, 42.8546, 12.8969, -10.2094, -85.3769, 6.3773
0.190729, -1, -12.3698, 42.7245, 12.9471, -9.95802, -85.0831, 6.18924
0.199813, -1, -12.2189, 42.5882, 12.9996, -9.69763, -84.7788, 5.99419
0.207721, -1, -12.0621, 42.4468, 13.0536, -9.43143, -84.4673, 5.79458
0.214728, -1, -11.9001, 42.3014, 13.1089, -9.16173, -84.1519, 5.59207
0.223724, -1, -11.7336, 42.1528, 13.165, -8.8899, -83.8341, 5.3883
0.231722, -1, -11.5639, 42.002, 13.2216, -8.617, -83.5151, 5.18397
0.23872, -1, -11.3928, 41.8502, 13.2786, -8.34373, -83.1953, 4.9792
0.24773, -1, -11.2212, 41.698, 13.3358, -8.07014, -82.8751, 4.77415
0.255723, -1, -11.0491, 41.5461, 13.393, -7.79616, -82.5546, 4.56918
0.262804, -1, -10.8769, 41.3947, 13.4505, -7.52249, -82.234, 4.36376
0.271722, -1, -10.7046, 41.2431, 13.5081, -7.24866, -81.9131, 4.15846
0.279789, -1, -10.5321, 41.0914, 13.5657, -6.9745, -81.5923, 3.95321
0.286721, -1, -10.3595, 40.9397, 13.6234, -6.70058, -81.2717, 3.74789
0.295721, -1, -10.1871, 40.7882, 13.681, -6.42679, -80.951, 3.54258
0.304751, -1, -10.0152, 40.6367, 13.7383, -6.15302, -80.631, 3.33728
0.310718, -1, -9.84358, 40.485, 13.7958, -5.87937, -80.3111, 3.13218
0.319807, -1, -9.67262, 40.3328, 13.8531, -5.60594, -79.9913, 2.92722
0.32785, -1, -9.50218, 40.1805, 13.9103, -5.33256, -79.6717, 2.72246
0.335717, -1, -9.33248, 40.0286, 13.9676, -5.05919, -79.3521, 2.51778
0.343734, -1, -9.16336, 39.8766, 14.0247, -4.78643, -79.0327, 2.31348
0.351781, -1, -8.99453, 39.7246, 14.0817, -4.51394, -78.7135, 2.10925
0.35979, -1, -8.82557, 39.5726, 14.1388, -4.24178, -78.3945, 1.90541
0.36775, -1, -8.65631, 39.421, 14.1958, -3.97025, -78.0764, 1.70181
0.375784, -1, -8.48669, 39.2701, 14.2527, -3.69896, -77.7588, 1.49838
0.383722, -1, -8.3169, 39.1196, 14.3096, -3.42795, -77.4417, 1.29535
0.392311, -1, -8.14702, 38.9693, 14.3663, -3.15768, -77.1254, 1.09253
0.398831, -1, -7.97691, 38.8191, 14.4231, -2.88784, -76.8096, 0.890392
0.40772, -1, -7.80682, 38.6692, 14.4796, -2.61844, -76.4943, 0.688664
0.416545, -1, -7.6365, 38.52, 14.536, -2.34977, -76.1793, 0.487384
0.423716, -1, -7.46603, 38.371, 14.5923, -2.08158, -75.8651, 0.286547
0.43172, -1, -7.29589, 38.2221, 14.6485, -1.81364, -75.5515, 0.08605
0.440699, -1, -7.1264, 38.0732, 14.7047, -1.54636, -75.2387, -0.114124
0.447722, -1, -6.9577, 37.9245, 14.7608, -1.2799, -74.9267, -0.313667
0.45572, -1, -6.79001, 37.7763, 14.8166, -1.01408, -74.6155, -0.5125
0.463794, -1, -6.62335, 37.6285, 14.8721, -0.749106, -74.3054, -0.710998
0.471718, -1, -6.45756, 37.4808, 14.9275, -0.484953, -73.9957, -0.908904
0.479786, -1, -6.29307, 37.3334, 14.9829, -0.221326, -73.687, -1.10649
0.488552, -1, -6.12969, 37.1865, 15.0381, 0.0417385, -73.3792, -1.30328
0.495888, -1, -5.96713, 37.0405, 15.0932, 0.303864, -73.0722, -1.49941
0.503813, -1, -5.80495, 36.8951, 15.148, 0.565101, -72.7663, -1.69501
0.512609, -1, -5.64301, 36.75, 15.2026, 0.825649, -72.4613, -1.89008
0.519882, -1, -5.48101, 36.6054, 15.2571, 1.08508, -72.1573, -2.08448
0.527825, -1, -5.31895, 36.4612, 15.3115, 1.34381, -71.8544, -2.2783
0.536645, -1, -5.15704, 36.3178, 15.3658, 1.6019, -71.5521, -2.4714
0.543728, -1, -4.99527, 36.1748, 15.4199, 1.85909, -71.2512, -2.66375
0.551754, -1, -4.83369, 36.0322, 15.4738, 2.11513, -70.9512, -2.85563
0.560718, -1, -4.67237, 35.8897, 15.5274, 2.37029, -70.6523, -3.04684
0.567833, -1, -4.51107, 35.7476, 15.5808, 2.6245, -70.3545, -3.23752
0.575895, -1, -4.34986, 35.6064, 15.634, 2.87747, -70.0581, -3.42736
0.58478, -1, -4.18914, 35.4656, 15.6869, 3.12975, -69.7628, -3.61624
0.591985, -1, -4.02943, 35.3252, 15.7397, 3.38142, -69.4686, -3.80432
0.600186, -1, -3.87097, 35.1851, 15.7925, 3.63211, -69.1751, -3.99182
0.608111, -1, -3.71379, 35.0455, 15.8448, 3.88159, -68.8828, -4.17852
0.616144, -1, -3.5576, 34.9066, 15.8969, 4.13027, -68.5916, -4.36474
0.622711, -1, -3.47984, 34.8375, 15.9228, 4.25426, -68.4463, -4.45766
0.632288, -1, -3.24804, 34.6309, 16.0005, 4.62466, -68.0121, -4.73491
0.640301, -1, -3.09481, 34.4938, 16.0522, 4.87041, -67.7241, -4.91877
0.648334, -1, -2.94269, 34.3571, 16.1038, 5.11563, -67.4375, -5.10198
0.65628, -1, -2.86687, 34.2889, 16.1295, 5.35967, -67.1518, -5.28461
0.664428, -1, -2.64004, 34.0858, 16.206, 5.60248, -66.8675, -5.46657
0.671728, -1, -2.56452, 34.0185, 16.2314, 5.72353, -66.726, -5.55736
0.67971, -1, -2.41339, 33.8841, 16.2821, 5.96491, -66.4436, -5.73805
0.688762, -1, -2.18696, 33.6834, 16.3579, 6.32479, -66.022, -6.00767
0.695712, -1, -2.11165, 33.6166, 16.383, 6.4443, -65.8819, -6.09711
0.703731, -1, -1.96131, 33.4835, 16.4331, 6.68271, -65.6026, -6.27544
0.71294, -1, -1.73679, 33.2851, 16.5076, 7.03855, -65.1861, -6.54186
0.719732, -1, -1.66207, 33.2192, 16.5323, 7.1566, -65.0477, -6.63023
0.726788, -1, -1.51273, 33.0877, 16.5816, 7.39178, -64.7719, -6.8067
0.735715, -1, -1.36355, 32.9566, 16.6308, 7.62613, -64.4973, -6.98221
0.873171, -1, 1.04396, 30.8158, 17.4358, 11.4617, -60.0048, -9.85403
0.876066, -1, 1.11269, 30.7552, 17.4587, 11.5703, -59.8776, -9.93546
0.877259, -1, 1.11269, 30.7552, 17.4587, 11.5703, -59.8776, -9.93546
0.879297, -1, 1.18135, 30.6945, 17.4814, 11.6786, -59.7507, -10.0168
0.880663, -1, 1.18135, 30.6945, 17.4814, 11.6786, -59.7507, -10.0168
0.882755, -1, 1.24992, 30.634, 17.5041, 11.7868, -59.6241, -10.0979
0.883964, -1, 1.24992, 30.634, 17.5041, 11.7868, -59.6241, -10.0979
0.887978, -1, 1.31845, 30.5736, 17.5267, 11.8948, -59.4978, -10.1786
0.889199, -1, 1.31845, 30.5736, 17.5267, 11.8948, -59.4978, -10.1786
0.891911, -1, 1.38687, 30.5135, 17.5493, 12.0027, -59.3719, -10.2592
0.893142, -1, 1.38687, 30.5135, 17.5493, 12.0027, -59.3719, -10.2592
0.895469, -1, 1.45516, 30.4535, 17.5719, 12.1103, -59.2462, -10.3396
0.896722, -1, 1.45516, 30.4535, 17.5719, 12.1103, -59.2462, -10.3396
0.899466, -1, 1.52333, 30.3937, 17.5944, 12.2176, -59.1207, -10.4199
0.900716, -1, 1.52333, 30.3937, 17.5944, 12.2176, -59.1207, -10.4199
0.905109, -1, 1.59136, 30.3341, 17.6168, 12.3246, -58.9954, -10.5
0.907146, -1, 1.65916, 30.2745, 17.6393, 12.4314, -58.8703, -10.5799
0.908367, -1, 1.65916, 30.2745, 17.6393, 12.4314, -58.8703, -10.5799
0.909634, -1, 1.65916, 30.2745, 17.6393, 12.4314, -58.8703, -10.5799
0.911815, -1, 1.72673, 30.2151, 17.6617, 12.5381, -58.7455, -10.6596
0.913031, -1, 1.72673, 30.2151, 17.6617, 12.5381, -58.7455, -10.6596
0.915813, -1, 1.79407, 30.1558, 17.684, 12.6446, -58.6209, -10.7392
0.919712, -1, 1.86112, 30.0967, 17.7064, 12.7509, -58.4965, -10.8188
0.927713, -1, 1.99451, 29.9787, 17.7508, 12.9625, -58.2484, -10.9773
0.935774, -1, 2.12715, 29.861, 17.7952, 13.1733, -58.0012, -11.1353
0.943751, -1, 2.25901, 29.744, 17.8391, 13.3831, -57.7549, -11.2926
0.951707, -1, 2.39001, 29.6274, 17.8829, 13.5922, -57.5096, -11.449
0.959773, -1, 2.52005, 29.5113, 17.9266, 13.8006, -57.2654, -11.6049
0.967722, -1, 2.64906, 29.3955, 17.9702, 14.008, -57.0224, -11.7602
0.975776, -1, 2.77728, 29.2801, 18.0136, 14.2147, -56.7805, -11.9148
0.983711, -1, 2.90496, 29.1649, 18.0567, 14.4203, -56.5395, -12.069
0.991752, -1, 3.03249, 29.0502, 18.0997, 14.6253, -56.2999, -12.2227
0.999958, -1, 3.15999, 28.9362, 18.1424, 14.8294, -56.061, -12.3755
1.00804, -1, 3.28749, 28.8226, 18.185, 15.0326, -55.8231, -12.5279
1.01533, -1, 3.41462, 28.7095, 18.2276, 15.2351, -55.5862, -12.6792
1.02388, -1, 3.54155, 28.597, 18.2699, 15.4369, -55.3501, -12.8301
1.03221, -1, 3.66822, 28.4848, 18.3122, 15.638, -55.1149, -12.9804
1.03954, -1, 3.73145, 28.4288, 18.3332, 15.838, -54.8804, -13.13
1.04791, -1, 3.92069, 28.2619, 18.3959, 16.0373, -54.6469, -13.2794
1.05636, -1, 4.04659, 28.1514, 18.4377, 16.2358, -54.414, -13.4281
1.06376, -1, 4.17199, 28.0414, 18.4792, 16.4334, -54.1822, -13.5761
1.07197, -1, 4.29683, 27.9317, 18.5205, 16.6304, -53.9513, -13.7234
1.08066, -1, 4.42101, 27.8223, 18.5618, 16.8265, -53.7215, -13.8703
1.08816, -1, 4.54446, 27.7133, 18.6028, 17.0218, -53.4926, -14.0165
1.09469, -1, 4.60608, 27.6588, 18.6233, 17.1194, -53.3785, -14.0894
1.10493, -1, 4.7901, 27.4962, 18.6844, 17.4107, -53.0374, -14.3074
1.11214, -1, 4.9118, 27.3884, 18.7249, 17.6039, -52.8112, -14.4523
1.11869, -1, 4.9724, 27.3346, 18.7452, 17.7003, -52.6984, -14.5245
1.12902, -1, 5.1531, 27.1738, 18.8057, 17.9882, -52.3613, -14.74
1.13645, -1, 5.27246, 27.067, 18.8457, 18.1795, -52.1377, -14.8829
1.14428, -1, 5.39098, 26.9606, 18.8857, 18.3697, -51.9148, -15.0252
1.15304, -1, 5.50894, 26.8547, 18.9256, 18.5595, -51.6925, -15.1671
1.1587, -1, 5.56773, 26.8019, 18.9454, 18.6541, -51.5818, -15.2379
1.16836, -1, 5.68495, 26.6967, 18.9851, 18.937, -51.2507, -15.4495
1.17569, -1, 5.80193, 26.592, 19.0245, 19.031, -51.1406, -15.5199
1.18275, -1, 5.91871, 26.4876, 19.0638, 19.2184, -50.9212, -15.6603
1.19284, -1, 6.09336, 26.3317, 19.1226, 19.4979, -50.5935, -15.8696
1.19969, -1, 6.15155, 26.2799, 19.142, 19.5909, -50.4846, -15.9391
1.20669, -1, 6.26795, 26.1763, 19.1808, 19.7763, -50.2675, -16.078
1.2157, -1, 6.3844, 26.0731, 19.2195, 19.9609, -50.0511, -16.2164
1.22371, -1, 6.50073, 25.9704, 19.2581, 20.1449, -49.8356, -16.3542
1.23076, -1, 6.61674, 25.868, 19.2966, 20.328, -49.6206, -16.4918
1.23969, -1, 6.73253, 25.7659, 19.3349, 20.5107, -49.4067, -16.629
1.24769, -1, 6.84779, 25.6644, 19.373, 20.693, -49.1936, -16.7656
1.2547, -1, 6.96261, 25.5631, 19.4111, 20.8744, -48.9811, -16.9014
1.2637, -1, 7.07696, 25.462, 19.4492, 21.0553, -48.7698, -17.0369
1.27169, -1, 7.19087, 25.3614, 19.487, 21.2355, -48.559, -17.1716
1.27977, -1, 7.30431, 25.2613, 19.5247, 21.4151, -48.3487, -17.306
1.28769, -1, 7.41721, 25.1616, 19.5624, 21.5943, -48.139, -17.4401
1.29668, -1, 7.52962, 25.0623, 19.5998, 21.7727, -47.93, -17.5736
1.30376, -1, 7.64155, 24.9632, 19.6372, 21.9505, -47.7217, -17.7067
1.31275, -1, 7.75285, 24.8645, 19.6745, 22.1278, -47.5139, -17.8396
1.3197, -1, 7.86369, 24.7659, 19.7115, 22.3046, -47.3066, -17.9718
1.32776, -1, 7.97415, 24.6676, 19.7485, 22.481, -47.1002, -18.1037
1.33576, -1, 8.08412, 24.5696, 19.7855, 22.6567, -46.8944, -18.235
1.3437, -1, 8.19376, 24.4718, 19.822, 22.8316, -46.6892, -18.3658
1.35169, -1, 8.30298, 24.3744, 19.8585, 23.0061, -46.4848, -18.4965
1.35971, -1, 8.41179, 24.2772, 19.895, 23.18, -46.2812, -18.6268
1.36776, -1, 8.51996, 24.1803, 19.9313, 23.3533, -46.0782, -18.7565
1.37572, -1, 8.62762, 24.0837, 19.9675, 23.5261, -45.8759, -18.886
1.38371, -1, 8.73491, 23.9873, 20.0037, 23.6983, -45.6743, -19.0151
1.39176, -1, 8.84207, 23.8914, 20.0396, 23.8699, -45.4734, -19.1434
1.39969, -1, 8.94924, 23.7959, 20.0755, 24.0412, -45.2732, -19.2716
1.40769, -1, 9.05633, 23.7008, 20.1115, 24.2119, -45.0737, -19.3992
1.41577, -1, 9.16345, 23.6061, 20.1472, 24.3821, -44.8746, -19.5265
1.4237, -1, 9.27032, 23.5117, 20.1827, 24.5517, -44.6759, -19.6534
1.43202, -1, 9.37694, 23.4175, 20.2183, 24.7206, -44.4777, -19.7801
1.43968, -1, 9.48324, 23.3236, 20.2537, 24.8893, -44.2802, -19.9062
1.44769, -1, 9.58928, 23.2299, 20.2889, 25.0575, -44.0831, -20.0323
1.45649, -1, 9.69512, 23.1364, 20.3242, 25.2251, -43.8866, -20.1579
1.4637, -1, 9.80067, 23.0431, 20.3592, 25.3921, -43.6905, -20.283
1.47169, -1, 9.90583, 22.9502, 20.394, 25.5586, -43.4955, -20.4078
1.48052, -1, 10.0107, 22.8575, 20.4289, 25.7249, -43.3011, -20.5321
1.4877, -1, 10.1152, 22.765, 20.4637, 25.8909, -43.107, -20.656
1.49574, -1, 10.2193, 22.6728, 20.4982, 26.0561, -42.9136, -20.7795
1.50464, -1, 10.323, 22.5808, 20.5327, 26.2208, -42.7208, -20.9029
1.51179, -1, 10.4263, 22.489, 20.5671, 26.3851, -42.5284, -21.0261
1.51979, -1, 10.5293, 22.3976, 20.6015, 26.5488, -42.3366, -21.1488
1.52858, -1, 10.632, 22.3065, 20.6358, 26.7123, -42.1452, -21.2713
1.53579, -1, 10.7343, 22.2157, 20.67, 26.8751, -41.9547, -21.393
1.54378, -1, 10.8362, 22.1251, 20.704, 27.0375, -41.7646, -21.5146
1.55316, -1, 10.9376, 22.0348, 20.738, 27.1993, -41.5751, -21.6357
1.55869, -1, 10.9882, 21.9897, 20.755, 27.2801, -41.4805, -21.6961
1.56781, -1, 11.1394, 21.8548, 20.8058, 27.522, -41.1973, -21.877
1.57596, -1, 11.24, 21.765, 20.8394, 27.6827, -41.0091, -21.9971
1.58383, -1, 11.3403, 21.6755, 20.8731, 27.843, -40.8214, -22.1169
1.59201, -1, 11.4403, 21.5863, 20.9066, 28.0027, -40.6342, -22.2367
1.59867, -1, 11.4901, 21.5418, 20.9232, 28.0823, -40.5407, -22.2964
1.60873, -1, 11.639, 21.4085, 20.9733, 28.3208, -40.2611, -22.4748
1.61614, -1, 11.738, 21.3201, 21.0066, 28.4794, -40.0756, -22.5936
1.62415, -1, 11.8369, 21.2319, 21.0396, 28.6375, -39.8902, -22.7118
1.6307, -1, 11.8864, 21.188, 21.0561, 28.7164, -39.7978, -22.7708
1.64026, -1, 12.0349, 21.0564, 21.1058, 28.9523, -39.5213, -22.9475
1.64825, -1, 12.1336, 20.9689, 21.1387, 29.1092, -39.3376, -23.0649
1.65874, -1, 12.2323, 20.8818, 21.1714, 29.266, -39.1542, -23.1821
1.66422, -1, 12.2815, 20.8383, 21.1878, 29.3442, -39.0627, -23.2991
1.67227, -1, 12.3798, 20.7514, 21.2206, 29.5002, -38.8802, -23.4158
1.67973, -1, 12.4778, 20.6648, 21.2531, 29.6557, -38.6981, -23.4742
1.6877, -1, 12.5756, 20.5783, 21.2856, 29.8107, -38.5163, -23.5899
1.69568, -1, 12.6732, 20.492, 21.3182, 29.9656, -38.3353, -23.7059
1.70375, -1, 12.7704, 20.4058, 21.3504, 30.12, -38.1548, -23.8213
1.7117, -1, 12.8674, 20.3198, 21.3826, 30.274, -37.9747, -23.9363
1.71968, -1, 12.9642, 20.2339, 21.4148, 30.4276, -37.7951, -24.0514
1.72773, -1, 13.0606, 20.1483, 21.447, 30.5808, -37.6159, -24.166
1.73571, -1, 13.1566, 20.0629, 21.479, 30.7335, -37.4368, -24.2804
1.74369, -1, 13.2523, 19.9778, 21.5109, 30.8861, -37.2582, -24.3946
1.75172, -1, 13.3478, 19.8929, 21.5429, 31.0382, -37.08, -24.5085
1.75968, -1, 13.4431, 19.8082, 21.5747, 31.1901, -36.9021, -24.6224
1.76768, -1, 13.5381, 19.7238, 21.6064, 31.3415, -36.7245, -24.7356
1.77574, -1, 13.633, 19.6395, 21.638, 31.4924, -36.5477, -24.8487
1.78368, -1, 13.7275, 19.5554, 21.6697, 31.6429, -36.3711, -24.9615
1.79167, -1, 13.8219, 19.4716, 21.7012, 31.7934, -36.1949, -25.0739
1.79974, -1, 13.9162, 19.3879, 21.7327, 31.9435, -36.019, -25.1864
1.80873, -1, 14.0103, 19.3044, 21.7642, 32.0932, -35.8438, -25.2985
1.81567, -1, 14.1042, 19.2212, 21.7954, 32.2424, -35.669, -25.4105
1.82376, -1, 14.1979, 19.1382, 21.8265, 32.3913, -35.4944, -25.5225
1.83168, -1, 14.2913, 19.0553, 21.8577, 32.5399, -35.3205, -25.6339
1.83972, -1, 14.3844, 18.9726, 21.8888, 32.6884, -35.1467, -25.7453
1.84774, -1, 14.4771, 18.8901, 21.9198, 32.8366, -34.9736, -25.8561
1.85567, -1, 14.5695, 18.8077, 21.9508, 32.9843, -34.801, -25.9667
1.86369, -1, 14.6616, 18.7254, 21.9818, 33.1316, -34.6287, -26.077
1.87174, -1, 14.7536, 18.6434, 22.0126, 33.2786, -34.4568, -26.1867
1.87969, -1, 14.8454, 18.5615, 22.0432, 33.4253, -34.285, -26.2966
1.88778, -1, 14.937, 18.4799, 22.0739, 33.5717, -34.1135, -26.4059
1.89574, -1, 15.0285, 18.3984, 22.1047, 33.7178, -33.9424, -26.5152
1.90372, -1, 15.1197, 18.3172, 22.1352, 33.8635, -33.7718, -26.6244
1.91168, -1, 15.2109, 18.2362, 22.1657, 34.0089, -33.6013, -26.7333
1.91974, -1, 15.3022, 18.1554, 22.1961, 34.1538, -33.4313, -26.842
1.92767, -1, 15.3933, 18.0747, 22.2266, 34.2986, -33.2613, -26.9504
1.93567, -1, 15.4845, 17.9941, 22.2568, 34.4433, -33.0921, -27.0585
1.94375, -1, 15.5754, 17.9137, 22.2871, 34.5875, -32.9232, -27.1662
1.95168, -1, 15.6662, 17.8335, 22.3174, 34.7314, -32.7548, -27.2738
1.95968, -1, 15.7568, 17.7534, 22.3475, 34.875, -32.5867, -27.3814
1.96774, -1, 15.8471, 17.6735, 22.3775, 35.0181, -32.4189, -27.4885
1.97568, -1, 15.9373, 17.5937, 22.4075, 35.161, -32.2516, -27.5956
1.98375, -1, 16.0272, 17.514, 22.4375, 35.3038, -32.0843, -27.7026
1.9917, -1, 16.1168, 17.4345, 22.4673, 35.4463, -31.9177, -27.8095
1.99973, -1, 16.2062, 17.3551, 22.497, 35.5885, -31.7513, -27.9161
2.00787, -1, 16.2952, 17.2758, 22.5267, 35.7303, -31.5851, -28.0221
2.01581, -1, 16.384, 17.1968, 22.5565, 35.8719, -31.4196, -28.1283
2.0238, -1, 16.4725, 17.1179, 22.586, 36.0132, -31.2541, -28.2339
2.03184, -1, 16.5607, 17.0392, 22.6156, 36.1544, -31.089, -28.3394
2.04042, -1, 16.649, 16.9607, 22.6452, 36.2954, -30.9241, -28.4445
2.04777, -1, 16.7372, 16.8823, 22.6747, 36.4359, -30.7594, -28.5499
2.05584, -1, 16.8252, 16.8042, 22.704, 36.5761, -30.5952, -28.6548
2.06372, -1, 16.9131, 16.7263, 22.7334, 36.716, -30.4311, -28.7596
2.07174, -1, 17.0008, 16.6484, 22.7628, 36.8558, -30.2677, -28.8644
2.07991, -1, 17.0884, 16.5706, 22.7921, 36.9953, -30.1043, -28.9688
2.08787, -1, 17.1758, 16.4931, 22.8213, 37.1344, -29.9412, -29.0732
2.09592, -1, 17.2619, 16.4162, 22.8503, 37.2733, -29.7783, -29.1769
2.10455, -1, 17.3447, 16.3417, 22.8788, 37.4115, -29.6165, -29.2803
2.11205, -1, 17.4222, 16.2713, 22.9061, 37.5476, -29.4568, -29.3823
2.12012, -1, 17.4939, 16.2064, 22.932, 37.6794, -29.3022, -29.4811
2.12665, -1, 17.5278, 16.1764, 22.9442, 37.7425, -29.2279, -29.5285
2.13621, -1, 17.6197, 16.0955, 22.9778, 37.9158, -29.0244, -29.6588
2.14425, -1, 17.6723, 16.0493, 22.997, 38.0128, -28.9098, -29.7318
2.1525, -1, 17.719, 16.0077, 23.0131, 38.0915, -28.8168, -29.7919
2.16032, -1, 17.7402, 15.9701, 23.0264, 38.152, -28.745, -29.8374
2.16827, -1, 17.7789, 15.9531, 23.0321, 38.1935, -28.6949, -29.8696
2.17647, -1, 17.8115, 15.912, 23.0447, 38.2211, -28.6618, -29.8907
2.1837, -1, 17.8377, 15.902, 23.0476, 38.2306, -28.6505, -29.8978
2.19163, -1, 17.8578, 15.8867, 23.052, 38.2431, -28.6353, -29.9071
2.1997, -1, 17.8716, 15.8764, 23.0547, 38.2498, -28.6272, -29.9119
2.20766, -1, 17.8795, 15.8705, 23.0561, 38.253, -28.6232, -29.9143
2.21565, 2, 17.8831, 15.8675, 23.0568, 38.2545, -28.6213, -29.9153
2.22373, 2, 17.8848, 15.8658, 23.0571, 38.2553, -28.6205, -29.9158
2.23166, 2, 17.8849, 15.8649, 23.0573, 38.2556, -28.6201, -29.916
2.23969, 2, 17.8845, 15.8644, 23.0573, 38.2557, -28.6199, -29.9161
2.2477, 2, 17.8839, 15.8641, 23.0574, 38.2558, -28.6199, -29.9162
2.25565, 2, 17.8835, 15.864, 23.0574, 38.2559, -28.62, -29.9162
2.26367, 2, 17.8833, 15.8638, 23.0574, 38.2559, -28.6199, -29.9162
2.27172, 2, 17.8832, 15.8637, 23.0575, 38.2559, -28.6199, -29.9162
2.27965, 2, 17.8832, 15.8636, 23.0575, 38.2559, -28.6199, -29.9162
2.28766, 2, 17.8833, 15.8634, 23.0575, 38.2559, -28.6199, -29.9162
2.29572, 2, 17.8836, 15.8632, 23.0575, 38.2559, -28.6198, -29.9162
2.30556, 2, 17.8842, 15.8629, 23.0575, 38.256, -28.6199, -29.9162
2.31165, 2, 17.8843, 15.8628, 23.0575, 38.256, -28.6199, -29.9162
2.31972, 2, 17.885, 15.8627, 23.0575, 38.256, -28.6199, -29.9162
2.32765, 2, 17.8856, 15.8626, 23.0575, 38.2559, -28.6199, -29.9162
2.33665, 2, 17.886, 15.8625, 23.0575, 38.256, -28.6199, -29.9162
2.34378, 2, 17.8864, 15.8625, 23.0575, 38.256, -28.62, -29.9162
2.35166, 2, 17.8867, 15.8624, 23.0575, 38.256, -28.62, -29.9162
2.35965, 2, 17.8868, 15.8624, 23.0575, 38.256, -28.62, -29.9162
2.36772, 2, 17.8869, 15.8624, 23.0575, 38.2559, -28.62, -29.9162
2.37566, 2, 17.887, 15.8624, 23.0575, 38.256, -28.62, -29.9162
2.38374, 2, 17.887, 15.8624, 23.0575, 38.256, -28.62, -29.9162
2.39172, 2, 17.887, 15.8624, 23.0575, 38.2559, -28.62, -29.9162
2.39982, 2, 17.8871, 15.8624, 23.0575, 38.2559, -28.62, -29.9162
2.40768, 2, 17.887, 15.8624, 23.0575, 38.2559, -28.62, -29.9162
2.41572, 2, 17.8868, 15.8623, 23.0575, 38.2559, -28.6201, -29.9162
2.42367, 2, 17.8867, 15.8623, 23.0575, 38.2559, -28.6201, -29.9162
2.43165, 2, 17.8866, 15.8623, 23.0575, 38.2559, -28.6202, -29.9161
2.43972, 2, 17.8865, 15.8623, 23.0575, 38.256, -28.6202, -29.9161
2.44767, 2, 17.8865, 15.8623, 23.0575, 38.2559, -28.6202, -29.9161
2.45566, 2, 17.8865, 15.8623, 23.0575, 38.2559, -28.6202, -29.9161
2.46375, 2, 17.8865, 15.8623, 23.0575, 38.2559, -28.6203, -29.9161
2.47166, 2, 17.8865, 15.8623, 23.0575, 38.2559, -28.6203, -29.9161
2.47965, 2, 17.8865, 15.8623, 23.0575, 38.2559, -28.6203, -29.9161
2.48773, 2, 17.8865, 15.8623, 23.0575, 38.2559, -28.6203, -29.9161
2.49569, 2, 17.8865, 15.8623, 23.0575, 38.2559, -28.6203, -29.9161
2.50375, 2, 17.8865, 15.8623, 23.0575, 38.2559, -28.6203, -29.916
2.51186, 2, 17.8865, 15.8623, 23.0575, 38.2559, -28.6203, -29.916
2.51976, 2, 17.8865, 15.8623, 23.0575, 38.2559, -28.6203, -29.916
2.52776, 2, 17.8864, 15.8623, 23.0575, 38.2559, -28.6203, -29.9161
2.53583, 2, 17.8864, 15.8623, 23.0575, 38.2559, -28.6204, -29.916
2.54378, 2, 17.8864, 15.8623, 23.0575, 38.2559, -28.6204, -29.916
2.55167, 2, 17.8863, 15.8623, 23.0575, 38.2559, -28.6204, -29.916
2.55976, 2, 17.8863, 15.8623, 23.0575, 38.2559, -28.6204, -29.916
2.56769, 2, 17.8863, 15.8623, 23.0575, 38.2559, -28.6205, -29.916
2.57583, 2, 17.8863, 15.8623, 23.0575, 38.2559, -28.6205, -29.916
2.58417, 2, 17.8863, 15.8623, 23.0575, 38.2559, -28.6205, -29.916
2.59064, 2, 17.8862, 15.8623, 23.0575, 38.2559, -28.6205, -29.916
2.59988, 2, 17.8862, 15.8623, 23.0575, 38.2559, -28.6205, -29.916
2.60837, 2, 17.8862, 15.8623, 23.0575, 38.2559, -28.6205, -29.916
2.61602, 2, 17.8862, 15.8623, 23.0575, 38.2559, -28.6206, -29.9159
2.62274, 2, 17.8862, 15.8623, 23.0575, 38.2559, -28.6206, -29.9159
2.63263, 2, 17.8861, 15.8623, 23.0575, 38.2559, -28.6206, -29.9159
2.64017, 2, 17.8862, 15.8623, 23.0575, 38.2559, -28.6206, -29.9158
2.64819, 2, 17.8861, 15.8623, 23.0575, 38.2559, -28.6206, -29.9157
2.65651, 2, 17.8861, 15.8623, 23.0575, 38.2559, -28.6206, -29.9158
2.66425, 2, 17.8861, 15.8623, 23.0575, 38.2559, -28.6206, -29.9157
2.67217, 2, 17.886, 15.8623, 23.0575, 38.2559, -28.6206, -29.9157
2.68056, 2, 17.886, 15.8623, 23.0575, 38.2558, -28.6207, -29.9157
2.68765, 2, 17.8859, 15.8623, 23.0575, 38.2558, -28.6207, -29.9156
2.69564, 2, 17.8859, 15.8623, 23.0575, 38.2558, -28.6207, -29.9156
2.70372, 2, 17.8859, 15.8623, 23.0575, 38.2558, -28.6207, -29.9156
2.71164, 2, 17.8859, 15.8623, 23.0575, 38.2558, -28.6208, -29.9156
2.71966, 2, 17.8859, 15.8623, 23.0575, 38.2558, -28.6208, -29.9155
2.72769, 2, 17.8858, 15.8623, 23.0575, 38.2558, -28.6208, -29.9155
2.73564, 2, 17.8858, 15.8623, 23.0575, 38.2558, -28.6208, -29.9155
2.74369, 2, 17.8857, 15.8623, 23.0575, 38.2558, -28.6208, -29.9155
2.75169, 2, 17.8857, 15.8623, 23.0575, 38.2558, -28.6208, -29.9154
2.75964, 2, 17.8857, 15.8623, 23.0575, 38.2558, -28.6208, -29.9154
2.76764, 2, 17.8856, 15.8623, 23.0575, 38.2557, -28.6208, -29.9154
2.77463, 2, 17.8856, 15.8623, 23.0575, 38.2557, -28.6208, -29.9154
2.78366, 2, 17.8855, 15.8623, 23.0575, 38.2557, -28.6209, -29.9154
2.79164, 2, 17.8855, 15.8623, 23.0575, 38.2557, -28.6209, -29.9154
2.7997, 2, 17.8855, 15.8623, 23.0575, 38.2557, -28.621, -29.9154
2.80764, 2, 17.8854, 15.8624, 23.0575, 38.2557, -28.621, -29.9154
2.81663, 2, 17.8854, 15.8624, 23.0575, 38.2557, -28.621, -29.9153
2.82372, 2, 17.8853, 15.8624, 23.0575, 38.2557, -28.621, -29.9153
2.83164, 2, 17.8853, 15.8624, 23.0575, 38.2557, -28.621, -29.9154
2.83963, 2, 17.8852, 15.8624, 23.0575, 38.2557, -28.621, -29.9153
2.84776, 2, 17.8852, 15.8623, 23.0575, 38.2556, -28.621, -29.9153
2.85564, 2, 17.8852, 15.8623, 23.0575, 38.2556, -28.6211, -29.9153
2.86365, 2, 17.8851, 15.8623, 23.0575, 38.2557, -28.6211, -29.9153
2.8717, 2, 17.8851, 15.8623, 23.0575, 38.2557, -28.6211, -29.9153
2.87964, 2, 17.885, 15.8623, 23.0575, 38.2557, -28.6211, -29.9153
2.88775, 2, 17.885, 15.8624, 23.0575, 38.2557, -28.6211, -29.9153
2.89571, 2, 17.885, 15.8624, 23.0575, 38.2556, -28.6211, -29.9153
2.90366, 2, 17.8849, 15.8624, 23.0575, 38.2556, -28.6211, -29.9153
2.91167, 2, 17.8849, 15.8624, 23.0575, 38.2556, -28.6211, -29.9153
2.9197, 2, 17.8849, 15.8624, 23.0575, 38.2556, -28.6211, -29.9153
2.92764, 2, 17.8848, 15.8624, 23.0575, 38.2556, -28.6211, -29.9153
2.93564, 2, 17.8847, 15.8624, 23.0575, 38.2556, -28.6211, -29.9153
2.94372, 2, 17.8847, 15.8624, 23.0575, 38.2555, -28.6212, -29.9153
2.95166, 2, 17.8847, 15.8624, 23.0575, 38.2555, -28.6212, -29.9152
2.95964, 2, 17.8846, 15.8624, 23.0575, 38.2555, -28.6212, -29.9153
2.9677, 2, 17.8845, 15.8624, 23.0575, 38.2555, -28.6212, -29.9152
2.97564, 2, 17.8845, 15.8624, 23.0575, 38.2554, -28.6212, -29.9152
2.98366, 2, 17.8845, 15.8624, 23.0575, 38.2554, -28.6212, -29.9152
2.99171, 2, 17.8844, 15.8624, 23.0575, 38.2554, -28.6213, -29.9151
2.99967, 2, 17.8844, 15.8624, 23.0575, 38.2554, -28.6213, -29.9151
3.00772, 2, 17.8843, 15.8624, 23.0575, 38.2554, -28.6213, -29.9152
3.01584, 2, 17.8843, 15.8624, 23.0575, 38.2553, -28.6213, -29.9151
3.02376, 2, 17.8842, 15.8624, 23.0575, 38.2553, -28.6213, -29.9151
3.03174, 2, 17.8842, 15.8624, 23.0575, 38.2553, -28.6213, -29.915
3.0398, 2, 17.8841, 15.8624, 23.0575, 38.2553, -28.6213, -29.915
3.04772, 2, 17.8841, 15.8624, 23.0575, 38.2553, -28.6213, -29.915
3.05566, 2, 17.8841, 15.8624, 23.0575, 38.2553, -28.6213, -29.9151
3.06375, 2, 17.884, 15.8624, 23.0575, 38.2553, -28.6213, -29.9151
3.07195, 2, 17.884, 15.8624, 23.0575, 38.2553, -28.6213, -29.9151
3.07975, 2, 17.8839, 15.8624, 23.0575, 38.2552, -28.6213, -29.9151
3.08784, 2, 17.8839, 15.8624, 23.0575, 38.2552, -28.6213, -29.915
3.09593, 2, 17.8839, 15.8624, 23.0575, 38.2552, -28.6213, -29.915
3.10389, 2, 17.8838, 15.8624, 23.0575, 38.2552, -28.6214, -29.9151
3.11198, 2, 17.8838, 15.8624, 23.0575, 38.2551, -28.6214, -29.915
3.12051, 2, 17.8838, 15.8624, 23.0575, 38.2551, -28.6213, -29.915
3.12807, 2, 17.8837, 15.8624, 23.0575, 38.2551, -28.6214, -29.915
3.13462, 2, 17.8837, 15.8624, 23.0575, 38.2551, -28.6214, -29.915
3.14429, 2, 17.8837, 15.8625, 23.0575, 38.2551, -28.6214, -29.9149
3.15216, 2, 17.8836, 15.8625, 23.0575, 38.2551, -28.6214, -29.9149
3.16023, 2, 17.8836, 15.8625, 23.0575, 38.255, -28.6214, -29.9149
3.16852, 2, 17.8836, 15.8625, 23.0575, 38.255, -28.6214, -29.9149
3.17614, 2, 17.8836, 15.8625, 23.0575, 38.255, -28.6215, -29.9149
3.18437, 2, 17.8836, 15.8625, 23.0575, 38.255, -28.6214, -29.9149
3.19169, 2, 17.8836, 15.8625, 23.0575, 38.255, -28.6214, -29.9149
3.19962, 2, 17.8835, 15.8625, 23.0575, 38.255, -28.6214, -29.9149
3.20767, 2, 17.8835, 15.8625, 23.0575, 38.255, -28.6214, -29.9149
3.21578, 2, 17.8835, 15.8625, 23.0575, 38.255, -28.6214, -29.9149
3.22365, 2, 17.8835, 15.8625, 23.0575, 38.2549, -28.6214, -29.9149
3.23162, 2, 17.8835, 15.8625, 23.0575, 38.2549, -28.6214, -29.9148
3.23967, 2, 17.8835, 15.8625, 23.0575, 38.2549, -28.6214, -29.9148
3.24765, 2, 17.8835, 15.8625, 23.0575, 38.2549, -28.6214, -29.9149
3.25562, 2, 17.8835, 15.8625, 23.0575, 38.2549, -28.6215, -29.9149
3.26369, 2, 17.8835, 15.8625, 23.0575, 38.2549, -28.6215, -29.9149
3.27163, 2, 17.8835, 15.8625, 23.0575, 38.2548, -28.6215, -29.9148
3.27962, 2, 17.8834, 15.8625, 23.0575, 38.2548, -28.6215, -29.9148
3.28663, 2, 17.8834, 15.8625, 23.0575, 38.2548, -28.6215, -29.9148
3.29563, 2, 17.8834, 15.8625, 23.0575, 38.2548, -28.6215, -29.9148
3.30461, 4, 17.8834, 15.8625, 23.0575, 38.2547, -28.6216, -29.9148
3.31169, 4, 17.8834, 15.8625, 23.0575, 38.2547, -28.6216, -29.9148
3.32067, 4, 17.8834, 15.8625, 23.0575, 38.2547, -28.6216, -29.9148
3.32773, 4, 17.8834, 15.8625, 23.0575, 38.2547, -28.6216, -29.9148
3.33684, 4, 17.8834, 15.8625, 23.0575, 38.2546, -28.6216, -29.9148
3.34364, 4, 17.8834, 15.8625, 23.0575, 38.2546, -28.6216, -29.9148
3.35166, 4, 17.8834, 15.8625, 23.0575, 38.2546, -28.6216, -29.9147
3.35969, 4, 17.8834, 15.8625, 23.0575, 38.2546, -28.6215, -29.9147
3.36762, 4, 17.8833, 15.8625, 23.0575, 38.2546, -28.6215, -29.9147
3.37562, 4, 17.8833, 15.8625, 23.0575, 38.2546, -28.6215, -29.9147
3.38371, 4, 17.8833, 15.8625, 23.0575, 38.2546, -28.6215, -29.9147
3.39165, 4, 17.8833, 15.8625, 23.0575, 38.2546, -28.6215, -29.9146
3.39977, 4, 17.8833, 15.8625, 23.0575, 38.2546, -28.6216, -29.9147
3.42611, 4, 17.8833, 15.8625, 23.0575, 38.2545, -28.6215, -29.9146
3.42762, 4, 17.8833, 15.8625, 23.0575, 38.2545, -28.6215, -29.9145
3.42882, 4, 17.8833, 15.8625, 23.0575, 38.2545, -28.6215, -29.9145
3.43159, 4, 17.8832, 15.8625, 23.0575, 38.2545, -28.6215, -29.9145
3.43969, 4, 17.8832, 15.8625, 23.0575, 38.2545, -28.6215, -29.9145
3.44762, 4, 17.883, 15.8625, 23.0575, 38.2545, -28.6216, -29.9145
3.45577, 4, 17.8816, 15.8625, 23.0575, 38.2543, -28.6216, -29.9145
3.46363, 4, 17.8773, 15.8625, 23.0579, 38.2528, -28.622, -29.9138
3.47164, 4, 17.869, 15.8623, 23.0596, 38.2457, -28.6237, -29.9094
3.47962, 4, 17.8558, 15.8613, 23.0648, 38.2271, -28.6296, -29.8948
3.48784, 4, 17.8356, 15.8588, 23.0766, 38.1884, -28.6428, -29.8619
3.49584, 5, 17.8058, 15.8539, 23.0989, 38.116, -28.6675, -29.8
3.50368, 5, 17.7655, 15.8456, 23.1357, 37.9963, -28.709, -29.6962
3.51177, 5, 17.7153, 15.8331, 23.1909, 37.8158, -28.7734, -29.5392
3.52005, 5, 17.6554, 15.8159, 23.2668, 37.5668, -28.8634, -29.3219
3.5272, 5, 17.5854, 15.7942, 23.364, 37.2482, -28.9811, -29.0435
3.53579, 5, 17.5052, 15.7684, 23.4809, 36.8663, -29.1239, -28.7082
3.5441, 5, 17.4159, 15.7392, 23.6143, 36.4322, -29.2892, -28.3264
3.55126, 5, 17.3681, 15.7237, 23.6858, 35.9606, -29.4719, -27.9117
3.55982, 5, 17.2114, 15.6749, 23.9128, 35.4666, -29.667, -27.4769
3.56828, 5, 17.0958, 15.6417, 24.0702, 34.9625, -29.87, -27.0337
3.57573, 5, 16.9731, 15.6085, 24.2292, 34.4561, -30.0779, -26.589
3.58376, 5, 16.8459, 15.5759, 24.3878, 33.9515, -30.2892, -26.1467
3.59246, 5, 16.7164, 15.5442, 24.5457, 33.4518, -30.5032, -25.7096
3.59988, 5, 16.5851, 15.5134, 24.7032, 32.9567, -30.7193, -25.2774
3.60789, 5, 16.4533, 15.4836, 24.8601, 32.4669, -30.9374, -24.851
3.6167, 5, 16.3212, 15.4548, 25.0157, 31.9827, -31.1572, -24.4298
3.62407, 5, 16.1893, 15.4272, 25.17, 31.5043, -31.379, -24.0138
3.63208, 5, 16.0574, 15.401, 25.3237, 31.031, -31.6026, -23.6038
3.64022, 5, 15.9258, 15.3758, 25.4767, 30.5629, -31.828, -23.1992
3.64816, 5, 15.7942, 15.3518, 25.6287, 30.1008, -32.055, -22.7998
3.65616, 5, 15.6625, 15.3289, 25.779, 29.6438, -32.2836, -22.406
3.66426, 5, 15.531, 15.3071, 25.9284, 29.192, -32.5138, -22.0173
3.67222, 5, 15.4653, 15.2966, 26.0029, 28.7456, -32.7456, -21.634
3.68013, 5, 15.3335, 15.2765, 26.1511, 28.5242, -32.8621, -21.4445
3.68837, 5, 15.2011, 15.2572, 26.298, 28.0855, -33.0962, -20.8836
3.69561, 5, 15.068, 15.239, 26.4437, 27.6518, -33.3316, -20.6993
3.70361, 5, 14.934, 15.2219, 26.5883, 27.2227, -33.5684, -20.3345
3.71166, 5, 14.799, 15.2057, 26.732, 26.7988, -33.8069, -19.9743
3.71963, 5, 14.6633, 15.1905, 26.8745, 26.3798, -34.0467, -19.6189
3.72763, 5, 14.5269, 15.1764, 27.0158, 25.9655, -34.2878, -19.2687
3.73561, 5, 14.3897, 15.1636, 27.1559, 25.5559, -34.5303, -18.9233
3.74361, 5, 14.2522, 15.1519, 27.2951, 25.1511, -34.7745, -18.5824
3.75169, 5, 14.1141, 15.1412, 27.4334, 24.7509, -35.0198, -18.2462
3.75962, 5, 13.976, 15.1315, 27.5704, 24.3552, -35.2665, -17.9148
3.76762, 5, 13.8378, 15.1231, 27.7063, 23.9637, -35.5145, -17.5876
3.77566, 5, 13.6994, 15.116, 27.841, 23.5766, -35.7636, -17.265
3.78361, 5, 13.5613, 15.11, 27.9746, 23.1937, -36.014, -16.947
3.79161, 5, 13.4232, 15.105, 28.1071, 22.8151, -36.2654, -16.6335
3.79968, 5, 13.2853, 15.1012, 28.2385, 22.4407, -36.518, -16.3241
3.80762, 5, 13.1477, 15.0985, 28.3687, 22.0703, -36.7717, -16.019
3.8166, 5, 13.01, 15.0968, 28.4976, 21.7042, -37.0265, -15.7182
3.82367, 5, 12.872, 15.0962, 28.6255, 21.3418, -37.2824, -15.4211
3.83164, 5, 12.7334, 15.0963, 28.7523, 20.9835, -37.5395, -15.1279
3.83962, 5, 12.5941, 15.0972, 28.8779, 20.6289, -37.7978, -14.8389
3.84768, 5, 12.454, 15.0993, 29.0024, 20.278, -38.0571, -14.5536
3.85565, 5, 12.3132, 15.1026, 29.1256, 19.9308, -38.3176, -14.2719
3.86395, 5, 12.1717, 15.1069, 29.2476, 19.5873, -38.5791, -13.9938
3.8716, 5, 12.0296, 15.1125, 29.3684, 19.2475, -38.8415, -13.7196
3.87962, 5, 11.887, 15.1191, 29.4881, 18.9113, -39.1048, -13.4489
3.88839, 5, 11.744, 15.1268, 29.6067, 18.5785, -39.369, -13.1816
3.89562, 5, 11.6006, 15.1355, 29.7242, 18.2493, -39.634, -12.9178
3.90361, 5, 11.4569, 15.1456, 29.8403, 17.9233, -39.8999, -12.6578
3.91262, 5, 11.3132, 15.1569, 29.9552, 17.6008, -40.167, -12.4014
3.92044, 5, 11.1694, 15.1692, 30.0691, 17.2815, -40.4348, -12.1483
3.92761, 5, 11.0257, 15.1826, 30.1817, 16.9653, -40.7033, -11.8986
3.93638, 5, 10.8818, 15.1974, 30.2934, 16.6524, -40.9727, -11.6521
3.9436, 5, 10.7379, 15.2135, 30.4038, 16.3426, -41.2431, -11.4092
3.9516, 5, 10.594, 15.2307, 30.5128, 16.036, -41.5141, -11.1693
3.96055, 5, 10.4502, 15.249, 30.6207, 15.7326, -41.7863, -10.9324
3.96761, 5, 10.3066, 15.2686, 30.7273, 15.432, -42.0593, -10.6984
3.9756, 5, 10.1628, 15.2895, 30.833, 15.1345, -42.3329, -10.4677
3.98446, 5, 10.0189, 15.3113, 30.9375, 14.8401, -42.6073, -10.2402
3.99161, 5, 9.87452, 15.3344, 31.0408, 14.5483, -42.8825, -10.0153
3.99964, 5, 9.72955, 15.3587, 31.1427, 14.2595, -43.1584, -9.79337
4.01105, 5, 9.51082, 15.397, 31.2931, 13.8314, -43.5738, -9.46556
4.01518, 5, 9.43764, 15.4104, 31.3427, 13.69, -43.7124, -9.35786
4.02378, 5, 9.29082, 15.4378, 31.441, 13.4092, -43.9901, -9.1446
4.03202, 5, 9.14348, 15.4665, 31.5382, 13.1311, -44.2685, -8.93384
4.03979, 5, 8.99567, 15.4963, 31.6344, 12.8553, -44.5475, -8.72546
4.04773, 5, 8.84751, 15.5273, 31.7292, 12.5823, -44.8271, -8.51995
4.05618, 5, 8.6992, 15.5592, 31.8224, 12.3118, -45.1076, -8.31683
4.06351, 5, 8.62502, 15.5924, 31.9144, 12.0437, -45.389, -8.11663
4.0717, 5, 8.4024, 15.6267, 32.0053, 11.7781, -45.6708, -7.91899
4.07966, 5, 8.25385, 15.6622, 32.0952, 11.5151, -45.953, -7.72375
4.08834, 5, 8.10514, 15.6987, 32.184, 11.2542, -46.2358, -7.53081
4.09574, 5, 7.95645, 15.7363, 32.2717, 10.9956, -46.5191, -7.34043
4.10386, 5, 7.8078, 15.7751, 32.3579, 10.7394, -46.8028, -7.1524
4.11283, 5, 7.65919, 15.815, 32.4426, 10.4854, -47.0869, -6.967
4.11994, 5, 7.51082, 15.856, 32.526, 10.2334, -47.3715, -6.78365
4.12806, 5, 7.36247, 15.8982, 32.6083, 9.98368, -47.6565, -6.60251
4.1346, 5, 7.28829, 15.9197, 32.6491, 9.85967, -47.7993, -6.51286
4.14416, 5, 7.0654, 15.9859, 32.7698, 9.49073, -48.2284, -6.24677
4.15223, 5, 6.91649, 16.0315, 32.8486, 9.24746, -48.515, -6.07241
4.16025, 5, 6.76722, 16.0783, 32.9262, 9.00628, -48.8024, -5.90005
4.16816, 5, 6.69241, 16.1261, 33.0024, 8.76733, -49.0902, -5.73012
4.17624, 5, 6.54249, 16.175, 33.0772, 8.53024, -49.3783, -5.56201
4.1854, 5, 6.39215, 16.1999, 33.1142, 8.41248, -49.6669, -5.39568
4.1916, 5, 6.24122, 16.2506, 33.1872, 8.17853, -49.8112, -5.31341
4.19964, 5, 6.08996, 16.3023, 33.2591, 7.94664, -50.1001, -5.15014
4.20759, 5, 5.93841, 16.3551, 33.3298, 7.71648, -50.3893, -4.98895
4.21566, 5, 5.78668, 16.4089, 33.3991, 7.48809, -50.679, -4.82974
4.22364, 5, 5.63493, 16.4638, 33.4672, 7.26186, -50.9689, -4.67266
4.23161, 5, 5.48305, 16.5196, 33.534, 7.03747, -51.2591, -4.5173
4.23961, 5, 5.33101, 16.5765, 33.5996, 6.81448, -51.5497, -4.36366
4.24759, 5, 5.17881, 16.6346, 33.6639, 6.59336, -51.8407, -4.21177
4.25568, 5, 5.0265, 16.6938, 33.7269, 6.37398, -52.1319, -4.06169
4.26259, 5, 4.87437, 16.754, 33.7885, 6.15634, -52.4235, -3.9135
4.27163, 5, 4.72233, 16.8154, 33.8489, 5.94017, -52.7155, -3.76719
4.27965, 5, 4.57034, 16.8779, 33.908, 5.72582, -53.0079, -3.62275
4.2876, 5, 4.41853, 16.9415, 33.9659, 5.51324, -53.3003, -3.48008
4.29558, 5, 4.26698, 17.0063, 34.0225, 5.30234, -53.5929, -3.33913
4.30376, 5, 4.11553, 17.0721, 34.0781, 5.09287, -53.8857, -3.19967
4.31159, 5, 3.96398, 17.139, 34.1323, 4.88507, -54.1786, -3.06183
4.32058, 5, 3.81238, 17.2069, 34.1851, 4.67902, -54.4716, -2.92563
4.32765, 5, 3.66054, 17.2757, 34.2367, 4.47447, -54.7648, -2.79106
4.33563, 5, 3.50828, 17.3455, 34.2869, 4.27128, -55.0583, -2.65814
4.34365, 5, 3.35551, 17.4164, 34.3359, 4.06946, -55.3518, -2.52676
4.35164, 5, 3.20226, 17.4884, 34.3834, 3.86953, -55.6456, -2.39724
4.35961, 5, 3.04878, 17.5613, 34.4299, 3.67101, -55.9397, -2.26884
4.3676, 5, 2.89505, 17.6352, 34.4749, 3.47378, -56.234, -2.14196
4.37564, 5, 2.74116, 17.7103, 34.5186, 3.27785, -56.5285, -2.01636
4.38364, 5, 2.58698, 17.7864, 34.561, 3.08338, -56.8229, -1.89246
4.39159, 5, 2.43277, 17.8635, 34.6022, 2.8902, -57.1174, -1.76971
4.39971, 5, 2.27862, 17.9417, 34.6423, 2.69849, -57.4118, -1.64865
4.40759, 5, 2.12441, 18.0208, 34.6809, 2.5079, -57.7061, -1.52898
4.41565, 5, 1.97031, 18.1009, 34.7182, 2.31874, -58.0003, -1.41048
4.42368, 5, 1.81647, 18.1821, 34.7543, 2.13092, -58.2947, -1.29382
4.43159, 5, 1.66277, 18.2643, 34.789, 1.94455, -58.5892, -1.17812
4.43968, 5, 1.50924, 18.3473, 34.8223, 1.7594, -58.8838, -1.06341
4.44759, 5, 1.35608, 18.4314, 34.8544, 1.5753, -59.1787, -0.950467
4.45565, 5, 1.2033, 18.5165, 34.8852, 1.39253, -59.4736, -0.83849
4.46365, 5, 1.05068, 18.6032, 34.9143, 1.21119, -59.7685, -0.727702
4.47158, 5, 0.89848, 18.6932, 34.941, 1.03098, -60.0633, -0.618247
4.47966, 5, 0.746776, 18.7887, 34.964, 0.851994, -60.3577, -0.510095
4.48762, 5, 0.596017, 18.8917, 34.981, 0.674331, -60.6514, -0.403572
4.49559, 5, 0.446402, 19.0024, 34.989, 0.498891, -60.9439, -0.298523
4.50374, 6, 0.298425, 19.1205, 34.9853, 0.326293, -61.2337, -0.19606
4.51165, 6, 0.152083, 19.2462, 34.9667, 0.157386, -61.5197, -0.0957903
4.51968, 6, 0.00723177, 19.3795, 34.9313, -0.00725264, -61.8007, 0.00170906
4.52774, 6, -0.135778, 19.52, 34.8791, -0.167352, -62.0763, 0.0960699
4.5357, 6, -0.276965, 19.6683, 34.811, -0.323003, -62.3464, 0.187545
4.54375, 6, -0.416902, 19.8249, 34.7294, -0.474388, -62.6113, 0.276488
4.55175, 6, -0.55541, 19.9895, 34.6374, -0.622494, -62.8722, 0.362872
4.55959, 6, -0.692059, 20.1602, 34.5378, -0.767976, -63.1301, 0.447784
4.56762, 6, -0.826549, 20.3353, 34.4335, -0.911491, -63.386, 0.5308
4.5757, 6, -0.959263, 20.5133, 34.3261, -1.05368, -63.6408, 0.61335
4.58367, 6, -1.09081, 20.6933, 34.2165, -1.19428, -63.8944, 0.693963
4.59175, 6, -1.221, 20.8739, 34.1052, -1.33374, -64.1471, 0.774464
4.59987, 6, -1.34997, 21.0548, 33.9922, -1.47195, -64.3992, 0.853585
4.6078, 6, -1.47825, 21.237, 33.8776, -1.60904, -64.6505, 0.931654
4.61588, 6, -1.60587, 21.4206, 33.7616, -1.74494, -64.9009, 1.00949
4.624, 6, -1.73303, 21.6044, 33.6443, -1.87992, -65.1506, 1.08595
4.63199, 6, -1.8599, 21.7876, 33.5258, -2.01367, -65.3998, 1.16256
4.64013, 6, -1.98649, 21.9713, 33.4061, -2.14616, -65.648, 1.23753
4.64814, 6, -2.11283, 22.1556, 33.2849, -2.27762, -65.8955, 1.31226
4.65615, 6, -2.23893, 22.34, 33.1621, -2.40808, -66.1424, 1.38644
4.66416, 6, -2.36493, 22.5242, 33.038, -2.53754, -66.3886, 1.45935
4.67303, 6, -2.42796, 22.7091, 32.9126, -2.66617, -66.6342, 1.53209
4.68012, 6, -2.55412, 22.8019, 32.8495, -2.73001, -66.7566, 1.60363
4.68817, 6, -2.68036, 22.9877, 32.7224, -2.85692, -67.0009, 1.67478
4.69559, 6, -2.80635, 23.1734, 32.5939, -2.98273, -67.2443, 1.7104
4.70263, 6, -2.93186, 23.3597, 32.464, -3.10741, -67.4868, 1.78009
4.71172, 6, -3.05687, 23.5471, 32.3329, -3.23129, -67.7286, 1.84933
4.71966, 6, -3.18136, 23.7349, 32.2004, -3.35406, -67.9697, 1.91859
4.72662, 6, -3.30529, 23.9225, 32.0666, -3.47614, -68.2095, 1.98614
4.73565, 6, -3.4288, 24.1108, 31.9315, -3.59737, -68.4485, 2.05378
4.74358, 6, -3.55175, 24.3001, 31.7952, -3.71749, -68.6869, 2.1209
4.75162, 6, -3.67417, 24.4898, 31.6576, -3.8368, -68.9245, 2.18695
4.75961, 6, -3.79598, 24.6788, 31.5188, -3.95494, -69.1612, 2.25361
4.76758, 6, -3.91727, 24.8679, 31.3786, -4.07228, -69.397, 2.31893
4.77566, 6, -4.03813, 25.058, 31.2368, -4.18874, -69.6322, 2.3835
4.78357, 6, -4.15846, 25.2482, 31.0939, -4.30423, -69.8665, 2.44853
4.79158, 6, -4.27846, 25.4382, 30.95, -4.41913, -70.1, 2.51234
4.79964, 6, -4.39823, 25.629, 30.8047, -4.53287, -70.3325, 2.57554
4.80757, 6, -4.5177, 25.821, 30.658, -4.64575, -70.564, 2.63906
4.81559, 6, -4.63656, 26.0133, 30.5099, -4.75766, -70.7946, 2.70129
4.82456, 6, -4.7547, 26.2051, 30.3608, -4.8686, -71.0241, 2.76317
4.83157, 6, -4.87227, 26.3975, 30.2105, -4.97875, -71.2527, 2.82526
4.83959, 6, -4.98949, 26.5906, 30.0588, -5.08786, -71.4806, 2.886
4.8476, 6, -5.10638, 26.7835, 29.9055, -5.19626, -71.7073, 2.94642
4.85558, 6, -5.22286, 26.9763, 29.751, -5.30392, -71.9333, 3.00727
4.86361, 6, -5.33902, 27.1698, 29.5956, -5.41068, -72.1582, 3.06697
4.87159, 6, -5.45488, 27.364, 29.4388, -5.51668, -72.3823, 3.12619
4.87957, 6, -5.57043, 27.558, 29.2804, -5.62172, -72.6055, 3.18571
4.88768, 6, -5.68558, 27.7519, 29.1208, -5.72575, -72.8278, 3.24439
4.89557, 6, -5.80045, 27.9468, 28.9604, -5.82914, -73.0492, 3.30266
4.90359, 6, -5.91496, 28.1421, 28.7989, -5.9316, -73.2695, 3.36149
4.9119, 6, -6.02928, 28.337, 28.6355, -6.03338, -73.4888, 3.41958
4.91957, 6, -6.14332, 28.532, 28.4707, -6.13441, -73.7073, 3.47673
4.92762, 6, -6.25694, 28.728, 28.305, -6.23474, -73.9248, 3.53438
4.93638, 6, -6.37008, 28.9243, 28.1381, -6.33434, -74.1414, 3.59179
4.94357, 6, -6.48273, 29.1199, 27.9697, -6.43306, -74.357, 3.64814
4.95158, 6, -6.59482, 29.3156, 27.7997, -6.53078, -74.5716, 3.70484
4.96036, 6, -6.70653, 29.5122, 27.6291, -6.6278, -74.7852, 3.76138
4.96757, 6, -6.81779, 29.7092, 27.4575, -6.72394, -74.9981, 3.81694
4.97557, 6, -6.92886, 29.9057, 27.2839, -6.81937, -75.2098, 3.87252
4.98364, 6, -7.03956, 30.1025, 27.1087, -6.91416, -75.4205, 3.92825
4.99158, 6, -7.14977, 30.3005, 26.9328, -7.00829, -75.6302, 3.98325
4.99973, 6, -7.25949, 30.4989, 26.7559, -7.10173, -75.8388, 4.03761
5.01269, 6, -7.42306, 30.7962, 26.4871, -7.24041, -76.1497, 4.12005
5.01571, 6, -7.47737, 30.8956, 26.397, -7.28626, -76.2529, 4.1472
5.02383, 6, -7.58561, 31.0949, 26.2162, -7.37731, -76.4585, 4.20087
5.03166, 6, -7.69323, 31.2937, 26.0341, -7.46743, -76.6631, 4.25477
5.03973, 6, -7.80024, 31.4922, 25.8498, -7.55709, -76.8669, 4.30883
5.04812, 6, -7.90667, 31.6913, 25.6645, -7.64585, -77.0697, 4.36206
5.05571, 6, -8.01248, 31.8911, 25.4785, -7.7339, -77.2714, 4.41545
5.06374, 6, -8.11791, 32.0905, 25.2908, -7.8215, -77.4722, 4.46938
5.07236, 6, -8.22295, 32.2898, 25.1013, -7.90838, -77.6719, 4.52274
5.0796, 6, -8.32772, 32.4897, 24.9112, -7.99424, -77.8705, 4.57533
5.08775, 6, -8.43214, 32.6898, 24.72, -8.07966, -78.068, 4.62834
5.09655, 6, -8.53625, 32.8896, 24.5266, -8.16403, -78.2644, 4.68174
5.10399, 6, -8.64022, 33.0899, 24.3321, -8.24772, -78.4598, 4.73415
5.11193, 6, -8.74395, 33.2912, 24.137, -8.33062, -78.6538, 4.78658
5.1207, 6, -8.84752, 33.4925, 23.9402, -8.41266, -78.8469, 4.83951
5.12803, 6, -8.95081, 33.6932, 23.7416, -8.49427, -79.0387, 4.89208
5.13457, 6, -9.00236, 33.7936, 23.6422, -8.53471, -79.1343, 4.91808
5.1449, 6, -9.15636, 34.096, 23.3421, -8.65509, -79.4195, 4.99634
5.15248, 6, -9.2585, 34.2976, 23.1394, -8.73437, -79.6083, 5.04884
5.16015, 6, -9.36012, 34.4993, 22.9361, -8.81358, -79.7961, 5.10062
5.169, 6, -9.46124, 34.7019, 22.7319, -8.89138, -79.983, 5.15209
5.17617, 6, -9.51167, 34.8035, 22.5256, -8.96906, -80.1691, 5.20422
5.1842, 6, -9.61219, 35.0064, 22.4219, -9.04569, -80.3539, 5.25623
5.19155, 6, -9.71217, 35.209, 22.2143, -9.08387, -80.446, 5.28184
5.19956, 6, -9.81176, 35.412, 22.0055, -9.15908, -80.6295, 5.33305
5.20767, 6, -9.91084, 35.6153, 21.7946, -9.23428, -80.8117, 5.38492
5.21561, 6, -10.0095, 35.8182, 21.5829, -9.30834, -80.993, 5.43661
5.22358, 6, -10.1077, 36.0212, 21.37, -9.3821, -81.173, 5.48773
5.2316, 6, -10.2056, 36.2252, 21.1549, -9.45472, -81.3519, 5.53919
5.23957, 6, -10.3031, 36.4294, 20.939, -9.52737, -81.5296, 5.5914
5.24767, 6, -10.4003, 36.633, 20.7224, -9.59872, -81.7063, 5.64311
5.25556, 6, -10.497, 36.8371, 20.5039, -9.67008, -81.882, 5.69428
5.2636, 6, -10.5932, 37.0421, 20.2843, -9.74002, -82.0564, 5.74597
5.2716, 6, -10.6888, 37.2469, 20.0636, -9.81022, -82.2296, 5.79817
5.27956, 6, -10.7838, 37.4517, 19.8408, -9.87884, -82.4019, 5.84967
5.28762, 6, -10.8783, 37.6573, 19.6171, -9.94755, -82.573, 5.90119
5.29563, 6, -10.9722, 37.8634, 19.3925, -10.0145, -82.7431, 5.95342
5.30355, 6, -11.0657, 38.0689, 19.1659, -10.0817, -82.9123, 6.00526
5.31155, 6, -11.1588, 38.2744, 18.9383, -10.1475, -83.0801, 6.05672
5.31962, 6, -11.2515, 38.4805, 18.7095, -10.2133, -83.247, 6.10855
5.32862, 6, -11.3437, 38.6864, 18.4786, -10.2782, -83.4128, 6.1609
5.33555, 6, -11.4359, 38.8921, 18.2469, -10.3423, -83.5775, 6.21264
5.34362, 6, -11.5278, 39.0988, 18.0142, -10.4062, -83.7413, 6.26433
5.35155, 6, -11.6196, 39.3062, 17.7794, -10.4688, -83.9038, 6.31665
5.35955, 6, -11.7111, 39.5131, 17.5437, -10.5319, -84.0654, 6.36905
5.36769, 6, -11.8024, 39.7201, 17.3065, -10.5928, -84.2256, 6.42084
5.37556, 6, -11.8934, 39.9278, 17.0677, -10.6544, -84.3847, 6.47312
5.38355, 6, -11.9841, 40.1356, 16.8284, -10.7145, -84.5429, 6.52589
5.39166, 6, -12.0744, 40.3431, 16.5871, -10.7743, -84.6998, 6.5781
5.39955, 6, -12.1644, 40.5514, 16.3442, -10.8336, -84.8557, 6.63033
5.40764, 6, -12.254, 40.7605, 16.1003, -10.8912, -85.0103, 6.68361
5.41562, 6, -12.3431, 40.9691, 15.8545, -10.9494, -85.1638, 6.73698
5.42355, 6, -12.4317, 41.1776, 15.6078, -11.006, -85.3161, 6.78975
5.4316, 6, -12.5196, 41.3866, 15.3601, -11.0623, -85.4675, 6.84277
5.43961, 6, -12.6065, 41.5952, 15.1105, -11.1181, -85.6173, 6.89647
5.44762, 6, -12.692, 41.8022, 14.8606, -11.1723, -85.7661, 6.94986
5.45555, 6, -12.7748, 42.0069, 14.6104, -11.2272, -85.9133, 7.00296
5.46362, 6, -12.8541, 42.2076, 14.3619, -11.2802, -86.0585, 7.05661
5.47156, 6, -12.929, 42.4008, 14.1184, -11.3316, -86.2002, 7.10906
5.47955, 6, -12.9991, 42.5843, 13.8821, -11.3816, -86.3367, 7.15934
5.48767, 6, -13.0643, 42.757, 13.6579, -11.4276, -86.4649, 7.20733
5.49556, 6, -13.1239, 42.9162, 13.4507, -11.4697, -86.5826, 7.2522
5.50355, 6, -13.178, 43.0601, 13.2641, -11.5075, -86.687, 7.29227
5.51165, 6, -13.2273, 43.1878, 13.1023, -11.5393, -86.7757, 7.32613
5.51964, 6, -13.2715, 43.2989, 12.967, -11.5648, -86.8492, 7.35418
5.5277, 6, -13.3098, 43.3924, 12.858, -11.5847, -86.9064, 7.37625
5.53572, 6, -13.3428, 43.4687, 12.7739, -11.5995, -86.9493, 7.39281
5.54365, 6, -13.3698, 43.529, 12.7119, -11.6101, -86.9803, 7.40483
5.55165, 6, -13.3913, 43.5748, 12.668, -11.6174, -87.0015, 7.4129
5.55976, 6, -13.4078, 43.608, 12.6383, -11.6221, -87.015, 7.41818
5.56793, 6, -13.42, 43.6319, 12.6193, -11.6247, -87.023, 7.42136
5.5756, 6, -13.429, 43.6488, 12.6076, -11.6262, -87.0274, 7.42298
5.58365, 6, -13.4352, 43.6597, 12.6008, -11.6271, -87.0295, 7.42383
5.59192, 7, -13.4388, 43.666, 12.5971, -11.6275, -87.0306, 7.42428
5.59972, 7, -13.4408, 43.6692, 12.595, -11.6277, -87.0312, 7.42448
5.60785, 7, -13.4416, 43.671, 12.5935, -11.6279, -87.0314, 7.42458
5.61587, 7, -13.4418, 43.6722, 12.5924, -11.628, -87.0315, 7.42462
5.62262, 7, -13.4419, 43.6727, 12.592, -11.628, -87.0315, 7.42463
5.63197, 7, -13.4419, 43.6743, 12.5913, -11.628, -87.0315, 7.42465
5.64005, 7, -13.4419, 43.6756, 12.5912, -11.628, -87.0315, 7.42469
5.64813, 7, -13.4419, 43.677, 12.5912, -11.6281, -87.0314, 7.42471
5.65617, 7, -13.4419, 43.6782, 12.5912, -11.6281, -87.0315, 7.42468
5.66415, 7, -13.4419, 43.6793, 12.5912, -11.6281, -87.0315, 7.42473
5.6721, 7, -13.4419, 43.6802, 12.5913, -11.6281, -87.0314, 7.4247
5.68014, 7, -13.4419, 43.6809, 12.5914, -11.628, -87.0313, 7.42474
5.68829, 7, -13.442, 43.6811, 12.5915, -11.6281, -87.0313, 7.42473
5.69551, 7, -13.442, 43.6814, 12.5916, -11.6281, -87.0312, 7.42473
5.70359, 7, -13.4419, 43.6815, 12.5918, -11.628, -87.0311, 7.42471
5.71154, 7, -13.4418, 43.6813, 12.5919, -11.6281, -87.031, 7.42472
