hehonglu123/ABB_Primitive_Study/realrobot/movel_30_car/curve_exe_v50_z10.csv
timestamp, cmd_num, J1, J2, J3, J4, J5, J6
0.002141, -1, -13.4402, 43.68, 12.5936, -11.6279, -87.0287, 7.42529
0.142844, -1, -13.0369, 43.332, 12.7104, -11.1301, -86.4476, 7.06226
0.14404, -1, -13.0369, 43.332, 12.7104, -11.1301, -86.4476, 7.06226
0.146824, -1, -12.9901, 43.2896, 12.7265, -11.0508, -86.3554, 7.00344
0.148041, -1, -12.9901, 43.2896, 12.7265, -11.0508, -86.3554, 7.00344
0.150065, -1, -12.9402, 43.2443, 12.7438, -10.9651, -86.2556, 6.93984
0.15126, -1, -12.9402, 43.2443, 12.7438, -10.9651, -86.2556, 6.93984
0.153377, -1, -12.8874, 43.1962, 12.7624, -10.8732, -86.1484, 6.87152
0.160088, -1, -12.8318, 43.1455, 12.782, -10.7754, -86.0344, 6.79884
0.162165, -1, -12.7734, 43.0923, 12.8025, -10.672, -85.9138, 6.72185
0.163341, -1, -12.7734, 43.0923, 12.8025, -10.672, -85.9138, 6.72185
0.165223, -1, -12.7734, 43.0923, 12.8239, -10.5633, -85.7871, 6.64087
0.16659, -1, -12.7124, 43.0367, 12.8239, -10.5633, -85.7871, 6.64087
0.16787, -1, -12.7124, 43.0367, 12.8239, -10.5633, -85.7871, 6.64087
0.170608, -1, -12.6488, 42.9789, 12.8462, -10.4499, -85.6549, 6.55636
0.171961, -1, -12.6488, 42.9789, 12.8462, -10.4499, -85.6549, 6.55636
0.174368, -1, -12.5828, 42.9188, 12.8694, -10.3324, -85.5178, 6.46872
0.175546, -1, -12.5828, 42.9188, 12.8694, -10.3324, -85.5178, 6.46872
0.177416, -1, -12.5143, 42.8566, 12.8935, -10.2112, -85.3763, 6.37819
0.179089, -1, -12.5143, 42.8566, 12.8935, -10.2112, -85.3763, 6.37819
0.180345, -1, -12.5143, 42.8566, 12.8935, -10.2112, -85.3763, 6.37819
0.183078, -1, -12.4434, 42.7924, 12.9182, -10.0869, -85.231, 6.28513
0.184271, -1, -12.4434, 42.7924, 12.9182, -10.0869, -85.231, 6.28513
0.189798, -1, -12.296, 42.6591, 12.9696, -9.83055, -84.9315, 6.09293
0.191151, -1, -12.296, 42.6591, 12.9696, -9.83055, -84.9315, 6.09293
0.192427, -1, -12.296, 42.6591, 12.9696, -9.83055, -84.9315, 6.09293
0.199038, -1, -12.1422, 42.5202, 13.0229, -9.56673, -84.6232, 5.89539
0.207057, -1, -11.9828, 42.3766, 13.0775, -9.2985, -84.3095, 5.69442
0.216032, -1, -11.8184, 42.2295, 13.1333, -9.02753, -83.9927, 5.49135
0.224093, -1, -11.6502, 42.0797, 13.1897, -8.75502, -83.6743, 5.28725
0.232106, -1, -11.4797, 41.9283, 13.2466, -8.48178, -83.3548, 5.08244
0.240023, -1, -11.3083, 41.7761, 13.3037, -8.20831, -83.0348, 4.87721
0.248086, -1, -11.1364, 41.6239, 13.3609, -7.93447, -82.7145, 4.67214
0.256034, -1, -10.9644, 41.4723, 13.4182, -7.66058, -82.394, 4.46706
0.263164, -1, -10.7922, 41.3207, 13.4758, -7.38672, -82.0731, 4.26189
0.27104, -1, -10.6198, 41.1691, 13.5334, -7.11265, -81.7523, 4.05647
0.279172, -1, -10.4472, 41.0172, 13.5912, -6.83838, -81.4317, 3.85087
0.287049, -1, -10.2747, 40.8656, 13.6488, -6.56459, -81.111, 3.64558
0.295039, -1, -10.1026, 40.714, 13.7063, -6.29078, -80.7907, 3.44052
0.304024, -1, -9.93086, 40.5624, 13.7637, -6.01689, -80.4707, 3.23539
0.311104, -1, -9.75964, 40.4104, 13.8212, -5.7433, -80.1509, 3.03032
0.319189, -1, -9.58902, 40.2581, 13.8785, -5.46992, -79.8312, 2.82526
0.327483, -1, -9.41889, 40.1059, 13.9358, -5.19632, -79.5116, 2.6204
0.335149, -1, -9.24948, 39.954, 13.9931, -4.92331, -79.1921, 2.41609
0.343259, -1, -9.08053, 39.802, 14.0502, -4.65061, -78.8728, 2.21194
0.351575, -1, -8.91156, 39.6499, 14.1073, -4.37819, -78.5536, 2.00795
0.360022, -1, -8.74234, 39.4979, 14.1644, -4.10636, -78.2351, 1.80405
0.368101, -1, -8.57288, 39.3467, 14.2214, -3.83495, -77.9173, 1.60031
0.375876, -1, -8.40308, 39.1959, 14.2783, -3.56364, -77.5999, 1.39712
0.384026, -1, -8.23327, 39.0455, 14.3353, -3.29301, -77.2833, 1.19445
0.392145, -1, -8.06324, 38.8952, 14.392, -3.02297, -76.9672, 0.992223
0.399966, -1, -7.89304, 38.7451, 14.4488, -2.75335, -76.6517, 0.790186
0.408036, -1, -7.72286, 38.5955, 14.5052, -2.48419, -76.3366, 0.5884
0.416102, -1, -7.55242, 38.4464, 14.5616, -2.21583, -76.022, 0.386868
0.42416, -1, -7.38214, 38.2973, 14.6179, -1.94769, -75.708, 0.186447
0.431999, -1, -7.21233, 38.1484, 14.6742, -1.68006, -75.3948, -0.0136486
0.440168, -1, -7.04321, 37.9995, 14.7303, -1.41322, -75.0825, -0.213374
0.448285, -1, -6.87505, 37.8511, 14.7863, -1.14704, -74.7708, -0.412785
0.455723, -1, -6.70797, 37.703, 14.842, -0.881606, -74.4602, -0.611765
0.464207, -1, -6.54158, 37.5553, 14.8974, -0.617004, -74.1502, -0.810179
0.472459, -1, -6.45882, 37.4815, 14.9529, -0.353136, -73.8411, -1.00764
0.480029, -1, -6.21248, 37.2605, 15.0082, -0.0896235, -73.5327, -1.20483
0.48703, -1, -6.13085, 37.1872, 15.0358, 0.0418661, -73.3789, -1.30306
0.496848, -1, -5.88704, 36.9684, 15.1184, 0.434617, -72.9189, -1.59729
0.504077, -1, -5.725, 36.8231, 15.1731, 0.695518, -72.6136, -1.79272
0.511031, -1, -5.64403, 36.7507, 15.2004, 0.825705, -72.4612, -1.89019
0.521005, -1, -5.40089, 36.5337, 15.2822, 1.21463, -72.0055, -2.18124
0.528417, -1, -5.23889, 36.3899, 15.3365, 1.47303, -71.7029, -2.37462
0.535024, -1, -5.15794, 36.3183, 15.3636, 1.60202, -71.5519, -2.47108
0.545201, -1, -4.9153, 36.1039, 15.4448, 1.98736, -71.1008, -2.75988
0.551072, -1, -4.83452, 36.0326, 15.4717, 2.11528, -70.951, -2.85586
0.560578, -1, -4.59246, 35.819, 15.5521, 2.49767, -70.5031, -3.14228
0.569351, -1, -4.43116, 35.6773, 15.6054, 2.75131, -70.2059, -3.33231
0.575079, -1, -4.35057, 35.6067, 15.632, 2.87768, -70.0578, -3.42701
0.584633, -1, -4.10978, 35.3957, 15.7114, 3.25587, -69.6153, -3.71024
0.593474, -1, -3.95065, 35.2555, 15.7643, 3.50713, -69.3214, -3.89834
0.732112, -1, -1.36377, 32.9568, 16.6296, 7.62641, -64.4971, -6.98226
0.733995, -1, -1.28934, 32.8914, 16.6542, 7.74333, -64.3602, -7.06986
0.735466, -1, -1.28934, 32.8914, 16.6542, 7.74333, -64.3602, -7.06986
0.736764, -1, -1.28934, 32.8914, 16.6542, 7.74333, -64.3602, -7.06986
0.73883, -1, -1.21515, 32.8262, 16.6787, 7.85986, -64.2236, -7.15739
0.74004, -1, -1.21515, 32.8262, 16.6787, 7.85986, -64.2236, -7.15739
0.742632, -1, -1.14124, 32.7611, 16.7031, 7.97614, -64.0873, -7.24476
0.750941, -1, -0.994294, 32.6317, 16.7519, 8.20815, -63.8157, -7.41865
0.752298, -1, -0.994294, 32.6317, 16.7519, 8.20815, -63.8157, -7.41865
0.75417, -1, -0.921344, 32.5672, 16.7763, 8.3238, -63.6803, -7.50521
0.755506, -1, -0.921344, 32.5672, 16.7763, 8.3238, -63.6803, -7.50521
0.75678, -1, -0.921344, 32.5672, 16.7763, 8.3238, -63.6803, -7.50521
0.758758, -1, -0.848725, 32.503, 16.8005, 8.43925, -63.5452, -7.59158
0.76003, -1, -0.848725, 32.503, 16.8005, 8.43925, -63.5452, -7.59158
0.761223, -1, -0.848725, 32.503, 16.8005, 8.43925, -63.5452, -7.59158
0.765073, -1, -0.776367, 32.4388, 16.8246, 8.55446, -63.4105, -7.67781
0.767963, -1, -0.704204, 32.3747, 16.8487, 8.66947, -63.2761, -7.76383
0.769213, -1, -0.704204, 32.3747, 16.8487, 8.66947, -63.2761, -7.76383
0.77141, -1, -0.632243, 32.3108, 16.8728, 8.78418, -63.1418, -7.84956
0.772773, -1, -0.632243, 32.3108, 16.8728, 8.78418, -63.1418, -7.84956
0.776149, -1, -0.560498, 32.247, 16.8969, 8.8985, -63.0078, -7.93507
0.77733, -1, -0.560498, 32.247, 16.8969, 8.8985, -63.0078, -7.93507
0.779382, -1, -0.488991, 32.1834, 16.9209, 9.01258, -62.8742, -8.02053
0.784015, -1, -0.417821, 32.1198, 16.9449, 9.12643, -62.7409, -8.10587
0.791122, -1, -0.276328, 31.9932, 16.9926, 9.35343, -62.4752, -8.27598
0.799821, -1, -0.135854, 31.8672, 17.04, 9.57959, -62.2105, -8.44521
0.808003, -1, 0.00369767, 31.7418, 17.0873, 9.80452, -61.9469, -8.61361
0.81542, -1, 0.142782, 31.6168, 17.1344, 10.0286, -61.6843, -8.78115
0.823913, -1, 0.281767, 31.4922, 17.1812, 10.2518, -61.4229, -8.94816
0.832055, -1, 0.420787, 31.368, 17.2279, 10.474, -61.1624, -9.11428
0.839531, -1, 0.559879, 31.2444, 17.2743, 10.6952, -60.9031, -9.27999
0.847906, -1, 0.698679, 31.1214, 17.3207, 10.9153, -60.6448, -9.44508
0.856018, -1, 0.837147, 30.9989, 17.3667, 11.1347, -60.3878, -9.60949
0.864012, -1, 0.975152, 30.8769, 17.4126, 11.3532, -60.132, -9.77294
0.872201, -1, 1.11273, 30.7553, 17.4584, 11.5707, -59.8772, -9.93553
0.879066, -1, 1.25004, 30.6342, 17.5038, 11.7872, -59.6237, -10.0976
0.887901, -1, 1.38704, 30.5136, 17.5491, 12.0031, -59.3715, -10.2589
0.896094, -1, 1.52349, 30.3939, 17.5943, 12.218, -59.1203, -10.4198
0.904005, -1, 1.65934, 30.2747, 17.6392, 12.4319, -58.8699, -10.58
0.912152, -1, 1.79427, 30.156, 17.684, 12.6449, -58.6205, -10.7395
0.920157, -1, 1.9281, 30.0378, 17.7286, 12.8572, -58.3719, -10.8983
0.92745, -1, 2.06114, 29.92, 17.773, 13.0683, -58.1243, -11.0562
0.936369, -1, 2.19337, 29.8026, 17.8172, 13.2786, -57.8775, -11.2135
0.943538, -1, 2.32481, 29.6859, 17.8611, 13.488, -57.6317, -11.3703
0.95157, -1, 2.45534, 29.5696, 17.9049, 13.6968, -57.387, -11.5267
0.960414, -1, 2.58493, 29.4536, 17.9485, 13.9047, -57.1433, -11.6828
0.967581, -1, 2.7135, 29.338, 17.9921, 14.1118, -56.9009, -11.8379
0.976107, -1, 2.84136, 29.2227, 18.0353, 14.3178, -56.6595, -11.9924
0.984383, -1, 2.90513, 29.1651, 18.0568, 14.4205, -56.5392, -12.0693
0.991004, -1, 3.03268, 29.0504, 18.0998, 14.6256, -56.2995, -12.2227
1.00003, -1, 3.22399, 28.8795, 18.1638, 14.9313, -55.9416, -12.4516
1.00702, -1, 3.28767, 28.8228, 18.1851, 15.0329, -55.8228, -12.5278
1.01611, -1, 3.47833, 28.6534, 18.2489, 15.3363, -55.4677, -12.755
1.02416, -1, 3.60512, 28.541, 18.2911, 15.5378, -55.232, -12.9058
1.03101, -1, 3.66844, 28.485, 18.3123, 15.6382, -55.1145, -12.9808
1.04035, -1, 3.85792, 28.3175, 18.3751, 15.938, -54.7632, -13.205
1.04706, -1, 3.92098, 28.2621, 18.396, 16.0375, -54.6466, -13.2795
1.05651, -1, 4.1097, 28.0965, 18.4585, 16.3351, -54.2975, -13.5021
1.06456, -1, 4.23488, 27.9866, 18.4998, 16.5324, -54.0663, -13.6498
1.07106, -1, 4.29719, 27.9318, 18.5205, 16.6308, -53.951, -13.7235
1.08062, -1, 4.48313, 27.7679, 18.5823, 16.9246, -53.6065, -13.9439
1.08857, -1, 4.60646, 27.6589, 18.6232, 17.1198, -53.3781, -14.09
1.09506, -1, 4.668, 27.6045, 18.6436, 17.2171, -53.2642, -14.1629
1.10467, -1, 4.7905, 27.4423, 18.7045, 17.5078, -52.9239, -14.3801
1.11199, -1, 4.91226, 27.3884, 18.7248, 17.6043, -52.8108, -14.4524
1.11906, -1, 5.03328, 27.2809, 18.7653, 17.7967, -52.5853, -14.5964
1.12911, -1, 5.2133, 27.1205, 18.8256, 18.0844, -52.249, -14.8115
1.135, -1, 5.27285, 27.0672, 18.8455, 18.1798, -52.1373, -14.883
1.14404, -1, 5.3914, 26.9608, 18.8855, 18.3701, -51.9144, -15.0255
1.15199, -1, 5.5094, 26.8548, 18.9254, 18.5599, -51.6921, -15.1678
1.15999, -1, 5.62685, 26.7493, 18.9651, 18.7488, -51.4708, -15.3092
1.16805, -1, 5.74393, 26.6444, 19.0047, 18.9373, -51.2503, -15.4499
1.17599, -1, 5.86076, 26.5398, 19.044, 19.1252, -51.0304, -15.5903
1.184, -1, 5.97733, 26.4356, 19.0832, 19.312, -50.8113, -15.7302
1.19207, -1, 6.09374, 26.3317, 19.1224, 19.4983, -50.5931, -15.8696
1.19999, -1, 6.21012, 26.228, 19.1612, 19.684, -50.3757, -16.0088
1.20805, -1, 6.32656, 26.1246, 19.2, 19.869, -50.1589, -16.1476
1.21757, -1, 6.50115, 25.9703, 19.258, 20.1453, -49.8352, -16.3549
1.224, -1, 6.55921, 25.9191, 19.2772, 20.2369, -49.7277, -16.4237
1.23198, -1, 6.67511, 25.8168, 19.3157, 20.4197, -49.5132, -16.5607
1.24006, -1, 6.79067, 25.7151, 19.3539, 20.6023, -49.2997, -16.6975
1.24906, -1, 6.90573, 25.6136, 19.392, 20.7842, -49.0868, -16.8335
1.256, -1, 7.02036, 25.5125, 19.4301, 20.9653, -48.875, -16.9691
1.26406, -1, 7.13451, 25.4117, 19.4681, 21.1459, -48.6639, -17.1043
1.27201, -1, 7.24817, 25.3113, 19.5058, 21.3256, -48.4534, -17.2391
1.27999, -1, 7.3613, 25.2114, 19.5436, 21.5052, -48.2434, -17.3736
1.28799, -1, 7.47399, 25.1119, 19.5811, 21.684, -48.034, -17.5073
1.29599, -1, 7.58612, 25.0126, 19.6185, 21.8622, -47.8254, -17.6404
1.30405, -1, 7.69767, 24.9137, 19.6559, 22.0396, -47.6173, -17.7732
1.31199, -1, 7.8087, 24.815, 19.693, 22.2167, -47.4097, -17.9057
1.31932, -1, 7.91937, 24.7165, 19.73, 22.3934, -47.2028, -18.0375
1.3271, -1, 8.02949, 24.6182, 19.767, 22.5694, -46.9967, -18.1694
1.33519, -1, 8.13929, 24.5204, 19.8037, 22.7446, -46.7914, -18.3007
1.34352, -1, 8.24867, 24.4228, 19.8402, 22.9193, -46.5865, -18.4317
1.35111, -1, 8.35771, 24.3254, 19.8767, 23.0935, -46.3824, -18.5621
1.35914, -1, 8.46628, 24.2284, 19.9131, 23.2672, -46.1792, -18.6921
1.36766, -1, 8.57416, 24.1317, 19.9493, 23.4402, -45.9765, -18.8213
1.37609, -1, 8.68162, 24.0352, 19.9856, 23.6127, -45.7747, -18.9505
1.38309, -1, 8.78888, 23.9391, 20.0216, 23.7845, -45.5733, -19.0791
1.39189, -1, 8.89611, 23.8434, 20.0575, 23.9559, -45.3728, -19.2074
1.40004, -1, 9.00324, 23.7482, 20.0934, 24.127, -45.173, -19.3356
1.40799, -1, 9.11038, 23.6533, 20.1293, 24.2974, -44.9736, -19.4632
1.41616, -1, 9.2174, 23.5587, 20.1649, 24.4673, -44.7747, -19.5906
1.42338, -1, 9.32411, 23.4644, 20.2004, 24.6366, -44.5764, -19.7173
1.43148, -1, 9.43054, 23.3703, 20.2359, 24.8053, -44.3785, -19.8436
1.44035, -1, 9.53673, 23.2765, 20.2712, 24.9738, -44.1813, -19.9695
1.4477, -1, 9.64267, 23.1828, 20.3064, 25.1417, -43.9844, -20.0951
1.45615, -1, 9.74832, 23.0894, 20.3416, 25.3091, -43.788, -20.2203
1.4644, -1, 9.85369, 22.9963, 20.3765, 25.4759, -43.5926, -20.3453
1.47161, -1, 9.9587, 22.9035, 20.4113, 25.6422, -43.3979, -20.47
1.48009, -1, 10.0633, 22.8108, 20.4462, 25.8083, -43.2036, -20.5944
1.48833, -1, 10.1155, 22.7647, 20.4635, 25.8912, -43.1066, -20.6565
1.49499, -1, 10.2196, 22.6725, 20.498, 26.0565, -42.9132, -20.7803
1.50401, -1, 10.3749, 22.5347, 20.5498, 26.3033, -42.6241, -20.9651
1.51292, -1, 10.4781, 22.4431, 20.5843, 26.4674, -42.432, -21.0878
1.52015, -1, 10.5809, 22.3518, 20.6186, 26.631, -42.2404, -21.2101
1.52699, -1, 10.6322, 22.3063, 20.6358, 26.7127, -42.1447, -21.2712
1.5371, -1, 10.7856, 22.1702, 20.6869, 26.9568, -41.8592, -21.4539
1.54465, -1, 10.8873, 22.0797, 20.7209, 27.1189, -41.6694, -21.5753
1.55241, -1, 10.9885, 21.9894, 20.755, 27.2805, -41.48, -21.6967
1.56119, -1, 11.0895, 21.8994, 20.7889, 27.4419, -41.2911, -21.8177
1.56701, -1, 11.1399, 21.8545, 20.8057, 27.5224, -41.1968, -21.8778
1.5766, -1, 11.2908, 21.7199, 20.8562, 27.7634, -40.9147, -22.0578
1.5853, -1, 11.3909, 21.6306, 20.8899, 27.9233, -40.7274, -22.1774
1.59098, -1, 11.4408, 21.586, 20.9066, 28.0031, -40.6338, -22.2371
1.60057, -1, 11.5403, 21.4527, 20.9566, 28.2417, -40.3538, -22.4157
1.60939, -1, 11.6395, 21.364, 20.99, 28.4006, -40.1679, -22.5345
1.61498, -1, 11.7384, 21.3199, 21.0066, 28.4798, -40.0752, -22.5938
1.62399, -1, 11.8373, 21.2318, 21.0397, 28.638, -39.8899, -22.7123
1.63203, -1, 11.9363, 21.1439, 21.0728, 28.7956, -39.7051, -22.8303
1.63898, -1, 12.0352, 21.0563, 21.1059, 28.9529, -39.5208, -22.9484
1.65019, -1, 12.1833, 20.9252, 21.1551, 29.188, -39.2454, -23.1244
1.65498, -1, 12.2326, 20.8817, 21.1715, 29.2663, -39.1537, -23.1828
1.66397, -1, 12.331, 20.7947, 21.2043, 29.4226, -38.971, -23.2995
1.67197, -1, 12.4292, 20.708, 21.2369, 29.5784, -38.7888, -23.4159
1.68003, -1, 12.5271, 20.6214, 21.2694, 29.7337, -38.6067, -23.5321
1.68698, -1, 12.6248, 20.535, 21.3019, 29.8886, -38.4253, -23.648
1.69597, -1, 12.7222, 20.4487, 21.3344, 30.0432, -38.2446, -23.7639
1.70405, -1, 12.8194, 20.3627, 21.3665, 30.1975, -38.0643, -23.8795
1.71098, -1, 12.9162, 20.2767, 21.3987, 30.3513, -37.8844, -23.9947
1.71998, -1, 13.0129, 20.1909, 21.431, 30.5047, -37.7049, -24.1097
1.72698, -1, 13.1091, 20.1055, 21.463, 30.6576, -37.5259, -24.2243
1.73598, -1, 13.2048, 20.0202, 21.495, 30.8102, -37.347, -24.3382
1.74498, -1, 13.3004, 19.9352, 21.5269, 30.9626, -37.1686, -24.4521
1.75204, -1, 13.3958, 19.8504, 21.5589, 31.1146, -36.9906, -24.5657
1.75997, -1, 13.4908, 19.7659, 21.5906, 31.2662, -36.8127, -24.6789
1.76799, -1, 13.5858, 19.6816, 21.6223, 31.4174, -36.6356, -24.7923
1.77606, -1, 13.6804, 19.5974, 21.654, 31.5681, -36.4589, -24.9054
1.78397, -1, 13.7749, 19.5134, 21.6856, 31.7185, -36.2826, -25.0184
1.792, -1, 13.8693, 19.4296, 21.717, 31.8688, -36.1065, -25.1311
1.80001, -1, 13.9634, 19.346, 21.7485, 32.0187, -35.9309, -25.2435
1.80798, -1, 14.0576, 19.2626, 21.78, 32.1682, -35.7559, -25.3556
1.81604, -1, 14.1514, 19.1795, 21.8111, 32.3173, -35.5812, -25.4671
1.82397, -1, 14.245, 19.0965, 21.8423, 32.4661, -35.4071, -25.5786
1.83197, -1, 14.3383, 19.0137, 21.8735, 32.6146, -35.2332, -25.6897
1.84004, -1, 14.4312, 18.9311, 21.9045, 32.763, -35.0596, -25.8005
1.84798, -1, 14.5237, 18.8487, 21.9355, 32.9109, -34.8868, -25.9114
1.85598, -1, 14.616, 18.7663, 21.9665, 33.0584, -34.7143, -26.0218
1.86403, -1, 14.7081, 18.6842, 21.9974, 33.2055, -34.5422, -26.1323
1.87197, -1, 14.8, 18.6023, 22.0281, 33.3524, -34.3704, -26.2423
1.88004, -1, 14.8917, 18.5206, 22.0588, 33.4989, -34.1986, -26.352
1.88805, -1, 14.9832, 18.439, 22.0895, 33.6453, -34.0274, -26.4614
1.8951, -1, 15.0745, 18.3577, 22.1202, 33.7911, -33.8565, -26.5702
1.90395, -1, 15.1656, 18.2766, 22.1507, 33.9367, -33.6861, -26.6793
1.91204, -1, 15.2568, 18.1956, 22.1811, 34.0818, -33.5158, -26.7877
1.91997, -1, 15.348, 18.1149, 22.2116, 34.2266, -33.3457, -26.896
1.92804, -1, 15.4391, 18.0342, 22.2419, 34.3713, -33.1762, -27.0044
1.936, -1, 15.5302, 17.9537, 22.2721, 34.5159, -33.0071, -27.1123
1.94407, -1, 15.6211, 17.8734, 22.3024, 34.6599, -32.8386, -27.2204
1.95231, -1, 15.7118, 17.7932, 22.3326, 34.8037, -32.6703, -27.3279
1.95951, -1, 15.8023, 17.7132, 22.3625, 34.947, -32.5023, -27.4356
1.96843, -1, 15.8925, 17.6333, 22.3925, 35.09, -32.3347, -27.5427
1.97553, -1, 15.9376, 17.5535, 22.4225, 35.2329, -32.1674, -27.6494
1.98403, -1, 16.0724, 17.4739, 22.4524, 35.3756, -32.0006, -27.7561
1.99229, -1, 16.1172, 17.4342, 22.4672, 35.4468, -31.9173, -27.8624
1.99897, -1, 16.2065, 17.3549, 22.4969, 35.5889, -31.7508, -27.9156
2.00801, -1, 16.34, 17.236, 22.5416, 35.8016, -31.5017, -28.0747
2.01501, -1, 16.3843, 17.1966, 22.5564, 35.8723, -31.419, -28.1279
2.02298, -1, 16.4728, 17.1177, 22.5859, 36.0135, -31.2536, -28.2337
2.03215, -1, 16.6053, 16.9997, 22.6301, 36.2253, -31.006, -28.3921
2.03898, -1, 16.6494, 16.9604, 22.6449, 36.2957, -30.9235, -28.4448
2.04839, -1, 16.7815, 16.8429, 22.689, 36.5064, -30.6766, -28.6027
2.05645, -1, 16.8695, 16.7649, 22.7183, 36.6465, -30.5126, -28.7075
2.06298, -1, 16.9134, 16.7259, 22.7329, 36.7164, -30.4307, -28.7597
2.0725, -1, 17.0449, 16.6092, 22.777, 36.9259, -30.1856, -28.9165
2.0809, -1, 17.1325, 16.5315, 22.8062, 37.0654, -30.0222, -29.0206
2.08866, -1, 17.2195, 16.4542, 22.8352, 37.2043, -29.8593, -29.1245
2.09655, -1, 17.3041, 16.3783, 22.864, 37.3431, -29.6967, -29.2283
2.10479, -1, 17.3845, 16.3056, 22.892, 37.4804, -29.5358, -29.3313
2.11266, -1, 17.4591, 16.2378, 22.9186, 37.6146, -29.3783, -29.4325
2.11999, -1, 17.4943, 16.2062, 22.9313, 37.6798, -29.3018, -29.4814
2.12888, -1, 17.5911, 16.1206, 22.9665, 37.8615, -29.0881, -29.6182
2.13602, -1, 17.62, 16.0953, 22.9771, 37.9161, -29.024, -29.6591
2.14395, -1, 17.6726, 16.0491, 22.9963, 38.0131, -28.9094, -29.7322
2.15196, -1, 17.7192, 16.0076, 23.0124, 38.0917, -28.8165, -29.7921
2.16001, -1, 17.7604, 15.9699, 23.0257, 38.1521, -28.7448, -29.8374
2.16797, -1, 17.7963, 15.9375, 23.0364, 38.1936, -28.6948, -29.8695
2.17596, -1, 17.8256, 15.9119, 23.0441, 38.2212, -28.6618, -29.8904
2.18398, -1, 17.8487, 15.8935, 23.0494, 38.2378, -28.6418, -29.9029
2.19195, -1, 17.8658, 15.8809, 23.0529, 38.247, -28.6305, -29.9095
2.19996, -1, 17.8764, 15.8729, 23.0549, 38.2517, -28.6248, -29.9128
2.20805, 2, 17.8818, 15.8687, 23.0559, 38.254, -28.6221, -29.9143
2.21602, 2, 17.8843, 15.8665, 23.0564, 38.255, -28.6208, -29.9151
2.22395, 2, 17.885, 15.8652, 23.0567, 38.2555, -28.6203, -29.9154
2.23202, 2, 17.8847, 15.8645, 23.0568, 38.2557, -28.62, -29.9156
2.23995, 2, 17.8842, 15.8642, 23.0569, 38.2558, -28.6199, -29.9157
2.24992, 2, 17.8835, 15.8639, 23.0569, 38.2559, -28.6198, -29.9157
2.25602, 2, 17.8834, 15.8638, 23.0569, 38.2559, -28.6198, -29.9158
2.26395, 2, 17.8833, 15.8637, 23.057, 38.2559, -28.6198, -29.9157
2.27195, 2, 17.8832, 15.8636, 23.057, 38.2559, -28.6198, -29.9157
2.28006, 2, 17.8833, 15.8634, 23.057, 38.2559, -28.6198, -29.9157
2.28796, 2, 17.8835, 15.8632, 23.057, 38.2559, -28.6198, -29.9157
2.29595, 2, 17.8838, 15.8631, 23.057, 38.2559, -28.6198, -29.9157
2.30402, 2, 17.8842, 15.8629, 23.057, 38.2559, -28.6199, -29.9157
2.31195, 2, 17.8848, 15.8627, 23.057, 38.2559, -28.6199, -29.9157
2.31996, 2, 17.8855, 15.8626, 23.057, 38.2559, -28.6199, -29.9157
2.32802, 2, 17.886, 15.8625, 23.057, 38.2559, -28.6199, -29.9157
2.33595, 2, 17.8865, 15.8624, 23.057, 38.2559, -28.6199, -29.9157
2.34395, 2, 17.8868, 15.8624, 23.057, 38.2559, -28.6199, -29.9157
2.35202, 2, 17.887, 15.8624, 23.057, 38.2559, -28.6199, -29.9157
2.35995, 2, 17.8872, 15.8624, 23.057, 38.2559, -28.62, -29.9157
2.36796, 2, 17.8872, 15.8624, 23.057, 38.2559, -28.62, -29.9157
2.37601, 2, 17.8873, 15.8624, 23.057, 38.2559, -28.62, -29.9157
2.38401, 2, 17.8873, 15.8624, 23.057, 38.2559, -28.62, -29.9157
2.39125, 2, 17.8873, 15.8624, 23.057, 38.2559, -28.62, -29.9157
2.39914, 2, 17.8872, 15.8623, 23.057, 38.2559, -28.6201, -29.9157
2.40713, 2, 17.887, 15.8623, 23.057, 38.2559, -28.6201, -29.9157
2.41564, 2, 17.8868, 15.8623, 23.057, 38.2559, -28.6201, -29.9156
2.42402, 2, 17.8867, 15.8622, 23.057, 38.2559, -28.6202, -29.9157
2.43196, 2, 17.8867, 15.8622, 23.057, 38.2559, -28.6202, -29.9156
2.44, 2, 17.8866, 15.8622, 23.0571, 38.2559, -28.6202, -29.9156
2.44813, 2, 17.8866, 15.8622, 23.0571, 38.2559, -28.6202, -29.9157
2.45546, 2, 17.8866, 15.8622, 23.057, 38.2559, -28.6202, -29.9156
2.46405, 2, 17.8866, 15.8622, 23.057, 38.2559, -28.6202, -29.9156
2.47212, 2, 17.8866, 15.8622, 23.057, 38.2559, -28.6202, -29.9156
2.47952, 2, 17.8866, 15.8622, 23.057, 38.2559, -28.6203, -29.9156
2.48802, 2, 17.8866, 15.8622, 23.057, 38.2559, -28.6203, -29.9156
2.49495, 2, 17.8866, 15.8622, 23.057, 38.2559, -28.6203, -29.9156
2.50398, 2, 17.8866, 15.8622, 23.057, 38.2559, -28.6203, -29.9156
2.51103, 2, 17.8866, 15.8622, 23.057, 38.2559, -28.6203, -29.9156
2.52007, 2, 17.8866, 15.8622, 23.057, 38.2559, -28.6203, -29.9156
2.52705, 2, 17.8865, 15.8622, 23.057, 38.2559, -28.6204, -29.9156
2.53626, 2, 17.8865, 15.8622, 23.057, 38.2559, -28.6204, -29.9156
2.54296, 2, 17.8865, 15.8622, 23.057, 38.2559, -28.6204, -29.9156
2.55234, 2, 17.8865, 15.8622, 23.057, 38.2558, -28.6204, -29.9156
2.56075, 2, 17.8864, 15.8622, 23.057, 38.2558, -28.6204, -29.9156
2.56845, 2, 17.8864, 15.8622, 23.057, 38.2558, -28.6204, -29.9156
2.57645, 2, 17.8864, 15.8622, 23.057, 38.2558, -28.6205, -29.9156
2.58458, 2, 17.8864, 15.8622, 23.057, 38.2558, -28.6205, -29.9155
2.59258, 2, 17.8864, 15.8622, 23.057, 38.2558, -28.6205, -29.9155
2.6005, 2, 17.8863, 15.8622, 23.057, 38.2559, -28.6205, -29.9155
2.60877, 2, 17.8863, 15.8622, 23.057, 38.2559, -28.6205, -29.9156
2.61657, 2, 17.8863, 15.8622, 23.057, 38.2558, -28.6205, -29.9156
2.62394, 2, 17.8863, 15.8622, 23.057, 38.2558, -28.6206, -29.9156
2.63195, 2, 17.8862, 15.8622, 23.0571, 38.2558, -28.6206, -29.9156
2.64, 2, 17.8862, 15.8622, 23.0571, 38.2558, -28.6206, -29.9155
2.64795, 2, 17.8862, 15.8622, 23.0571, 38.2558, -28.6206, -29.9155
2.65595, 2, 17.8862, 15.8622, 23.0571, 38.2558, -28.6206, -29.9155
2.66296, 2, 17.8862, 15.8622, 23.057, 38.2558, -28.6206, -29.9155
2.67194, 2, 17.8861, 15.8622, 23.057, 38.2558, -28.6206, -29.9155
2.67995, 2, 17.8861, 15.8622, 23.057, 38.2557, -28.6207, -29.9155
2.688, 2, 17.8861, 15.8622, 23.057, 38.2558, -28.6207, -29.9156
2.69594, 2, 17.886, 15.8622, 23.057, 38.2557, -28.6207, -29.9156
2.70395, 2, 17.886, 15.8622, 23.057, 38.2557, -28.6207, -29.9155
2.71199, 2, 17.8859, 15.8622, 23.0571, 38.2557, -28.6208, -29.9155
2.72001, 2, 17.8859, 15.8622, 23.0571, 38.2557, -28.6208, -29.9155
2.72795, 2, 17.8859, 15.8622, 23.057, 38.2558, -28.6208, -29.9155
2.73601, 2, 17.8858, 15.8622, 23.057, 38.2558, -28.6208, -29.9155
2.74551, 2, 17.8858, 15.8622, 23.0571, 38.2557, -28.6208, -29.9155
2.75194, 2, 17.8857, 15.8622, 23.057, 38.2557, -28.6209, -29.9155
2.76001, 2, 17.8857, 15.8622, 23.057, 38.2557, -28.6209, -29.9155
2.76795, 2, 17.8856, 15.8622, 23.057, 38.2557, -28.6209, -29.9155
2.77605, 2, 17.8856, 15.8622, 23.057, 38.2557, -28.6209, -29.9155
2.78403, 2, 17.8856, 15.8622, 23.057, 38.2557, -28.6209, -29.9154
2.79194, 2, 17.8855, 15.8622, 23.057, 38.2557, -28.621, -29.9154
2.79995, 2, 17.8855, 15.8622, 23.057, 38.2557, -28.621, -29.9154
2.80802, 2, 17.8854, 15.8622, 23.057, 38.2557, -28.621, -29.9155
2.81593, 2, 17.8854, 15.8623, 23.057, 38.2557, -28.6211, -29.9154
2.82394, 2, 17.8853, 15.8623, 23.057, 38.2557, -28.621, -29.9154
2.83201, 2, 17.8853, 15.8622, 23.057, 38.2557, -28.621, -29.9154
2.83995, 2, 17.8852, 15.8623, 23.057, 38.2556, -28.621, -29.9153
2.84795, 2, 17.8852, 15.8623, 23.057, 38.2557, -28.621, -29.9153
2.85601, 2, 17.8851, 15.8623, 23.057, 38.2557, -28.621, -29.9154
2.86401, 2, 17.8851, 15.8622, 23.057, 38.2557, -28.621, -29.9153
2.87194, 2, 17.885, 15.8623, 23.057, 38.2556, -28.6211, -29.9153
2.88001, 2, 17.885, 15.8623, 23.057, 38.2556, -28.6211, -29.9154
2.88801, 2, 17.8849, 15.8623, 23.057, 38.2556, -28.6211, -29.9153
2.89538, 2, 17.8848, 15.8623, 23.057, 38.2556, -28.6212, -29.9153
2.9031, 2, 17.8848, 15.8623, 23.057, 38.2556, -28.6212, -29.9153
2.91112, 2, 17.8848, 15.8623, 23.057, 38.2556, -28.6212, -29.9152
2.91957, 2, 17.8847, 15.8623, 23.057, 38.2556, -28.6212, -29.9152
2.92802, 2, 17.8847, 15.8622, 23.057, 38.2556, -28.6212, -29.9152
2.93594, 2, 17.8847, 15.8623, 23.057, 38.2556, -28.6213, -29.9151
2.94398, 2, 17.8846, 15.8623, 23.057, 38.2556, -28.6213, -29.9151
2.95212, 2, 17.8845, 15.8623, 23.057, 38.2556, -28.6213, -29.9151
2.95944, 2, 17.8845, 15.8623, 23.057, 38.2555, -28.6213, -29.9151
2.96806, 2, 17.8844, 15.8623, 23.0571, 38.2555, -28.6213, -29.915
2.9761, 2, 17.8844, 15.8623, 23.0571, 38.2555, -28.6213, -29.915
2.98405, 2, 17.8843, 15.8623, 23.0571, 38.2554, -28.6213, -29.915
2.99177, 2, 17.8843, 15.8623, 23.0571, 38.2554, -28.6213, -29.915
3.00002, 2, 17.8842, 15.8623, 23.057, 38.2554, -28.6213, -29.915
3.00798, 2, 17.8842, 15.8623, 23.057, 38.2554, -28.6213, -29.9149
3.01501, 2, 17.8842, 15.8623, 23.057, 38.2554, -28.6213, -29.9149
3.02406, 2, 17.8841, 15.8623, 23.057, 38.2555, -28.6213, -29.9149
3.03095, 2, 17.8841, 15.8623, 23.057, 38.2555, -28.6213, -29.9149
3.04045, 2, 17.884, 15.8623, 23.057, 38.2554, -28.6213, -29.9149
3.04694, 2, 17.884, 15.8623, 23.057, 38.2554, -28.6213, -29.9148
3.05633, 2, 17.8839, 15.8623, 23.057, 38.2554, -28.6213, -29.9148
3.0646, 2, 17.8839, 15.8623, 23.057, 38.2554, -28.6213, -29.9148
3.07243, 2, 17.8839, 15.8623, 23.057, 38.2553, -28.6213, -29.9148
3.08044, 2, 17.8839, 15.8623, 23.057, 38.2553, -28.6214, -29.9148
3.0887, 2, 17.8838, 15.8623, 23.057, 38.2553, -28.6213, -29.9148
3.09656, 2, 17.8838, 15.8623, 23.057, 38.2553, -28.6213, -29.9148
3.10449, 2, 17.8838, 15.8623, 23.057, 38.2553, -28.6213, -29.9148
3.11272, 2, 17.8838, 15.8623, 23.057, 38.2553, -28.6213, -29.9147
3.12059, 2, 17.8838, 15.8623, 23.057, 38.2553, -28.6214, -29.9147
3.12794, 2, 17.8837, 15.8623, 23.057, 38.2552, -28.6214, -29.9147
3.13678, 2, 17.8837, 15.8623, 23.057, 38.2552, -28.6214, -29.9147
3.14397, 2, 17.8837, 15.8623, 23.057, 38.2551, -28.6214, -29.9147
3.15192, 2, 17.8837, 15.8624, 23.057, 38.2551, -28.6214, -29.9147
3.15993, 2, 17.8837, 15.8624, 23.057, 38.2551, -28.6214, -29.9147
3.16799, 2, 17.8837, 15.8624, 23.057, 38.2551, -28.6215, -29.9147
3.17592, 2, 17.8837, 15.8624, 23.057, 38.2551, -28.6215, -29.9147
3.18393, 2, 17.8837, 15.8624, 23.057, 38.2551, -28.6215, -29.9146
3.19198, 2, 17.8837, 15.8624, 23.057, 38.2551, -28.6215, -29.9146
3.19992, 2, 17.8836, 15.8624, 23.057, 38.2551, -28.6215, -29.9146
3.20808, 2, 17.8836, 15.8624, 23.057, 38.255, -28.6215, -29.9147
3.21501, 2, 17.8836, 15.8624, 23.057, 38.255, -28.6215, -29.9147
3.22405, 2, 17.8836, 15.8624, 23.057, 38.255, -28.6215, -29.9147
3.23192, 2, 17.8836, 15.8624, 23.057, 38.2549, -28.6215, -29.9147
3.23993, 2, 17.8836, 15.8624, 23.057, 38.2549, -28.6215, -29.9146
3.24947, 2, 17.8836, 15.8624, 23.057, 38.255, -28.6215, -29.9146
3.25592, 2, 17.8836, 15.8624, 23.057, 38.2549, -28.6215, -29.9147
3.26608, 2, 17.8836, 15.8624, 23.057, 38.2549, -28.6215, -29.9146
3.27093, 2, 17.8836, 15.8624, 23.057, 38.2549, -28.6215, -29.9146
3.27996, 2, 17.8836, 15.8624, 23.057, 38.2549, -28.6216, -29.9146
3.28821, 2, 17.8835, 15.8624, 23.057, 38.2548, -28.6216, -29.9146
3.29493, 4, 17.8835, 15.8624, 23.057, 38.2548, -28.6216, -29.9146
3.30392, 4, 17.8835, 15.8624, 23.057, 38.2548, -28.6215, -29.9146
3.31193, 4, 17.8835, 15.8624, 23.057, 38.2548, -28.6215, -29.9146
3.31999, 4, 17.8835, 15.8624, 23.057, 38.2548, -28.6215, -29.9146
3.32793, 4, 17.8834, 15.8624, 23.057, 38.2547, -28.6215, -29.9146
3.3359, 4, 17.8834, 15.8625, 23.057, 38.2547, -28.6215, -29.9146
3.34406, 4, 17.8834, 15.8625, 23.057, 38.2547, -28.6215, -29.9146
3.35192, 4, 17.8834, 15.8625, 23.057, 38.2547, -28.6215, -29.9146
3.35993, 4, 17.8834, 15.8625, 23.057, 38.2547, -28.6216, -29.9146
3.368, 4, 17.8834, 15.8625, 23.057, 38.2547, -28.6216, -29.9146
3.37592, 4, 17.8834, 15.8624, 23.057, 38.2547, -28.6216, -29.9145
3.38393, 4, 17.8834, 15.8625, 23.057, 38.2547, -28.6216, -29.9145
3.39222, 4, 17.8834, 15.8625, 23.057, 38.2547, -28.6216, -29.9145
3.4174, 4, 17.8833, 15.8625, 23.057, 38.2546, -28.6217, -29.9145
3.41957, 4, 17.8833, 15.8625, 23.057, 38.2547, -28.6217, -29.9145
3.42117, 4, 17.8833, 15.8625, 23.057, 38.2547, -28.6217, -29.9145
3.42326, 4, 17.8833, 15.8625, 23.057, 38.2546, -28.6216, -29.9145
3.43226, 4, 17.8833, 15.8625, 23.057, 38.2546, -28.6216, -29.9145
3.43932, 4, 17.8833, 15.8625, 23.057, 38.2546, -28.6216, -29.9146
3.44742, 4, 17.8833, 15.8625, 23.057, 38.2545, -28.6216, -29.9145
3.45639, 4, 17.8831, 15.8625, 23.057, 38.2546, -28.6216, -29.9145
3.46343, 4, 17.8818, 15.8625, 23.0571, 38.2545, -28.6216, -29.9145
3.47202, 4, 17.8789, 15.8624, 23.0573, 38.2533, -28.6218, -29.9141
3.48067, 4, 17.8746, 15.8623, 23.0583, 38.2487, -28.6229, -29.9117
3.48804, 4, 17.8699, 15.8621, 23.0607, 38.2386, -28.6259, -29.9047
3.49593, 4, 17.8647, 15.8614, 23.0651, 38.2213, -28.6313, -29.8907
3.5047, 4, 17.8585, 15.8601, 23.0722, 38.1962, -28.6399, -29.8693
3.51195, 5, 17.8518, 15.8582, 23.0821, 38.163, -28.6515, -29.8402
3.519, 5, 17.8484, 15.857, 23.0881, 38.1431, -28.6583, -29.8228
3.529, 5, 17.8375, 15.8529, 23.109, 38.0733, -28.6822, -29.7614
3.53607, 5, 17.8287, 15.8498, 23.1245, 38.0227, -28.6998, -29.716
3.54417, 5, 17.8182, 15.8465, 23.1407, 37.9688, -28.7185, -29.6691
3.55093, 5, 17.8125, 15.8448, 23.149, 37.9415, -28.7281, -29.645
3.55896, 5, 17.8007, 15.8413, 23.1654, 37.8876, -28.7478, -29.5959
3.56839, 5, 17.782, 15.8359, 23.1901, 37.8043, -28.7779, -29.5227
3.57492, 5, 17.7756, 15.8341, 23.1985, 37.777, -28.7879, -29.4984
3.58442, 5, 17.7566, 15.8285, 23.2238, 37.6949, -28.8174, -29.4249
3.59248, 5, 17.7437, 15.8246, 23.2404, 37.6396, -28.8369, -29.3758
3.60133, 5, 17.7309, 15.8207, 23.2572, 37.5853, -28.8565, -29.3271
3.60699, 5, 17.7245, 15.8186, 23.2657, 37.5575, -28.8665, -29.3028
3.61657, 5, 17.7054, 15.8124, 23.2906, 37.4755, -28.8969, -29.229
3.62548, 5, 17.6989, 15.8104, 23.299, 37.4485, -28.9072, -29.2045
3.63098, 5, 17.6861, 15.8064, 23.3158, 37.3935, -28.9277, -29.1561
3.64096, 5, 17.6666, 15.8006, 23.3411, 37.3122, -28.958, -29.0835
3.64791, 5, 17.6601, 15.7987, 23.3493, 37.2849, -28.9681, -29.059
3.65498, 5, 17.6472, 15.795, 23.3659, 37.2299, -28.9881, -29.0102
3.66391, 5, 17.6345, 15.7912, 23.3827, 37.1763, -29.0081, -28.9622
3.67207, 5, 17.6217, 15.7874, 23.3992, 37.1218, -29.0286, -28.9142
3.67996, 5, 17.6091, 15.7836, 23.4159, 37.0672, -29.0493, -28.8655
3.68792, 5, 17.5964, 15.7798, 23.4328, 37.0135, -29.07, -28.8171
3.69591, 5, 17.5837, 15.776, 23.4496, 36.9586, -29.0904, -28.7695
3.70292, 5, 17.571, 15.7722, 23.4663, 36.9048, -29.1105, -28.722
3.71191, 5, 17.5584, 15.7685, 23.483, 36.851, -29.1305, -28.6739
3.71991, 5, 17.5457, 15.7647, 23.4997, 36.7965, -29.1506, -28.6261
3.72691, 5, 17.5331, 15.7608, 23.516, 36.7433, -29.1709, -28.579
3.73601, 5, 17.5204, 15.7569, 23.5326, 36.6891, -29.1918, -28.5317
3.7439, 5, 17.5074, 15.7529, 23.5494, 36.6353, -29.2126, -28.4838
3.75292, 5, 17.4944, 15.749, 23.566, 36.5825, -29.2332, -28.4364
3.7599, 5, 17.4815, 15.7451, 23.5825, 36.5285, -29.2536, -28.3894
3.76792, 5, 17.4685, 15.7412, 23.5993, 36.4752, -29.274, -28.3423
3.7759, 5, 17.4556, 15.7375, 23.616, 36.4223, -29.2942, -28.2945
3.78391, 5, 17.4428, 15.7338, 23.6324, 36.3683, -29.3148, -28.2473
3.79206, 5, 17.4299, 15.7301, 23.649, 36.3158, -29.3356, -28.2004
3.80001, 5, 17.4171, 15.7264, 23.6658, 36.2626, -29.3567, -28.1533
3.80791, 5, 17.4043, 15.7226, 23.6822, 36.2089, -29.3773, -28.1057
3.81597, 5, 17.3914, 15.7189, 23.6987, 36.1565, -29.3976, -28.0587
3.82392, 5, 17.3786, 15.7152, 23.7152, 36.1027, -29.4179, -28.0122
3.8319, 5, 17.3658, 15.7115, 23.7316, 36.0497, -29.4381, -27.9654
3.83997, 5, 17.3529, 15.7079, 23.7481, 35.9973, -29.4586, -27.9182
3.8479, 5, 17.34, 15.7042, 23.7648, 35.9436, -29.4795, -27.8716
3.8559, 5, 17.3273, 15.7005, 23.7816, 35.8911, -29.5006, -27.8254
3.86399, 5, 17.3145, 15.6967, 23.798, 35.8385, -29.5214, -27.7788
3.8719, 5, 17.3017, 15.6929, 23.8145, 35.7853, -29.542, -27.732
3.8799, 5, 17.289, 15.689, 23.831, 35.7336, -29.5626, -27.6858
3.88797, 5, 17.2762, 15.6852, 23.8472, 35.6809, -29.5829, -27.6402
3.89595, 5, 17.2634, 15.6814, 23.8636, 35.6282, -29.6036, -27.5941
3.90392, 5, 17.2507, 15.6777, 23.8803, 35.5764, -29.6246, -27.5476
3.91197, 5, 17.238, 15.6741, 23.8967, 35.5234, -29.6457, -27.5019
3.91991, 5, 17.2253, 15.6706, 23.9131, 35.4715, -29.6666, -27.4565
3.92791, 5, 17.2125, 15.667, 23.9297, 35.4198, -29.6871, -27.4109
3.93597, 5, 17.1996, 15.6634, 23.9461, 35.3668, -29.7075, -27.3645
3.94394, 5, 17.1865, 15.6599, 23.9623, 35.3151, -29.7278, -27.3189
3.95196, 5, 17.1736, 15.6564, 23.9788, 35.263, -29.7484, -27.2735
3.9601, 5, 17.1607, 15.653, 23.9955, 35.2104, -29.7695, -27.228
3.968, 5, 17.1478, 15.6496, 24.0118, 35.159, -29.7909, -27.182
3.97607, 5, 17.135, 15.6462, 24.028, 35.1068, -29.812, -27.1362
3.98402, 5, 17.1221, 15.6428, 24.0445, 35.0545, -29.8328, -27.091
3.99201, 5, 17.1092, 15.6393, 24.0607, 35.0033, -29.8536, -27.0455
4.00008, 5, 17.0963, 15.6357, 24.0768, 34.9511, -29.8743, -26.9996
4.0069, 5, 17.0899, 15.634, 24.085, 34.9251, -29.8847, -26.9768
4.01593, 5, 17.0705, 15.6285, 24.1099, 34.8487, -29.9165, -26.9091
4.02407, 5, 17.0576, 15.6249, 24.1261, 34.7967, -29.938, -26.864
4.0309, 5, 17.0512, 15.6231, 24.1342, 34.7709, -29.9486, -26.8413
4.04006, 5, 17.0316, 15.6178, 24.1588, 34.6946, -29.9801, -26.7733
4.04691, 5, 17.0251, 15.616, 24.1668, 34.6685, -29.9904, -26.751
4.05618, 5, 17.0057, 15.611, 24.1908, 34.592, -30.0216, -26.6839
4.06295, 5, 16.9992, 15.6093, 24.1989, 34.5666, -30.032, -26.6613
4.07241, 5, 16.9798, 15.6042, 24.2236, 34.4891, -30.0641, -26.5937
4.08039, 5, 16.9669, 15.6009, 24.2396, 34.4386, -30.0857, -26.5494
4.08842, 5, 16.9539, 15.5976, 24.2559, 34.3872, -30.1071, -26.5052
4.09647, 5, 16.9411, 15.5943, 24.2722, 34.3357, -30.1282, -26.4604
4.10447, 5, 16.9281, 15.591, 24.2882, 34.2855, -30.1492, -26.4157
4.11255, 5, 16.9151, 15.5877, 24.3042, 34.2341, -30.1702, -26.3717
4.12051, 5, 16.9087, 15.5861, 24.3124, 34.2083, -30.1916, -26.3278
4.1279, 5, 16.8956, 15.5828, 24.3288, 34.1581, -30.2024, -26.3056
4.13595, 5, 16.8824, 15.5795, 24.3447, 34.1073, -30.2242, -26.2607
4.1439, 5, 16.8693, 15.5762, 24.3607, 34.0562, -30.2458, -26.2163
4.15189, 5, 16.8564, 15.5728, 24.3769, 34.0063, -30.267, -26.1725
4.15996, 5, 16.8433, 15.5693, 24.3928, 33.9558, -30.288, -26.1283
4.1679, 5, 16.8304, 15.5658, 24.4086, 33.905, -30.309, -26.0837
4.17592, 5, 16.8175, 15.5623, 24.4248, 33.8552, -30.3302, -26.0392
4.18396, 5, 16.8045, 15.5589, 24.4411, 33.8046, -30.3519, -25.9954
4.19193, 5, 16.7916, 15.5556, 24.4571, 33.7543, -30.3738, -25.9516
4.1999, 5, 16.7788, 15.5524, 24.473, 33.7049, -30.3954, -25.9072
4.20794, 5, 16.766, 15.5492, 24.489, 33.6541, -30.4168, -25.8629
4.2159, 5, 16.7532, 15.5461, 24.5048, 33.6039, -30.438, -25.8192
4.22395, 5, 16.7404, 15.5429, 24.5206, 33.5543, -30.4592, -25.7758
4.23194, 5, 16.7273, 15.5398, 24.5366, 33.5035, -30.4806, -25.732
4.23992, 5, 16.7142, 15.5367, 24.5527, 33.4538, -30.5024, -25.688
4.2494, 5, 16.7011, 15.5336, 24.5686, 33.4043, -30.5242, -25.6447
4.25588, 5, 16.6881, 15.5306, 24.5845, 33.3538, -30.5457, -25.6017
4.2639, 5, 16.675, 15.5276, 24.6005, 33.3044, -30.567, -25.5583
4.27195, 5, 16.662, 15.5246, 24.6163, 33.255, -30.5881, -25.5146
4.2799, 5, 16.649, 15.5216, 24.6321, 33.2048, -30.6094, -25.4713
4.28791, 5, 16.6359, 15.5185, 24.6481, 33.1558, -30.631, -25.4288
4.29597, 5, 16.623, 15.5154, 24.6641, 33.1066, -30.6532, -25.3861
4.3039, 5, 16.61, 15.5123, 24.6798, 33.0567, -30.6752, -25.3429
4.3119, 5, 16.597, 15.5091, 24.6955, 33.008, -30.697, -25.2999
4.31995, 5, 16.584, 15.5059, 24.7114, 32.9588, -30.7185, -25.2576
4.32788, 5, 16.5709, 15.5027, 24.727, 32.909, -30.74, -25.2152
4.33592, 5, 16.5578, 15.4995, 24.7426, 32.8605, -30.7616, -25.1724
4.34394, 5, 16.5448, 15.4965, 24.7587, 32.8114, -30.7837, -25.1294
4.35189, 5, 16.5318, 15.4935, 24.7747, 32.7617, -30.806, -25.087
4.36023, 5, 16.5188, 15.4905, 24.7903, 32.7134, -30.8279, -25.0448
4.367, 5, 16.5059, 15.4876, 24.8061, 32.6641, -30.8496, -25.0021
4.3759, 5, 16.4928, 15.4847, 24.8219, 32.6145, -30.8712, -24.9591
4.38467, 5, 16.4798, 15.4818, 24.8374, 32.5663, -30.8926, -24.9165
4.39188, 5, 16.4668, 15.479, 24.8529, 32.5172, -30.9143, -24.8743
4.39993, 5, 16.4538, 15.4762, 24.8688, 32.468, -30.9366, -24.832
4.40871, 5, 16.4407, 15.4733, 24.8847, 32.42, -30.9589, -24.7893
4.41589, 5, 16.4276, 15.4704, 24.9002, 32.371, -30.9809, -24.7467
4.42389, 5, 16.4144, 15.4676, 24.9159, 32.3222, -31.0027, -24.7046
4.43273, 5, 16.4011, 15.4648, 24.9316, 32.2745, -31.0244, -24.6627
4.43989, 5, 16.3881, 15.4619, 24.9473, 32.2258, -31.0461, -24.6205
4.44792, 5, 16.375, 15.4591, 24.9629, 32.1772, -31.0682, -24.578
4.45687, 5, 16.3619, 15.4562, 24.9787, 32.1296, -31.0905, -24.536
4.46399, 5, 16.3488, 15.4532, 24.9944, 32.0809, -31.1128, -24.4943
4.47199, 5, 16.3357, 15.4502, 25.0098, 32.0325, -31.1347, -24.4525
4.48113, 5, 16.3226, 15.4472, 25.0253, 31.9852, -31.1564, -24.4102
4.48752, 5, 16.3097, 15.4442, 25.0409, 31.9366, -31.178, -24.3682
4.49607, 5, 16.2967, 15.4411, 25.0564, 31.8882, -31.1998, -24.327
4.50448, 5, 16.2837, 15.4381, 25.0718, 31.8408, -31.2222, -24.2856
4.51093, 5, 16.2772, 15.4366, 25.0797, 31.8167, -31.2335, -24.2648
4.51999, 5, 16.2574, 15.4324, 25.1034, 31.744, -31.2672, -24.2021
4.52952, 5, 16.2441, 15.4296, 25.1188, 31.6968, -31.2892, -24.1608
4.53599, 5, 16.2309, 15.4269, 25.1343, 31.6484, -31.3112, -24.1197
4.54441, 5, 16.2177, 15.4242, 25.1498, 31.6002, -31.3331, -24.0783
4.55088, 5, 16.2111, 15.4228, 25.1576, 31.5767, -31.3442, -24.0573
4.55901, 5, 16.198, 15.4201, 25.1729, 31.5294, -31.3667, -24.0155
4.56843, 5, 16.1783, 15.4162, 25.1961, 31.4573, -31.4007, -23.9537
4.57785, 5, 16.1652, 15.4136, 25.2117, 31.4106, -31.4228, -23.9126
4.58438, 5, 16.1522, 15.411, 25.2271, 31.3629, -31.4448, -23.871
4.5909, 5, 16.1456, 15.4097, 25.2348, 31.3389, -31.4558, -23.8501
4.60194, 5, 16.1259, 15.4058, 25.258, 31.2688, -31.4888, -23.7883
4.6085, 5, 16.1128, 15.4033, 25.2735, 31.2212, -31.5114, -23.7474
4.61667, 5, 16.1062, 15.402, 25.2887, 31.1737, -31.5343, -23.7062
4.62521, 5, 16.0929, 15.3995, 25.2964, 31.1504, -31.5457, -23.6646
4.63248, 5, 16.0797, 15.3969, 25.312, 31.1038, -31.5682, -23.6234
4.63987, 5, 16.0666, 15.3943, 25.3275, 31.0559, -31.5905, -23.6031
4.64788, 5, 16.0534, 15.3917, 25.3427, 31.0091, -31.6127, -23.5626
4.65487, 5, 16.0402, 15.3891, 25.3579, 30.9625, -31.6351, -23.5219
4.66388, 5, 16.0271, 15.3864, 25.3733, 30.9146, -31.6578, -23.4807
4.67187, 5, 16.0138, 15.3837, 25.3886, 30.8678, -31.6808, -23.44
4.67896, 5, 16.0007, 15.381, 25.4037, 30.8215, -31.7035, -23.3997
4.68788, 5, 15.9876, 15.3783, 25.4192, 30.7741, -31.7259, -23.3596
4.6959, 5, 15.9744, 15.3757, 25.4347, 30.7274, -31.7481, -23.3189
4.70288, 5, 15.9613, 15.3731, 25.45, 30.6812, -31.7704, -23.2782
4.71187, 5, 15.948, 15.3706, 25.4652, 30.6339, -31.793, -23.2381
4.71987, 5, 15.9347, 15.3682, 25.4805, 30.5874, -31.8161, -23.1984
4.72786, 5, 15.9216, 15.3658, 25.4957, 30.5417, -31.839, -23.1585
4.73589, 5, 15.9084, 15.3634, 25.5108, 30.4949, -31.8618, -23.118
4.74397, 5, 15.8952, 15.3611, 25.526, 30.4483, -31.8843, -23.078
4.75088, 5, 15.8821, 15.3588, 25.5413, 30.4026, -31.9067, -23.0384
4.75987, 5, 15.869, 15.3564, 25.5565, 30.3561, -31.9293, -22.999
4.76793, 5, 15.8558, 15.3541, 25.5716, 30.3097, -31.9523, -22.9592
4.77692, 5, 15.8427, 15.3518, 25.5868, 30.2644, -31.9755, -22.9191
4.78389, 5, 15.8296, 15.3495, 25.6021, 30.218, -31.9982, -22.8794
4.79194, 5, 15.8165, 15.3471, 25.6172, 30.1714, -32.0207, -22.84
4.79991, 5, 15.8035, 15.3448, 25.6323, 30.1259, -32.043, -22.8007
4.80787, 5, 15.7903, 15.3426, 25.6476, 30.0797, -32.0654, -22.7608
4.81593, 5, 15.7769, 15.3403, 25.6628, 30.0332, -32.0882, -22.7209
4.82389, 5, 15.7636, 15.338, 25.6777, 29.9878, -32.1113, -22.6815
4.83194, 5, 15.7505, 15.3356, 25.6927, 29.9421, -32.1344, -22.6425
4.83987, 5, 15.7371, 15.3333, 25.7078, 29.8956, -32.1572, -22.6031
4.84787, 5, 15.7239, 15.3309, 25.7227, 29.8504, -32.1798, -22.5632
4.85593, 5, 15.7107, 15.3285, 25.7377, 29.805, -32.2023, -22.5236
4.86391, 5, 15.6974, 15.3261, 25.7529, 29.7588, -32.225, -22.4846
4.87187, 5, 15.6842, 15.3237, 25.7681, 29.7138, -32.2482, -22.4457
4.87993, 5, 15.6711, 15.3212, 25.7831, 29.669, -32.2713, -22.4067
4.88788, 5, 15.6578, 15.3188, 25.7981, 29.623, -32.2941, -22.3672
4.89587, 5, 15.6446, 15.3164, 25.8131, 29.5777, -32.3166, -22.3281
4.90398, 5, 15.6311, 15.314, 25.8281, 29.533, -32.339, -22.2895
4.91187, 5, 15.6176, 15.3117, 25.8429, 29.4873, -32.3617, -22.2509
4.91987, 5, 15.6043, 15.3094, 25.8578, 29.442, -32.3848, -22.212
4.92793, 5, 15.5909, 15.3072, 25.8729, 29.3977, -32.4083, -22.1728
4.93587, 5, 15.5776, 15.3051, 25.8878, 29.3523, -32.4315, -22.1343
4.94388, 5, 15.5644, 15.3029, 25.9026, 29.3069, -32.4545, -22.0963
4.95197, 5, 15.5509, 15.3008, 25.9176, 29.2625, -32.4773, -22.0581
4.96001, 5, 15.5376, 15.2987, 25.9326, 29.2173, -32.5002, -22.0195
4.96807, 5, 15.5243, 15.2967, 25.9475, 29.1717, -32.5234, -21.9808
4.97597, 5, 15.511, 15.2946, 25.9623, 29.1273, -32.5471, -21.9427
4.98397, 5, 15.4977, 15.2926, 25.9774, 29.0827, -32.5704, -21.9047
4.99204, 5, 15.4844, 15.2906, 25.9923, 29.0373, -32.5935, -21.8668
5.00003, 5, 15.4709, 15.2886, 26.0071, 28.9929, -32.6163, -21.8283
5.00788, 5, 15.4575, 15.2866, 26.0218, 28.9486, -32.6392, -21.7898
5.01597, 5, 15.4442, 15.2846, 26.0367, 28.9034, -32.6621, -21.7518
5.02391, 5, 15.4309, 15.2826, 26.0515, 28.8591, -32.6857, -21.7139
5.03198, 5, 15.4177, 15.2806, 26.0662, 28.8154, -32.7092, -21.676
5.04016, 5, 15.4044, 15.2787, 26.0811, 28.7706, -32.7325, -21.6375
5.04685, 5, 15.3978, 15.2777, 26.0886, 28.7482, -32.744, -21.6182
5.05611, 5, 15.3779, 15.2747, 26.1109, 28.6824, -32.7785, -21.5614
5.06286, 5, 15.3713, 15.2737, 26.1182, 28.6603, -32.79, -21.5426
5.07232, 5, 15.3514, 15.2707, 26.1403, 28.5933, -32.8252, -21.486
5.08031, 5, 15.3381, 15.2686, 26.1551, 28.5498, -32.849, -21.4475
5.08849, 5, 15.3247, 15.2666, 26.1697, 28.5058, -32.8723, -21.4094
5.09639, 5, 15.3112, 15.2645, 26.1843, 28.461, -32.8955, -21.372
5.1044, 5, 15.2977, 15.2625, 26.1992, 28.4173, -32.9184, -21.3346
5.11248, 5, 15.2843, 15.2604, 26.214, 28.3736, -32.9415, -21.2973
5.12043, 5, 15.2776, 15.2593, 26.2214, 28.3289, -32.9649, -21.2593
5.12843, 5, 15.2641, 15.2572, 26.236, 28.3068, -32.9888, -21.2218
5.13674, 5, 15.2508, 15.2542, 26.258, 28.2418, -33.0125, -21.1846
5.14386, 5, 15.2374, 15.2531, 26.2654, 28.2197, -33.0242, -21.1661
5.1519, 5, 15.224, 15.2511, 26.28, 28.1752, -33.0475, -21.1291
5.15986, 5, 15.2107, 15.2491, 26.2946, 28.1317, -33.0706, -21.0915
5.16786, 5, 15.1973, 15.2472, 26.3093, 28.0884, -33.0939, -21.0539
5.17591, 5, 15.1839, 15.2453, 26.324, 28.0443, -33.1177, -21.017
5.18387, 5, 15.1705, 15.2435, 26.3386, 28.0008, -33.1415, -20.9805
5.19191, 5, 15.1569, 15.2417, 26.353, 27.958, -33.165, -20.9439
5.19989, 5, 15.1433, 15.24, 26.3676, 27.9143, -33.1881, -20.9068
5.20787, 5, 15.1299, 15.2382, 26.3821, 27.8706, -33.2111, -20.8696
5.21591, 5, 15.1164, 15.2365, 26.3965, 27.828, -33.2342, -20.833
5.22385, 5, 15.1029, 15.2349, 26.4111, 27.7849, -33.2578, -20.7968
5.23188, 5, 15.0895, 15.2332, 26.4259, 27.7411, -33.2818, -20.7604
5.23994, 5, 15.0759, 15.2316, 26.4405, 27.6983, -33.3056, -20.7237
5.24785, 5, 15.0625, 15.2299, 26.455, 27.6557, -33.329, -20.6868
5.25686, 5, 15.0491, 15.2282, 26.4695, 27.6119, -33.3523, -20.6504
5.26393, 5, 15.0356, 15.2264, 26.484, 27.5688, -33.3757, -20.6141
5.2729, 5, 15.0221, 15.2247, 26.4985, 27.5264, -33.3994, -20.578
5.27987, 5, 15.0086, 15.2229, 26.5128, 27.483, -33.4236, -20.5414
5.28798, 5, 14.995, 15.2212, 26.5273, 27.4394, -33.4475, -20.5046
5.29586, 5, 14.9815, 15.2195, 26.5418, 27.3972, -33.471, -20.4683
5.30391, 5, 14.968, 15.2178, 26.5562, 27.3545, -33.4943, -20.4323
5.31192, 5, 14.9545, 15.2161, 26.5705, 27.311, -33.5176, -20.3963
5.31985, 5, 14.9411, 15.2144, 26.585, 27.2685, -33.5413, -20.3598
5.32847, 5, 14.9277, 15.2128, 26.5994, 27.2262, -33.5655, -20.323
5.33585, 5, 14.9142, 15.2111, 26.6138, 27.183, -33.5896, -20.2867
5.34385, 5, 14.9008, 15.2095, 26.6281, 27.1405, -33.6133, -20.2507
5.35264, 5, 14.8875, 15.2079, 26.6426, 27.0987, -33.6369, -20.2149
5.35985, 5, 14.8741, 15.2062, 26.657, 27.0562, -33.6604, -20.1788
5.3679, 5, 14.8607, 15.2045, 26.6713, 27.0134, -33.6843, -20.1424
5.37663, 5, 14.8471, 15.2028, 26.6855, 26.9715, -33.7085, -20.1063
5.38385, 5, 14.8334, 15.2011, 26.6999, 26.9294, -33.7327, -20.0705
5.39185, 5, 14.8199, 15.1994, 26.7141, 26.8867, -33.7565, -20.0348
5.40063, 5, 14.8064, 15.1976, 26.7283, 26.8447, -33.78, -19.9989
5.40789, 5, 14.7928, 15.1959, 26.7426, 26.8033, -33.8035, -19.9625
5.41585, 5, 14.7794, 15.1941, 26.7571, 26.7607, -33.8273, -19.9263
5.42462, 5, 14.7659, 15.1923, 26.7715, 26.7183, -33.8517, -19.8909
5.43185, 5, 14.7524, 15.1906, 26.7857, 26.6767, -33.876, -19.8557
5.43985, 5, 14.739, 15.189, 26.7999, 26.6347, -33.9, -19.8204
5.44875, 5, 14.7255, 15.1874, 26.8142, 26.592, -33.9239, -19.7845
5.45588, 5, 14.7121, 15.1859, 26.8283, 26.5503, -33.9475, -19.7487
5.46394, 5, 14.6985, 15.1844, 26.8423, 26.5089, -33.9714, -19.7135
5.47305, 5, 14.6847, 15.183, 26.8566, 26.4666, -33.9957, -19.6784
5.47995, 5, 14.6711, 15.1816, 26.8709, 26.4246, -34.02, -19.6432
5.48804, 5, 14.6575, 15.1803, 26.8851, 26.3835, -34.0439, -19.6076
5.49638, 5, 14.644, 15.179, 26.8992, 26.3418, -34.0676, -19.5719
5.50354, 5, 14.6304, 15.1777, 26.9133, 26.2998, -34.0911, -19.537
5.51207, 5, 14.6169, 15.1764, 26.9276, 26.2588, -34.1149, -19.5021
5.52047, 5, 14.6033, 15.1752, 26.9417, 26.2178, -34.1394, -19.4672
5.5279, 5, 14.5898, 15.1739, 26.9558, 26.176, -34.1639, -19.4319
5.53631, 5, 14.5764, 15.1727, 26.9699, 26.1345, -34.1881, -19.3964
5.54291, 5, 14.5697, 15.172, 26.977, 26.1142, -34.2001, -19.3787
5.55089, 5, 14.5562, 15.1708, 26.9912, 26.0733, -34.2239, -19.3439
5.56047, 5, 14.5358, 15.1689, 27.0122, 26.0107, -34.2598, -19.2919
5.56822, 5, 14.5222, 15.1676, 27.0262, 25.97, -34.2843, -19.2569
5.57489, 5, 14.5154, 15.167, 27.0332, 25.9498, -34.2966, -19.2392
5.58438, 5, 14.495, 15.1651, 27.0542, 25.8878, -34.3331, -19.1863
5.5924, 5, 14.4814, 15.1638, 27.0681, 25.8466, -34.357, -19.1518
5.59905, 5, 14.4746, 15.1631, 27.0752, 25.8263, -34.3689, -19.1347
5.60864, 5, 14.4542, 15.1612, 27.0964, 25.765, -34.4048, -19.083
5.61647, 5, 14.4406, 15.16, 27.1104, 25.7232, -34.4294, -19.0482
5.62296, 5, 14.4338, 15.1594, 27.1174, 25.7028, -34.4418, -19.0308
5.63254, 5, 14.4202, 15.1581, 27.1314, 25.6626, -34.4786, -18.9792
5.63989, 5, 14.4067, 15.157, 27.1454, 25.6217, -34.4907, -18.9622
5.64691, 5, 14.3932, 15.1558, 27.1593, 25.5802, -34.5148, -18.9281
5.65588, 5, 14.3795, 15.1546, 27.1732, 25.5398, -34.539, -18.8939
5.66385, 5, 14.3657, 15.1535, 27.187, 25.4995, -34.5635, -18.8593
5.67086, 5, 14.3521, 15.1524, 27.201, 25.4583, -34.5885, -18.8247
5.67987, 5, 14.3385, 15.1512, 27.215, 25.4177, -34.613, -18.7908
5.68785, 5, 14.3248, 15.1501, 27.2288, 25.3779, -34.6372, -18.7573
5.69483, 5, 14.3113, 15.149, 27.2427, 25.3377, -34.6612, -18.7238
5.70388, 5, 14.2977, 15.1478, 27.2567, 25.2968, -34.6853, -18.6899
5.71184, 5, 14.2842, 15.1467, 27.2707, 25.2567, -34.7098, -18.6557
5.71991, 5, 14.2707, 15.1455, 27.2845, 25.2168, -34.7349, -18.6219
5.72784, 5, 14.2571, 15.1444, 27.2983, 25.1761, -34.7595, -18.5885
5.73584, 5, 14.2435, 15.1432, 27.3123, 25.1356, -34.7838, -18.5552
5.74393, 5, 14.2298, 15.142, 27.3262, 25.0961, -34.8081, -18.5216
5.75186, 5, 14.2159, 15.1408, 27.3399, 25.0562, -34.8323, -18.4878
5.75986, 5, 14.2022, 15.1396, 27.3537, 25.0154, -34.8569, -18.4538
5.76883, 5, 14.1885, 15.1384, 27.3675, 24.9754, -34.8819, -18.4205
5.77584, 5, 14.1748, 15.1372, 27.3813, 24.9358, -34.9065, -18.3873
5.78384, 5, 14.1612, 15.136, 27.395, 24.8955, -34.9307, -18.3541
5.7919, 5, 14.1476, 15.1348, 27.4088, 24.855, -34.9548, -18.3205
5.80089, 5, 14.1339, 15.1336, 27.4227, 24.8155, -34.979, -18.2867
5.80788, 5, 14.1203, 15.1325, 27.4366, 24.7759, -35.0038, -18.2531
5.81584, 5, 14.1067, 15.1313, 27.4503, 24.7354, -35.0289, -18.22
5.82383, 5, 14.0931, 15.1302, 27.464, 24.6954, -35.0537, -18.1871
5.83191, 5, 14.0795, 15.1291, 27.4778, 24.6561, -35.0782, -18.1539
5.83984, 5, 14.0658, 15.1281, 27.4915, 24.6164, -35.1026, -18.1203
5.84784, 5, 14.0521, 15.1271, 27.505, 24.5763, -35.127, -18.0866
5.85595, 5, 14.0384, 15.1262, 27.5186, 24.5371, -35.152, -18.0535
5.86383, 5, 14.0247, 15.1252, 27.5324, 24.4982, -35.1771, -18.0207
5.87186, 5, 14.011, 15.1244, 27.5462, 24.4584, -35.2018, -17.988
5.87991, 5, 13.9974, 15.1235, 27.5598, 24.4187, -35.2262, -17.9549
5.88784, 5, 13.9837, 15.1227, 27.5733, 24.38, -35.2505, -17.9216
5.89585, 5, 13.97, 15.1218, 27.587, 24.341, -35.275, -17.8886
5.90391, 5, 13.9564, 15.1211, 27.6007, 24.3012, -35.3001, -17.8561
5.91185, 5, 13.9429, 15.1203, 27.6143, 24.2618, -35.3253, -17.8237
5.91984, 5, 13.9293, 15.1195, 27.6278, 24.2233, -35.3501, -17.7911
5.92792, 5, 13.9157, 15.1188, 27.6415, 24.1841, -35.3747, -17.7582
5.93585, 5, 13.9019, 15.1181, 27.6551, 24.1443, -35.3992, -17.7251
5.9439, 5, 13.8881, 15.1174, 27.6686, 24.1055, -35.4239, -17.6924
5.95198, 5, 13.8744, 15.1167, 27.682, 24.0669, -35.4491, -17.6604
5.9599, 5, 13.8607, 15.116, 27.6956, 24.0273, -35.4743, -17.6284
5.96799, 5, 13.847, 15.1153, 27.709, 23.9877, -35.4991, -17.5962
5.97621, 5, 13.8333, 15.1146, 27.7225, 23.9492, -35.5236, -17.5637
5.98354, 5, 13.8195, 15.114, 27.7359, 23.9106, -35.548, -17.5311
5.99202, 5, 13.8057, 15.1133, 27.7494, 23.8712, -35.5727, -17.499
6.00038, 5, 13.792, 15.1127, 27.7631, 23.8322, -35.598, -17.4673
6.00784, 5, 13.7782, 15.112, 27.7766, 23.7939, -35.6233, -17.4354
6.01591, 5, 13.7645, 15.1114, 27.79, 23.7551, -35.6481, -17.4032
6.02461, 5, 13.7506, 15.1107, 27.8034, 23.7158, -35.6728, -17.3707
6.03189, 5, 13.7366, 15.1101, 27.8168, 23.6775, -35.6973, -17.3384
6.04003, 5, 13.7229, 15.1095, 27.8302, 23.6396, -35.7222, -17.3066
6.04687, 5, 13.716, 15.1091, 27.8368, 23.6205, -35.7349, -17.2907
6.05482, 5, 13.7022, 15.1085, 27.8502, 23.5816, -35.7602, -17.259
6.06411, 5, 13.6817, 15.1076, 27.8704, 23.5241, -35.7975, -17.211
6.07087, 5, 13.6748, 15.1072, 27.8771, 23.5052, -35.8098, -17.1948
6.07883, 5, 13.661, 15.1066, 27.8905, 23.4669, -35.8342, -17.1624
6.0883, 5, 13.6403, 15.1056, 27.9104, 23.409, -35.8715, -17.1148
6.09716, 5, 13.6266, 15.105, 27.9238, 23.3714, -35.8971, -17.0832
6.10294, 5, 13.6197, 15.1047, 27.9305, 23.3525, -35.9098, -17.0675
6.11238, 5, 13.599, 15.1038, 27.9504, 23.2946, -35.9474, -17.0195
6.12118, 5, 13.592, 15.1032, 27.9637, 23.2563, -35.9722, -16.9873
6.12682, 5, 13.5781, 15.1029, 27.9704, 23.2374, -35.9846, -16.9713
6.13635, 5, 13.5643, 15.1023, 27.9838, 23.1996, -36.0097, -16.9396
6.14387, 5, 13.5505, 15.1017, 27.9971, 23.161, -36.0353, -16.9083
6.15082, 5, 13.5368, 15.1011, 28.0102, 23.1226, -36.0608, -16.8772
6.15982, 5, 13.5232, 15.1005, 28.0235, 23.085, -36.0859, -16.8458
6.16783, 5, 13.5094, 15.0999, 28.0367, 23.0474, -36.1106, -16.814
6.17482, 5, 13.4957, 15.0994, 28.0499, 23.0089, -36.1354, -16.7824
6.18382, 5, 13.4821, 15.0988, 28.063, 22.9709, -36.1605, -16.7513
6.19187, 5, 13.4683, 15.0983, 28.0763, 22.9337, -36.1861, -16.7205
6.19884, 5, 13.4546, 15.0978, 28.0896, 22.896, -36.2116, -16.6896
6.20785, 5, 13.4408, 15.0973, 28.103, 22.8578, -36.2367, -16.6583
6.21587, 5, 13.4268, 15.0968, 28.1161, 22.8204, -36.2616, -16.6268
6.2229, 5, 13.4129, 15.0963, 28.1293, 22.7835, -36.2865, -16.5955
6.23182, 5, 13.399, 15.0959, 28.1425, 22.746, -36.3118, -16.5646
6.23882, 5, 13.3851, 15.0955, 28.1557, 22.7079, -36.3375, -16.5342
6.24785, 5, 13.3713, 15.095, 28.1687, 22.6707, -36.3628, -16.5037
6.25581, 5, 13.3574, 15.0947, 28.1817, 22.6339, -36.3877, -16.473
6.2639, 5, 13.3436, 15.0943, 28.1949, 22.5964, -36.4125, -16.442
6.27286, 5, 13.3298, 15.0939, 28.2081, 22.5585, -36.4374, -16.4112
6.27982, 5, 13.316, 15.0935, 28.2212, 22.5216, -36.4629, -16.3808
6.28789, 5, 13.3022, 15.0932, 28.2342, 22.4849, -36.4887, -16.3505
6.29583, 5, 13.2883, 15.0928, 28.2473, 22.4474, -36.5141, -16.3203
6.30388, 5, 13.2743, 15.0925, 28.2605, 22.4098, -36.5392, -16.2898
6.31187, 5, 13.2603, 15.0922, 28.2735, 22.373, -36.5642, -16.2589
6.31984, 5, 13.2465, 15.0919, 28.2865, 22.3363, -36.5893, -16.2283
6.32789, 5, 13.2326, 15.0916, 28.2996, 22.2986, -36.615, -16.198
6.33581, 5, 13.2187, 15.0913, 28.3127, 22.261, -36.6407, -16.1677
6.34383, 5, 13.2048, 15.091, 28.3258, 22.2243, -36.6658, -16.1375
6.35188, 5, 13.1908, 15.0907, 28.3387, 22.1877, -36.6908, -16.1071
6.35983, 5, 13.1769, 15.0905, 28.3516, 22.1503, -36.7156, -16.0762
6.36783, 5, 13.163, 15.0903, 28.3646, 22.1132, -36.7408, -16.0456
6.37591, 5, 13.1491, 15.09, 28.3775, 22.0767, -36.7667, -16.0152
6.38381, 5, 13.1351, 15.0898, 28.3904, 22.0401, -36.7924, -15.985
6.39183, 5, 13.1211, 15.0896, 28.4033, 22.0029, -36.8178, -15.9551
6.39995, 5, 13.1071, 15.0894, 28.4164, 21.966, -36.843, -15.9249
6.40782, 5, 13.0932, 15.0892, 28.4294, 21.93, -36.8682, -15.8943
6.41586, 5, 13.0793, 15.089, 28.4424, 21.8938, -36.8939, -15.8638
6.42391, 5, 13.0655, 15.0888, 28.4553, 21.8569, -36.92, -15.8337
6.43182, 5, 13.0517, 15.0887, 28.4682, 21.8202, -36.9458, -15.8039
6.44003, 5, 13.0378, 15.0885, 28.4811, 21.7842, -36.9711, -15.7742
6.44782, 5, 13.024, 15.0884, 28.4939, 21.7478, -36.9963, -15.7444
6.45586, 5, 13.0102, 15.0882, 28.5066, 21.7109, -37.0216, -15.7142
6.46466, 5, 12.9964, 15.0881, 28.5194, 21.6745, -37.0474, -15.6839
6.47191, 5, 12.9826, 15.088, 28.5323, 21.6387, -37.0736, -15.6542
6.47995, 5, 12.9686, 15.0879, 28.5452, 21.6026, -37.0993, -15.6247
6.48873, 5, 12.9545, 15.0878, 28.558, 21.5657, -37.1248, -15.5952
6.49594, 5, 12.9405, 15.0877, 28.5707, 21.5293, -37.1502, -15.5656
6.50392, 5, 12.9266, 15.0877, 28.5835, 21.4936, -37.1758, -15.5356
6.51269, 5, 12.9127, 15.0876, 28.5963, 21.4574, -37.2019, -15.5053
6.51984, 5, 12.8988, 15.0875, 28.6091, 21.4206, -37.2278, -15.4756
6.52796, 5, 12.8849, 15.0875, 28.6218, 21.3844, -37.2533, -15.4462
6.53678, 5, 12.871, 15.0874, 28.6345, 21.3488, -37.2785, -15.4172
6.54397, 5, 12.8571, 15.0874, 28.6473, 21.3128, -37.3036, -15.3881
6.5509, 5, 12.8502, 15.0874, 28.6537, 21.2945, -37.3164, -15.3734
6.56098, 5, 12.8294, 15.0874, 28.6726, 21.24, -37.3555, -15.329
6.56811, 5, 12.8155, 15.0873, 28.6852, 21.2046, -37.3813, -15.2994
6.5748, 5, 12.8084, 15.0873, 28.6916, 21.1868, -37.3942, -15.2847
6.58431, 5, 12.7874, 15.0873, 28.7105, 21.1324, -37.4324, -15.2413
6.59229, 5, 12.7734, 15.0873, 28.723, 21.0967, -37.4578, -15.2123
6.5988, 5, 12.7664, 15.0873, 28.7293, 21.0792, -37.4708, -15.1978
6.60839, 5, 12.7455, 15.0873, 28.7484, 21.0262, -37.5098, -15.1534
6.61487, 5, 12.7386, 15.0873, 28.7548, 21.0082, -37.5228, -15.1385
6.62463, 5, 12.7176, 15.0873, 28.7738, 20.9546, -37.5608, -15.0948
6.63241, 5, 12.7106, 15.0873, 28.7801, 20.9371, -37.5735, -15.0659
6.63886, 5, 12.6967, 15.0873, 28.7926, 20.9021, -37.5989, -15.0516
6.64886, 5, 12.6759, 15.0874, 28.8115, 20.8483, -37.638, -15.0082
6.65583, 5, 12.6689, 15.0874, 28.8177, 20.8304, -37.6511, -14.9936
6.66292, 5, 12.6548, 15.0874, 28.8302, 20.7952, -37.6771, -14.9642
6.67186, 5, 12.6407, 15.0874, 28.8426, 20.7603, -37.7028, -14.9347
6.67981, 5, 12.6267, 15.0874, 28.8551, 20.7247, -37.7283, -14.9058
6.68679, 5, 12.6127, 15.0874, 28.8677, 20.6888, -37.7541, -14.8771
6.69582, 5, 12.5987, 15.0874, 28.8802, 20.6537, -37.7805, -14.8483
6.70381, 5, 12.5848, 15.0874, 28.8927, 20.6188, -37.8069, -14.8196
6.71189, 5, 12.5707, 15.0874, 28.905, 20.5833, -37.8328, -14.7905
6.7198, 5, 12.5567, 15.0874, 28.9175, 20.5473, -37.8583, -14.7612
6.72781, 5, 12.5428, 15.0875, 28.93, 20.5122, -37.8839, -14.7323
6.73588, 5, 12.5288, 15.0875, 28.9424, 20.4776, -37.9099, -14.7038
6.7438, 5, 12.5149, 15.0875, 28.9547, 20.4425, -37.9364, -14.6754
6.75184, 5, 12.5008, 15.0875, 28.9672, 20.4069, -37.9626, -14.647
6.7613, 5, 12.4866, 15.0876, 28.9796, 20.3719, -37.9886, -14.6185
6.7678, 5, 12.4725, 15.0876, 28.992, 20.3373, -38.0143, -14.5896
6.7768, 5, 12.4585, 15.0877, 29.0043, 20.3023, -38.0402, -14.561
6.78285, 5, 12.4444, 15.0878, 29.0166, 20.2667, -38.0666, -14.5328
6.79181, 5, 12.4303, 15.0878, 29.0289, 20.232, -38.0931, -14.5048
6.79981, 5, 12.4163, 15.0879, 29.0412, 20.1978, -38.119, -14.477
6.8078, 5, 12.4022, 15.088, 29.0534, 20.1633, -38.1448, -14.4487
6.81586, 5, 12.3882, 15.0881, 29.0656, 20.1282, -38.1704, -14.42
6.82387, 5, 12.3742, 15.0882, 29.078, 20.0934, -38.1963, -14.3913
6.8318, 5, 12.3602, 15.0883, 29.0904, 20.0591, -38.2228, -14.3631
6.8398, 5, 12.3461, 15.0885, 29.1028, 20.0248, -38.2492, -14.3354
6.84789, 5, 12.3318, 15.0886, 29.115, 19.9897, -38.2752, -14.3078
6.8558, 5, 12.3176, 15.0888, 29.1272, 19.9551, -38.3009, -14.2804
6.8638, 5, 12.3035, 15.089, 29.1394, 19.9211, -38.3267, -14.2526
6.87188, 5, 12.2895, 15.0892, 29.1516, 19.8871, -38.3531, -14.2245
6.87988, 5, 12.2754, 15.0894, 29.1638, 19.8521, -38.3796, -14.1964
6.88781, 5, 12.2614, 15.0896, 29.1759, 19.8173, -38.4055, -14.1687
6.89588, 5, 12.2472, 15.0898, 29.188, 19.7831, -38.4312, -14.1412
6.9038, 5, 12.2331, 15.09, 29.2003, 19.7491, -38.4569, -14.1139
6.91179, 5, 12.219, 15.0902, 29.2125, 19.7143, -38.4828, -14.0865
6.9199, 5, 12.205, 15.0904, 29.2246, 19.6794, -38.5093, -14.0588
6.92782, 5, 12.1908, 15.0906, 29.2367, 19.6454, -38.5358, -14.0306
6.93587, 5, 12.1766, 15.0908, 29.2488, 19.6117, -38.562, -14.0027
6.944, 5, 12.1624, 15.091, 29.261, 19.5773, -38.5879, -13.9754
6.9518, 5, 12.1483, 15.0913, 29.2731, 19.5426, -38.6138, -13.9482
6.9599, 5, 12.1341, 15.0915, 29.2851, 19.5086, -38.6402, -13.9211
6.96804, 5, 12.12, 15.0918, 29.2972, 19.475, -38.6669, -13.8937
6.9754, 5, 12.1059, 15.0921, 29.3094, 19.4411, -38.6932, -13.8659
6.98406, 5, 12.0918, 15.0925, 29.3215, 19.4066, -38.7191, -13.838
6.9922, 5, 12.0778, 15.0928, 29.3335, 19.3727, -38.7449, -13.8103
6.99943, 5, 12.0637, 15.0933, 29.3455, 19.3394, -38.7709, -13.7831
7.00798, 5, 12.0497, 15.0937, 29.3574, 19.306, -38.7975, -13.7561
7.0164, 5, 12.0356, 15.0942, 29.3694, 19.2717, -38.8242, -13.7291
7.02389, 5, 12.0213, 15.0948, 29.3813, 19.2377, -38.8504, -13.7019
7.0319, 5, 12.007, 15.0953, 29.3933, 19.2044, -38.8765, -13.6743
7.04065, 5, 11.9928, 15.0959, 29.4052, 19.1711, -38.9025, -13.6467
7.04806, 5, 11.9786, 15.0965, 29.4174, 19.1372, -38.9289, -13.6195
7.05478, 5, 11.9716, 15.0969, 29.4234, 19.1201, -38.9423, -13.6059
7.06486, 5, 11.9504, 15.0979, 29.4415, 19.0699, -38.9821, -13.5656
7.07221, 5, 11.9362, 15.0986, 29.4534, 19.0369, -39.0081, -13.5387
7.07879, 5, 11.9291, 15.099, 29.4594, 19.0202, -39.0211, -13.5252
7.08908, 5, 11.9079, 15.1002, 29.4773, 18.9692, -39.06, -13.4845
7.0948, 5, 11.9009, 15.1005, 29.4833, 18.9524, -39.0733, -13.4708
7.10431, 5, 11.8796, 15.1018, 29.501, 18.9027, -39.1135, -13.4304
7.1131, 5, 11.8652, 15.1027, 29.5128, 18.8694, -39.1398, -13.404
7.11879, 5, 11.858, 15.1031, 29.5187, 18.8523, -39.1529, -13.3908
7.12838, 5, 11.8437, 15.1041, 29.5367, 18.8015, -39.1919, -13.3513
7.13714, 5, 11.8294, 15.105, 29.5426, 18.785, -39.2051, -13.3244
7.14278, 5, 11.8152, 15.106, 29.5546, 18.7521, -39.2318, -13.3107
7.15293, 5, 11.7939, 15.1075, 29.5722, 18.7019, -39.2717, -13.27
7.15979, 5, 11.7867, 15.108, 29.5782, 18.685, -39.2848, -13.2567
7.16678, 5, 11.7725, 15.1091, 29.59, 18.6518, -39.3108, -13.2304
7.17578, 5, 11.7583, 15.1101, 29.6018, 18.619, -39.3368, -13.2044
7.18388, 5, 11.7442, 15.1113, 29.6136, 18.5861, -39.3631, -13.1783
7.19179, 5, 11.73, 15.1124, 29.6253, 18.5525, -39.39, -13.1521
7.1998, 5, 11.7157, 15.1135, 29.6372, 18.5193, -39.4167, -13.1257
7.2079, 5, 11.7014, 15.1147, 29.649, 18.4868, -39.4431, -13.099
7.21513, 5, 11.6872, 15.1158, 29.6608, 18.4545, -39.4693, -13.0725
7.22277, 5, 11.673, 15.117, 29.6724, 18.4215, -39.4957, -13.0465
7.23178, 5, 11.6587, 15.1181, 29.6841, 18.3881, -39.5225, -13.0205
7.23957, 5, 11.6446, 15.1193, 29.6958, 18.3554, -39.5494, -12.9947
7.24785, 5, 11.6304, 15.1204, 29.7074, 18.323, -39.576, -12.9686
7.25582, 5, 11.6162, 15.1215, 29.719, 18.2903, -39.6021, -12.9422
7.2638, 5, 11.6021, 15.1226, 29.7306, 18.2568, -39.6283, -12.9155
7.27185, 5, 11.5879, 15.1237, 29.7423, 18.2241, -39.6547, -12.8891
7.27979, 5, 11.5738, 15.1248, 29.7542, 18.1919, -39.6818, -12.8633
7.28877, 5, 11.5596, 15.1259, 29.7659, 18.1597, -39.7086, -12.8375
7.29585, 5, 11.5452, 15.127, 29.7776, 18.1266, -39.7352, -12.8119
7.30378, 5, 11.5309, 15.1281, 29.7891, 18.0934, -39.7615, -12.7861
7.3118, 5, 11.5167, 15.1292, 29.8007, 18.061, -39.7878, -12.7598
7.31991, 5, 11.5025, 15.1304, 29.8123, 18.0288, -39.8148, -12.7333
7.32778, 5, 11.4883, 15.1316, 29.8239, 17.9961, -39.8419, -12.7068
7.3358, 5, 11.4741, 15.1328, 29.8354, 17.9629, -39.8685, -12.6809
7.34385, 5, 11.4599, 15.1341, 29.8468, 17.9305, -39.8948, -12.6554
7.35179, 5, 11.4458, 15.1354, 29.8584, 17.8984, -39.921, -12.6298
7.36028, 5, 11.4315, 15.1367, 29.87, 17.8663, -39.9477, -12.6042
7.36691, 5, 11.4173, 15.1381, 29.8815, 17.8333, -39.975, -12.5784
7.37578, 5, 11.403, 15.1394, 29.893, 17.8005, -40.0019, -12.5522
7.38461, 5, 11.3885, 15.1408, 29.9044, 17.7685, -40.0285, -12.5262
7.39179, 5, 11.3741, 15.1423, 29.9159, 17.7366, -40.0549, -12.5004
7.39978, 5, 11.3598, 15.1437, 29.9274, 17.7042, -40.0815, -12.475
7.40859, 5, 11.3455, 15.1452, 29.9389, 17.6716, -40.1086, -12.4498
7.41578, 5, 11.3312, 15.1467, 29.9503, 17.6397, -40.1356, -12.4245
7.4238, 5, 11.3169, 15.1483, 29.9617, 17.6082, -40.1622, -12.399
7.43258, 5, 11.3025, 15.1498, 29.9732, 17.5764, -40.1885, -12.3734
7.43978, 5, 11.2883, 15.1513, 29.9847, 17.544, -40.2148, -12.3474
7.44779, 5, 11.2741, 15.1528, 29.9961, 17.5118, -40.2415, -12.322
7.45659, 5, 11.2599, 15.1542, 30.0074, 17.4803, -40.2688, -12.2971
7.46382, 5, 11.2455, 15.1557, 30.0187, 17.4489, -40.2957, -12.2722
7.47188, 5, 11.2311, 15.1571, 30.03, 17.4169, -40.3223, -12.2474
7.48066, 5, 11.2168, 15.1585, 30.0413, 17.3844, -40.3487, -12.2223
7.48793, 5, 11.2024, 15.1599, 30.0526, 17.3527, -40.3755, -12.1967
7.49588, 5, 11.1881, 15.1613, 30.0638, 17.3213, -40.4027, -12.1708
7.50466, 5, 11.1739, 15.1627, 30.0752, 17.2897, -40.4299, -12.1454
7.51191, 5, 11.1596, 15.1641, 30.0866, 17.2574, -40.4567, -12.1206
7.51979, 5, 11.1453, 15.1656, 30.098, 17.2254, -40.4831, -12.0962
7.52871, 5, 11.1312, 15.167, 30.1094, 17.194, -40.5095, -12.0717
7.53581, 5, 11.117, 15.1685, 30.1206, 17.1627, -40.5365, -12.047
7.54401, 5, 11.1028, 15.1699, 30.1318, 17.1308, -40.5638, -12.0222
7.55209, 5, 11.0885, 15.1715, 30.1431, 17.0984, -40.5909, -11.9971
7.55876, 5, 11.0813, 15.1722, 30.1487, 17.0824, -40.6043, -11.9845
7.56806, 5, 11.0597, 15.1746, 30.1654, 17.0356, -40.6441, -11.9472
7.57477, 5, 11.0526, 15.1753, 30.1709, 17.02, -40.6575, -11.9351
7.58283, 5, 11.0382, 15.1769, 30.1821, 16.9885, -40.6846, -11.9107
7.5927, 5, 11.0167, 15.1792, 30.199, 16.9406, -40.7256, -11.8741
7.60029, 5, 11.0024, 15.1807, 30.2102, 16.9095, -40.7524, -11.8495
7.60683, 5, 10.9952, 15.1815, 30.2159, 16.894, -40.7656, -11.8371
7.61646, 5, 10.9737, 15.1837, 30.2325, 16.8469, -40.8054, -11.7996
7.62433, 5, 10.9594, 15.1852, 30.2437, 16.815, -40.8326, -11.7747
7.63083, 5, 10.9522, 15.186, 30.2493, 16.7993, -40.8464, -11.7624
7.64063, 5, 10.9378, 15.1874, 30.2604, 16.7531, -40.8871, -11.726
7.64777, 5, 10.9233, 15.1889, 30.2715, 16.7378, -40.9006, -11.7139
7.65485, 5, 10.9089, 15.1904, 30.2826, 16.7068, -40.9273, -11.6897
7.66489, 5, 10.8874, 15.1927, 30.2992, 16.6595, -40.9674, -11.653
7.67177, 5, 10.8802, 15.1935, 30.3048, 16.644, -40.9811, -11.6406
7.67881, 5, 10.866, 15.1951, 30.316, 16.6132, -41.0084, -11.6156
7.6878, 5, 10.8517, 15.1967, 30.3271, 16.5826, -41.0353, -11.5908
7.69586, 5, 10.8373, 15.1984, 30.3381, 16.5513, -41.0618, -11.5665
7.70383, 5, 10.823, 15.2001, 30.349, 16.5199, -41.0884, -11.5422
7.71177, 5, 10.8087, 15.2019, 30.36, 16.4892, -41.1155, -11.5182
7.71981, 5, 10.7943, 15.2038, 30.3709, 16.4589, -41.143, -11.4939
7.72782, 5, 10.7799, 15.2056, 30.3819, 16.4283, -41.1703, -11.4696
7.73577, 5, 10.7653, 15.2075, 30.3928, 16.3969, -41.1972, -11.4449
7.74377, 5, 10.7508, 15.2094, 30.4038, 16.3656, -41.224, -11.4204
7.75076, 5, 10.7363, 15.2113, 30.4149, 16.3349, -41.251, -11.3962
7.75981, 5, 10.7218, 15.2131, 30.426, 16.3044, -41.2786, -11.3722
7.76777, 5, 10.7075, 15.215, 30.4371, 16.2735, -41.3059, -11.3482
7.77583, 5, 10.6931, 15.2168, 30.448, 16.2421, -41.3328, -11.3245
7.78377, 5, 10.6787, 15.2186, 30.4589, 16.2112, -41.3595, -11.3005
7.79276, 5, 10.6645, 15.2205, 30.4698, 16.1809, -41.3862, -11.2764
7.79876, 5, 10.6502, 15.2223, 30.4807, 16.1507, -41.4136, -11.2521
7.80777, 5, 10.6359, 15.2241, 30.4915, 16.1198, -41.4413, -11.2279
7.81578, 5, 10.6216, 15.226, 30.5023, 16.0887, -41.4686, -11.2043
7.8239, 5, 10.607, 15.2278, 30.5131, 16.0582, -41.4956, -11.1807
7.83177, 5, 10.5926, 15.2297, 30.524, 16.0282, -41.5226, -11.1574
7.83984, 5, 10.5782, 15.2316, 30.5349, 15.998, -41.5498, -11.1339
7.84777, 5, 10.5637, 15.2335, 30.5458, 15.9673, -41.5775, -11.1103
7.85578, 5, 10.5493, 15.2354, 30.5566, 15.9365, -41.6048, -11.0864
7.86386, 5, 10.5348, 15.2373, 30.5673, 15.9065, -41.6317, -11.0621
7.87177, 5, 10.5203, 15.2392, 30.5781, 15.8768, -41.6584, -11.0382
7.87977, 5, 10.5059, 15.2412, 30.5889, 15.8467, -41.6854, -11.0146
7.88787, 5, 10.4915, 15.2431, 30.5996, 15.816, -41.7131, -10.9913
7.89577, 5, 10.477, 15.245, 30.6104, 15.7856, -41.7407, -10.968
7.90378, 5, 10.4625, 15.2468, 30.6211, 15.7558, -41.7679, -10.9448
7.91183, 5, 10.4479, 15.2487, 30.6318, 15.7261, -41.7948, -10.9214
7.91977, 5, 10.4335, 15.2506, 30.6427, 15.696, -41.8218, -10.8978
7.92779, 5, 10.4191, 15.2525, 30.6534, 15.6654, -41.8494, -10.8741
7.93584, 5, 10.4047, 15.2543, 30.6641, 15.6352, -41.8771, -10.8505
7.94377, 5, 10.3903, 15.2562, 30.6747, 15.6056, -41.9042, -10.8274
7.95193, 5, 10.3758, 15.2582, 30.6853, 15.5761, -41.9311, -10.8044
7.95978, 5, 10.3614, 15.2602, 30.6959, 15.5459, -41.9581, -10.7813
7.9678, 5, 10.3471, 15.2623, 30.7065, 15.5153, -41.9854, -10.758
7.9761, 5, 10.3327, 15.2644, 30.7171, 15.4855, -42.0133, -10.7346
7.98329, 5, 10.3182, 15.2665, 30.7276, 15.4558, -42.041, -10.7109
7.99192, 5, 10.3036, 15.2687, 30.7382, 15.4262, -42.0681, -10.6871
8.00025, 5, 10.289, 15.2709, 30.7489, 15.3958, -42.0952, -10.6636
8.00735, 5, 10.2817, 15.2731, 30.7596, 15.3654, -42.1224, -10.6404
8.01594, 5, 10.2599, 15.2753, 30.7703, 15.3356, -42.1504, -10.6175
8.02448, 5, 10.2455, 15.2775, 30.7809, 15.3062, -42.1781, -10.5949
8.03181, 5, 10.2311, 15.2797, 30.7914, 15.2766, -42.2052, -10.5719
8.0398, 5, 10.2166, 15.2818, 30.802, 15.2465, -42.2322, -10.5487
8.04864, 5, 10.2021, 15.2839, 30.8125, 15.2164, -42.2594, -10.5252
8.05595, 5, 10.1878, 15.2861, 30.823, 15.1869, -42.287, -10.5014
8.06275, 5, 10.1806, 15.2871, 30.8282, 15.1723, -42.3011, -10.4895
8.07284, 5, 10.159, 15.2904, 30.8438, 15.1282, -42.3425, -10.4547
8.0801, 5, 10.1445, 15.2925, 30.8543, 15.0981, -42.3698, -10.4319
8.08676, 5, 10.1372, 15.2935, 30.8595, 15.0831, -42.3833, -10.4205
8.09711, 5, 10.1154, 15.2967, 30.8753, 15.0393, -42.4245, -10.3866
8.10281, 5, 10.1081, 15.2978, 30.8806, 15.0249, -42.4386, -10.3751
8.11234, 5, 10.0863, 15.301, 30.8962, 14.9813, -42.4801, -10.3403
8.12115, 5, 10.0718, 15.3032, 30.9066, 14.9514, -42.5073, -10.3172
8.12683, 5, 10.0646, 15.3043, 30.9118, 14.9366, -42.5208, -10.3057
8.13642, 5, 10.0429, 15.3075, 30.9274, 14.8928, -42.5616, -10.2715
8.14519, 5, 10.0357, 15.3086, 30.9326, 14.8783, -42.5755, -10.2491
8.15081, 5, 10.0212, 15.3107, 30.943, 14.8493, -42.6035, -10.2378
8.15984, 5, 10.0067, 15.3129, 30.9533, 14.8196, -42.631, -10.2154
8.16776, 5, 9.99211, 15.3151, 30.9637, 14.7899, -42.6583, -10.193
8.17481, 5, 9.97736, 15.3172, 30.9742, 14.7609, -42.6854, -10.1703
8.18377, 5, 9.96268, 15.3194, 30.9845, 14.7322, -42.7129, -10.1475
8.19175, 5, 9.94809, 15.3217, 30.9948, 14.7033, -42.7408, -10.1246
8.19875, 5, 9.93354, 15.324, 31.0051, 14.6738, -42.7684, -10.102
8.20776, 5, 9.91901, 15.3264, 31.0153, 14.6442, -42.7955, -10.0797
8.21575, 5, 9.90435, 15.3288, 31.0255, 14.6151, -42.8224, -10.0577
8.22278, 5, 9.88974, 15.3313, 31.0357, 14.5863, -42.8497, -10.0359
8.23176, 5, 9.87527, 15.3338, 31.0458, 14.5574, -42.8776, -10.0139
8.23975, 5, 9.86073, 15.3362, 31.0561, 14.5278, -42.9055, -9.99159
8.24675, 5, 9.84625, 15.3387, 31.0663, 14.4984, -42.933, -9.969
8.25575, 5, 9.83173, 15.3411, 31.0766, 14.4696, -42.9603, -9.94621
8.26379, 5, 9.81709, 15.3437, 31.0869, 14.441, -42.9877, -9.92385
8.27074, 5, 9.80263, 15.3462, 31.0972, 14.4123, -43.0156, -9.90176
8.27975, 5, 9.78813, 15.3486, 31.1075, 14.3828, -43.0437, -9.87993
8.28775, 5, 9.77368, 15.3512, 31.1176, 14.3535, -43.0712, -9.85836
8.29581, 5, 9.75925, 15.3537, 31.1277, 14.3247, -43.0985, -9.83676
8.30377, 5, 9.74471, 15.3562, 31.1379, 14.2962, -43.1257, -9.81492
8.31175, 5, 9.73025, 15.3587, 31.1479, 14.2677, -43.1534, -9.79287
8.31977, 5, 9.7158, 15.3612, 31.1579, 14.2384, -43.1817, -9.77052
8.3278, 5, 9.70136, 15.3636, 31.1679, 14.2094, -43.2094, -9.74845
8.33582, 5, 9.68686, 15.3661, 31.1779, 14.1811, -43.2369, -9.72667
8.34373, 5, 9.67221, 15.3686, 31.1881, 14.153, -43.2642, -9.70517
8.35176, 5, 9.65751, 15.371, 31.1982, 14.1247, -43.2919, -9.68375
8.35981, 5, 9.64292, 15.3735, 31.2083, 14.0958, -43.3201, -9.66217
8.36775, 5, 9.62832, 15.376, 31.2185, 14.067, -43.3479, -9.64055
8.37576, 5, 9.61379, 15.3785, 31.2284, 14.0387, -43.3754, -9.61871
8.38383, 5, 9.59925, 15.381, 31.2384, 14.0107, -43.4026, -9.59647
8.39178, 5, 9.58465, 15.3836, 31.2484, 13.9825, -43.4301, -9.57426
8.39975, 5, 9.57013, 15.3863, 31.2584, 13.9537, -43.4582, -9.55235
8.40781, 5, 9.55559, 15.389, 31.2683, 13.9249, -43.4864, -9.53072
8.41575, 5, 9.54101, 15.3917, 31.2783, 13.8966, -43.514, -9.50941
8.42377, 5, 9.52638, 15.3944, 31.2881, 13.8686, -43.5415, -9.48813
8.43183, 5, 9.51163, 15.397, 31.2981, 13.8405, -43.5689, -9.46695
8.43975, 5, 9.49686, 15.3997, 31.3081, 13.8118, -43.5969, -9.44545
8.44788, 5, 9.48218, 15.4023, 31.3181, 13.783, -43.625, -9.42376
8.45575, 5, 9.4675, 15.405, 31.3281, 13.7548, -43.6525, -9.4017
8.46378, 5, 9.45291, 15.4077, 31.3379, 13.7269, -43.6798, -9.37968
8.47258, 5, 9.43822, 15.4104, 31.3477, 13.6988, -43.707, -9.35788
8.47984, 5, 9.42351, 15.4132, 31.3575, 13.6701, -43.7347, -9.33659
8.48785, 5, 9.40891, 15.416, 31.3673, 13.6412, -43.7629, -9.3153
8.49671, 5, 9.3943, 15.4187, 31.3771, 13.613, -43.7908, -9.29421
8.50385, 5, 9.37966, 15.4215, 31.3869, 13.5853, -43.8183, -9.27304
8.51186, 5, 9.36498, 15.4242, 31.3966, 13.5575, -43.8456, -9.25162
8.52081, 5, 9.35021, 15.4268, 31.4064, 13.5292, -43.8732, -9.22989
8.52777, 5, 9.33555, 15.4294, 31.4163, 13.5007, -43.9016, -9.20806
8.5358, 5, 9.32088, 15.4321, 31.4262, 13.4726, -43.9297, -9.18658
8.54467, 5, 9.30624, 15.4347, 31.4361, 13.4449, -43.9572, -9.16519
8.55182, 5, 9.29166, 15.4374, 31.4458, 13.4172, -43.9846, -9.14418
8.56029, 5, 9.27703, 15.4401, 31.4555, 13.3891, -44.0121, -9.12336
8.56674, 5, 9.2697, 15.4415, 31.4604, 13.3748, -44.0261, -9.11294
8.57479, 5, 9.25509, 15.4443, 31.4701, 13.3465, -44.0545, -9.09199
8.58446, 5, 9.23325, 15.4487, 31.4846, 13.3053, -44.0964, -9.06019
8.59216, 5, 9.21867, 15.4517, 31.4942, 13.2781, -44.1239, -9.03865
8.59877, 5, 9.21131, 15.4533, 31.499, 13.2643, -44.1377, -9.02795
8.60865, 5, 9.1891, 15.4578, 31.5134, 13.2222, -44.1797, -8.99604
8.61628, 5, 9.17438, 15.4609, 31.5231, 13.1944, -44.208, -8.97524
8.62282, 5, 9.16702, 15.4624, 31.528, 13.1806, -44.2219, -8.9649
8.63243, 5, 9.14503, 15.4668, 31.5424, 13.1396, -44.2633, -8.93409
8.64033, 5, 9.13773, 15.4683, 31.5473, 13.1259, -44.2908, -8.91357
8.64684, 5, 9.12302, 15.4713, 31.5569, 13.098, -44.3046, -8.90327
8.65694, 5, 9.10106, 15.4759, 31.5713, 13.0562, -44.347, -8.87178
8.66378, 5, 9.09377, 15.4774, 31.5761, 13.0425, -44.3611, -8.8611
8.67173, 5, 9.0792, 15.4806, 31.5857, 13.0154, -44.3889, -8.83969
8.67979, 5, 9.0646, 15.4836, 31.5952, 12.9882, -44.4166, -8.81859
8.68773, 5, 9.04987, 15.4866, 31.6047, 12.9606, -44.4442, -8.79789
8.69473, 5, 9.03501, 15.4896, 31.6142, 12.9325, -44.4722, -8.77752
8.70374, 5, 9.02026, 15.4926, 31.6238, 12.9048, -44.5005, -8.75733
8.71175, 5, 9.00556, 15.4955, 31.6334, 12.8775, -44.5282, -8.73713
8.72119, 5, 8.98352, 15.5, 31.6478, 12.8366, -44.5695, -8.70661
8.7268, 5, 8.9762, 15.5014, 31.6525, 12.8227, -44.5832, -8.69626
8.73574, 5, 8.96146, 15.5044, 31.6621, 12.7947, -44.6113, -8.67541
8.7438, 5, 8.94673, 15.5076, 31.6715, 12.7671, -44.6397, -8.65439
8.75175, 5, 8.93207, 15.5108, 31.6808, 12.7399, -44.6678, -8.63375
8.75974, 5, 8.91743, 15.514, 31.6903, 12.713, -44.6955, -8.61337
8.76782, 5, 8.90278, 15.5172, 31.6996, 12.6859, -44.7232, -8.59318
8.77575, 5, 8.88801, 15.5204, 31.7089, 12.6581, -44.7512, -8.57324
8.78474, 5, 8.87318, 15.5235, 31.7184, 12.6306, -44.7798, -8.55321
8.79181, 5, 8.85846, 15.5267, 31.7277, 12.6035, -44.808, -8.53306
8.79974, 5, 8.8437, 15.5299, 31.7371, 12.5767, -44.8358, -8.51267
8.80773, 5, 8.82904, 15.533, 31.7466, 12.5498, -44.8633, -8.49197
8.81575, 5, 8.81434, 15.5362, 31.7561, 12.5224, -44.8912, -8.47112
8.82379, 5, 8.79961, 15.5394, 31.7656, 12.4949, -44.9198, -8.45038
8.83184, 5, 8.78497, 15.5426, 31.775, 12.468, -44.9482, -8.43003
8.83974, 5, 8.77033, 15.5458, 31.7843, 12.4415, -44.9763, -8.40986
8.84775, 5, 8.75568, 15.549, 31.7936, 12.415, -45.0041, -8.38985
8.85579, 5, 8.74097, 15.5521, 31.803, 12.388, -45.0322, -8.36996
8.86373, 5, 8.72607, 15.5552, 31.8122, 12.3606, -45.0608, -8.35007
8.87174, 5, 8.71123, 15.5582, 31.8213, 12.3335, -45.0893, -8.32991
8.87979, 5, 8.69646, 15.5613, 31.8306, 12.3069, -45.1173, -8.30944
8.88774, 5, 8.68166, 15.5645, 31.8398, 12.2805, -45.1451, -8.28878
8.89577, 5, 8.66695, 15.5678, 31.849, 12.2538, -45.1729, -8.26818
8.9038, 5, 8.65221, 15.5711, 31.8583, 12.2266, -45.2015, -8.24787
8.91173, 5, 8.63749, 15.5745, 31.8676, 12.1995, -45.2302, -8.22788
8.91974, 5, 8.62282, 15.5779, 31.8768, 12.1728, -45.2583, -8.20804
8.92781, 5, 8.60809, 15.5813, 31.8861, 12.1465, -45.2862, -8.1882
8.93575, 5, 8.59337, 15.5848, 31.8953, 12.1201, -45.3141, -8.16846
8.94379, 5, 8.5785, 15.5882, 31.9044, 12.0931, -45.3424, -8.14851
8.95175, 5, 8.56357, 15.5916, 31.9137, 12.0659, -45.371, -8.12817
8.95973, 5, 8.54874, 15.5951, 31.9228, 12.0392, -45.399, -8.10765
8.96809, 5, 8.53393, 15.5985, 31.9319, 12.0128, -45.4268, -8.08724
8.97521, 5, 8.51916, 15.602, 31.941, 11.9865, -45.4544, -8.06726
8.98336, 5, 8.50442, 15.6055, 31.9501, 11.9597, -45.4827, -8.04751
8.99212, 5, 8.48962, 15.609, 31.9592, 11.9325, -45.5114, -8.02798
8.9993, 5, 8.47486, 15.6125, 31.9684, 11.9054, -45.5397, -8.00858
9.0079, 5, 8.46018, 15.6159, 31.9776, 11.879, -45.5677, -7.98916
9.01631, 5, 8.44548, 15.6192, 31.9867, 11.8528, -45.5955, -7.9696
9.02272, 5, 8.43811, 15.6209, 31.9912, 11.8398, -45.6096, -7.95969
9.03177, 5, 8.41583, 15.6259, 32.0048, 11.7998, -45.6525, -7.92972
9.04066, 5, 8.40099, 15.6294, 32.0137, 11.7729, -45.6808, -7.90956
9.04786, 5, 8.38618, 15.633, 32.0228, 11.7465, -45.7087, -7.88978
9.05585, 5, 8.37135, 15.6366, 32.0317, 11.7204, -45.7365, -7.87015
9.06476, 5, 8.35661, 15.6402, 32.0406, 11.6944, -45.7646, -7.85076
9.07196, 5, 8.34179, 15.6439, 32.0496, 11.6679, -45.7934, -7.83156
9.08008, 5, 8.32695, 15.6476, 32.0586, 11.6411, -45.8219, -7.81249
9.08671, 5, 8.31957, 15.6494, 32.063, 11.6278, -45.836, -7.80296
9.09476, 5, 8.30489, 15.653, 32.072, 11.6016, -45.864, -7.78368
9.10436, 5, 8.28288, 15.6584, 32.0856, 11.563, -45.9061, -7.75411
9.11307, 5, 8.26811, 15.662, 32.0947, 11.5373, -45.9349, -7.73408
9.12026, 5, 8.25324, 15.6657, 32.1038, 11.5109, -45.9634, -7.71429
9.12833, 5, 8.23844, 15.6694, 32.1127, 11.4843, -45.9915, -7.69478
9.13712, 5, 8.23108, 15.673, 32.1215, 11.4583, -46.0192, -7.67555
9.14278, 5, 8.21633, 15.6748, 32.1259, 11.4453, -46.0331, -7.66603
9.15272, 5, 8.1943, 15.68, 32.1392, 11.4066, -46.0759, -7.63773
9.15972, 5, 8.18692, 15.6817, 32.1436, 11.3936, -46.0903, -7.6283
9.16679, 5, 8.17211, 15.6852, 32.1524, 11.3671, -46.1187, -7.60955
9.17679, 5, 8.14994, 15.6905, 32.1657, 11.3276, -46.1608, -7.58102
9.18373, 5, 8.14255, 15.6923, 32.1701, 11.3147, -46.1748, -7.5713
9.19075, 5, 8.12774, 15.696, 32.1788, 11.2891, -46.2029, -7.55172
9.19972, 5, 8.11285, 15.6997, 32.1876, 11.2635, -46.2316, -7.5323
9.20771, 5, 8.0978, 15.7035, 32.1964, 11.2375, -46.2599, -7.51321
9.21472, 5, 8.0828, 15.7073, 32.2052, 11.211, -46.2879, -7.49441
9.22372, 5, 8.06787, 15.7111, 32.2142, 11.1849, -46.3156, -7.47572
9.23175, 5, 8.05303, 15.7149, 32.223, 11.1591, -46.3436, -7.45703
9.23871, 5, 8.03824, 15.7187, 32.2317, 11.1334, -46.3723, -7.4385
9.24772, 5, 8.02336, 15.7226, 32.2403, 11.1077, -46.401, -7.41975
9.25572, 5, 8.00855, 15.7264, 32.2491, 11.0814, -46.4292, -7.40064
9.26378, 5, 7.99384, 15.7304, 32.2577, 11.055, -46.4573, -7.38137
9.27174, 5, 7.9791, 15.7342, 32.2664, 11.0292, -46.4854, -7.36199
9.27973, 5, 7.96435, 15.738, 32.2752, 11.0037, -46.5142, -7.34264
9.28778, 5, 7.94945, 15.7417, 32.2838, 10.9783, -46.5429, -7.32361
9.29572, 5, 7.9345, 15.7454, 32.2925, 10.9526, -46.5711, -7.30484
9.30374, 5, 7.91968, 15.7492, 32.3012, 10.9263, -46.5991, -7.28626
9.31174, 5, 7.90483, 15.7529, 32.3099, 10.9002, -46.6271, -7.26759
9.31973, 5, 7.89005, 15.7567, 32.3185, 10.8746, -46.6557, -7.24919
9.32778, 5, 7.87527, 15.7606, 32.3273, 10.8493, -46.6845, -7.23058
9.33576, 5, 7.86042, 15.7646, 32.3358, 10.824, -46.713, -7.2118
9.34367, 5, 7.84566, 15.7685, 32.3442, 10.7982, -46.7411, -7.19266
9.35177, 5, 7.83096, 15.7725, 32.3526, 10.7722, -46.7692, -7.1736
9.35982, 5, 7.81622, 15.7764, 32.3611, 10.7467, -46.7978, -7.15446
9.36772, 5, 7.80147, 15.7803, 32.3696, 10.7216, -46.8267, -7.13559
9.37579, 5, 7.78652, 15.7843, 32.3781, 10.6967, -46.8549, -7.11696
9.38371, 5, 7.77156, 15.7884, 32.3867, 10.6716, -46.8829, -7.09844
9.39172, 5, 7.75665, 15.7924, 32.3951, 10.6458, -46.9108, -7.08005
9.39981, 5, 7.74173, 15.7964, 32.4036, 10.6201, -46.9392, -7.06166
9.40771, 5, 7.72688, 15.8003, 32.4121, 10.5948, -46.9682, -7.04316
9.41573, 5, 7.71199, 15.8041, 32.4207, 10.5699, -46.9967, -7.02456
9.42378, 5, 7.69709, 15.8079, 32.4293, 10.5451, -47.0249, -7.00563
9.43172, 5, 7.68226, 15.8118, 32.4379, 10.5197, -47.053, -6.9866
9.43978, 5, 7.66737, 15.8157, 32.4464, 10.494, -47.0814, -6.96769
9.44774, 5, 7.65246, 15.8198, 32.4547, 10.4685, -47.1103, -6.94917
9.45572, 5, 7.63747, 15.8239, 32.463, 10.4433, -47.1387, -6.93083
9.46398, 5, 7.62246, 15.8281, 32.4714, 10.4185, -47.1668, -6.91261
9.47182, 5, 7.60759, 15.8322, 32.4797, 10.3935, -47.1947, -6.89447
9.4798, 5, 7.59274, 15.8364, 32.488, 10.3681, -47.2229, -6.87634
9.48873, 5, 7.57793, 15.8405, 32.4963, 10.3424, -47.2518, -6.85822
9.49581, 5, 7.56307, 15.8448, 32.5045, 10.317, -47.2805, -6.83985
9.50386, 5, 7.54807, 15.8491, 32.5128, 10.292, -47.3087, -6.82133
9.51266, 5, 7.53313, 15.8534, 32.521, 10.2672, -47.3368, -6.80261
9.5198, 5, 7.51824, 15.8576, 32.5295, 10.2422, -47.3651, -6.78404
9.52792, 5, 7.50332, 15.8618, 32.5378, 10.2167, -47.3942, -6.76582
9.53663, 5, 7.48834, 15.866, 32.5463, 10.191, -47.423, -6.74772
9.54375, 5, 7.47321, 15.8701, 32.5546, 10.1658, -47.4513, -6.72985
9.55211, 5, 7.45818, 15.8743, 32.5627, 10.1411, -47.4794, -6.712
9.55869, 5, 7.45071, 15.8763, 32.5668, 10.1288, -47.4934, -6.7031
9.56679, 5, 7.43574, 15.8805, 32.575, 10.1041, -47.5221, -6.68528
9.57633, 5, 7.41345, 15.887, 32.5873, 10.0662, -47.5657, -6.65829
9.58487, 5, 7.39862, 15.8913, 32.5955, 10.0409, -47.5942, -6.63986
9.59208, 5, 7.38375, 15.8956, 32.6038, 10.0161, -47.6225, -6.62142
9.5987, 5, 7.37638, 15.8977, 32.6078, 10.0038, -47.6366, -6.61226
9.60822, 5, 7.3542, 15.9041, 32.6199, 9.96696, -47.6799, -6.58496
9.61474, 5, 7.34679, 15.9062, 32.624, 9.95451, -47.6945, -6.5759
9.62451, 5, 7.32436, 15.9128, 32.6363, 9.91659, -47.7374, -6.54921
9.63231, 5, 7.3093, 15.9171, 32.6445, 9.89156, -47.7656, -6.53169
9.64027, 5, 7.30182, 15.9193, 32.6486, 9.8671, -47.7938, -6.51405
9.64845, 5, 7.28688, 15.9235, 32.661, 9.84287, -47.8228, -6.49643
9.6557, 5, 7.27191, 15.9277, 32.665, 9.83086, -47.8374, -6.48761
9.66375, 5, 7.25705, 15.932, 32.673, 9.80646, -47.8663, -6.46984
9.67175, 5, 7.24207, 15.9363, 32.6809, 9.78147, -47.8947, -6.45181
9.6798, 5, 7.22716, 15.9406, 32.6889, 9.75649, -47.923, -6.43373
9.68776, 5, 7.21232, 15.9449, 32.6969, 9.73192, -47.9515, -6.41572
9.6957, 5, 7.19743, 15.9494, 32.7049, 9.70765, -47.9806, -6.39812
9.70371, 5, 7.18252, 15.9539, 32.713, 9.68342, -48.0092, -6.38073
9.71175, 5, 7.1675, 15.9582, 32.721, 9.65884, -48.0375, -6.36328
9.7197, 5, 7.15242, 15.9627, 32.7288, 9.63393, -48.0656, -6.34598
9.72769, 5, 7.1374, 15.9671, 32.7368, 9.60909, -48.0941, -6.3286
9.73578, 5, 7.12241, 15.9717, 32.7448, 9.58477, -48.1231, -6.31111
9.74378, 5, 7.10751, 15.9763, 32.753, 9.56067, -48.1521, -6.29342
9.75169, 5, 7.09263, 15.9809, 32.7611, 9.53661, -48.1805, -6.27551
9.75871, 5, 7.07763, 15.9854, 32.7692, 9.51215, -48.2088, -6.25748
9.76771, 5, 7.06275, 15.9899, 32.7772, 9.48718, -48.2373, -6.23944
9.77572, 5, 7.04786, 15.9943, 32.7849, 9.46244, -48.2664, -6.22166
9.78573, 5, 7.02552, 16.001, 32.7967, 9.42592, -48.3097, -6.19541
9.7917, 5, 7.01805, 16.0033, 32.8007, 9.41386, -48.3239, -6.1868
9.79969, 5, 7.00299, 16.0079, 32.8085, 9.38969, -48.3522, -6.1696
9.80768, 5, 6.98796, 16.0125, 32.8163, 9.3651, -48.3806, -6.15238
9.8157, 5, 6.97297, 16.0171, 32.8242, 9.34013, -48.4097, -6.13523
9.82378, 5, 6.95804, 16.0216, 32.8319, 9.3156, -48.4389, -6.1179
9.83169, 5, 6.94319, 16.0262, 32.8395, 9.29139, -48.4676, -6.10047
9.83975, 5, 6.92825, 16.0308, 32.8472, 9.26748, -48.4961, -6.0826
9.84776, 5, 6.91329, 16.0354, 32.8551, 9.24364, -48.5247, -6.06481
9.85569, 5, 6.89841, 16.0401, 32.863, 9.21919, -48.5538, -6.04702
9.86372, 5, 6.88349, 16.0447, 32.8709, 9.19452, -48.5828, -6.02944
9.87176, 5, 6.86857, 16.0493, 32.8788, 9.17015, -48.6114, -6.01218
9.87968, 5, 6.85352, 16.0538, 32.8866, 9.1462, -48.6396, -5.9949
9.8877, 5, 6.83838, 16.0584, 32.8942, 9.12244, -48.6681, -5.97781
9.89576, 5, 6.82336, 16.0631, 32.9018, 9.09865, -48.6972, -5.96059
9.90375, 5, 6.80836, 16.0677, 32.9095, 9.07444, -48.7265, -5.94343
9.91171, 5, 6.7934, 16.0725, 32.9172, 9.04996, -48.7551, -5.92618
9.91976, 5, 6.77847, 16.0772, 32.9249, 9.02585, -48.7836, -5.90882
9.9277, 5, 6.76347, 16.0819, 32.9326, 9.00222, -48.8121, -5.89102
9.9357, 5, 6.74858, 16.0865, 32.9402, 8.97869, -48.8413, -5.87329
9.9438, 5, 6.73369, 16.0912, 32.9477, 8.95523, -48.8704, -5.85582
9.95169, 5, 6.7188, 16.0961, 32.9553, 8.93114, -48.8989, -5.83858
9.95982, 5, 6.70382, 16.1009, 32.9629, 8.9068, -48.9273, -5.8218
9.96769, 5, 6.6887, 16.1057, 32.9707, 8.88278, -48.9557, -5.80497
9.97573, 5, 6.67366, 16.1105, 32.9785, 8.85913, -48.9847, -5.78813
9.98394, 5, 6.65865, 16.1152, 32.9862, 8.83567, -49.0141, -5.77153
9.99179, 5, 6.64367, 16.12, 32.9939, 8.81219, -49.0429, -5.75472
9.99981, 5, 6.62873, 16.1248, 33.0014, 8.78825, -49.0714, -5.73795
10.0082, 5, 6.61372, 16.1296, 33.0087, 8.76406, -49.1, -5.72075
10.0153, 5, 6.6062, 16.1345, 33.0161, 8.74011, -49.1292, -5.70347
10.0238, 5, 6.58375, 16.1394, 33.0236, 8.71651, -49.1585, -5.68613
10.0319, 5, 6.56877, 16.1442, 33.0311, 8.69314, -49.1872, -5.66892
10.0397, 5, 6.5538, 16.1489, 33.0386, 8.66981, -49.2156, -5.65215
10.0477, 5, 6.53872, 16.1537, 33.0461, 8.64608, -49.244, -5.63542
10.0559, 5, 6.52359, 16.1586, 33.0535, 8.62195, -49.273, -5.619
10.0638, 5, 6.50858, 16.1635, 33.0608, 8.59801, -49.3024, -5.60258
10.072, 5, 6.49358, 16.1683, 33.0682, 8.57436, -49.3312, -5.5861
10.0787, 5, 6.48612, 16.1708, 33.072, 8.56265, -49.3455, -5.57789
10.088, 5, 6.46371, 16.178, 33.0834, 8.52762, -49.3884, -5.55315
10.0961, 5, 6.44865, 16.1829, 33.0909, 8.50388, -49.4175, -5.53643
10.1027, 5, 6.44118, 16.1854, 33.0947, 8.49181, -49.4322, -5.52794
10.1122, 5, 6.41881, 16.193, 33.1061, 8.45579, -49.4755, -5.50233
10.1203, 5, 6.40388, 16.1981, 33.1134, 8.43228, -49.5039, -5.48551
10.1283, 5, 6.3889, 16.2031, 33.1207, 8.40907, -49.5322, -5.46893
10.1363, 5, 6.37374, 16.2081, 33.128, 8.38593, -49.5612, -5.45255
10.1443, 5, 6.36614, 16.2131, 33.1354, 8.36239, -49.5906, -5.43609
10.1522, 5, 6.35108, 16.2156, 33.139, 8.35046, -49.6051, -5.42797
10.1597, 5, 6.33602, 16.2208, 33.1463, 8.3266, -49.6337, -5.41186
10.1677, 5, 6.321, 16.2259, 33.1536, 8.30305, -49.6622, -5.39551
10.1757, 5, 6.30602, 16.231, 33.1608, 8.27977, -49.6907, -5.37928
10.1837, 5, 6.29094, 16.2361, 33.168, 8.25678, -49.72, -5.36287
10.1917, 5, 6.27592, 16.2411, 33.1751, 8.23362, -49.749, -5.3464
10.1997, 5, 6.2609, 16.2462, 33.1823, 8.21007, -49.7775, -5.32969
10.2077, 5, 6.24587, 16.2514, 33.1896, 8.1863, -49.8059, -5.31287
10.2157, 5, 6.23075, 16.2566, 33.197, 8.1629, -49.8344, -5.29638
10.2237, 5, 6.21542, 16.2618, 33.2043, 8.13995, -49.8636, -5.28021
10.2317, 5, 6.2002, 16.267, 33.2117, 8.11717, -49.8928, -5.26416
10.2397, 5, 6.18501, 16.272, 33.2189, 8.09446, -49.9217, -5.24835
10.2477, 5, 6.16999, 16.2771, 33.226, 8.07127, -49.9502, -5.23236
10.2557, 5, 6.15498, 16.2823, 33.2331, 8.04766, -49.9789, -5.2164
10.2637, 5, 6.1398, 16.2875, 33.2402, 8.02428, -50.0082, -5.20039
10.2717, 5, 6.12475, 16.2926, 33.2474, 8.00127, -50.0374, -5.18418
10.2812, 5, 6.10978, 16.2977, 33.2546, 7.97847, -50.0662, -5.16763
10.2878, 5, 6.09475, 16.3028, 33.2617, 7.95575, -50.0947, -5.15084
10.2957, 5, 6.0797, 16.308, 33.2689, 7.93261, -50.1232, -5.13417
10.3038, 5, 6.06451, 16.3132, 33.276, 7.9091, -50.1525, -5.1175
10.3117, 5, 6.04934, 16.3186, 33.2829, 7.88564, -50.1818, -5.10117
10.3197, 5, 6.03429, 16.3239, 33.2899, 7.86268, -50.2107, -5.08508
10.3277, 5, 6.01922, 16.3292, 33.297, 7.84002, -50.2393, -5.06923
10.3357, 5, 6.00425, 16.3344, 33.3042, 7.81745, -50.2681, -5.05341
10.3438, 5, 5.9892, 16.3396, 33.3113, 7.79463, -50.2973, -5.03756
10.3517, 5, 5.9741, 16.345, 33.3184, 7.77136, -50.3267, -5.02175
10.3597, 5, 5.95907, 16.3504, 33.3255, 7.74796, -50.3555, -5.00588
10.3678, 5, 5.94405, 16.3557, 33.3325, 7.72484, -50.384, -4.98981
10.3757, 5, 5.92908, 16.361, 33.3393, 7.70203, -50.4126, -4.97365
10.3837, 5, 5.91395, 16.3663, 33.3461, 7.67933, -50.4419, -4.95712
10.3918, 5, 5.89869, 16.3716, 33.353, 7.65656, -50.4714, -4.94066
10.3997, 5, 5.88353, 16.377, 33.36, 7.63326, -50.5003, -4.92445
10.4077, 5, 5.86838, 16.3825, 33.3669, 7.60985, -50.5291, -4.90837
10.4158, 5, 5.85327, 16.388, 33.3738, 7.58682, -50.5577, -4.89269
10.4237, 5, 5.8382, 16.3934, 33.3807, 7.56415, -50.587, -4.87688
10.4317, 5, 5.8231, 16.3987, 33.3875, 7.54173, -50.6163, -4.86114
10.4398, 5, 5.80807, 16.4041, 33.3942, 7.51926, -50.6451, -4.84567
10.4477, 5, 5.79302, 16.4095, 33.401, 7.49639, -50.6736, -4.82987
10.4558, 5, 5.77794, 16.415, 33.408, 7.47314, -50.7021, -4.81423
10.4637, 5, 5.76281, 16.4203, 33.415, 7.45008, -50.7312, -4.79815
10.4717, 5, 5.74751, 16.4256, 33.4219, 7.42734, -50.7607, -4.78206
10.4805, 5, 5.73222, 16.431, 33.4289, 7.40486, -50.7897, -4.76583
10.488, 5, 5.71703, 16.4364, 33.4359, 7.38256, -50.8183, -4.74966
10.4958, 5, 5.70184, 16.442, 33.4427, 7.35996, -50.8471, -4.73383
10.5046, 5, 5.6867, 16.4476, 33.4494, 7.337, -50.8763, -4.71809
10.5122, 5, 5.67148, 16.4531, 33.4561, 7.31397, -50.9059, -4.70272
10.5198, 5, 5.65629, 16.4586, 33.4628, 7.2915, -50.9348, -4.68749
10.5286, 5, 5.64119, 16.4642, 33.4696, 7.26935, -50.9635, -4.67202
10.5363, 5, 5.62612, 16.4698, 33.4762, 7.24732, -50.9921, -4.65681
10.5439, 5, 5.61095, 16.4754, 33.4829, 7.22527, -51.0213, -4.64145
10.5526, 5, 5.5957, 16.4809, 33.4896, 7.20261, -51.0509, -4.62602
10.5606, 5, 5.58043, 16.4864, 33.4962, 7.17974, -51.08, -4.61031
10.5679, 5, 5.56529, 16.4919, 33.5027, 7.15714, -51.1089, -4.59441
10.5768, 5, 5.55007, 16.4975, 33.5093, 7.1349, -51.1377, -4.57844
10.5847, 5, 5.53499, 16.5032, 33.5159, 7.11289, -51.167, -4.56262
10.5924, 5, 5.51988, 16.5088, 33.5227, 7.09091, -51.1966, -4.54677
10.6001, 5, 5.50469, 16.5144, 33.5295, 7.0686, -51.2256, -4.53142
10.6089, 5, 5.48963, 16.52, 33.5362, 7.04584, -51.2543, -4.51617
10.6163, 5, 5.47453, 16.5256, 33.5429, 7.02313, -51.2829, -4.50104
10.6242, 5, 5.45944, 16.5312, 33.5496, 7.00082, -51.3122, -4.48615
10.6307, 5, 5.45189, 16.534, 33.5529, 6.98972, -51.3271, -4.47856
10.6405, 5, 5.42898, 16.5424, 33.5625, 6.95677, -51.371, -4.45579
10.6482, 5, 5.42138, 16.5452, 33.5658, 6.94574, -51.3999, -4.44048
10.6547, 5, 5.40623, 16.5507, 33.5723, 6.92335, -51.4142, -4.4327
10.6647, 5, 5.38355, 16.5592, 33.5822, 6.88925, -51.4578, -4.40929
10.6717, 5, 5.37602, 16.5622, 33.5855, 6.87797, -51.4725, -4.4014
10.6787, 5, 5.3609, 16.568, 33.592, 6.85564, -51.5016, -4.38572
10.689, 5, 5.33829, 16.5767, 33.6018, 6.82271, -51.5446, -4.36268
10.6957, 5, 5.33078, 16.5796, 33.605, 6.81177, -51.5589, -4.35518
10.7027, 5, 5.3157, 16.5854, 33.6114, 6.78961, -51.5878, -4.34031
10.7117, 5, 5.30063, 16.5912, 33.6177, 6.76697, -51.6174, -4.32534
10.7197, 5, 5.28542, 16.5971, 33.6241, 6.74416, -51.6468, -4.31039
10.7277, 5, 5.27012, 16.6029, 33.6307, 6.7218, -51.6757, -4.29562
10.7357, 5, 5.25492, 16.6087, 33.6372, 6.69978, -51.7046, -4.28083
10.7437, 5, 5.23975, 16.6145, 33.6438, 6.67805, -51.7336, -4.26588
10.7517, 5, 5.22465, 16.6204, 33.6502, 6.65629, -51.7633, -4.25075
10.7587, 5, 5.20957, 16.6263, 33.6567, 6.63416, -51.7927, -4.23546
10.7677, 5, 5.19438, 16.6323, 33.6632, 6.6117, -51.8216, -4.22009
10.7757, 5, 5.17929, 16.6382, 33.6695, 6.58938, -51.8502, -4.20476
10.7856, 5, 5.16425, 16.6441, 33.6757, 6.5674, -51.8939, -4.18184
10.7916, 5, 5.14921, 16.6499, 33.682, 6.54563, -51.9089, -4.17435
10.7997, 5, 5.13404, 16.6558, 33.6883, 6.52395, -51.9383, -4.15954
10.8077, 5, 5.11877, 16.6617, 33.6945, 6.50207, -51.9674, -4.14494
10.8157, 5, 5.1036, 16.6675, 33.7008, 6.47981, -51.9964, -4.13035
10.8237, 5, 5.08842, 16.6733, 33.707, 6.45737, -52.0255, -4.1158
10.8317, 5, 5.07327, 16.6792, 33.7133, 6.43537, -52.0553, -4.10121
10.8397, 5, 5.05817, 16.6852, 33.7194, 6.41369, -52.0847, -4.08653
10.8477, 5, 5.04295, 16.6913, 33.7255, 6.39232, -52.1136, -4.07168
10.8557, 5, 5.0278, 16.6973, 33.7317, 6.37099, -52.1422, -4.0566
10.8637, 5, 5.01272, 16.7032, 33.7379, 6.34926, -52.1712, -4.0413
10.8717, 5, 4.99766, 16.7093, 33.7443, 6.32714, -52.2009, -4.02585
10.8796, 5, 4.98259, 16.7154, 33.7507, 6.30503, -52.2302, -4.0106
10.8877, 5, 4.96732, 16.7215, 33.757, 6.28332, -52.2591, -3.99555
10.8957, 5, 4.95203, 16.7275, 33.7633, 6.26179, -52.2879, -3.98063
10.9037, 5, 4.93684, 16.7335, 33.7696, 6.24042, -52.3169, -3.96605
10.9118, 5, 4.92161, 16.7395, 33.7758, 6.21893, -52.3465, -3.9515
10.9197, 5, 4.90644, 16.7456, 33.7819, 6.19702, -52.3758, -3.93706
10.9277, 5, 4.89124, 16.7518, 33.788, 6.17493, -52.4045, -3.9228
10.9357, 5, 4.87605, 16.758, 33.794, 6.15303, -52.4332, -3.90822
10.9436, 5, 4.86094, 16.7641, 33.8001, 6.13154, -52.4622, -3.89366
10.9517, 5, 4.84578, 16.7702, 33.8062, 6.11032, -52.4919, -3.87888
10.9597, 5, 4.8306, 16.7763, 33.8122, 6.08909, -52.5213, -3.86397
10.9677, 5, 4.81532, 16.7824, 33.8182, 6.06761, -52.5503, -3.84883
10.9758, 5, 4.8, 16.7884, 33.8242, 6.04562, -52.5792, -3.83375
10.9837, 5, 4.7848, 16.7944, 33.8302, 6.02357, -52.6083, -3.81885
10.9918, 5, 4.76965, 16.8004, 33.8361, 6.00179, -52.6381, -3.80422
10.9998, 5, 4.75455, 16.8066, 33.8419, 5.98031, -52.6675, -3.78971
11.0078, 5, 4.7394, 16.8128, 33.8479, 5.95902, -52.6964, -3.77541
11.0158, 5, 4.72417, 16.8191, 33.854, 5.93763, -52.7252, -3.76108
11.0238, 5, 4.70898, 16.8252, 33.8601, 5.91595, -52.7543, -3.74667
11.0317, 5, 4.69378, 16.8314, 33.8661, 5.89398, -52.7842, -3.73233
11.0397, 5, 4.67856, 16.8377, 33.8721, 5.87207, -52.8137, -3.71801
11.0478, 5, 4.66327, 16.844, 33.8781, 5.85052, -52.8428, -3.70353
11.0557, 5, 4.64786, 16.8502, 33.8841, 5.82929, -52.8717, -3.68889
11.0638, 5, 4.63258, 16.8563, 33.8899, 5.80832, -52.9011, -3.67402
11.0719, 5, 4.61734, 16.8625, 33.8956, 5.78714, -52.9309, -3.65913
11.0799, 5, 4.60211, 16.8689, 33.9015, 5.7656, -52.9603, -3.6444
11.088, 5, 4.58699, 16.8753, 33.9074, 5.74373, -52.9893, -3.62963
11.0946, 5, 4.57941, 16.8785, 33.9104, 5.73287, -53.0037, -3.62232
11.1041, 5, 4.55675, 16.8879, 33.9192, 5.7009, -53.0473, -3.60086
11.1106, 5, 4.54925, 16.8911, 33.9221, 5.69037, -53.0622, -3.59377
11.1202, 5, 4.52671, 16.9005, 33.9309, 5.65907, -53.1065, -3.57289
11.1282, 5, 4.51163, 16.9069, 33.9367, 5.63794, -53.1356, -3.55901
11.1363, 5, 4.49635, 16.9131, 33.9424, 5.61647, -53.1644, -3.54497
11.1442, 5, 4.48868, 16.9192, 33.9481, 5.59483, -53.1936, -3.53111
11.1522, 5, 4.47343, 16.9224, 33.9509, 5.58413, -53.2084, -3.51693
11.1603, 5, 4.45818, 16.9288, 33.9566, 5.56305, -53.238, -3.50268
11.1677, 5, 4.44297, 16.9353, 33.9624, 5.5422, -53.2669, -3.49551
11.1756, 5, 4.42775, 16.9418, 33.9683, 5.52153, -53.2957, -3.48093
11.1837, 5, 4.41244, 16.9482, 33.9741, 5.50076, -53.3245, -3.46623
11.1916, 5, 4.39718, 16.9547, 33.9799, 5.47955, -53.354, -3.4518
11.1996, 5, 4.38195, 16.9612, 33.9857, 5.45801, -53.3837, -3.43753
11.2077, 5, 4.36671, 16.9678, 33.9914, 5.43666, -53.4129, -3.42329
11.2156, 5, 4.35144, 16.9743, 33.9971, 5.41564, -53.4419, -3.40944
11.2237, 5, 4.33602, 16.9807, 34.0027, 5.39483, -53.4709, -3.39568
11.2316, 5, 4.32069, 16.9873, 34.0082, 5.3742, -53.5005, -3.38198
11.2396, 5, 4.30544, 16.9938, 34.0138, 5.35332, -53.5302, -3.36831
11.2478, 5, 4.29024, 17.0005, 34.0194, 5.3321, -53.5594, -3.35461
11.2556, 5, 4.27507, 17.0071, 34.025, 5.31066, -53.5881, -3.34058
11.2636, 5, 4.25984, 17.0136, 34.0305, 5.28949, -53.6171, -3.32663
11.2706, 5, 4.24463, 17.0201, 34.036, 5.26858, -53.6467, -3.31249
11.2796, 5, 4.22947, 17.0266, 34.0415, 5.24795, -53.6765, -3.29809
11.2892, 5, 4.21433, 17.0331, 34.047, 5.2274, -53.7057, -3.28377
11.2957, 5, 4.19918, 17.0395, 34.0525, 5.20662, -53.7348, -3.26949
11.3036, 5, 4.18383, 17.0458, 34.0579, 5.18545, -53.7637, -3.25538
11.3116, 5, 4.16851, 17.0523, 34.0633, 5.1641, -53.7935, -3.24158
11.3197, 5, 4.15331, 17.059, 34.0689, 5.14297, -53.8231, -3.22794
11.3276, 5, 4.13807, 17.0657, 34.0745, 5.12213, -53.8522, -3.21442
11.3357, 5, 4.12292, 17.0723, 34.0802, 5.10156, -53.8811, -3.20097
11.3436, 5, 4.10775, 17.0789, 34.0858, 5.08089, -53.9101, -3.18743
11.3517, 5, 4.09256, 17.0856, 34.0914, 5.06009, -53.9398, -3.17388
11.3597, 5, 4.07747, 17.0922, 34.097, 5.03879, -53.9696, -3.1604
11.3676, 5, 4.06234, 17.0989, 34.1025, 5.01749, -53.9988, -3.14676
11.3756, 5, 4.04721, 17.1054, 34.1079, 4.9964, -54.0279, -3.13287
11.3837, 5, 4.03193, 17.1121, 34.1132, 4.97568, -54.0569, -3.11894
11.3916, 5, 4.01655, 17.1189, 34.1185, 4.95527, -54.0867, -3.10482
11.3997, 5, 4.00128, 17.1258, 34.1238, 4.93488, -54.1163, -3.09086
11.4077, 5, 3.98603, 17.1325, 34.1292, 4.91422, -54.1453, -3.07706
11.4157, 5, 3.97082, 17.1392, 34.1345, 4.89317, -54.174, -3.06334
11.4236, 5, 3.95559, 17.146, 34.1398, 4.87206, -54.2029, -3.04972
11.4317, 5, 3.94035, 17.1528, 34.1451, 4.85131, -54.2324, -3.03643
11.4396, 5, 3.92519, 17.1595, 34.1503, 4.83071, -54.262, -3.02315
11.4476, 5, 3.91, 17.166, 34.1556, 4.81036, -54.2912, -3.00995
11.4557, 5, 3.8948, 17.1727, 34.1608, 4.79005, -54.3201, -2.99684
11.4636, 5, 3.87949, 17.1795, 34.166, 4.7694, -54.3492, -2.98341
11.4718, 5, 3.86406, 17.1864, 34.1712, 4.74853, -54.379, -2.96997
11.4799, 5, 3.84867, 17.1933, 34.1763, 4.72754, -54.4086, -2.95641
11.4877, 5, 3.83332, 17.2001, 34.1816, 4.70696, -54.4377, -2.9427
11.4965, 5, 3.818, 17.207, 34.1869, 4.68672, -54.4666, -2.9288
11.504, 5, 3.80276, 17.2139, 34.1921, 4.66667, -54.4956, -2.91479
11.5115, 5, 3.78739, 17.2207, 34.1974, 4.64668, -54.5253, -2.90072
11.5206, 5, 3.77213, 17.2275, 34.2027, 4.62641, -54.555, -2.88685
11.528, 5, 3.7569, 17.2343, 34.208, 4.60568, -54.5842, -2.87334
11.5356, 5, 3.74167, 17.2411, 34.2132, 4.58487, -54.6133, -2.85985
11.5438, 5, 3.72641, 17.2481, 34.2184, 4.56433, -54.6425, -2.84676
11.5525, 5, 3.71103, 17.2551, 34.2234, 4.54408, -54.6723, -2.83352
11.5599, 5, 3.69572, 17.2619, 34.2285, 4.52398, -54.7019, -2.82035
11.5699, 5, 3.68048, 17.2689, 34.2335, 4.50391, -54.7309, -2.80737
11.5766, 5, 3.66523, 17.2758, 34.2386, 4.4835, -54.7597, -2.7943
11.584, 5, 3.65008, 17.2826, 34.2438, 4.46272, -54.7887, -2.78099
11.5927, 5, 3.63483, 17.2893, 34.2489, 4.44188, -54.8185, -2.76751
11.6001, 5, 3.61958, 17.2961, 34.2539, 4.42143, -54.8482, -2.75385
11.6066, 5, 3.612, 17.2995, 34.2564, 4.41133, -54.8627, -2.74702
11.6169, 5, 3.58927, 17.3101, 34.2639, 4.38137, -54.9063, -2.72653
11.6242, 5, 3.57407, 17.3171, 34.2689, 4.36146, -54.9354, -2.71293
11.6322, 5, 3.55876, 17.324, 34.2738, 4.3413, -54.9652, -2.6993
11.6411, 5, 3.54338, 17.3311, 34.2787, 4.32071, -54.9947, -2.68596
11.6484, 5, 3.52805, 17.3383, 34.2836, 4.29999, -55.0237, -2.67285
11.6565, 5, 3.52038, 17.3418, 34.286, 4.28971, -55.0381, -2.65982
11.6636, 5, 3.50516, 17.3488, 34.291, 4.26931, -55.067, -2.65334
11.6717, 5, 3.49003, 17.3557, 34.296, 4.24918, -55.0965, -2.64037
11.6797, 5, 3.47475, 17.3628, 34.3011, 4.2292, -55.1265, -2.62728
11.6877, 5, 3.45959, 17.37, 34.3061, 4.20912, -55.1559, -2.61427
11.6957, 5, 3.44441, 17.3772, 34.3111, 4.18874, -55.185, -2.60125
11.7037, 5, 3.4292, 17.3842, 34.3161, 4.1681, -55.2142, -2.58797
11.7116, 5, 3.41396, 17.3913, 34.3211, 4.14753, -55.2438, -2.5746
11.7197, 5, 3.39855, 17.3985, 34.326, 4.12728, -55.2737, -2.56101
11.7276, 5, 3.38317, 17.4055, 34.3308, 4.10726, -55.303, -2.54729
11.7356, 5, 3.36782, 17.4125, 34.3356, 4.08751, -55.332, -2.53388
11.7437, 5, 3.35254, 17.4195, 34.3403, 4.06773, -55.361, -2.52057
11.7516, 5, 3.33735, 17.4267, 34.345, 4.04759, -55.3906, -2.50736
11.7596, 5, 3.32204, 17.4339, 34.3497, 4.0271, -55.4206, -2.49418
11.7677, 5, 3.30671, 17.4412, 34.3545, 4.00665, -55.45, -2.48142
11.7756, 5, 3.29147, 17.4483, 34.3592, 3.98644, -55.4792, -2.46858
11.7837, 5, 3.2762, 17.4556, 34.3639, 3.96647, -55.5084, -2.45596
11.7933, 5, 3.26091, 17.463, 34.3686, 3.94674, -55.5382, -2.43715
11.7996, 5, 3.24552, 17.4702, 34.3733, 3.92703, -55.5681, -2.43086
11.8077, 5, 3.2301, 17.4773, 34.3779, 3.90705, -55.5973, -2.41811
11.8156, 5, 3.21474, 17.4845, 34.3826, 3.88681, -55.6264, -2.40535
11.8236, 5, 3.19939, 17.4919, 34.3872, 3.86647, -55.6555, -2.39258
11.8318, 5, 3.18414, 17.4993, 34.3918, 3.84645, -55.6853, -2.3796
11.8396, 5, 3.16887, 17.5065, 34.3964, 3.82681, -55.7151, -2.36633
11.8476, 5, 3.15356, 17.5138, 34.4011, 3.80732, -55.7444, -2.35303
11.8557, 5, 3.13836, 17.5211, 34.4058, 3.78796, -55.7735, -2.33973
11.8636, 5, 3.12318, 17.5283, 34.4106, 3.76833, -55.8027, -2.32677
11.8716, 5, 3.10796, 17.5354, 34.4154, 3.74835, -55.8325, -2.31396
11.8797, 5, 3.0926, 17.5425, 34.4202, 3.72818, -55.8623, -2.30131
11.8876, 5, 3.07714, 17.5498, 34.4249, 3.7081, -55.8914, -2.2887
11.8957, 5, 3.06174, 17.5572, 34.4296, 3.68841, -55.9204, -2.27625
11.9036, 5, 3.04638, 17.5645, 34.4342, 3.6689, -55.9496, -2.26372
11.9116, 5, 3.03107, 17.5719, 34.4388, 3.64959, -55.9795, -2.25142
11.9197, 5, 3.0158, 17.5793, 34.4433, 3.63008, -56.0094, -2.23902
11.9276, 5, 3.00044, 17.5867, 34.4478, 3.61023, -56.0388, -2.22637
11.9356, 5, 2.98518, 17.594, 34.4523, 3.59011, -56.0679, -2.21353
11.9437, 5, 2.96993, 17.6013, 34.4567, 3.56999, -56.0972, -2.20062
11.9516, 5, 2.95466, 17.6086, 34.4612, 3.5503, -56.1272, -2.18754
11.9597, 5, 2.93936, 17.6161, 34.4656, 3.53074, -56.157, -2.17452
11.9677, 5, 2.92391, 17.6236, 34.4701, 3.51142, -56.1861, -2.16159
11.9757, 5, 2.90853, 17.631, 34.4745, 3.492, -56.2151, -2.14889
11.9836, 5, 2.89319, 17.6384, 34.4789, 3.47233, -56.2444, -2.13625
11.9918, 5, 2.87789, 17.6459, 34.4833, 3.45229, -56.2744, -2.12359
