hehonglu123/ABB_Primitive_Study/realrobot/movel_30_car/curve_exe_v300_fine.csv
timestamp, cmd_num, J1, J2, J3, J4, J5, J6
0.000355, -1, -13.4401, 43.6802, 12.5929, -11.628, -87.0286, 7.42441
0.003008, -1, -13.4401, 43.6802, 12.5929, -11.628, -87.0286, 7.42441
0.00812, -1, -13.4401, 43.6802, 12.5929, -11.628, -87.0286, 7.42445
0.028717, -1, -13.44, 43.6802, 12.5929, -11.6279, -87.0286, 7.42443
0.031364, -1, -13.44, 43.6802, 12.5929, -11.628, -87.0286, 7.42443
0.032617, -1, -13.44, 43.6802, 12.5929, -11.628, -87.0286, 7.42443
0.039978, -1, -13.44, 43.6802, 12.5929, -11.628, -87.0286, 7.42448
0.047946, -1, -13.4401, 43.6802, 12.5929, -11.6279, -87.0286, 7.4245
0.056007, -1, -13.4399, 43.6801, 12.5929, -11.6279, -87.0286, 7.42442
0.063923, -1, -13.4386, 43.6792, 12.593, -11.6279, -87.0286, 7.42442
0.071908, -1, -13.4349, 43.6763, 12.5934, -11.6278, -87.0285, 7.42436
0.079977, -1, -13.428, 43.6706, 12.5945, -11.6273, -87.0274, 7.42432
0.087911, -1, -13.4173, 43.6618, 12.5967, -11.6247, -87.0234, 7.42397
0.095929, -1, -13.4013, 43.6487, 12.6003, -11.6166, -87.0136, 7.42101
0.104047, -1, -13.378, 43.6297, 12.6059, -11.6006, -86.9945, 7.41071
0.111911, -1, -13.3466, 43.6035, 12.6143, -11.573, -86.9617, 7.39107
0.120136, -1, -13.3064, 43.5692, 12.6259, -11.5295, -86.9117, 7.35983
0.127266, -1, -13.2562, 43.5255, 12.641, -11.4659, -86.8382, 7.3141
0.135381, -1, -13.1948, 43.4712, 12.6607, -11.3798, -86.7382, 7.25019
0.144195, -1, -13.122, 43.406, 12.6848, -11.2676, -86.6084, 7.16767
0.15143, -1, -13.0375, 43.3296, 12.7134, -11.1293, -86.4475, 7.06518
0.16006, -1, -12.9409, 43.2417, 12.747, -10.9644, -86.2556, 6.94266
0.168369, -1, -12.8325, 43.1429, 12.7851, -10.7748, -86.0345, 6.8014
0.175489, -1, -12.713, 43.034, 12.8272, -10.5626, -85.7873, 6.64296
0.183976, -1, -12.5832, 42.916, 12.8728, -10.3317, -85.5179, 6.47037
0.192596, -1, -12.4438, 42.7896, 12.9217, -10.0862, -85.2311, 6.28693
0.200008, -1, -12.2963, 42.6563, 12.9731, -9.82991, -84.9317, 6.09486
0.20695, -1, -12.22, 42.5875, 12.9996, -9.69874, -84.7784, 5.99655
0.216802, -1, -11.9829, 42.3737, 13.0812, -9.2979, -84.3096, 5.69576
0.224048, -1, -11.8184, 42.2266, 13.1369, -9.02687, -83.9928, 5.49227
0.230943, -1, -11.7347, 42.152, 13.165, -8.89079, -83.8338, 5.39026
0.241133, -1, -11.4797, 41.9254, 13.2502, -8.48123, -83.3548, 5.08353
0.246974, -1, -11.394, 41.8494, 13.2788, -8.34454, -83.1949, 4.98101
0.256337, -1, -11.1362, 41.6211, 13.3645, -7.93398, -82.7145, 4.67328
0.265155, -1, -10.9642, 41.4695, 13.4218, -7.66017, -82.394, 4.46788
0.270977, -1, -10.8781, 41.3938, 13.4506, -7.52329, -82.2336, 4.36512
0.280499, -1, -10.6194, 41.1663, 13.537, -7.11215, -81.7523, 4.0569
0.289264, -1, -10.4468, 41.0146, 13.5947, -6.8381, -81.4317, 3.8515
0.294973, -1, -10.3606, 40.9388, 13.6236, -6.70114, -81.2714, 3.74873
0.304553, -1, -10.1021, 40.7116, 13.7099, -6.29042, -80.7906, 3.4408
0.313306, -1, -10.0161, 40.6359, 13.7385, -6.15353, -80.6307, 3.23541
0.318971, -1, -9.84458, 40.4842, 13.796, -5.87989, -80.3108, 3.13295
0.328931, -1, -9.58837, 40.256, 13.8819, -5.46972, -79.8313, 2.82551
0.335912, -1, -9.5032, 40.1798, 13.9105, -5.33296, -79.6714, 2.72309
0.342979, -1, -9.33354, 40.0278, 13.9678, -5.05958, -79.3518, 2.51834
0.351948, -1, -9.16443, 39.876, 14.0249, -4.78672, -79.0325, 2.31388
0.359891, -1, -8.99558, 39.724, 14.082, -4.51425, -78.7133, 2.10956
0.366916, -1, -8.82655, 39.572, 14.139, -4.24205, -78.3943, 1.90576
0.374897, -1, -8.65728, 39.4204, 14.196, -3.97052, -78.0762, 1.70204
0.383931, -1, -8.48767, 39.2694, 14.2529, -3.69925, -77.7587, 1.49867
0.391281, -1, -8.31785, 39.1189, 14.3098, -3.42822, -77.4415, 1.29558
0.398893, -1, -8.14792, 38.9686, 14.3665, -3.15792, -77.1252, 1.09275
0.407903, -1, -7.97777, 38.8183, 14.4233, -2.88807, -76.8094, 0.890595
0.415678, -1, -7.8076, 38.6684, 14.4799, -2.61864, -76.4941, 0.688889
0.423898, -1, -7.63726, 38.5193, 14.5362, -2.35001, -76.1793, 0.487583
0.431917, -1, -7.46688, 38.3703, 14.5925, -2.08173, -75.8649, 0.286653
0.439681, -1, -7.29669, 38.2214, 14.6487, -1.81383, -75.5514, 0.0861538
0.447902, -1, -7.12717, 38.0725, 14.7049, -1.54655, -75.2386, -0.114135
0.456901, -1, -6.95849, 37.9239, 14.761, -1.28007, -74.9265, -0.313686
0.4629, -1, -6.79085, 37.7758, 14.8168, -1.01421, -74.6154, -0.512567
0.471904, -1, -6.6241, 37.6279, 14.8723, -0.749141, -74.3052, -0.71111
0.479896, -1, -6.45826, 37.4803, 14.9277, -0.485026, -73.9955, -0.909105
0.487983, -1, -6.29378, 37.3329, 14.983, -0.221325, -73.6868, -1.10672
0.495892, -1, -6.13034, 37.186, 15.0382, 0.0417618, -73.379, -1.30358
0.50396, -1, -5.96769, 37.0401, 15.0933, 0.303851, -73.072, -1.49964
0.511911, -1, -5.80558, 36.8947, 15.1482, 0.565058, -72.7662, -1.6951
0.519892, -1, -5.64362, 36.7496, 15.2027, 0.825632, -72.4611, -1.89014
0.527986, -1, -5.48155, 36.6049, 15.2572, 1.08505, -72.1571, -2.08466
0.535907, -1, -5.31954, 36.4607, 15.3116, 1.34377, -71.8542, -2.27848
0.54395, -1, -5.15761, 36.3173, 15.3658, 1.60183, -71.552, -2.47158
0.551986, -1, -4.99581, 36.1743, 15.42, 1.85904, -71.2509, -2.66397
0.559694, -1, -4.83416, 36.0317, 15.4739, 2.11511, -70.951, -2.85592
0.567908, -1, -4.67279, 35.8893, 15.5275, 2.37033, -70.6521, -3.04707
0.57596, -1, -4.51149, 35.7473, 15.5809, 2.62448, -70.3543, -3.23781
0.583901, -1, -4.35026, 35.606, 15.634, 2.87752, -70.0578, -3.42767
0.59189, -1, -4.18948, 35.4653, 15.687, 3.12976, -69.7626, -3.61657
0.59997, -1, -4.02975, 35.3248, 15.7399, 3.3815, -69.4684, -3.80474
0.607954, -1, -3.8713, 35.1849, 15.7926, 3.63209, -69.1749, -3.9922
0.615922, -1, -3.71415, 35.0452, 15.8448, 3.88163, -68.8827, -4.17901
0.623927, -1, -3.55793, 34.9063, 15.8969, 4.13029, -68.5913, -4.36531
0.632604, -1, -3.40268, 34.7682, 15.9487, 4.37805, -68.301, -4.55087
0.639931, -1, -3.24837, 34.6306, 16.0005, 4.62471, -68.0119, -4.73545
0.647994, -1, -3.09513, 34.4935, 16.0522, 4.87054, -67.7239, -4.91934
0.656887, -1, -2.94295, 34.3568, 16.1038, 5.11577, -67.4371, -5.1026
0.663993, -1, -2.79142, 34.2207, 16.155, 5.35978, -67.1516, -5.28513
0.671992, -1, -2.64025, 34.0855, 16.2059, 5.60253, -66.8673, -5.46696
0.680779, -1, -2.48914, 33.951, 16.2567, 5.84439, -66.5844, -5.64826
0.687968, -1, -2.33795, 33.8168, 16.3074, 6.08526, -66.3027, -5.8284
0.695905, -1, -2.18703, 33.6831, 16.3578, 6.325, -66.0217, -6.00808
0.705374, -1, -2.03651, 33.5497, 16.408, 6.56369, -65.7419, -6.18664
0.710935, -1, -1.96144, 33.4833, 16.433, 6.68279, -65.6024, -6.27576
0.720339, -1, -1.7369, 33.2848, 16.5075, 7.03874, -65.1858, -6.54216
0.726879, -1, -1.66216, 33.2189, 16.5322, 7.15669, -65.0474, -6.63061
0.736075, -1, -1.43819, 33.0219, 16.606, 7.50918, -64.6342, -6.89497
0.742944, -1, -1.36363, 32.9563, 16.6306, 7.6263, -64.497, -6.9826
0.753773, -1, -1.14111, 32.7607, 16.704, 7.976, -64.0874, -7.24462
0.76026, -1, -0.994178, 32.6313, 16.7528, 8.20798, -63.8157, -7.41847
0.766874, -1, -0.921196, 32.5669, 16.7771, 8.32364, -63.6803, -7.50511
0.778542, -1, -0.704031, 32.3743, 16.8494, 8.66927, -63.2761, -7.76418
0.784482, -1, -0.560286, 32.2466, 16.8975, 8.89836, -63.0079, -7.93569
0.792484, -1, -0.417634, 32.1194, 16.9454, 9.12632, -62.741, -8.10631
0.801345, -1, -0.276116, 31.9927, 16.9931, 9.35339, -62.4753, -8.27606
0.806876, -1, -0.205715, 31.9297, 17.0169, 9.46662, -62.3427, -8.36067
0.816681, -1, -0.0656787, 31.804, 17.0642, 9.69216, -62.0786, -8.52949
0.825315, -1, 0.0735165, 31.6788, 17.1114, 9.91651, -61.8155, -8.69752
0.830873, -1, 0.212494, 31.5541, 17.1582, 10.1402, -61.5536, -8.86515
0.839878, -1, 0.351435, 31.4297, 17.2048, 10.3629, -61.2926, -9.03184
0.847898, -1, 0.490502, 31.3058, 17.2513, 10.5845, -61.0327, -9.19775
0.854875, -1, 0.629428, 31.1825, 17.2977, 10.8053, -60.7738, -9.3629
0.86387, -1, 0.768049, 31.0598, 17.3438, 11.025, -60.5163, -9.52728
0.87188, -1, 0.906287, 30.9376, 17.3897, 11.244, -60.2599, -9.69127
0.878892, -1, 1.04401, 30.8158, 17.4355, 11.4619, -60.0044, -9.85445
0.88791, -1, 1.18139, 30.6944, 17.4811, 11.6789, -59.7504, -10.0171
0.895882, -1, 1.3185, 30.5736, 17.5263, 11.895, -59.4975, -10.1789
0.903928, -1, 1.4552, 30.4534, 17.5715, 12.1105, -59.2459, -10.34
0.911937, -1, 1.59143, 30.3339, 17.6165, 12.3249, -58.995, -10.5004
0.919891, -1, 1.72688, 30.215, 17.6613, 12.5383, -58.7451, -10.66
0.927893, -1, 1.86124, 30.0966, 17.706, 12.751, -58.4962, -10.8191
0.935877, -1, 1.99468, 29.9786, 17.7505, 12.9627, -58.248, -10.9776
0.944869, -1, 2.1273, 29.8609, 17.7948, 13.1735, -58.0009, -11.1356
0.951872, -1, 2.25918, 29.7438, 17.8388, 13.3832, -57.7546, -11.2929
0.959874, -1, 2.39022, 29.6273, 17.8826, 13.5924, -57.5093, -11.4494
0.967951, -1, 2.52027, 29.5112, 17.9263, 13.8008, -57.2651, -11.6053
0.975878, -1, 2.64929, 29.3954, 17.9699, 14.0082, -57.0221, -11.7606
0.983889, -1, 2.77755, 29.2801, 18.0133, 14.2148, -56.7802, -11.9154
0.992007, -1, 2.90516, 29.1648, 18.0564, 14.4204, -56.5393, -12.0695
0.999896, -1, 3.03265, 29.0502, 18.0994, 14.6254, -56.2996, -12.2232
1.00795, -1, 3.16012, 28.9361, 18.1421, 14.8295, -56.0607, -12.376
1.0159, -1, 3.28759, 28.8226, 18.1847, 15.0327, -55.823, -12.5283
1.02394, -1, 3.41469, 28.7095, 18.2272, 15.2352, -55.5859, -12.6796
1.03187, -1, 3.54166, 28.5969, 18.2696, 15.4371, -55.3499, -12.8305
1.0399, -1, 3.66836, 28.4847, 18.3119, 15.6382, -55.1146, -12.9809
1.04795, -1, 3.79473, 28.3729, 18.3539, 15.8382, -54.8801, -13.1306
1.0559, -1, 3.92086, 28.2618, 18.3956, 16.0375, -54.6465, -13.2799
1.06388, -1, 4.0468, 28.1513, 18.4374, 16.236, -54.4136, -13.4286
1.07194, -1, 4.17217, 28.0413, 18.4789, 16.4336, -54.1819, -13.5766
1.07988, -1, 4.29702, 27.9316, 18.5202, 16.6307, -53.951, -13.7239
1.08789, -1, 4.42122, 27.8222, 18.5615, 16.8267, -53.7212, -13.8708
1.09595, -1, 4.54468, 27.7132, 18.6025, 17.0221, -53.4923, -14.0171
1.10387, -1, 4.66789, 27.6044, 18.6434, 17.2171, -53.2643, -14.1628
1.11199, -1, 4.7903, 27.4962, 18.6841, 17.4109, -53.0371, -14.3079
1.11995, -1, 4.91203, 27.3884, 18.7246, 17.6042, -52.8109, -14.4527
1.12789, -1, 5.03303, 27.2808, 18.7651, 17.7965, -52.5854, -14.5968
1.13608, -1, 5.1533, 27.1738, 18.8054, 17.9884, -52.361, -14.7403
1.14392, -1, 5.27265, 27.0671, 18.8454, 18.1796, -52.1374, -14.8833
1.15196, -1, 5.39119, 26.9606, 18.8854, 18.3699, -51.9145, -15.0257
1.16031, -1, 5.50916, 26.8546, 18.9253, 18.5597, -51.6922, -15.1675
1.16745, -1, 5.62661, 26.7492, 18.965, 18.7486, -51.471, -15.309
1.17599, -1, 5.74371, 26.6443, 19.0046, 18.9372, -51.2503, -15.45
1.18443, -1, 5.86066, 26.5397, 19.044, 19.1251, -51.0305, -15.5906
1.19143, -1, 5.91901, 26.4875, 19.0636, 19.2186, -50.9209, -15.7306
1.19988, -1, 6.09365, 26.3316, 19.1224, 19.4982, -50.5931, -15.8701
1.20868, -1, 6.21002, 26.2279, 19.1613, 19.6839, -50.3757, -16.009
1.21592, -1, 6.32638, 26.1245, 19.2, 19.8688, -50.1589, -16.1477
1.22398, -1, 6.44284, 26.0216, 19.2387, 20.0532, -49.9429, -16.2859
1.23283, -1, 6.55901, 25.9191, 19.2772, 20.2367, -49.7278, -16.4236
1.2401, -1, 6.6749, 25.8169, 19.3157, 20.4196, -49.5133, -16.5609
1.24696, -1, 6.73275, 25.7659, 19.3348, 20.5109, -49.4064, -16.6294
1.25703, -1, 6.90547, 25.6137, 19.392, 20.784, -49.0869, -16.834
1.26429, -1, 7.02006, 25.5125, 19.4302, 20.9652, -48.8751, -16.9697
1.27086, -1, 7.0772, 25.462, 19.4492, 21.0555, -48.7695, -17.0373
1.2812, -1, 7.24787, 25.3112, 19.5058, 21.3255, -48.4535, -17.2392
1.28697, -1, 7.3045, 25.2612, 19.5247, 21.4153, -48.3485, -17.3064
1.29647, -1, 7.47378, 25.1118, 19.5811, 21.6838, -48.0342, -17.5071
1.43517, -1, 9.32385, 23.4645, 20.2005, 24.6365, -44.5765, -19.7171
1.43651, -1, 9.32385, 23.4645, 20.2005, 24.6365, -44.5765, -19.7171
1.43859, -1, 9.37714, 23.4174, 20.2183, 24.7209, -44.4774, -19.7805
1.43977, -1, 9.37714, 23.4174, 20.2183, 24.7209, -44.4774, -19.7805
1.44162, -1, 9.43035, 23.3704, 20.236, 24.8053, -44.3784, -19.8436
1.44304, -1, 9.43035, 23.3704, 20.236, 24.8053, -44.3784, -19.8436
1.44431, -1, 9.43035, 23.3704, 20.236, 24.8053, -44.3784, -19.8436
1.45352, -1, 9.53654, 23.2766, 20.2713, 24.9737, -44.1813, -20.0326
1.45588, -1, 9.58956, 23.2297, 20.2889, 25.0577, -44.0828, -20.0326
1.4577, -1, 9.64253, 23.1829, 20.3065, 25.1416, -43.9845, -20.0955
1.45911, -1, 9.64253, 23.1829, 20.3065, 25.1416, -43.9845, -20.0955
1.46029, -1, 9.64253, 23.1829, 20.3065, 25.1416, -43.9845, -20.0955
1.4623, -1, 9.69542, 23.1361, 20.3242, 25.2253, -43.8862, -20.1583
1.46361, -1, 9.69542, 23.1361, 20.3242, 25.2253, -43.8862, -20.1583
1.46486, -1, 9.69542, 23.1361, 20.3242, 25.2253, -43.8862, -20.1583
1.46865, -1, 9.74818, 23.0895, 20.3417, 25.3089, -43.7881, -20.2208
1.47077, -1, 9.80087, 23.043, 20.3591, 25.3924, -43.6903, -20.2834
1.47196, -1, 9.80087, 23.043, 20.3591, 25.3924, -43.6903, -20.2834
1.47466, -1, 9.80087, 23.043, 20.3591, 25.4758, -43.5927, -20.3459
1.47594, -1, 9.85353, 22.9965, 20.3766, 25.4758, -43.5927, -20.3459
1.47784, -1, 9.85353, 22.9965, 20.394, 25.559, -43.4952, -20.4081
1.48006, -1, 9.90611, 22.95, 20.394, 25.559, -43.4952, -20.4081
1.48298, -1, 9.95858, 22.9036, 20.4115, 25.6421, -43.3979, -20.4703
1.48782, -1, 10.011, 22.8573, 20.4289, 25.7252, -43.3007, -20.5325
1.49593, -1, 10.1155, 22.7648, 20.4636, 25.8911, -43.1067, -20.6565
1.50389, -1, 10.2195, 22.6727, 20.4981, 26.0564, -42.9133, -20.78
1.51185, -1, 10.3232, 22.5807, 20.5326, 26.2211, -42.7204, -20.9035
1.51992, -1, 10.4265, 22.4889, 20.5671, 26.3852, -42.528, -21.0264
1.52788, -1, 10.5295, 22.3975, 20.6015, 26.5491, -42.3363, -21.1493
1.53585, -1, 10.6322, 22.3064, 20.6358, 26.7125, -42.1448, -21.2717
1.54393, -1, 10.7345, 22.2156, 20.6699, 26.8754, -41.9543, -21.3935
1.55225, -1, 10.8364, 22.125, 20.7039, 27.0378, -41.7643, -21.515
1.5591, -1, 10.9378, 22.0346, 20.7379, 27.1996, -41.5747, -21.6362
1.56692, -1, 11.0389, 21.9445, 20.7719, 27.3611, -41.3857, -21.7569
1.57651, -1, 11.1396, 21.8546, 20.8057, 27.5223, -41.1969, -21.8776
1.58391, -1, 11.2403, 21.7649, 20.8393, 27.6831, -41.0087, -21.9978
1.59193, -1, 11.3405, 21.6754, 20.873, 27.8432, -40.821, -22.1176
1.60108, -1, 11.4405, 21.5862, 20.9065, 28.003, -40.6339, -22.2374
1.60785, -1, 11.54, 21.4972, 20.9398, 28.1621, -40.4472, -22.3569
1.61592, -1, 11.6392, 21.4084, 20.9732, 28.3211, -40.2608, -22.4757
1.62385, -1, 11.7382, 21.32, 21.0065, 28.4797, -40.0753, -22.5943
1.63193, -1, 11.8372, 21.2318, 21.0395, 28.6378, -39.8899, -22.7125
1.63989, -1, 11.9361, 21.144, 21.0726, 28.7954, -39.7052, -22.8304
1.64793, -1, 12.0351, 21.0563, 21.1058, 28.9527, -39.5209, -22.9482
1.65544, -1, 12.1339, 20.9689, 21.1386, 29.1096, -39.3372, -23.0656
1.66409, -1, 12.2326, 20.8817, 21.1713, 29.2663, -39.1539, -23.1827
1.67146, -1, 12.3309, 20.7947, 21.2041, 29.4225, -38.971, -23.2998
1.67997, -1, 12.429, 20.708, 21.2368, 29.5783, -38.7889, -23.4164
1.68801, -1, 12.527, 20.6214, 21.2693, 29.7335, -38.6068, -23.5328
1.69601, -1, 12.6247, 20.535, 21.3018, 29.8884, -38.4255, -23.6486
1.70392, -1, 12.7221, 20.4487, 21.3343, 30.043, -38.2446, -23.7642
1.71194, -1, 12.8192, 20.3627, 21.3665, 30.1973, -38.0644, -23.8794
1.71997, -1, 12.9161, 20.2768, 21.3987, 30.3511, -37.8845, -23.9944
1.72693, -1, 12.9644, 20.2339, 21.4148, 30.4279, -37.7948, -24.052
1.73631, -1, 13.1089, 20.1056, 21.4631, 30.6574, -37.526, -24.2239
1.74285, -1, 13.1568, 20.0629, 21.479, 30.7337, -37.4364, -24.2809
1.75215, -1, 13.3002, 19.9353, 21.5269, 30.9624, -37.1686, -24.4521
1.75887, -1, 13.3479, 19.8928, 21.5429, 31.0385, -37.0796, -24.509
1.76834, -1, 13.4907, 19.7659, 21.5906, 31.266, -36.8129, -24.6794
1.77636, -1, 13.5857, 19.6815, 21.6222, 31.4173, -36.6359, -24.7927
1.78475, -1, 13.6803, 19.5973, 21.654, 31.568, -36.4589, -24.9055
1.79325, -1, 13.7748, 19.5133, 21.6856, 31.7184, -36.2826, -25.0182
1.79887, -1, 13.822, 19.4714, 21.7013, 31.7936, -36.1945, -25.0744
1.80687, -1, 13.9163, 19.3877, 21.7327, 31.9437, -36.0188, -25.1869
1.81725, -1, 14.0105, 19.3043, 21.7799, 32.168, -35.7559, -25.355
1.82287, -1, 14.1045, 19.221, 21.7955, 32.2426, -35.6685, -25.4109
1.83274, -1, 14.1982, 19.138, 21.8267, 32.3916, -35.4941, -25.5228
1.83987, -1, 14.2916, 19.0551, 21.8578, 32.5402, -35.3202, -25.6341
1.84687, -1, 14.3846, 18.9724, 21.8889, 32.6887, -35.1463, -25.7455
1.85588, -1, 14.4773, 18.8899, 21.9199, 32.8369, -34.9733, -25.8561
1.86387, -1, 14.5697, 18.8075, 21.9509, 32.9846, -34.8007, -25.9667
1.87086, -1, 14.6618, 18.7252, 21.9819, 33.132, -34.6283, -26.0771
1.87983, -1, 14.7538, 18.6432, 22.0127, 33.2789, -34.4564, -26.1868
1.88787, -1, 14.8456, 18.5613, 22.0434, 33.4256, -34.2846, -26.2967
1.8949, -1, 14.9372, 18.4797, 22.0741, 33.572, -34.1131, -26.4061
1.90389, -1, 15.0286, 18.3982, 22.1049, 33.7181, -33.942, -26.5153
1.91187, -1, 15.1199, 18.317, 22.1354, 33.8638, -33.7714, -26.6245
1.91884, -1, 15.2111, 18.236, 22.1659, 34.0092, -33.6011, -26.7334
1.92784, -1, 15.3023, 18.1552, 22.1964, 34.1541, -33.4309, -26.8421
1.93589, -1, 15.3935, 18.0744, 22.2268, 34.2989, -33.261, -26.9503
1.94283, -1, 15.4847, 17.9939, 22.2571, 34.4435, -33.0918, -27.0585
1.95183, -1, 15.5756, 17.9134, 22.2874, 34.5878, -32.9228, -27.1663
1.96086, -1, 15.6665, 17.8332, 22.3177, 34.7317, -32.7545, -27.2737
1.96694, -1, 15.757, 17.7531, 22.3478, 34.8753, -32.5864, -27.3813
1.97584, -1, 15.8474, 17.6732, 22.3777, 35.0184, -32.4185, -27.4886
1.98383, -1, 15.9375, 17.5934, 22.4077, 35.1613, -32.2512, -27.5956
1.99187, -1, 16.0275, 17.5137, 22.4377, 35.3042, -32.0839, -27.7026
1.99994, -1, 16.1171, 17.4343, 22.4675, 35.4467, -31.9173, -27.8095
2.00783, -1, 16.2064, 17.3549, 22.4972, 35.5888, -31.7509, -27.916
2.01592, -1, 16.2954, 17.2756, 22.527, 35.7306, -31.5847, -28.022
2.02394, -1, 16.3842, 17.1965, 22.5568, 35.8721, -31.4192, -28.1282
2.03196, -1, 16.4727, 17.1177, 22.5863, 36.0134, -31.2537, -28.2338
2.03987, -1, 16.5609, 17.0389, 22.6158, 36.1546, -31.0886, -28.3395
2.04789, -1, 16.6492, 16.9604, 22.6454, 36.2957, -30.9237, -28.4445
2.05583, -1, 16.7374, 16.882, 22.6749, 36.4362, -30.7591, -28.55
2.0639, -1, 16.8253, 16.8039, 22.7042, 36.5764, -30.5947, -28.655
2.07188, -1, 16.9133, 16.726, 22.7336, 36.7164, -30.4308, -28.7597
2.07983, -1, 17.001, 16.6481, 22.7631, 36.856, -30.2674, -28.8646
2.08787, -1, 17.0886, 16.5703, 22.7924, 36.9955, -30.1039, -28.9688
2.09589, -1, 17.176, 16.4928, 22.8215, 37.1348, -29.9409, -29.0733
2.10383, -1, 17.2621, 16.4159, 22.8505, 37.2737, -29.778, -29.1771
2.11189, -1, 17.3449, 16.3414, 22.8791, 37.4118, -29.6162, -29.2806
2.11988, -1, 17.4225, 16.271, 22.9063, 37.5478, -29.4565, -29.3826
2.12784, -1, 17.4942, 16.2062, 22.9322, 37.6797, -29.3019, -29.4814
2.13595, -1, 17.5603, 16.1476, 22.9561, 37.8036, -29.1562, -29.5745
2.14391, -1, 17.6199, 16.0953, 22.978, 37.9159, -29.0241, -29.6589
2.15191, -1, 17.6724, 16.0491, 22.9972, 38.013, -28.9095, -29.732
2.15996, -1, 17.719, 16.0076, 23.0132, 38.0917, -28.8165, -29.792
2.16803, -1, 17.7602, 15.97, 23.0265, 38.152, -28.7449, -29.8375
2.17595, -1, 17.7961, 15.9376, 23.0371, 38.1935, -28.6948, -29.8697
2.18398, -1, 17.8254, 15.912, 23.0448, 38.2212, -28.6617, -29.8908
2.19215, -1, 17.8485, 15.8936, 23.0501, 38.2378, -28.6417, -29.9033
2.19984, -1, 17.8655, 15.881, 23.0535, 38.2471, -28.6305, -29.91
2.2081, -1, 17.8762, 15.873, 23.0555, 38.2518, -28.6249, -29.9133
2.21484, -1, 17.8795, 15.8705, 23.0561, 38.2531, -28.6232, -29.9143
2.22388, 2, 17.8841, 15.8665, 23.057, 38.255, -28.6208, -29.9156
2.23201, 2, 17.8849, 15.8652, 23.0572, 38.2555, -28.6202, -29.916
2.23883, 2, 17.8849, 15.8648, 23.0573, 38.2557, -28.6201, -29.9161
2.24806, 2, 17.8842, 15.8642, 23.0574, 38.2558, -28.6198, -29.9162
2.25486, 2, 17.8839, 15.8641, 23.0574, 38.2558, -28.6198, -29.9162
2.26429, 2, 17.8835, 15.8638, 23.0575, 38.2559, -28.6199, -29.9162
2.27086, 2, 17.8834, 15.8638, 23.0575, 38.256, -28.6199, -29.9163
2.28034, 2, 17.8833, 15.8636, 23.0575, 38.256, -28.6198, -29.9162
2.28845, 2, 17.8833, 15.8635, 23.0575, 38.256, -28.6198, -29.9162
2.2964, 2, 17.8835, 15.8633, 23.0575, 38.256, -28.6199, -29.9162
2.3044, 2, 17.8838, 15.8631, 23.0575, 38.256, -28.6199, -29.9162
2.31248, 2, 17.8842, 15.8629, 23.0575, 38.256, -28.6199, -29.9162
2.32036, 2, 17.8844, 15.8628, 23.0575, 38.256, -28.6199, -29.9162
2.32785, 2, 17.8851, 15.8627, 23.0575, 38.256, -28.6199, -29.9162
2.33647, 2, 17.8856, 15.8626, 23.0575, 38.256, -28.6199, -29.9162
2.34382, 2, 17.8861, 15.8625, 23.0575, 38.2559, -28.62, -29.9162
2.35276, 2, 17.8864, 15.8624, 23.0575, 38.2559, -28.62, -29.9162
2.35984, 2, 17.8867, 15.8624, 23.0575, 38.256, -28.62, -29.9163
2.36782, 2, 17.8869, 15.8624, 23.0575, 38.256, -28.62, -29.9162
2.37584, 2, 17.887, 15.8624, 23.0575, 38.256, -28.62, -29.9162
2.38384, 2, 17.8871, 15.8624, 23.0575, 38.256, -28.62, -29.9162
2.39183, 2, 17.8871, 15.8623, 23.0575, 38.256, -28.6201, -29.9162
2.39999, 2, 17.8871, 15.8623, 23.0575, 38.256, -28.6201, -29.9162
2.40785, 2, 17.887, 15.8624, 23.0575, 38.256, -28.6201, -29.9162
2.41582, 2, 17.887, 15.8623, 23.0575, 38.256, -28.6201, -29.9161
2.42384, 2, 17.8868, 15.8623, 23.0575, 38.256, -28.6201, -29.9162
2.43186, 2, 17.8867, 15.8623, 23.0575, 38.2559, -28.6201, -29.9162
2.43982, 2, 17.8867, 15.8622, 23.0575, 38.2559, -28.6202, -29.9161
2.44784, 2, 17.8867, 15.8622, 23.0575, 38.256, -28.6202, -29.9161
2.45685, 2, 17.8866, 15.8622, 23.0575, 38.2559, -28.6202, -29.9161
2.46382, 2, 17.8866, 15.8622, 23.0575, 38.2559, -28.6202, -29.9161
2.47185, 2, 17.8866, 15.8622, 23.0575, 38.2559, -28.6203, -29.9161
2.47985, 2, 17.8866, 15.8622, 23.0575, 38.2559, -28.6203, -29.9161
2.48782, 2, 17.8866, 15.8622, 23.0575, 38.2559, -28.6203, -29.9161
2.49586, 2, 17.8866, 15.8623, 23.0575, 38.256, -28.6203, -29.9161
2.50392, 2, 17.8866, 15.8623, 23.0575, 38.256, -28.6203, -29.9161
2.51183, 2, 17.8865, 15.8623, 23.0575, 38.256, -28.6203, -29.9161
2.51985, 2, 17.8865, 15.8623, 23.0575, 38.2559, -28.6203, -29.9161
2.52785, 2, 17.8865, 15.8622, 23.0575, 38.2559, -28.6203, -29.9161
2.53582, 2, 17.8865, 15.8622, 23.0575, 38.256, -28.6203, -29.9161
2.54384, 2, 17.8864, 15.8622, 23.0575, 38.2559, -28.6204, -29.916
2.55187, 2, 17.8864, 15.8622, 23.0575, 38.2559, -28.6204, -29.916
2.55981, 2, 17.8864, 15.8622, 23.0575, 38.2559, -28.6203, -29.916
2.56788, 2, 17.8864, 15.8622, 23.0575, 38.2559, -28.6204, -29.9159
2.57585, 2, 17.8863, 15.8622, 23.0575, 38.2559, -28.6205, -29.9159
2.58381, 2, 17.8863, 15.8622, 23.0575, 38.2559, -28.6205, -29.916
2.59193, 2, 17.8863, 15.8622, 23.0575, 38.2559, -28.6205, -29.9159
2.59986, 2, 17.8863, 15.8623, 23.0575, 38.2559, -28.6205, -29.916
2.60781, 2, 17.8863, 15.8623, 23.0575, 38.2559, -28.6205, -29.916
2.61584, 2, 17.8863, 15.8623, 23.0575, 38.2559, -28.6206, -29.916
2.62386, 2, 17.8863, 15.8623, 23.0575, 38.2559, -28.6205, -29.9159
2.63182, 2, 17.8862, 15.8623, 23.0575, 38.2559, -28.6206, -29.9159
2.63985, 2, 17.8862, 15.8623, 23.0575, 38.2559, -28.6207, -29.9158
2.6479, 2, 17.8862, 15.8623, 23.0575, 38.2559, -28.6207, -29.9157
2.65591, 2, 17.8861, 15.8622, 23.0575, 38.2559, -28.6207, -29.9158
2.66395, 2, 17.8861, 15.8622, 23.0575, 38.2558, -28.6207, -29.9157
2.67202, 2, 17.8861, 15.8622, 23.0575, 38.2559, -28.6207, -29.9157
2.67993, 2, 17.8861, 15.8622, 23.0575, 38.2558, -28.6207, -29.9157
2.68795, 2, 17.886, 15.8622, 23.0575, 38.2558, -28.6207, -29.9157
2.69597, 2, 17.886, 15.8622, 23.0575, 38.2558, -28.6207, -29.9156
2.70385, 2, 17.886, 15.8623, 23.0575, 38.2558, -28.6208, -29.9156
2.7119, 2, 17.8859, 15.8623, 23.0575, 38.2558, -28.6208, -29.9155
2.71989, 2, 17.8859, 15.8623, 23.0575, 38.2558, -28.6208, -29.9155
2.72789, 2, 17.8859, 15.8623, 23.0575, 38.2558, -28.6208, -29.9155
2.73602, 2, 17.8858, 15.8623, 23.0575, 38.2558, -28.6208, -29.9155
2.74281, 2, 17.8858, 15.8622, 23.0575, 38.2558, -28.6208, -29.9155
2.75223, 2, 17.8857, 15.8623, 23.0575, 38.2558, -28.6208, -29.9154
2.75884, 2, 17.8857, 15.8623, 23.0575, 38.2558, -28.6208, -29.9154
2.76821, 2, 17.8857, 15.8623, 23.0575, 38.2558, -28.6208, -29.9154
2.77484, 2, 17.8857, 15.8623, 23.0575, 38.2558, -28.6208, -29.9154
2.7847, 2, 17.8856, 15.8623, 23.0575, 38.2557, -28.6209, -29.9153
2.79236, 2, 17.8856, 15.8623, 23.0575, 38.2557, -28.6209, -29.9153
2.80062, 2, 17.8856, 15.8623, 23.0575, 38.2557, -28.621, -29.9153
2.80862, 2, 17.8855, 15.8623, 23.0575, 38.2557, -28.621, -29.9153
2.81641, 2, 17.8855, 15.8623, 23.0575, 38.2557, -28.621, -29.9153
2.82436, 2, 17.8855, 15.8623, 23.0575, 38.2557, -28.621, -29.9153
2.8327, 2, 17.8854, 15.8623, 23.0575, 38.2557, -28.621, -29.9153
2.83989, 2, 17.8853, 15.8623, 23.0575, 38.2557, -28.621, -29.9153
2.84781, 2, 17.8853, 15.8623, 23.0575, 38.2557, -28.621, -29.9153
2.85659, 2, 17.8853, 15.8623, 23.0575, 38.2557, -28.621, -29.9153
2.86383, 2, 17.8852, 15.8623, 23.0575, 38.2556, -28.621, -29.9153
2.87181, 2, 17.8852, 15.8623, 23.0575, 38.2556, -28.621, -29.9153
2.87981, 2, 17.8852, 15.8623, 23.0575, 38.2556, -28.621, -29.9153
2.88783, 2, 17.8851, 15.8623, 23.0575, 38.2556, -28.6211, -29.9153
2.8958, 2, 17.8851, 15.8623, 23.0575, 38.2556, -28.621, -29.9153
2.90385, 2, 17.885, 15.8623, 23.0575, 38.2556, -28.621, -29.9152
2.91184, 2, 17.885, 15.8623, 23.0575, 38.2556, -28.6211, -29.9153
2.9198, 2, 17.885, 15.8623, 23.0575, 38.2556, -28.6211, -29.9153
2.92782, 2, 17.8849, 15.8623, 23.0575, 38.2555, -28.6211, -29.9153
2.93583, 2, 17.8849, 15.8623, 23.0575, 38.2555, -28.6211, -29.9152
2.94379, 2, 17.8848, 15.8623, 23.0575, 38.2555, -28.6211, -29.9152
2.95183, 2, 17.8848, 15.8623, 23.0575, 38.2555, -28.6211, -29.9152
2.95983, 2, 17.8847, 15.8623, 23.0575, 38.2555, -28.6212, -29.9152
2.9689, 2, 17.8847, 15.8623, 23.0575, 38.2555, -28.6212, -29.9152
2.97583, 2, 17.8846, 15.8623, 23.0575, 38.2555, -28.6212, -29.9152
2.98383, 2, 17.8845, 15.8623, 23.0575, 38.2554, -28.6212, -29.9152
2.99181, 2, 17.8845, 15.8623, 23.0575, 38.2554, -28.6212, -29.9153
2.99982, 2, 17.8845, 15.8623, 23.0575, 38.2554, -28.6212, -29.9153
3.0079, 2, 17.8844, 15.8623, 23.0575, 38.2554, -28.6213, -29.9152
3.01582, 2, 17.8844, 15.8623, 23.0575, 38.2554, -28.6213, -29.9152
3.02382, 2, 17.8843, 15.8623, 23.0575, 38.2554, -28.6213, -29.9153
3.03185, 2, 17.8843, 15.8623, 23.0575, 38.2554, -28.6213, -29.9152
3.0398, 2, 17.8842, 15.8623, 23.0575, 38.2554, -28.6213, -29.9152
3.04783, 2, 17.8842, 15.8623, 23.0575, 38.2553, -28.6213, -29.9151
3.05583, 2, 17.8842, 15.8623, 23.0575, 38.2553, -28.6213, -29.9151
3.06379, 2, 17.8841, 15.8623, 23.0575, 38.2553, -28.6213, -29.9152
3.07186, 2, 17.8841, 15.8623, 23.0575, 38.2553, -28.6213, -29.9151
3.07984, 2, 17.884, 15.8623, 23.0575, 38.2552, -28.6213, -29.9151
3.08779, 2, 17.884, 15.8623, 23.0575, 38.2552, -28.6213, -29.9151
3.09585, 2, 17.8839, 15.8623, 23.0575, 38.2552, -28.6213, -29.9151
3.10384, 2, 17.8839, 15.8623, 23.0575, 38.2552, -28.6214, -29.9151
3.1118, 2, 17.8839, 15.8624, 23.0575, 38.2552, -28.6214, -29.9151
3.11982, 2, 17.8838, 15.8624, 23.0575, 38.2552, -28.6213, -29.9151
3.12784, 2, 17.8838, 15.8624, 23.0575, 38.2551, -28.6213, -29.915
3.13588, 2, 17.8838, 15.8624, 23.0575, 38.2551, -28.6213, -29.915
3.14384, 2, 17.8837, 15.8624, 23.0575, 38.2551, -28.6214, -29.915
3.15189, 2, 17.8837, 15.8624, 23.0575, 38.2551, -28.6214, -29.915
3.1599, 2, 17.8837, 15.8624, 23.0575, 38.255, -28.6214, -29.9149
3.16792, 2, 17.8836, 15.8624, 23.0575, 38.255, -28.6214, -29.9149
3.176, 2, 17.8836, 15.8624, 23.0575, 38.255, -28.6214, -29.9149
3.18391, 2, 17.8836, 15.8624, 23.0575, 38.255, -28.6215, -29.9149
3.19196, 2, 17.8836, 15.8624, 23.0575, 38.2549, -28.6215, -29.9149
3.19995, 2, 17.8835, 15.8624, 23.0575, 38.2549, -28.6214, -29.9149
3.20779, 2, 17.8835, 15.8624, 23.0575, 38.255, -28.6214, -29.9149
3.21617, 2, 17.8835, 15.8624, 23.0575, 38.255, -28.6214, -29.9149
3.22509, 2, 17.8835, 15.8624, 23.0575, 38.2549, -28.6214, -29.9149
3.23189, 2, 17.8835, 15.8624, 23.0575, 38.2549, -28.6215, -29.9149
3.24002, 2, 17.8835, 15.8624, 23.0575, 38.2549, -28.6215, -29.915
3.24686, 2, 17.8835, 15.8625, 23.0575, 38.2549, -28.6215, -29.9149
3.25607, 2, 17.8835, 15.8625, 23.0575, 38.2548, -28.6214, -29.9149
3.26279, 2, 17.8835, 15.8625, 23.0575, 38.2548, -28.6215, -29.9149
3.27259, 2, 17.8834, 15.8625, 23.0575, 38.2548, -28.6215, -29.9149
3.28026, 2, 17.8834, 15.8625, 23.0575, 38.2548, -28.6215, -29.9149
3.28835, 2, 17.8834, 15.8625, 23.0575, 38.2548, -28.6215, -29.9148
3.29632, 2, 17.8834, 15.8625, 23.0575, 38.2548, -28.6215, -29.9148
3.30436, 4, 17.8834, 15.8625, 23.0575, 38.2547, -28.6216, -29.9149
3.3124, 4, 17.8834, 15.8625, 23.0575, 38.2547, -28.6216, -29.9148
3.32071, 4, 17.8834, 15.8625, 23.0575, 38.2547, -28.6215, -29.9148
3.3283, 4, 17.8834, 15.8625, 23.0575, 38.2547, -28.6215, -29.9148
3.33583, 4, 17.8834, 15.8625, 23.0575, 38.2547, -28.6215, -29.9148
3.34385, 4, 17.8834, 15.8625, 23.0575, 38.2547, -28.6215, -29.9148
3.35179, 4, 17.8833, 15.8625, 23.0575, 38.2546, -28.6215, -29.9148
3.35983, 4, 17.8833, 15.8625, 23.0575, 38.2547, -28.6215, -29.9147
3.36779, 4, 17.8833, 15.8625, 23.0575, 38.2546, -28.6216, -29.9147
3.37578, 4, 17.8833, 15.8625, 23.0575, 38.2546, -28.6216, -29.9147
3.38383, 4, 17.8833, 15.8625, 23.0575, 38.2546, -28.6216, -29.9148
3.3918, 4, 17.8833, 15.8625, 23.0575, 38.2545, -28.6216, -29.9148
3.40002, 4, 17.8833, 15.8625, 23.0575, 38.2545, -28.6216, -29.9148
3.42832, 4, 17.8833, 15.8625, 23.0575, 38.2545, -28.6216, -29.9147
3.43063, 4, 17.8832, 15.8625, 23.0575, 38.2545, -28.6215, -29.9147
3.43184, 4, 17.8832, 15.8625, 23.0575, 38.2545, -28.6215, -29.9147
3.4338, 4, 17.8832, 15.8625, 23.0575, 38.2545, -28.6216, -29.9147
3.43985, 4, 17.8832, 15.8625, 23.0575, 38.2545, -28.6216, -29.9147
3.44686, 4, 17.8832, 15.8625, 23.0575, 38.2545, -28.6216, -29.9146
3.45578, 4, 17.8825, 15.8625, 23.0575, 38.2544, -28.6216, -29.9146
3.46384, 4, 17.8799, 15.8625, 23.0576, 38.2539, -28.6217, -29.9144
3.47284, 4, 17.8738, 15.8624, 23.0585, 38.2502, -28.6225, -29.9123
3.47978, 4, 17.8636, 15.8619, 23.0616, 38.2383, -28.6259, -29.904
3.48785, 4, 17.8493, 15.8604, 23.0692, 38.2119, -28.6346, -29.8819
3.49579, 4, 17.8297, 15.8571, 23.0842, 38.1626, -28.6517, -29.8397
3.5063, 5, 17.7889, 15.8478, 23.1255, 38.0259, -28.6987, -29.7208
3.51193, 5, 17.7723, 15.8433, 23.1453, 37.9605, -28.7217, -29.6638
3.51978, 5, 17.7349, 15.8321, 23.1947, 37.7971, -28.7801, -29.5207
3.5278, 5, 17.6921, 15.8179, 23.257, 37.592, -28.8536, -29.3406
3.53584, 5, 17.6434, 15.8013, 23.3306, 37.35, -28.9424, -29.1282
3.54378, 5, 17.5889, 15.783, 23.4133, 37.0788, -29.0426, -28.8893
3.55185, 5, 17.5292, 15.763, 23.5028, 36.7869, -29.1519, -28.6319
3.55978, 5, 17.4645, 15.7422, 23.5967, 36.4825, -29.2677, -28.3628
3.56779, 5, 17.3952, 15.721, 23.6928, 36.1714, -29.3872, -28.0881
3.57589, 5, 17.3219, 15.6995, 23.7898, 35.8581, -29.5093, -27.8118
3.58377, 5, 17.2461, 15.6781, 23.887, 35.5448, -29.633, -27.5356
3.59178, 5, 17.1692, 15.6571, 23.9842, 35.2326, -29.7575, -27.2609
3.59985, 5, 17.0914, 15.6362, 24.0813, 34.9224, -29.8832, -26.9879
3.60778, 5, 17.0132, 15.6156, 24.1784, 34.6141, -30.0092, -26.7171
3.61578, 5, 16.935, 15.5956, 24.2751, 34.3077, -30.1364, -26.448
3.62385, 5, 16.8568, 15.5759, 24.3713, 34.0033, -30.2641, -26.1811
3.63178, 5, 16.7786, 15.5566, 24.467, 33.7011, -30.3926, -25.9166
3.63983, 5, 16.7007, 15.5379, 24.5622, 33.4009, -30.5219, -25.6544
3.64787, 5, 16.623, 15.5196, 24.6573, 33.1031, -30.6517, -25.3941
3.65581, 5, 16.5453, 15.5015, 24.7521, 32.8072, -30.7823, -25.1361
3.66388, 5, 16.4677, 15.4841, 24.8466, 32.5135, -30.9131, -24.8804
3.67195, 5, 16.3904, 15.4669, 24.9409, 32.2219, -31.0449, -24.6269
3.67994, 5, 16.313, 15.4499, 25.0346, 31.9321, -31.1771, -24.3751
3.68794, 5, 16.2353, 15.4332, 25.1276, 31.6445, -31.3103, -24.1252
3.69596, 5, 16.1573, 15.417, 25.2202, 31.3589, -31.4439, -23.8773
3.70379, 5, 16.0788, 15.4012, 25.3125, 31.0753, -31.5784, -23.6315
3.71178, 5, 15.9998, 15.3856, 25.4046, 30.7937, -31.7134, -23.3878
3.72006, 5, 15.9206, 15.3704, 25.4965, 30.5139, -31.849, -23.1458
3.72682, 5, 15.8808, 15.363, 25.5423, 30.3748, -31.917, -23.0256
3.73591, 5, 15.7609, 15.3415, 25.6789, 29.9604, -32.1221, -22.6678
3.74406, 5, 15.6807, 15.3275, 25.7692, 29.6868, -32.2594, -22.4322
3.75083, 5, 15.6405, 15.3206, 25.8142, 29.5505, -32.3282, -22.315
3.76016, 5, 15.5198, 15.3009, 25.9487, 29.1446, -32.5359, -21.9662
3.76679, 5, 15.4795, 15.2946, 25.9934, 29.0104, -32.6052, -21.8509
3.77692, 5, 15.3587, 15.2762, 26.1272, 28.6104, -32.8143, -21.5078
3.78429, 5, 15.2781, 15.2643, 26.2159, 28.346, -32.9544, -21.2818
3.79238, 5, 15.1976, 15.2527, 26.3041, 28.0834, -33.0952, -21.0573
3.80107, 5, 15.1171, 15.2417, 26.3917, 27.8227, -33.2361, -20.8348
3.8068, 5, 15.0769, 15.2363, 26.4353, 27.693, -33.3069, -20.7244
3.81663, 5, 14.9964, 15.2207, 26.5655, 27.3063, -33.5196, -20.3957
3.82515, 5, 14.9158, 15.2157, 26.6088, 27.1784, -33.6624, -20.1791
3.83077, 5, 14.8352, 15.2059, 26.6951, 26.9237, -33.7339, -20.0712
3.84087, 5, 14.7139, 15.1917, 26.824, 26.5451, -33.9492, -19.7502
3.84789, 5, 14.6734, 15.1872, 26.8668, 26.4198, -34.0212, -19.644
3.85581, 5, 14.5923, 15.1786, 26.9519, 26.1705, -34.1654, -19.4331
3.86377, 5, 14.5109, 15.1706, 27.0365, 25.923, -34.3102, -19.2241
3.87176, 5, 14.4292, 15.1628, 27.1206, 25.6769, -34.4556, -19.0169
3.87878, 5, 14.3471, 15.1554, 27.2043, 25.4328, -34.6016, -18.8111
3.88784, 5, 14.2649, 15.1486, 27.2877, 25.1904, -34.7481, -18.6072
3.89581, 5, 14.1825, 15.142, 27.3708, 24.9494, -34.895, -18.4047
3.90277, 5, 14.1, 15.1357, 27.4535, 24.7101, -35.0424, -18.2042
3.9118, 5, 14.0175, 15.1298, 27.5359, 24.4727, -35.1904, -18.0053
3.91982, 5, 13.935, 15.1244, 27.6178, 24.2366, -35.3387, -17.8081
3.92677, 5, 13.8524, 15.1195, 27.6992, 24.0021, -35.4874, -17.6124
3.93577, 5, 13.7698, 15.115, 27.78, 23.7692, -35.6368, -17.4183
3.94394, 5, 13.6872, 15.1109, 27.8605, 23.5377, -35.7864, -17.2257
3.95177, 5, 13.6049, 15.1072, 27.9407, 23.3078, -35.9367, -17.0349
3.95978, 5, 13.5225, 15.1038, 28.0205, 23.0794, -36.0872, -16.8458
3.96878, 5, 13.4402, 15.1009, 28.0999, 22.8527, -36.2381, -16.6581
3.97481, 5, 13.3576, 15.0983, 28.1789, 22.6274, -36.3892, -16.4719
3.98377, 5, 13.2748, 15.0962, 28.2575, 22.4038, -36.5411, -16.2874
3.99183, 5, 13.1918, 15.0945, 28.3356, 22.1813, -36.693, -16.1043
3.99978, 5, 13.1086, 15.0932, 28.4133, 21.9605, -36.8457, -15.9229
4.00784, 5, 13.0252, 15.0923, 28.4904, 21.7412, -36.9986, -15.7431
4.01592, 5, 12.9415, 15.0918, 28.5671, 21.5232, -37.1521, -15.5644
4.02376, 5, 12.8575, 15.0916, 28.6436, 21.3065, -37.3056, -15.3871
4.03177, 5, 12.7733, 15.0916, 28.7197, 21.0915, -37.4598, -15.2109
4.03983, 5, 12.6888, 15.0918, 28.7954, 20.8778, -37.6142, -15.0364
4.04782, 5, 12.6043, 15.0922, 28.8707, 20.6654, -37.7693, -14.8633
4.05577, 5, 12.5198, 15.093, 28.9456, 20.4541, -37.9247, -14.6916
4.06383, 5, 12.4352, 15.0942, 29.0199, 20.2444, -38.0807, -14.5213
4.07184, 5, 12.3506, 15.0957, 29.0939, 20.0358, -38.2369, -14.352
4.0798, 5, 12.266, 15.0976, 29.1672, 19.8287, -38.3935, -14.1842
4.08789, 5, 12.1815, 15.0999, 29.2403, 19.6227, -38.5504, -14.0175
4.09576, 5, 12.0968, 15.1025, 29.313, 19.4182, -38.7077, -13.8522
4.10377, 5, 12.0121, 15.1057, 29.3853, 19.2151, -38.8652, -13.6885
4.11182, 5, 11.9273, 15.1093, 29.4572, 19.0133, -39.023, -13.5261
4.11977, 5, 11.8424, 15.1134, 29.5286, 18.8125, -39.1813, -13.365
4.12783, 5, 11.7574, 15.1179, 29.5997, 18.6132, -39.3398, -13.2048
4.13583, 5, 11.6722, 15.1229, 29.6703, 18.4152, -39.4986, -13.0462
4.14376, 5, 11.5869, 15.1284, 29.7405, 18.2183, -39.6577, -12.8885
4.15248, 5, 11.5015, 15.1344, 29.8102, 18.0224, -39.8172, -12.7322
4.15984, 5, 11.4158, 15.1409, 29.8794, 17.8279, -39.9771, -12.5775
4.16791, 5, 11.3298, 15.148, 29.9483, 17.6347, -40.1373, -12.424
4.17665, 5, 11.2437, 15.1554, 30.0169, 17.4427, -40.2978, -12.2718
4.18392, 5, 11.1575, 15.1632, 30.085, 17.2518, -40.4585, -12.1205
4.19187, 5, 11.0712, 15.1714, 30.1528, 17.0619, -40.6195, -11.9706
4.20068, 5, 10.9849, 15.18, 30.2201, 16.8732, -40.7809, -11.8219
4.20792, 5, 10.8985, 15.1888, 30.287, 16.6857, -40.9427, -11.6742
4.21578, 5, 10.8122, 15.1981, 30.3533, 16.4993, -41.1047, -11.5279
4.2247, 5, 10.7259, 15.208, 30.4192, 16.3139, -41.267, -11.3829
4.2318, 5, 10.6396, 15.2184, 30.4847, 16.1298, -41.4296, -11.2391
4.23991, 5, 10.5533, 15.2291, 30.5497, 15.9468, -41.5924, -11.096
4.2489, 5, 10.4671, 15.2402, 30.6144, 15.7651, -41.7556, -10.9541
4.25598, 5, 10.3808, 15.2517, 30.6787, 15.5844, -41.9192, -10.8134
4.26415, 5, 10.2945, 15.2639, 30.7425, 15.4046, -42.0831, -10.6736
4.27078, 5, 10.2513, 15.2703, 30.7743, 15.3151, -42.1652, -10.6043
4.28016, 5, 10.1212, 15.2896, 30.869, 15.0485, -42.4119, -10.3977
4.28676, 5, 10.0777, 15.2962, 30.9004, 14.9602, -42.4943, -10.3294
4.29627, 5, 9.94704, 15.3166, 30.9938, 14.6967, -42.7417, -10.1263
4.30433, 5, 9.85972, 15.3309, 31.0555, 14.5221, -42.907, -9.99189
4.31235, 5, 9.77224, 15.3456, 31.1167, 14.3486, -43.0725, -9.8586
4.32032, 5, 9.72845, 15.3606, 31.1774, 14.1762, -43.2384, -9.72639
4.32854, 5, 9.59671, 15.3759, 31.2377, 14.0048, -43.4044, -9.59478
4.3363, 5, 9.55271, 15.3837, 31.2678, 13.9195, -43.4876, -9.5296
4.34375, 5, 9.46461, 15.3998, 31.3275, 13.7494, -43.6539, -9.39993
4.35186, 5, 9.37652, 15.4162, 31.3868, 13.5803, -43.8205, -9.27126
4.35975, 5, 9.28839, 15.4328, 31.4457, 13.4121, -43.9871, -9.14375
4.36781, 5, 9.20039, 15.4499, 31.5041, 13.245, -44.1541, -9.0171
4.3758, 5, 9.11235, 15.4677, 31.5621, 13.0787, -44.3211, -8.89134
4.38374, 5, 9.0242, 15.4858, 31.6196, 12.9132, -44.4885, -8.76647
4.39184, 5, 8.93603, 15.5042, 31.6766, 12.7486, -44.656, -8.64248
4.3998, 5, 8.84778, 15.5231, 31.7333, 12.5851, -44.8238, -8.51938
4.40781, 5, 8.75946, 15.5424, 31.7895, 12.4225, -44.992, -8.39733
4.41578, 5, 8.67111, 15.562, 31.8451, 12.261, -45.1604, -8.27604
4.42379, 5, 8.58266, 15.582, 31.9004, 12.1002, -45.3292, -8.15607
4.43175, 5, 8.49417, 15.6026, 31.9553, 11.9401, -45.4981, -8.03696
4.43974, 5, 8.40548, 15.6233, 32.0097, 11.7811, -45.6673, -7.9187
4.44675, 5, 8.31666, 15.6446, 32.0638, 11.623, -45.8368, -7.80144
4.45576, 5, 8.2276, 15.6663, 32.1175, 11.4658, -46.0064, -7.68478
4.46375, 5, 8.13842, 15.6881, 32.1705, 11.3094, -46.1762, -7.56905
4.47181, 5, 8.04919, 15.7105, 32.2233, 11.1536, -46.3461, -7.45432
4.47974, 5, 7.96001, 15.7334, 32.2756, 10.9987, -46.5161, -7.34026
4.4878, 5, 7.87077, 15.7565, 32.3274, 10.8446, -46.6863, -7.22735
4.49583, 5, 7.78146, 15.7802, 32.3787, 10.6915, -46.8565, -7.11516
4.50375, 5, 7.69213, 15.8042, 32.4296, 10.5393, -47.0271, -7.00383
4.51174, 5, 7.60283, 15.8286, 32.4801, 10.3877, -47.1976, -6.89383
4.51981, 5, 7.51377, 15.8535, 32.53, 10.2367, -47.3683, -6.78406
4.52781, 5, 7.42478, 15.8788, 32.5795, 10.0866, -47.5392, -6.67521
4.53582, 5, 7.33582, 15.9045, 32.6287, 9.93727, -47.7104, -6.56693
4.54374, 5, 7.24678, 15.9304, 32.6774, 9.78878, -47.8818, -6.45967
4.55175, 5, 7.15756, 15.9569, 32.7257, 9.64109, -48.0534, -6.35321
4.55981, 5, 7.06811, 15.9838, 32.7736, 9.49409, -48.2251, -6.24716
4.5678, 5, 6.97846, 16.0111, 32.8208, 9.3477, -48.397, -6.14254
4.57581, 5, 6.88864, 16.0388, 32.8678, 9.20224, -48.5692, -6.03827
4.58377, 5, 6.79861, 16.0668, 32.9142, 9.05752, -48.7416, -5.93489
4.59175, 5, 6.7084, 16.0954, 32.9603, 8.91375, -48.9142, -5.8324
4.59982, 5, 6.61807, 16.1242, 33.0058, 8.77063, -49.087, -5.73072
4.60779, 5, 6.52765, 16.1535, 33.0508, 8.62833, -49.26, -5.6296
4.61574, 5, 6.43718, 16.1831, 33.0956, 8.48651, -49.4329, -5.5291
4.62381, 5, 6.34664, 16.2132, 33.1398, 8.34544, -49.6061, -5.42932
4.63175, 5, 6.25613, 16.2437, 33.1834, 8.20526, -49.7793, -5.33012
4.63974, 5, 6.16556, 16.2746, 33.2268, 8.06581, -49.9526, -5.23199
4.64787, 5, 6.07513, 16.3057, 33.2696, 7.92698, -50.126, -5.13399
4.65577, 5, 5.98466, 16.3374, 33.312, 7.78882, -50.2996, -5.03737
4.66382, 5, 5.89422, 16.3694, 33.354, 7.65121, -50.4733, -4.94108
4.67191, 5, 5.80376, 16.4018, 33.3954, 7.51424, -50.6469, -4.84575
4.67984, 5, 5.71318, 16.4346, 33.4366, 7.37797, -50.8209, -4.75087
4.68798, 5, 5.62267, 16.4678, 33.4772, 7.24259, -50.9948, -4.65728
4.69586, 5, 5.53199, 16.5014, 33.5172, 7.10789, -51.169, -4.56372
4.70392, 5, 5.44115, 16.5353, 33.557, 6.97383, -51.3432, -4.47128
4.71174, 5, 5.35028, 16.5695, 33.5963, 6.8402, -51.5176, -4.37895
4.71977, 5, 5.2592, 16.6044, 33.635, 6.70713, -51.6921, -4.28777
4.72798, 5, 5.16801, 16.6396, 33.6734, 6.57475, -51.8667, -4.19671
4.73605, 5, 5.07669, 16.675, 33.7111, 6.44303, -52.0416, -4.10695
4.74281, 5, 5.03099, 16.6929, 33.7299, 6.37745, -52.1289, -4.06192
4.75202, 5, 4.89395, 16.7473, 33.7855, 6.18145, -52.3914, -3.92851
4.75874, 5, 4.84825, 16.7656, 33.8037, 6.11654, -52.479, -3.88431
4.76821, 5, 4.7113, 16.8211, 33.8579, 5.9221, -52.7418, -3.75295
4.77613, 5, 4.62009, 16.8586, 33.8934, 5.7934, -52.9173, -3.66595
4.7828, 5, 4.57455, 16.8775, 33.9111, 5.72932, -53.005, -3.62281
4.79233, 5, 4.43812, 16.9346, 33.9631, 5.53783, -53.2682, -3.49469
4.80026, 5, 4.34717, 16.9734, 33.9974, 5.41113, -53.4439, -3.4098
4.80833, 5, 4.2563, 17.0125, 34.031, 5.28498, -53.6194, -3.32558
4.8164, 5, 4.16538, 17.0518, 34.0644, 5.15934, -53.7952, -3.24161
4.82432, 5, 4.11985, 17.0716, 34.0973, 5.03407, -53.9711, -3.15873
4.83263, 5, 3.98314, 17.1318, 34.1296, 4.90945, -54.1468, -3.07586
4.84037, 5, 3.93749, 17.152, 34.1456, 4.84735, -54.2347, -3.03496
4.84773, 5, 3.84607, 17.1926, 34.1772, 4.7237, -54.4106, -2.95322
4.85579, 5, 3.75454, 17.2336, 34.2085, 4.60069, -54.5864, -2.87187
4.86379, 5, 3.6628, 17.275, 34.2392, 4.47812, -54.7621, -2.79168
4.87173, 5, 3.57088, 17.3167, 34.2695, 4.35622, -54.9382, -2.71138
4.87972, 5, 3.47882, 17.3588, 34.2994, 4.2346, -55.1141, -2.63232
4.88771, 5, 3.38665, 17.4014, 34.3288, 4.11359, -55.2902, -2.55323
4.89573, 5, 3.29456, 17.4442, 34.3575, 3.99301, -55.4664, -2.47523
4.90387, 5, 3.2025, 17.4876, 34.3859, 3.87308, -55.6426, -2.39779
4.91172, 5, 3.11052, 17.5313, 34.414, 3.75382, -55.819, -2.32047
4.91881, 5, 3.01858, 17.5754, 34.4416, 3.63503, -55.9955, -2.24412
4.92773, 5, 2.92658, 17.6198, 34.4685, 3.51683, -56.1722, -2.16749
4.93572, 5, 2.83469, 17.6646, 34.495, 3.3989, -56.3489, -2.09225
4.94274, 5, 2.74284, 17.7098, 34.5211, 3.28133, -56.5255, -2.0169
4.95173, 5, 2.65098, 17.7554, 34.5469, 3.16433, -56.7024, -1.94212
4.95972, 5, 2.55919, 17.8012, 34.572, 3.04777, -56.879, -1.86842
4.96931, 5, 2.46739, 17.8474, 34.5967, 2.93195, -57.0558, -1.79429
4.97572, 5, 2.37555, 17.894, 34.6209, 2.81655, -57.2325, -1.7215
4.98374, 5, 2.28358, 17.9409, 34.6447, 2.70168, -57.4091, -1.64898
4.9918, 5, 2.19138, 17.988, 34.668, 2.58723, -57.5857, -1.57691
4.99973, 5, 2.0991, 18.0355, 34.6907, 2.47303, -57.7621, -1.50582
5.00772, 5, 2.00677, 18.0835, 34.713, 2.35956, -57.9387, -1.43441
5.01578, 5, 1.91449, 18.1318, 34.7348, 2.24644, -58.1152, -1.36429
5.02379, 5, 1.82225, 18.1805, 34.7564, 2.13392, -58.2918, -1.29457
5.03179, 5, 1.72993, 18.2296, 34.7773, 2.02201, -58.4685, -1.22474
5.03973, 5, 1.63759, 18.2791, 34.7977, 1.91047, -58.6451, -1.15612
5.04772, 5, 1.54527, 18.329, 34.8177, 1.79968, -58.8219, -1.087
5.05579, 5, 1.45319, 18.3793, 34.8372, 1.689, -58.9987, -1.01873
5.06373, 5, 1.36136, 18.4299, 34.8562, 1.57862, -59.1756, -0.951405
5.07174, 5, 1.26966, 18.481, 34.8749, 1.4688, -59.3527, -0.883389
5.07979, 5, 1.178, 18.5323, 34.893, 1.35949, -59.5298, -0.816761
5.08775, 5, 1.08629, 18.5839, 34.9106, 1.25077, -59.7068, -0.750483
5.09573, 5, 0.99446, 18.6359, 34.928, 1.14249, -59.8837, -0.684002
5.10379, 5, 0.902557, 18.6881, 34.9446, 1.03445, -60.0608, -0.618855
5.11173, 5, 0.810582, 18.7406, 34.9607, 0.927049, -60.2375, -0.553859
5.11972, 5, 0.719221, 18.7931, 34.9767, 0.819833, -60.4144, -0.488944
5.1278, 5, 0.630251, 18.8449, 34.9922, 0.713154, -60.5907, -0.425559
5.13573, 5, 0.544801, 18.8952, 35.0071, 0.607792, -60.7657, -0.362258
5.14372, 5, 0.463414, 18.943, 35.0218, 0.504971, -60.9372, -0.300653
5.15184, 5, 0.386715, 18.9879, 35.0359, 0.406803, -61.1018, -0.242597
5.15977, 5, 0.31616, 19.0292, 35.0486, 0.315624, -61.2553, -0.188297
5.1678, 5, 0.25314, 19.0662, 35.0598, 0.234068, -61.3933, -0.139276
5.17588, 5, 0.197564, 19.0992, 35.0691, 0.16447, -61.5118, -0.0976083
5.18382, 5, 0.148969, 19.1285, 35.0764, 0.108101, -61.6077, -0.0640976
5.19191, 5, 0.107253, 19.1537, 35.0813, 0.0661305, -61.6808, -0.0387748
5.19991, 5, 0.0726012, 19.1748, 35.0843, 0.0362663, -61.7319, -0.020921
5.20778, 5, 0.0453459, 19.1914, 35.0859, 0.0165582, -61.7658, -0.00913172
5.216, 5, 0.024328, 19.2035, 35.0866, 0.00465101, -61.7863, -0.00209284
5.24154, 5, -0.00537654, 19.2199, 35.0871, -0.00730387, -61.8065, 0.00440726
5.24278, 5, -0.00537654, 19.2199, 35.0871, -0.00730387, -61.8065, 0.00440726
5.24485, 5, -0.00674441, 19.2207, 35.0871, -0.00781115, -61.8073, 0.00469192
5.24786, 5, -0.00766175, 19.2212, 35.0871, -0.00818028, -61.8079, 0.00488475
5.2569, 5, -0.0083214, 19.2217, 35.0871, -0.00858819, -61.8086, 0.00510386
5.26397, 5, -0.00842245, 19.222, 35.087, -0.00882964, -61.8089, 0.0052044
5.2721, 5, -0.00927242, 19.2227, 35.0868, -0.00901991, -61.8091, 0.00525054
5.27873, 5, -0.0104114, 19.2238, 35.0866, -0.00911804, -61.8093, 0.00529597
5.28679, 5, -0.0149771, 19.2284, 35.0855, -0.00956445, -61.8102, 0.00538042
5.29626, 5, -0.0289794, 19.2451, 35.0808, -0.0134149, -61.8169, 0.00685505
5.305, 5, -0.0443562, 19.2652, 35.0741, -0.0206587, -61.8291, 0.0106245
5.31227, 6, -0.0660439, 19.294, 35.0629, -0.0339357, -61.851, 0.0179076
5.32043, 6, -0.0942684, 19.3311, 35.0463, -0.0552495, -61.8865, 0.0304463
5.32918, 6, -0.110671, 19.3525, 35.0358, -0.0862979, -61.9403, 0.0492749
5.33479, 6, -0.147612, 19.4012, 35.0097, -0.106293, -61.9748, 0.0611308
5.34474, 6, -0.213816, 19.4897, 34.9575, -0.184897, -62.1083, 0.106266
5.35173, 6, -0.23886, 19.5233, 34.9365, -0.215863, -62.1626, 0.124371
5.35971, 6, -0.292765, 19.5964, 34.8901, -0.285486, -62.2832, 0.164703
5.36776, 6, -0.351168, 19.6772, 34.8382, -0.362487, -62.4171, 0.209912
5.37571, 6, -0.414421, 19.766, 34.7822, -0.444116, -62.5602, 0.257928
5.38371, 6, -0.48272, 19.8623, 34.7227, -0.528361, -62.7085, 0.306882
5.39073, 6, -0.555647, 19.9643, 34.661, -0.613841, -62.8593, 0.356744
5.39972, 6, -0.631613, 20.0695, 34.5978, -0.699716, -63.0113, 0.407268
5.40772, 6, -0.709056, 20.1763, 34.5338, -0.785257, -63.1637, 0.457112
5.41576, 6, -0.787157, 20.284, 34.4691, -0.870891, -63.3163, 0.506643
5.42371, 6, -0.865661, 20.3923, 34.4039, -0.956129, -63.4688, 0.556022
5.43172, 6, -0.94411, 20.501, 34.3381, -1.04116, -63.6213, 0.605738
5.43977, 6, -1.02247, 20.6099, 34.2719, -1.12551, -63.7733, 0.65426
5.44772, 6, -1.10063, 20.7188, 34.2052, -1.2097, -63.9253, 0.702198
5.45571, 6, -1.17872, 20.8278, 34.1379, -1.29343, -64.0768, 0.750624
5.46378, 6, -1.25658, 20.9366, 34.0702, -1.37629, -64.2283, 0.798906
5.47173, 6, -1.33436, 21.0455, 34.0018, -1.45922, -64.3794, 0.846193
5.48072, 6, -1.41166, 21.1547, 33.9329, -1.54137, -64.5305, 0.892992
5.48672, 6, -1.48868, 21.264, 33.8635, -1.62344, -64.681, 0.940019
5.49571, 6, -1.56535, 21.3734, 33.7936, -1.70489, -64.8315, 0.986866
5.50371, 6, -1.64169, 21.4832, 33.7233, -1.78624, -64.9814, 1.03296
5.51171, 6, -1.71787, 21.5931, 33.6525, -1.86731, -65.1313, 1.07881
5.51971, 6, -1.79409, 21.7032, 33.5814, -1.94777, -65.2808, 1.12496
5.52777, 6, -1.87032, 21.8135, 33.5098, -2.02795, -65.4301, 1.17104
5.53571, 6, -1.94653, 21.9243, 33.4377, -2.10754, -65.579, 1.21609
5.54373, 6, -2.02271, 22.0352, 33.3651, -2.18696, -65.7279, 1.26081
5.55177, 6, -2.09879, 22.1462, 33.292, -2.26552, -65.8763, 1.30571
5.55976, 6, -2.17483, 22.2574, 33.2184, -2.34419, -66.0245, 1.35067
5.56771, 6, -2.25086, 22.3685, 33.1443, -2.42222, -66.1724, 1.39474
5.57577, 6, -2.32699, 22.4796, 33.0698, -2.49983, -66.3202, 1.43851
5.58371, 6, -2.40314, 22.591, 32.9948, -2.57714, -66.4676, 1.48231
5.59172, 6, -2.47921, 22.7026, 32.9194, -2.65424, -66.615, 1.52627
5.59978, 6, -2.5551, 22.8143, 32.8436, -2.73109, -66.7619, 1.56939
5.60771, 6, -2.63068, 22.9261, 32.7673, -2.80736, -66.9087, 1.61201
5.61572, 6, -2.70598, 23.0381, 32.6904, -2.88366, -67.0551, 1.65458
5.62378, 6, -2.78103, 23.15, 32.6131, -2.95924, -67.201, 1.69745
5.63171, 6, -2.85577, 23.2621, 32.5352, -3.0346, -67.3468, 1.73995
5.63975, 6, -2.9305, 23.3745, 32.4568, -3.10908, -67.4923, 1.78143
5.64774, 6, -3.00505, 23.4873, 32.378, -3.18377, -67.6375, 1.82269
5.65583, 6, -3.07941, 23.6, 32.299, -3.25747, -67.7823, 1.8643
5.66399, 6, -3.15351, 23.7129, 32.2195, -3.33157, -67.9269, 1.90609
5.67179, 6, -3.22747, 23.8259, 32.1395, -3.40464, -68.0711, 1.94693
5.6798, 6, -3.30127, 23.9388, 32.0591, -3.47823, -68.2148, 1.98722
5.68814, 6, -3.37507, 24.052, 31.978, -3.55076, -68.3584, 2.02761
5.69527, 6, -3.4489, 24.1654, 31.8964, -3.6238, -68.5014, 2.06825
5.70384, 6, -3.5227, 24.279, 31.8144, -3.69544, -68.6446, 2.10859
5.71232, 6, -3.59633, 24.3926, 31.732, -3.76767, -68.7872, 2.14823
5.71942, 6, -3.63309, 24.4494, 31.6492, -3.83891, -68.9299, 2.18792
5.72774, 6, -3.74317, 24.6198, 31.5661, -3.91033, -69.0718, 2.22772
5.73652, 6, -3.81633, 24.7334, 31.4824, -3.98055, -69.2136, 2.26777
5.7438, 6, -3.88944, 24.8474, 31.3982, -4.05124, -69.3551, 2.30704
5.75209, 6, -3.96244, 24.9617, 31.3134, -4.12107, -69.4965, 2.34578
5.75872, 6, -3.99887, 25.0188, 31.2708, -4.15598, -69.567, 2.36509
5.76674, 6, -4.07162, 25.1332, 31.1854, -4.22553, -69.7079, 2.40379
5.77615, 6, -4.18026, 25.305, 31.0564, -4.32935, -69.9186, 2.46235
5.78271, 6, -4.21632, 25.3623, 31.0132, -4.36384, -69.9888, 2.48157
5.79076, 6, -4.28839, 25.477, 30.9266, -4.43229, -70.1288, 2.51962
5.80062, 6, -4.39607, 25.6497, 30.7959, -4.53476, -70.3382, 2.57648
5.80912, 6, -4.46768, 25.765, 30.708, -4.60273, -70.4773, 2.61459
5.81479, 6, -4.50342, 25.8226, 30.6639, -4.63671, -70.5468, 2.63371
5.82448, 6, -4.61033, 25.9954, 30.5308, -4.73728, -70.7544, 2.68992
5.8331, 6, -4.64583, 26.053, 30.4862, -4.80416, -70.8926, 2.7271
5.84022, 6, -4.71655, 26.1681, 30.3966, -4.83704, -70.9615, 2.74549
5.84775, 6, -4.78724, 26.2833, 30.3067, -4.90366, -71.099, 2.78266
5.85569, 6, -4.85781, 26.3989, 30.2164, -4.96926, -71.2362, 2.81988
5.86283, 6, -4.92832, 26.5145, 30.1256, -5.03501, -71.3729, 2.85674
5.87174, 6, -4.99877, 26.6301, 30.0343, -5.10022, -71.5097, 2.89294
5.8797, 6, -5.06918, 26.7458, 29.9425, -5.16505, -71.6456, 2.92912
5.88686, 6, -5.13949, 26.8616, 29.8501, -5.23009, -71.7817, 2.96542
5.89569, 6, -5.20962, 26.9776, 29.7572, -5.29421, -71.9172, 3.00216
5.9037, 6, -5.27973, 27.094, 29.664, -5.35897, -72.0526, 3.03831
5.91175, 6, -5.34975, 27.2106, 29.5705, -5.42225, -72.1874, 3.07393
5.9197, 6, -5.41973, 27.3272, 29.4766, -5.48654, -72.3218, 3.10931
5.92769, 6, -5.48951, 27.4439, 29.3822, -5.54929, -72.456, 3.14477
5.93576, 6, -5.55916, 27.5605, 29.2872, -5.61263, -72.5898, 3.18056
5.9437, 6, -5.62851, 27.677, 29.1915, -5.67503, -72.7236, 3.21615
5.95169, 6, -5.69763, 27.7936, 29.0955, -5.73714, -72.8568, 3.25111
5.96125, 6, -5.76664, 27.9106, 28.9991, -5.79963, -73.0562, 3.30357
5.96769, 6, -5.83539, 28.0275, 28.9024, -5.86081, -73.1224, 3.32112
5.9767, 6, -5.904, 28.1443, 28.8052, -5.92284, -73.2546, 3.3565
5.9827, 6, -5.97247, 28.2611, 28.7075, -5.98332, -73.3863, 3.3919
5.99178, 6, -6.04082, 28.378, 28.6092, -6.04468, -73.5179, 3.42663
6.00071, 6, -6.10893, 28.4951, 28.5103, -6.10531, -73.6489, 3.46084
6.0067, 6, -6.17695, 28.6124, 28.4108, -6.16572, -73.7797, 3.49513
6.01575, 6, -6.24481, 28.7298, 28.3112, -6.22629, -73.9102, 3.52963
6.02375, 6, -6.3126, 28.8475, 28.2112, -6.2855, -74.0402, 3.56455
6.0317, 6, -6.38036, 28.9652, 28.1108, -6.34581, -74.1699, 3.599
6.0397, 6, -6.44796, 29.0829, 28.0099, -6.4046, -74.2992, 3.63284
6.04775, 6, -6.5155, 29.2006, 27.9082, -6.46381, -74.4284, 3.66657
6.05569, 6, -6.58271, 29.3186, 27.8061, -6.52258, -74.5569, 3.70041
6.06402, 6, -6.64979, 29.4366, 27.7035, -6.58033, -74.6855, 3.73457
6.0717, 6, -6.71675, 29.5546, 27.6007, -6.63905, -74.8133, 3.76855
6.07969, 6, -6.78349, 29.6728, 27.4976, -6.69612, -74.9411, 3.80201
6.08848, 6, -6.85022, 29.7909, 27.394, -6.7539, -75.0683, 3.83528
6.09567, 6, -6.91682, 29.9092, 27.2898, -6.81128, -75.1951, 3.86842
6.10369, 6, -6.98328, 30.0275, 27.1848, -6.86767, -75.3219, 3.90187
6.11249, 6, -7.04952, 30.146, 27.0793, -6.92523, -75.4478, 3.93544
6.11969, 6, -7.11555, 30.2647, 26.9737, -6.98117, -75.5738, 3.96872
6.12769, 6, -7.18143, 30.3835, 26.8677, -7.03776, -75.699, 4.00133
6.1366, 6, -7.24703, 30.5022, 26.7615, -7.09404, -75.8239, 4.03383
6.14369, 6, -7.31253, 30.621, 26.6546, -7.14918, -75.9485, 4.06648
6.15169, 6, -7.37787, 30.7399, 26.5469, -7.20539, -76.0726, 4.09952
6.1606, 6, -7.443, 30.8589, 26.4388, -7.26022, -76.1966, 4.13268
6.16775, 6, -7.50786, 30.978, 26.3302, -7.31524, -76.32, 4.16513
6.17578, 6, -7.57249, 31.0971, 26.2214, -7.3703, -76.4434, 4.19716
6.18458, 6, -7.63701, 31.2163, 26.1124, -7.42383, -76.566, 4.22922
6.19184, 6, -7.70137, 31.3353, 26.0027, -7.47826, -76.6885, 4.26154
6.1998, 6, -7.76561, 31.4545, 25.8924, -7.53212, -76.8108, 4.29409
6.2092, 6, -7.82968, 31.5739, 25.7813, -7.58514, -76.9327, 4.32662
6.21531, 6, -7.86168, 31.6337, 25.7256, -7.63897, -77.0545, 4.35852
6.22376, 6, -7.95742, 31.813, 25.5583, -7.69137, -77.1756, 4.39039
6.23177, 6, -8.02102, 31.9327, 25.4465, -7.74395, -77.2965, 4.42233
6.23972, 6, -8.08456, 32.0525, 25.3342, -7.79702, -77.4169, 4.45459
6.24792, 6, -8.14802, 32.1723, 25.2211, -7.84872, -77.5371, 4.48712
6.25584, 6, -8.21149, 32.2923, 25.1075, -7.90113, -77.6568, 4.51943
6.26389, 6, -8.27478, 32.4123, 24.9934, -7.95312, -77.7761, 4.5511
6.27213, 6, -8.33802, 32.5323, 24.879, -8.00397, -77.8952, 4.58256
6.27871, 6, -8.36967, 32.5924, 24.8217, -8.02971, -77.9545, 4.59834
6.28815, 6, -8.46433, 32.7725, 24.6492, -8.10659, -78.1318, 4.64596
6.29469, 6, -8.49584, 32.8324, 24.5914, -8.13157, -78.1908, 4.66212
6.30426, 6, -8.59003, 33.0128, 24.4169, -8.20761, -78.367, 4.7102
6.31271, 6, -8.65261, 33.1331, 24.3, -8.25745, -78.4843, 4.74145
6.32032, 6, -8.71503, 33.2535, 24.1828, -8.30666, -78.6005, 4.77263
6.32835, 6, -8.77715, 33.3741, 24.0653, -8.35681, -78.7166, 4.80399
6.33623, 6, -8.80822, 33.4344, 24.0064, -8.38149, -78.8324, 4.83573
6.34435, 6, -8.87014, 33.555, 23.8881, -8.42984, -78.9475, 4.86762
6.35168, 6, -8.93173, 33.6756, 23.7692, -8.47914, -79.0052, 4.88345
6.35877, 6, -8.99317, 33.7964, 23.6499, -8.52814, -79.1201, 4.91452
6.36779, 6, -9.05452, 33.9173, 23.5301, -8.57563, -79.2344, 4.94553
6.37567, 6, -9.11568, 34.0383, 23.41, -8.62418, -79.3486, 4.97653
6.38374, 6, -9.17688, 34.1594, 23.2895, -8.6724, -79.4622, 5.00778
6.39168, 6, -9.23792, 34.2805, 23.1684, -8.71935, -79.5755, 5.03938
6.39969, 6, -9.2988, 34.4015, 23.0467, -8.7675, -79.6887, 5.07075
6.40772, 6, -9.35962, 34.5229, 22.9246, -8.81507, -79.8012, 5.10174
6.41568, 6, -9.42025, 34.6444, 22.802, -8.86137, -79.9137, 5.13222
6.42368, 6, -9.48085, 34.766, 22.6791, -8.90841, -80.0257, 5.16298
6.43173, 6, -9.54134, 34.8876, 22.5556, -8.95524, -80.1375, 5.19401
6.43968, 6, -9.60156, 35.0091, 22.4317, -9.00086, -80.2489, 5.22538
6.44768, 6, -9.66158, 35.1304, 22.3074, -9.04706, -80.3597, 5.25677
6.45574, 6, -9.72149, 35.252, 22.1825, -9.09319, -80.4704, 5.28751
6.46369, 6, -9.78136, 35.374, 22.0571, -9.13788, -80.5807, 5.31801
6.47267, 6, -9.84101, 35.4958, 21.9313, -9.18286, -80.6904, 5.34854
6.47971, 6, -9.90038, 35.6176, 21.8049, -9.22834, -80.7999, 5.37958
6.48872, 6, -9.95962, 35.7393, 21.6781, -9.27262, -80.9088, 5.41075
6.49579, 6, -10.0187, 35.8611, 21.5509, -9.31677, -81.0173, 5.44186
6.5037, 6, -10.0777, 35.9833, 21.4231, -9.36164, -81.1256, 5.4725
6.51168, 6, -10.1366, 36.1057, 21.2948, -9.40525, -81.2331, 5.50297
6.51972, 6, -10.1954, 36.2282, 21.1661, -9.44832, -81.3404, 5.53372
6.52767, 6, -10.254, 36.3507, 21.0369, -9.49237, -81.4473, 5.56481
6.53574, 6, -10.3125, 36.4731, 20.9074, -9.53592, -81.5536, 5.59641
6.54367, 6, -10.3707, 36.5955, 20.7775, -9.57839, -81.6598, 5.62769
6.55167, 6, -10.4289, 36.7182, 20.6469, -9.62141, -81.7654, 5.65874
6.55976, 6, -10.4868, 36.8411, 20.5157, -9.66461, -81.8706, 5.68939
6.56767, 6, -10.5444, 36.9638, 20.3841, -9.70651, -81.9756, 5.72012
6.57567, 6, -10.6018, 37.0864, 20.2522, -9.74838, -82.0798, 5.75107
6.58375, 6, -10.659, 37.209, 20.1197, -9.79097, -82.1837, 5.78248
6.59167, 6, -10.7161, 37.3316, 19.9868, -9.83261, -82.2873, 5.81391
6.5997, 6, -10.773, 37.4546, 19.8532, -9.87341, -82.3904, 5.84483
6.60775, 6, -10.8297, 37.5776, 19.7192, -9.91482, -82.4934, 5.87567
6.61567, 6, -10.8862, 37.7007, 19.5849, -9.95604, -82.5959, 5.90645
6.62367, 6, -10.9427, 37.8239, 19.4501, -9.99599, -82.6978, 5.93771
6.63175, 6, -10.999, 37.9471, 19.3147, -10.0359, -82.7997, 5.96924
6.63969, 6, -11.0553, 38.0703, 19.1788, -10.0764, -82.9011, 6.00047
6.64767, 6, -11.1115, 38.1937, 19.0424, -10.1162, -83.0018, 6.03135
6.6559, 6, -11.1676, 38.3173, 18.9056, -10.1551, -83.1024, 6.06202
6.6638, 6, -11.2238, 38.4409, 18.7682, -10.1945, -83.2026, 6.09287
6.67173, 6, -11.2797, 38.5646, 18.6304, -10.2343, -83.3021, 6.12418
6.68002, 6, -11.3356, 38.6883, 18.4921, -10.2729, -83.4016, 6.15574
6.68777, 6, -11.3914, 38.812, 18.3534, -10.311, -83.5006, 6.18708
6.69583, 6, -11.447, 38.936, 18.2144, -10.3498, -83.5991, 6.21815
6.70419, 6, -11.5025, 39.0601, 18.0746, -10.3885, -83.6975, 6.2491
6.71128, 6, -11.5302, 39.1222, 18.0045, -10.426, -83.7954, 6.27997
6.71971, 6, -11.613, 39.3087, 17.7934, -10.4635, -83.8927, 6.31131
6.72823, 6, -11.6681, 39.4328, 17.6523, -10.5018, -83.9899, 6.34295
6.73467, 6, -11.6955, 39.4949, 17.5817, -10.5208, -84.0382, 6.35883
6.74374, 6, -11.7774, 39.6814, 17.3686, -10.576, -84.1827, 6.40559
6.75259, 6, -11.832, 39.806, 17.2258, -10.6125, -84.2786, 6.43658
6.75983, 6, -11.8863, 39.9305, 17.0826, -10.6496, -84.3741, 6.46785
6.76824, 6, -11.9405, 40.0551, 16.9391, -10.6862, -84.469, 6.49948
6.77605, 6, -11.9946, 40.1795, 16.7951, -10.7219, -84.5638, 6.53143
6.78269, 6, -12.0216, 40.2417, 16.7229, -10.7398, -84.6109, 6.54726
6.79225, 6, -12.1024, 40.4289, 16.5051, -10.7938, -84.7517, 6.59408
6.80015, 6, -12.1562, 40.554, 16.3594, -10.8294, -84.8453, 6.62531
6.80818, 6, -12.2098, 40.679, 16.2134, -10.8638, -84.9383, 6.65689
6.81467, 6, -12.2365, 40.7417, 16.1402, -10.881, -84.9846, 6.67286
6.82421, 6, -12.3166, 40.9294, 15.9197, -10.9332, -85.1231, 6.72151
6.83233, 6, -12.3697, 41.0547, 15.7721, -10.9679, -85.2148, 6.75343
6.84044, 6, -12.3962, 41.1174, 15.6241, -11.0016, -85.306, 6.78522
6.84766, 6, -12.4492, 41.243, 15.55, -11.0184, -85.3514, 6.80106
6.85574, 6, -12.502, 41.3686, 15.4011, -11.0521, -85.4424, 6.83256
6.86371, 6, -12.5546, 41.4943, 15.2516, -11.0861, -85.5328, 6.86459
6.87166, 6, -12.6072, 41.6199, 15.1016, -11.1194, -85.6223, 6.89707
6.87966, 6, -12.6595, 41.7454, 14.9515, -11.152, -85.7119, 6.9294
6.88766, 6, -12.7115, 41.8712, 14.8008, -11.1845, -85.8009, 6.96143
6.89572, 6, -12.7634, 41.9972, 14.6492, -11.2176, -85.8895, 6.99339
6.90371, 6, -12.8153, 42.1234, 14.4969, -11.2504, -85.9779, 7.02554
6.91165, 6, -12.867, 42.2495, 14.3446, -11.2824, -86.0658, 7.05817
6.91967, 6, -12.9185, 42.3754, 14.192, -11.314, -86.1534, 7.09102
6.92771, 6, -12.9693, 42.5006, 14.0388, -11.3459, -86.2401, 7.12327
6.93572, 6, -13.0191, 42.6249, 13.8854, -11.378, -86.3268, 7.15527
6.9437, 6, -13.0675, 42.7474, 13.7325, -11.409, -86.4125, 7.18711
6.95166, 6, -13.1138, 42.8666, 13.5816, -11.4392, -86.4969, 7.21905
6.95966, 6, -13.157, 42.9808, 13.4342, -11.4686, -86.5798, 7.25082
6.9677, 6, -13.197, 43.0885, 13.2924, -11.4973, -86.6591, 7.28148
6.97741, 6, -13.2341, 43.1889, 13.1592, -11.5243, -86.7337, 7.32324
6.98366, 6, -13.2682, 43.2808, 13.0375, -11.5483, -86.8007, 7.33575
6.9917, 6, -13.2983, 43.3622, 12.9301, -11.569, -86.8603, 7.35832
6.99977, 6, -13.3253, 43.433, 12.8392, -11.586, -86.9094, 7.37705
7.00866, 6, -13.3497, 43.4937, 12.7657, -11.5994, -86.9485, 7.39217
7.01578, 6, -13.3714, 43.5444, 12.7086, -11.6094, -86.978, 7.40353
7.02366, 6, -13.3901, 43.5846, 12.6667, -11.6163, -86.999, 7.41147
7.03165, 6, -13.4051, 43.6149, 12.6376, -11.6211, -87.013, 7.41693
7.03967, 6, -13.417, 43.6376, 12.6186, -11.624, -87.0215, 7.42033
7.04767, 6, -13.4262, 43.6543, 12.6069, -11.6256, -87.0262, 7.42218
7.05572, 6, -13.4327, 43.6655, 12.6001, -11.6266, -87.0287, 7.42319
7.06367, 7, -13.4367, 43.6718, 12.5964, -11.6271, -87.0299, 7.42371
7.07167, 7, -13.4389, 43.6749, 12.5944, -11.6274, -87.0305, 7.42397
7.07965, 7, -13.4401, 43.6763, 12.5932, -11.6275, -87.0308, 7.4241
7.0877, 7, -13.4408, 43.6769, 12.5922, -11.6276, -87.031, 7.4242
7.09574, 7, -13.4411, 43.6772, 12.5913, -11.6277, -87.0311, 7.42425
7.10369, 7, -13.4412, 43.6774, 12.5907, -11.6277, -87.0312, 7.42425
7.1117, 7, -13.4414, 43.6776, 12.5903, -11.6278, -87.0312, 7.42426
7.11968, 7, -13.4414, 43.678, 12.5901, -11.6278, -87.0312, 7.42428
7.12766, 7, -13.4415, 43.6786, 12.5898, -11.6278, -87.0312, 7.42433
7.13577, 7, -13.4415, 43.6793, 12.5896, -11.6279, -87.0312, 7.42435
7.14367, 7, -13.4416, 43.68, 12.5894, -11.6279, -87.0313, 7.42433
7.15165, 7, -13.4416, 43.6806, 12.5893, -11.6279, -87.0313, 7.42438
7.15971, 7, -13.4417, 43.6812, 12.5892, -11.6279, -87.0313, 7.42434
7.16781, 7, -13.4419, 43.6817, 12.5892, -11.6279, -87.0313, 7.42433
7.17585, 7, -13.442, 43.682, 12.5891, -11.6279, -87.0312, 7.42438
