hehonglu123/ABB_Primitive_Study/realrobot/movel_30_ori/curve_exe_v50_z10.csv
timestamp, cmd_num, J1, J2, J3, J4, J5, J6
0.00171, -1, -18.771, 34.1312, 27.9428, -19.9679, -90.5854, -2.05591
0.145785, -1, -18.304, 33.901, 27.9035, -19.3538, -89.9396, -2.3435
0.14703, -1, -18.304, 33.901, 27.9035, -19.3538, -89.9396, -2.3435
0.149934, -1, -18.2484, 33.8731, 27.8953, -19.2574, -89.8376, -2.38995
0.151183, -1, -18.2484, 33.8731, 27.8953, -19.2574, -89.8376, -2.38995
0.153187, -1, -18.1893, 33.8436, 27.8863, -19.1536, -89.728, -2.43949
0.154428, -1, -18.1893, 33.8436, 27.8863, -19.1536, -89.728, -2.43949
0.156307, -1, -18.1267, 33.8122, 27.8766, -19.043, -89.611, -2.49196
0.16088, -1, -18.1267, 33.8122, 27.8662, -18.9261, -89.4871, -2.54772
0.16221, -1, -18.0608, 33.7792, 27.8662, -18.9261, -89.4871, -2.54772
0.16399, -1, -18.0608, 33.7792, 27.8662, -18.9261, -89.4871, -2.54772
0.165501, -1, -17.9917, 33.7446, 27.8552, -18.8037, -89.3571, -2.60635
0.166736, -1, -17.9917, 33.7446, 27.8552, -18.8037, -89.3571, -2.60635
0.168776, -1, -17.9196, 33.7086, 27.8438, -18.6762, -89.2218, -2.66724
0.170023, -1, -17.9196, 33.7086, 27.8438, -18.6762, -89.2218, -2.66724
0.171283, -1, -17.9196, 33.7086, 27.8438, -18.6762, -89.2218, -2.66724
0.175071, -1, -17.8446, 33.6712, 27.8321, -18.5445, -89.0818, -2.7302
0.177183, -1, -17.7671, 33.6324, 27.8201, -18.4091, -88.9379, -2.79496
0.178404, -1, -17.7671, 33.6324, 27.8201, -18.4091, -88.9379, -2.79496
0.180325, -1, -17.687, 33.5922, 27.8079, -18.2706, -88.7907, -2.86127
0.181698, -1, -17.687, 33.5922, 27.8079, -18.2706, -88.7907, -2.86127
0.182943, -1, -17.687, 33.5922, 27.8079, -18.2706, -88.7907, -2.86127
0.185682, -1, -17.6045, 33.5509, 27.7955, -18.1296, -88.6408, -2.92881
0.188539, -1, -17.5197, 33.5085, 27.7831, -17.9866, -88.4889, -2.99727
0.189933, -1, -17.5197, 33.5085, 27.7831, -17.9866, -88.4889, -2.99727
0.191427, -1, -17.5197, 33.5085, 27.7831, -17.9866, -88.4889, -2.99727
0.199521, -1, -17.3443, 33.4209, 27.758, -17.6967, -88.1804, -3.13646
0.207431, -1, -17.1634, 33.3306, 27.7328, -17.4026, -87.8679, -3.27773
0.215481, -1, -16.9785, 33.2384, 27.7075, -17.1064, -87.5529, -3.41993
0.223432, -1, -16.7912, 33.1453, 27.6824, -16.809, -87.2365, -3.56261
0.231441, -1, -16.6021, 33.0518, 27.6573, -16.5104, -86.9189, -3.7056
0.239545, -1, -16.4121, 32.9581, 27.6321, -16.2112, -86.6003, -3.84877
0.247456, -1, -16.2219, 32.8643, 27.607, -15.9111, -86.2809, -3.9923
0.255428, -1, -16.0319, 32.7706, 27.5819, -15.6101, -85.961, -4.13606
0.263498, -1, -15.8422, 32.6768, 27.5569, -15.3088, -85.6405, -4.28004
0.27146, -1, -15.6533, 32.5831, 27.5317, -15.0072, -85.3194, -4.42458
0.279496, -1, -15.4646, 32.4893, 27.5064, -14.7049, -84.998, -4.56932
0.287497, -1, -15.2764, 32.3952, 27.4811, -14.4025, -84.6763, -4.71383
0.296467, -1, -15.0886, 32.3008, 27.4559, -14.0997, -84.3541, -4.85871
0.303429, -1, -14.9009, 32.206, 27.4306, -13.7963, -84.0317, -5.00356
0.311496, -1, -14.7126, 32.1108, 27.405, -13.4929, -83.7091, -5.1486
0.319543, -1, -14.5233, 32.0154, 27.3794, -13.1894, -83.386, -5.29397
0.32749, -1, -14.3329, 31.92, 27.3538, -12.8857, -83.0627, -5.43923
0.335501, -1, -14.1415, 31.8244, 27.3283, -12.5819, -82.7393, -5.58484
0.343461, -1, -13.9494, 31.7286, 27.3026, -12.2777, -82.4154, -5.73044
0.351487, -1, -13.7568, 31.633, 27.277, -11.9732, -82.0914, -5.87593
0.359481, -1, -13.5636, 31.5375, 27.2514, -11.6689, -81.7673, -6.02161
0.367441, -1, -13.3699, 31.442, 27.2258, -11.3645, -81.4433, -6.1671
0.375501, -1, -13.1761, 31.3466, 27.2002, -11.06, -81.1192, -6.31278
0.383429, -1, -12.9829, 31.2513, 27.1746, -10.7556, -80.7952, -6.45845
0.392009, -1, -12.7905, 31.1561, 27.1491, -10.451, -80.4717, -6.60418
0.3995, -1, -12.5985, 31.061, 27.1236, -10.1467, -80.1482, -6.75003
0.407428, -1, -12.4075, 30.9657, 27.0981, -9.84248, -79.8246, -6.89576
0.416242, -1, -12.2173, 30.8704, 27.0725, -9.53834, -79.5012, -7.04135
0.42342, -1, -12.028, 30.7751, 27.0469, -9.23454, -79.1777, -7.18684
0.43143, -1, -11.8392, 30.6797, 27.0214, -8.93088, -78.8544, -7.33228
0.440318, -1, -11.6503, 30.5843, 26.9959, -8.62729, -78.531, -7.47762
0.447421, -1, -11.4612, 30.489, 26.9704, -8.32419, -78.2084, -7.62277
0.455541, -1, -11.2717, 30.3939, 26.9448, -8.02166, -77.8864, -7.76801
0.464221, -1, -11.0819, 30.2989, 26.9193, -7.71944, -77.5647, -7.91278
0.471427, -1, -10.8918, 30.2043, 26.894, -7.41785, -77.2437, -8.05717
0.479704, -1, -10.7012, 30.1098, 26.8687, -7.11656, -76.9232, -8.20115
0.48829, -1, -10.5105, 30.0155, 26.8433, -6.81561, -76.6032, -8.34495
0.495518, -1, -10.3196, 29.9215, 26.8181, -6.51548, -76.2835, -8.48853
0.503883, -1, -10.129, 29.8276, 26.793, -6.21586, -75.9643, -8.6318
0.512344, -1, -9.9392, 29.7339, 26.7679, -5.91665, -75.6457, -8.77488
0.519583, -1, -9.75014, 29.6404, 26.7428, -5.61812, -75.3279, -8.9181
0.527987, -1, -9.562, 29.547, 26.7177, -5.32006, -75.0109, -9.06059
0.53633, -1, -9.37479, 29.4538, 26.6927, -5.0226, -74.6946, -9.20286
0.543432, -1, -9.18868, 29.3606, 26.6678, -4.72621, -74.3792, -9.34454
0.552163, -1, -9.00344, 29.2677, 26.6429, -4.43035, -74.0644, -9.48589
0.560591, -1, -8.81897, 29.1748, 26.618, -4.13532, -73.7504, -9.62713
0.567512, -1, -8.63528, 29.0821, 26.5932, -3.84132, -73.4374, -9.76796
0.576495, -1, -8.45179, 28.9899, 26.5685, -3.54769, -73.1251, -9.90831
0.583696, -1, -8.26859, 28.898, 26.5439, -3.25522, -72.8139, -10.0486
0.721967, -1, -5.22993, 27.3835, 26.1381, 1.56904, -67.6783, -12.3577
0.723225, -1, -5.22993, 27.3835, 26.1381, 1.56904, -67.6783, -12.3577
0.725207, -1, -5.14358, 27.3404, 26.1265, 1.70641, -67.5322, -12.4233
0.726482, -1, -5.14358, 27.3404, 26.1265, 1.70641, -67.5322, -12.4233
0.727675, -1, -5.14358, 27.3404, 26.1265, 1.70641, -67.5322, -12.4233
0.730571, -1, -5.05729, 27.2974, 26.1151, 1.84347, -67.3865, -12.4888
0.731767, -1, -5.05729, 27.2974, 26.1151, 1.84347, -67.3865, -12.4888
0.735557, -1, -4.97111, 27.2546, 26.1036, 1.98013, -67.2411, -12.5543
0.738273, -1, -4.88501, 27.2118, 26.0922, 2.11644, -67.0958, -12.6194
0.739521, -1, -4.88501, 27.2118, 26.0922, 2.11644, -67.0958, -12.6194
0.741654, -1, -4.79899, 27.1692, 26.0807, 2.25246, -66.951, -12.6844
0.74288, -1, -4.79899, 27.1692, 26.0807, 2.25246, -66.951, -12.6844
0.744702, -1, -4.79899, 27.1692, 26.0807, 2.25246, -66.951, -12.6844
0.746152, -1, -4.71313, 27.1266, 26.0692, 2.38826, -66.8067, -12.7494
0.747432, -1, -4.71313, 27.1266, 26.0692, 2.38826, -66.8067, -12.7494
0.749871, -1, -4.62743, 27.0841, 26.0578, 2.52378, -66.6626, -12.8141
0.75127, -1, -4.62743, 27.0841, 26.0578, 2.52378, -66.6626, -12.8141
0.754249, -1, -4.54182, 27.0417, 26.0465, 2.65894, -66.5187, -12.8787
0.75566, -1, -4.54182, 27.0417, 26.0465, 2.65894, -66.5187, -12.8787
0.757714, -1, -4.45631, 26.9993, 26.0352, 2.79374, -66.3752, -12.9433
0.758913, -1, -4.45631, 26.9993, 26.0352, 2.79374, -66.3752, -12.9433
0.761745, -1, -4.37091, 26.9571, 26.0238, 2.9282, -66.2321, -13.0075
0.772991, -1, -4.11541, 26.8309, 25.99, 3.33021, -65.8041, -13.1996
0.776998, -1, -4.11541, 26.8309, 25.99, 3.46375, -65.6621, -13.2636
0.783407, -1, -3.94626, 26.7472, 25.9676, 3.59685, -65.5204, -13.3275
0.791423, -1, -3.77837, 26.6639, 25.9453, 3.86203, -65.2378, -13.4546
0.799473, -1, -3.61169, 26.5808, 25.9231, 4.12643, -64.9564, -13.5809
0.808441, -1, -3.44612, 26.4981, 25.9009, 4.3895, -64.6764, -13.7068
0.815408, -1, -3.2816, 26.4157, 25.8788, 4.65124, -64.3977, -13.8319
0.823503, -1, -3.11816, 26.3337, 25.8568, 4.91205, -64.1201, -13.9563
0.831425, -1, -2.95587, 26.252, 25.8349, 5.17178, -63.8439, -14.0805
0.839403, -1, -2.79449, 26.1707, 25.8132, 5.43024, -63.5689, -14.2042
0.84755, -1, -2.63382, 26.0898, 25.7917, 5.68747, -63.2953, -14.327
0.855407, -1, -2.47351, 26.0094, 25.7702, 5.94338, -63.0228, -14.45
0.86341, -1, -2.31331, 25.9294, 25.7487, 6.19808, -62.7516, -14.572
0.871487, -1, -2.15356, 25.8498, 25.7273, 6.45147, -62.4817, -14.6932
0.8794, -1, -1.99422, 25.7707, 25.7061, 6.70402, -62.2129, -14.8141
0.887416, -1, -1.83529, 25.6919, 25.685, 6.95554, -61.9453, -14.9342
0.895473, -1, -1.67702, 25.6135, 25.6641, 7.20562, -61.6789, -15.0537
0.903424, -1, -1.51905, 25.5353, 25.6432, 7.45454, -61.4137, -15.1727
0.911482, -1, -1.36139, 25.4575, 25.6223, 7.70255, -61.1494, -15.2914
0.91949, -1, -1.2044, 25.38, 25.6016, 7.94923, -60.8864, -15.4093
0.927415, -1, -1.04845, 25.3029, 25.581, 8.19482, -60.6247, -15.527
0.935409, -1, -0.893587, 25.2261, 25.5605, 8.43962, -60.3643, -15.6442
0.943491, -1, -0.740053, 25.1495, 25.5401, 8.68333, -60.1051, -15.7607
0.951401, -1, -0.587528, 25.0734, 25.5196, 8.92558, -59.8471, -15.8767
0.959476, -1, -0.436036, 24.9976, 25.4992, 9.16683, -59.5905, -15.9921
0.96742, -1, -0.2857, 24.9222, 25.4791, 9.40704, -59.3354, -16.1073
0.975409, -1, -0.136501, 24.8472, 25.4591, 9.64611, -59.0813, -16.2218
0.983478, -1, 0.0118316, 24.7725, 25.4392, 9.88388, -58.8281, -16.3359
0.991612, -1, 0.159468, 24.6981, 25.4194, 10.1207, -58.576, -16.4496
0.999562, -1, 0.306714, 24.6241, 25.3995, 10.3567, -58.3249, -16.5625
1.00751, -1, 0.453928, 24.5505, 25.3798, 10.5913, -58.0747, -16.6754
1.01579, -1, 0.601095, 24.4771, 25.3602, 10.8249, -57.8257, -16.7874
1.02357, -1, 0.747956, 24.404, 25.3406, 11.0575, -57.5777, -16.8986
1.03151, -1, 0.894531, 24.3312, 25.3213, 11.2891, -57.3308, -17.0097
1.03998, -1, 1.04046, 24.2588, 25.3019, 11.5194, -57.0853, -17.1196
1.04759, -1, 1.18592, 24.1867, 25.2826, 11.7489, -56.841, -17.2294
1.05543, -1, 1.33084, 24.115, 25.2634, 11.9774, -56.5979, -17.3386
1.06421, -1, 1.47538, 24.0436, 25.2443, 12.2051, -56.356, -17.4473
1.07159, -1, 1.61929, 23.9725, 25.2253, 12.4313, -56.1153, -17.5557
1.07952, -1, 1.76241, 23.9018, 25.2065, 12.6567, -55.8755, -17.6633
1.08837, -1, 1.90446, 23.8314, 25.1877, 12.8812, -55.637, -17.7709
1.09584, -1, 2.04545, 23.7613, 25.1689, 13.1045, -55.3993, -17.8778
1.10446, -1, 2.18559, 23.6915, 25.1502, 13.3267, -55.1626, -17.9842
1.11256, -1, 2.32476, 23.622, 25.1316, 13.548, -54.9268, -18.0902
1.11995, -1, 2.4629, 23.5528, 25.1132, 13.7686, -54.6921, -18.1955
1.12791, -1, 2.60015, 23.4839, 25.0949, 13.9881, -54.4581, -18.3006
1.13672, -1, 2.7364, 23.4152, 25.0766, 14.2067, -54.2251, -18.4049
1.14398, -1, 2.87185, 23.347, 25.0583, 14.4242, -53.9935, -18.5092
1.15196, -1, 2.93941, 23.2789, 25.0401, 14.641, -53.7628, -18.6128
1.161, -1, 3.14181, 23.2111, 25.0219, 14.8567, -53.5332, -18.7162
1.16856, -1, 3.27672, 23.1436, 25.0039, 15.0714, -53.3046, -18.819
1.17539, -1, 3.34412, 23.11, 24.995, 15.1785, -53.1905, -18.8705
1.18514, -1, 3.54596, 23.0096, 24.9683, 15.4986, -52.8501, -19.0238
1.1914, -1, 3.61312, 22.9762, 24.9593, 15.6049, -52.7372, -19.0746
1.19939, -1, 3.74714, 22.9098, 24.9416, 15.8166, -52.5118, -19.1758
1.20929, -1, 3.94735, 22.8106, 24.915, 16.1324, -52.1757, -19.3268
1.2154, -1, 4.01394, 22.7777, 24.9061, 16.2373, -52.0642, -19.377
1.22348, -1, 4.14668, 22.7121, 24.8886, 16.4464, -51.8416, -19.4769
1.23145, -1, 4.27896, 22.6468, 24.8712, 16.6546, -51.6199, -19.5765
1.2394, -1, 4.41066, 22.5817, 24.8537, 16.8617, -51.3989, -19.6756
1.24888, -1, 4.60672, 22.4845, 24.8278, 17.1714, -51.0694, -19.8239
1.25767, -1, 4.73663, 22.42, 24.8105, 17.3767, -50.8507, -19.9219
1.26341, -1, 4.80125, 22.3878, 24.8019, 17.4791, -50.7416, -19.9712
1.27139, -1, 4.93, 22.3237, 24.7847, 17.6832, -50.5243, -20.0688
1.27947, -1, 5.05795, 22.2597, 24.7678, 17.8864, -50.3077, -20.1664
1.28739, -1, 5.18513, 22.196, 24.7508, 18.089, -50.092, -20.2631
1.29638, -1, 5.31147, 22.1325, 24.7337, 18.2908, -49.8772, -20.3598
1.30443, -1, 5.4369, 22.0693, 24.7168, 18.4918, -49.6633, -20.4558
1.31139, -1, 5.56156, 22.0065, 24.7, 18.6919, -49.4502, -20.5516
1.31946, -1, 5.68568, 21.9438, 24.6831, 18.8914, -49.2381, -20.6468
1.32743, -1, 5.80954, 21.8815, 24.6665, 19.0902, -49.0267, -20.742
1.33539, -1, 5.93332, 21.8195, 24.65, 19.288, -48.8166, -20.8364
1.34347, -1, 6.05704, 21.7576, 24.6334, 19.4852, -48.607, -20.9311
1.35141, -1, 6.18054, 21.6959, 24.6169, 19.6816, -48.3983, -21.0249
1.35941, -1, 6.30396, 21.6345, 24.6005, 19.8773, -48.1899, -21.119
1.36746, -1, 6.42716, 21.5733, 24.5841, 20.0721, -47.9826, -21.2123
1.37539, -1, 6.55018, 21.5122, 24.5676, 20.2661, -47.7759, -21.3054
1.3834, -1, 6.67276, 21.4515, 24.5515, 20.4594, -47.5698, -21.3976
1.39145, -1, 6.79506, 21.3908, 24.5353, 20.6523, -47.3643, -21.4902
1.3994, -1, 6.91686, 21.3305, 24.5191, 20.8442, -47.1597, -21.5815
1.40769, -1, 7.03821, 21.2706, 24.5029, 21.0356, -46.9558, -21.6733
1.41549, -1, 7.15888, 21.2108, 24.4869, 21.2262, -46.7527, -21.7641
1.42341, -1, 7.27898, 21.1512, 24.4709, 21.4161, -46.5504, -21.8553
1.43221, -1, 7.39845, 21.092, 24.4551, 21.6055, -46.3489, -21.9453
1.43939, -1, 7.51733, 21.0329, 24.4395, 21.794, -46.1482, -22.0359
1.4474, -1, 7.6358, 20.974, 24.4237, 21.9818, -45.9482, -22.1255
1.4562, -1, 7.7538, 20.9153, 24.4079, 22.169, -45.7491, -22.2155
1.46338, -1, 7.87129, 20.8568, 24.3922, 22.3558, -45.5505, -22.3047
1.47139, -1, 7.98812, 20.7984, 24.3766, 22.542, -45.353, -22.3939
1.4802, -1, 8.10439, 20.7401, 24.3609, 22.7272, -45.1562, -22.4822
1.48742, -1, 8.22015, 20.682, 24.3453, 22.9119, -44.9599, -22.5707
1.49547, -1, 8.3355, 20.6241, 24.33, 23.0958, -44.7642, -22.6584
1.50425, -1, 8.45053, 20.5664, 24.3147, 23.2793, -44.569, -22.7462
1.51149, -1, 8.56513, 20.509, 24.2992, 23.462, -44.3743, -22.8333
1.51951, -1, 8.67916, 20.4518, 24.2838, 23.644, -44.1804, -22.9204
1.5283, -1, 8.79279, 20.3949, 24.2686, 23.8254, -43.9869, -23.0072
1.53551, -1, 8.90615, 20.3382, 24.2533, 24.0064, -43.7939, -23.0937
1.5434, -1, 9.01932, 20.2815, 24.2382, 24.1868, -43.602, -23.1801
1.55293, -1, 9.13244, 20.2252, 24.2232, 24.3666, -43.4107, -23.266
1.55945, -1, 9.24549, 20.169, 24.2083, 24.5457, -43.22, -23.3522
1.56749, -1, 9.35845, 20.1129, 24.1932, 24.724, -43.03, -23.4376
1.57583, -1, 9.47113, 20.0571, 24.1781, 24.9021, -42.8405, -23.5232
1.58353, -1, 9.58336, 20.0013, 24.1632, 25.0796, -42.6516, -23.6076
1.59167, -1, 9.69513, 19.9457, 24.1483, 25.2563, -42.4634, -23.6925
1.59974, -1, 9.8066, 19.8902, 24.1334, 25.4326, -42.2758, -23.7766
1.60775, -1, 9.91778, 19.835, 24.1187, 25.6083, -42.0886, -23.8607
1.61586, -1, 10.0286, 19.7799, 24.1042, 25.7836, -41.9024, -23.9442
1.62493, -1, 10.139, 19.7251, 24.0895, 25.9585, -41.7165, -24.0276
1.6319, -1, 10.249, 19.6705, 24.0748, 26.1328, -41.5314, -24.1109
1.64048, -1, 10.3586, 19.6161, 24.0601, 26.3063, -41.3466, -24.1938
1.64803, -1, 10.4675, 19.5619, 24.0456, 26.4793, -41.1623, -24.2768
1.65617, -1, 10.5762, 19.5077, 24.0311, 26.6519, -40.9786, -24.3589
1.6639, -1, 10.6303, 19.4807, 24.0238, 26.738, -40.7955, -24.4418
1.67213, -1, 10.7384, 19.4269, 24.0094, 26.9096, -40.7042, -24.4828
1.68042, -1, 10.8998, 19.3463, 23.9881, 27.1661, -40.4308, -24.6059
1.68738, -1, 10.9534, 19.3196, 23.981, 27.2513, -40.3399, -24.6468
1.69537, -1, 11.0602, 19.2661, 23.9667, 27.4216, -40.1588, -24.7278
1.70448, -1, 11.2199, 19.1862, 23.9452, 27.6761, -39.8878, -24.8498
1.71138, -1, 11.273, 19.1596, 23.9381, 27.7606, -39.7978, -24.89
1.71937, -1, 11.3787, 19.1066, 23.9239, 27.9293, -39.6183, -24.9709
1.72746, -1, 11.4841, 19.0538, 23.9098, 28.0975, -39.4391, -25.0512
1.73536, -1, 11.5892, 19.0013, 23.8958, 28.265, -39.2607, -25.1315
1.74488, -1, 11.7464, 18.9227, 23.8749, 28.5159, -38.9937, -25.2516
1.75287, -1, 11.8511, 18.8706, 23.8609, 28.6824, -38.8166, -25.3317
1.75939, -1, 11.9034, 18.8446, 23.8539, 28.7655, -38.7281, -25.3716
1.77092, -1, 12.0599, 18.7666, 23.8329, 29.0139, -38.4634, -25.4906
1.77536, -1, 12.112, 18.7406, 23.826, 29.0965, -38.3756, -25.5305
1.78496, -1, 12.2162, 18.6889, 23.8053, 29.344, -38.1128, -25.6488
1.79145, -1, 12.32, 18.6372, 23.7984, 29.4262, -38.0255, -25.6885
1.80094, -1, 12.4236, 18.5858, 23.7847, 29.5903, -37.8513, -25.7673
1.80736, -1, 12.5269, 18.5343, 23.7712, 29.7537, -37.6773, -25.8452
1.81544, -1, 12.63, 18.4832, 23.7575, 29.9168, -37.5039, -25.9238
1.82336, -1, 12.7328, 18.4321, 23.7437, 30.0795, -37.3306, -26.0011
1.83138, -1, 12.8352, 18.3811, 23.73, 30.2418, -37.158, -26.0791
1.83944, -1, 12.9372, 18.3305, 23.7165, 30.4036, -36.9857, -26.156
1.84736, -1, 13.0389, 18.28, 23.7029, 30.5648, -36.8138, -26.233
1.85539, -1, 13.1402, 18.2296, 23.6894, 30.7255, -36.6424, -26.3103
1.86344, -1, 13.2411, 18.1794, 23.676, 30.8861, -36.4715, -26.3865
1.87137, -1, 13.3418, 18.1293, 23.6627, 31.0462, -36.3012, -26.4634
1.87937, -1, 13.4421, 18.0793, 23.6494, 31.2059, -36.131, -26.5395
1.88744, -1, 13.5423, 18.0293, 23.636, 31.3651, -35.9615, -26.6158
1.8954, -1, 13.6423, 17.9794, 23.6226, 31.5238, -35.7925, -26.6921
1.90336, -1, 13.742, 17.9297, 23.6094, 31.6819, -35.6239, -26.7675
1.91147, -1, 13.8416, 17.8799, 23.5961, 31.8401, -35.4558, -26.8436
1.91936, -1, 13.941, 17.8303, 23.5828, 31.9977, -35.2882, -26.9185
1.9274, -1, 14.0402, 17.7808, 23.5695, 32.1548, -35.1208, -26.9938
1.93543, -1, 14.1392, 17.7316, 23.5565, 32.3115, -34.954, -27.0688
1.94336, -1, 14.2378, 17.6824, 23.5434, 32.4678, -34.7879, -27.1432
1.95141, -1, 14.3359, 17.6334, 23.5303, 32.6239, -34.6221, -27.2181
1.95944, -1, 14.4337, 17.5847, 23.5171, 32.7798, -34.4567, -27.2919
1.96736, -1, 14.5312, 17.5361, 23.5041, 32.9352, -34.2914, -27.3663
1.97551, -1, 14.6284, 17.4876, 23.4912, 33.09, -34.1265, -27.4405
1.98336, -1, 14.7251, 17.4392, 23.4782, 33.2444, -33.962, -27.5141
1.99141, -1, 14.8217, 17.391, 23.4652, 33.3985, -33.798, -27.5883
1.99953, -1, 14.918, 17.3427, 23.4524, 33.5523, -33.6344, -27.6616
2.00745, -1, 15.0143, 17.2945, 23.4397, 33.7058, -33.471, -27.7355
2.01547, -1, 15.1104, 17.2464, 23.4269, 33.8588, -33.3078, -27.8089
2.02387, -1, 15.2063, 17.1984, 23.414, 34.0113, -33.1453, -27.8818
2.03148, -1, 15.3021, 17.1504, 23.4011, 34.1634, -32.983, -27.9552
2.03992, -1, 15.3979, 17.1026, 23.3883, 34.3152, -32.8216, -28.0275
2.04754, -1, 15.4937, 17.0548, 23.3755, 34.467, -32.6603, -28.1002
2.05538, -1, 15.5893, 17.0073, 23.3626, 34.6181, -32.4995, -28.1727
2.06412, -1, 15.6847, 16.96, 23.3499, 34.769, -32.3389, -28.2445
2.07235, -1, 15.7799, 16.9128, 23.3374, 34.9195, -32.1787, -28.317
2.07945, -1, 15.8749, 16.8658, 23.3249, 35.0695, -32.0188, -28.3883
2.08828, -1, 15.9697, 16.819, 23.3124, 35.2193, -31.8595, -28.4598
2.09576, -1, 16.0641, 16.7722, 23.2998, 35.3689, -31.7005, -28.5317
2.10365, -1, 16.1581, 16.7257, 23.2872, 35.518, -31.5417, -28.6026
2.11232, -1, 16.2518, 16.679, 23.2748, 35.6668, -31.3836, -28.6742
2.11985, -1, 16.3453, 16.6325, 23.2623, 35.8152, -31.2255, -28.7451
2.12853, -1, 16.4385, 16.586, 23.2499, 35.9633, -31.0678, -28.8159
2.13683, -1, 16.5313, 16.5394, 23.2374, 36.1112, -30.9104, -28.8873
2.14394, -1, 16.624, 16.493, 23.225, 36.2589, -30.7533, -28.9575
2.15252, -1, 16.7164, 16.4467, 23.2127, 36.4063, -30.5966, -29.0283
2.16015, -1, 16.8087, 16.4004, 23.2004, 36.5532, -30.4402, -29.0987
2.16801, -1, 16.8549, 16.3542, 23.188, 36.6996, -30.2843, -29.1684
2.17538, -1, 16.947, 16.3312, 23.1818, 36.7727, -30.2065, -29.2035
2.18338, -1, 17.039, 16.2853, 23.1695, 36.9188, -30.0507, -29.2735
2.19241, -1, 17.1761, 16.217, 23.1511, 37.1374, -29.8179, -29.3777
2.19935, -1, 17.2208, 16.1946, 23.1449, 37.21, -29.7405, -29.4127
2.20734, -1, 17.3076, 16.1511, 23.1324, 37.3547, -29.5867, -29.4816
2.2155, -1, 17.3895, 16.1101, 23.1198, 37.497, -29.4349, -29.5494
2.22335, -1, 17.466, 16.072, 23.1074, 37.6349, -29.2879, -29.616
2.23141, -1, 17.5369, 16.0372, 23.0952, 37.7647, -29.1492, -29.6781
2.2394, -1, 17.6008, 16.0061, 23.084, 37.8831, -29.0227, -29.7349
2.2489, -1, 17.6829, 15.9661, 23.0701, 38.0309, -28.8642, -29.8067
2.2573, -1, 17.7299, 15.9424, 23.0636, 38.1061, -28.7834, -29.8432
2.26343, -1, 17.7511, 15.9314, 23.0613, 38.1366, -28.7504, -29.8578
2.27297, -1, 17.8052, 15.9034, 23.0571, 38.2004, -28.6808, -29.889
2.27935, -1, 17.8197, 15.8961, 23.0564, 38.2144, -28.6655, -29.8958
2.28912, -1, 17.8441, 15.8841, 23.0556, 38.2402, -28.6371, -29.908
2.29534, -1, 17.8627, 15.8754, 23.0553, 38.245, -28.6319, -29.9102
2.30434, -1, 17.8748, 15.8699, 23.0551, 38.2507, -28.6257, -29.9128
2.31146, -1, 17.8812, 15.8669, 23.055, 38.2534, -28.6227, -29.9141
2.32038, 2, 17.8842, 15.8655, 23.055, 38.2547, -28.6212, -29.9147
2.32835, 2, 17.8851, 15.8648, 23.055, 38.2554, -28.6205, -29.915
2.33542, 2, 17.8848, 15.8645, 23.055, 38.2557, -28.6201, -29.9151
2.34334, 2, 17.8841, 15.8644, 23.055, 38.2558, -28.62, -29.9152
2.35136, 2, 17.8834, 15.8643, 23.055, 38.2559, -28.62, -29.9152
2.35945, 2, 17.883, 15.8642, 23.055, 38.2559, -28.62, -29.9153
2.36735, 2, 17.8829, 15.8642, 23.055, 38.2559, -28.62, -29.9152
2.37534, 2, 17.8829, 15.864, 23.055, 38.2559, -28.62, -29.9152
2.38342, 2, 17.883, 15.8638, 23.055, 38.2559, -28.62, -29.9152
2.39135, 2, 17.8832, 15.8635, 23.055, 38.2559, -28.62, -29.9152
2.39938, 2, 17.8837, 15.8631, 23.055, 38.2559, -28.62, -29.9152
2.40742, 2, 17.8841, 15.8629, 23.055, 38.2559, -28.62, -29.9152
2.41534, 2, 17.8848, 15.8627, 23.055, 38.2559, -28.62, -29.9152
2.42334, 2, 17.8857, 15.8626, 23.055, 38.256, -28.62, -29.9152
2.43145, 2, 17.8864, 15.8626, 23.055, 38.2559, -28.6201, -29.9152
2.43934, 2, 17.8869, 15.8626, 23.055, 38.2559, -28.6201, -29.9152
2.44734, 2, 17.8873, 15.8626, 23.055, 38.2559, -28.62, -29.9152
2.45544, 2, 17.8875, 15.8626, 23.055, 38.2559, -28.62, -29.9152
2.4634, 2, 17.8876, 15.8626, 23.055, 38.2559, -28.62, -29.9152
2.47136, 2, 17.8876, 15.8626, 23.055, 38.2559, -28.62, -29.9152
2.47944, 2, 17.8876, 15.8626, 23.055, 38.256, -28.6201, -29.9152
2.48735, 2, 17.8876, 15.8626, 23.055, 38.256, -28.6201, -29.9152
2.49538, 2, 17.8876, 15.8625, 23.055, 38.256, -28.6201, -29.9152
2.5035, 2, 17.8874, 15.8625, 23.055, 38.256, -28.6201, -29.9152
2.51145, 2, 17.8872, 15.8624, 23.055, 38.2559, -28.6201, -29.9152
2.51946, 2, 17.8871, 15.8623, 23.055, 38.2559, -28.6202, -29.9152
2.52753, 2, 17.887, 15.8623, 23.055, 38.2559, -28.6202, -29.9152
2.53554, 2, 17.887, 15.8623, 23.055, 38.256, -28.6202, -29.9151
2.54355, 2, 17.887, 15.8623, 23.055, 38.2559, -28.6203, -29.9152
2.55136, 2, 17.887, 15.8623, 23.055, 38.2559, -28.6203, -29.9152
2.55937, 2, 17.887, 15.8623, 23.055, 38.2559, -28.6203, -29.9152
2.56752, 2, 17.887, 15.8624, 23.055, 38.2559, -28.6203, -29.9152
2.57541, 2, 17.887, 15.8624, 23.055, 38.2559, -28.6203, -29.9152
2.58348, 2, 17.887, 15.8624, 23.055, 38.2559, -28.6204, -29.9152
2.59209, 2, 17.887, 15.8624, 23.055, 38.2559, -28.6204, -29.9152
2.60042, 2, 17.8869, 15.8624, 23.055, 38.2559, -28.6204, -29.9151
2.60768, 2, 17.8869, 15.8623, 23.055, 38.2559, -28.6204, -29.9152
2.61619, 2, 17.8869, 15.8623, 23.055, 38.2559, -28.6205, -29.9152
2.6238, 2, 17.8869, 15.8623, 23.055, 38.2559, -28.6205, -29.9152
2.63245, 2, 17.8869, 15.8623, 23.055, 38.2559, -28.6205, -29.9152
2.64044, 2, 17.8869, 15.8623, 23.055, 38.2559, -28.6205, -29.9152
2.6479, 2, 17.8868, 15.8623, 23.055, 38.2559, -28.6205, -29.9151
2.65646, 2, 17.8868, 15.8623, 23.055, 38.2559, -28.6205, -29.9152
2.66437, 2, 17.8868, 15.8624, 23.055, 38.2559, -28.6205, -29.9152
2.67189, 2, 17.8868, 15.8624, 23.055, 38.2559, -28.6205, -29.9152
2.67934, 2, 17.8868, 15.8624, 23.055, 38.2559, -28.6205, -29.9152
2.68856, 2, 17.8868, 15.8624, 23.055, 38.2558, -28.6205, -29.9151
2.69535, 2, 17.8868, 15.8624, 23.055, 38.2559, -28.6206, -29.9151
2.70336, 2, 17.8867, 15.8624, 23.055, 38.2559, -28.6206, -29.9152
2.71256, 2, 17.8867, 15.8624, 23.055, 38.2558, -28.6206, -29.9151
2.71933, 2, 17.8867, 15.8624, 23.055, 38.2559, -28.6206, -29.9151
2.72867, 2, 17.8867, 15.8624, 23.055, 38.2559, -28.6206, -29.9151
2.7354, 2, 17.8867, 15.8624, 23.055, 38.2559, -28.6206, -29.9151
2.74334, 2, 17.8867, 15.8624, 23.055, 38.2559, -28.6206, -29.9151
2.75281, 2, 17.8867, 15.8624, 23.055, 38.2559, -28.6207, -29.9151
2.76127, 2, 17.8867, 15.8624, 23.055, 38.2559, -28.6207, -29.9152
2.76734, 2, 17.8866, 15.8624, 23.055, 38.2559, -28.6207, -29.9151
2.77691, 2, 17.8866, 15.8624, 23.055, 38.2558, -28.6207, -29.9151
2.78543, 2, 17.8866, 15.8624, 23.055, 38.2558, -28.6208, -29.9151
2.79136, 2, 17.8866, 15.8624, 23.055, 38.2558, -28.6208, -29.9151
2.80085, 2, 17.8866, 15.8624, 23.055, 38.2558, -28.6208, -29.9151
2.80954, 2, 17.8865, 15.8624, 23.055, 38.2557, -28.6208, -29.9152
2.81535, 2, 17.8865, 15.8624, 23.055, 38.2557, -28.6208, -29.9151
2.82335, 2, 17.8864, 15.8624, 23.055, 38.2557, -28.6208, -29.9152
2.83137, 2, 17.8864, 15.8624, 23.055, 38.2557, -28.6208, -29.9151
2.8404, 2, 17.8863, 15.8624, 23.055, 38.2557, -28.6208, -29.9151
2.84733, 2, 17.8863, 15.8624, 23.055, 38.2558, -28.6209, -29.9151
2.85537, 2, 17.8862, 15.8624, 23.055, 38.2558, -28.6209, -29.9151
2.86335, 2, 17.8862, 15.8624, 23.055, 38.2557, -28.6209, -29.9151
2.87134, 2, 17.8862, 15.8624, 23.055, 38.2557, -28.6209, -29.9151
2.87938, 2, 17.8861, 15.8624, 23.055, 38.2557, -28.6209, -29.9151
2.88733, 2, 17.886, 15.8624, 23.055, 38.2557, -28.6209, -29.915
2.89534, 2, 17.886, 15.8624, 23.055, 38.2557, -28.621, -29.915
2.90343, 2, 17.886, 15.8624, 23.055, 38.2557, -28.6209, -29.9151
2.91133, 2, 17.8859, 15.8624, 23.055, 38.2557, -28.6209, -29.915
2.91935, 2, 17.8859, 15.8624, 23.055, 38.2557, -28.621, -29.915
2.92738, 2, 17.8859, 15.8624, 23.055, 38.2556, -28.6211, -29.915
2.93534, 2, 17.8858, 15.8624, 23.055, 38.2556, -28.6211, -29.915
2.94335, 2, 17.8858, 15.8624, 23.055, 38.2557, -28.6211, -29.915
2.95138, 2, 17.8857, 15.8624, 23.055, 38.2556, -28.6211, -29.915
2.95935, 2, 17.8856, 15.8624, 23.055, 38.2557, -28.6211, -29.915
2.96734, 2, 17.8856, 15.8624, 23.055, 38.2556, -28.6211, -29.915
2.97549, 2, 17.8856, 15.8624, 23.055, 38.2556, -28.6211, -29.915
2.98336, 2, 17.8855, 15.8624, 23.055, 38.2556, -28.6211, -29.915
2.99134, 2, 17.8854, 15.8625, 23.055, 38.2556, -28.6211, -29.9151
2.99943, 2, 17.8854, 15.8625, 23.055, 38.2556, -28.6211, -29.915
3.00741, 2, 17.8853, 15.8625, 23.055, 38.2555, -28.6211, -29.915
3.01544, 2, 17.8853, 15.8625, 23.055, 38.2556, -28.6211, -29.915
3.0235, 2, 17.8852, 15.8625, 23.055, 38.2555, -28.6211, -29.915
3.03146, 2, 17.8851, 15.8625, 23.055, 38.2555, -28.6212, -29.915
3.03949, 2, 17.8851, 15.8625, 23.055, 38.2555, -28.6211, -29.915
3.04749, 2, 17.885, 15.8625, 23.055, 38.2555, -28.6211, -29.915
3.05537, 2, 17.885, 15.8625, 23.055, 38.2555, -28.6212, -29.9149
3.0635, 2, 17.8849, 15.8625, 23.055, 38.2554, -28.6212, -29.915
3.07146, 2, 17.8849, 15.8625, 23.055, 38.2554, -28.6212, -29.915
3.07948, 2, 17.8848, 15.8625, 23.055, 38.2554, -28.6212, -29.915
3.08748, 2, 17.8848, 15.8625, 23.055, 38.2554, -28.6212, -29.915
3.09556, 2, 17.8847, 15.8625, 23.055, 38.2553, -28.6212, -29.915
3.10377, 2, 17.8847, 15.8625, 23.055, 38.2554, -28.6212, -29.915
3.11232, 2, 17.8846, 15.8625, 23.055, 38.2554, -28.6212, -29.915
3.11975, 2, 17.8846, 15.8625, 23.055, 38.2554, -28.6212, -29.915
3.12842, 2, 17.8845, 15.8625, 23.055, 38.2553, -28.6212, -29.915
3.13585, 2, 17.8845, 15.8625, 23.055, 38.2553, -28.6212, -29.915
3.14445, 2, 17.8844, 15.8625, 23.055, 38.2553, -28.6212, -29.915
3.15194, 2, 17.8844, 15.8625, 23.055, 38.2552, -28.6213, -29.9149
3.15994, 2, 17.8843, 15.8625, 23.055, 38.2552, -28.6212, -29.9149
3.16846, 2, 17.8843, 15.8625, 23.055, 38.2552, -28.6213, -29.915
3.17589, 2, 17.8842, 15.8625, 23.055, 38.2552, -28.6212, -29.915
3.18334, 2, 17.8842, 15.8625, 23.055, 38.2552, -28.6213, -29.9149
3.19238, 2, 17.8841, 15.8625, 23.055, 38.2552, -28.6213, -29.9149
3.19934, 2, 17.8841, 15.8625, 23.055, 38.2552, -28.6213, -29.915
3.20733, 2, 17.8841, 15.8625, 23.055, 38.2552, -28.6213, -29.9149
3.21649, 2, 17.8842, 15.8625, 23.055, 38.2551, -28.6213, -29.915
3.22333, 2, 17.8841, 15.8625, 23.055, 38.2551, -28.6213, -29.915
3.23134, 2, 17.8841, 15.8625, 23.055, 38.2551, -28.6213, -29.915
3.24071, 2, 17.8841, 15.8626, 23.055, 38.255, -28.6213, -29.9149
3.2473, 2, 17.8841, 15.8626, 23.055, 38.255, -28.6213, -29.9149
3.25681, 2, 17.8841, 15.8626, 23.055, 38.255, -28.6214, -29.9149
3.26486, 2, 17.884, 15.8626, 23.055, 38.255, -28.6213, -29.9149
3.27295, 2, 17.884, 15.8626, 23.055, 38.2549, -28.6214, -29.9149
3.28089, 2, 17.884, 15.8626, 23.055, 38.2549, -28.6214, -29.9149
3.2889, 2, 17.884, 15.8626, 23.055, 38.2549, -28.6214, -29.9149
3.29705, 2, 17.884, 15.8626, 23.055, 38.2549, -28.6214, -29.9149
3.30334, 2, 17.8839, 15.8626, 23.055, 38.2549, -28.6214, -29.9149
3.31233, 2, 17.8839, 15.8626, 23.055, 38.2549, -28.6214, -29.9149
3.32229, 2, 17.8839, 15.8626, 23.055, 38.2549, -28.6215, -29.9149
3.32729, 2, 17.8839, 15.8626, 23.055, 38.2549, -28.6215, -29.9149
3.33535, 2, 17.8839, 15.8626, 23.055, 38.2549, -28.6214, -29.9149
3.34332, 2, 17.8839, 15.8626, 23.055, 38.2549, -28.6214, -29.9149
3.35133, 2, 17.8839, 15.8626, 23.055, 38.2548, -28.6214, -29.9149
3.35936, 2, 17.8839, 15.8626, 23.055, 38.2548, -28.6214, -29.9149
3.36735, 2, 17.8839, 15.8626, 23.055, 38.2548, -28.6214, -29.9149
3.37529, 2, 17.8839, 15.8626, 23.055, 38.2548, -28.6214, -29.9149
3.38336, 2, 17.8839, 15.8626, 23.055, 38.2548, -28.6214, -29.9148
3.3913, 2, 17.8838, 15.8626, 23.055, 38.2548, -28.6214, -29.9148
3.39931, 4, 17.8838, 15.8626, 23.055, 38.2547, -28.6214, -29.9149
3.40739, 4, 17.8838, 15.8626, 23.055, 38.2548, -28.6214, -29.9148
3.41533, 4, 17.8838, 15.8626, 23.0551, 38.2547, -28.6215, -29.9148
3.42334, 4, 17.8838, 15.8626, 23.055, 38.2547, -28.6215, -29.9148
3.43135, 4, 17.8837, 15.8626, 23.0551, 38.2546, -28.6214, -29.9148
3.43934, 4, 17.8837, 15.8626, 23.0551, 38.2547, -28.6214, -29.9148
3.44733, 4, 17.8837, 15.8626, 23.0551, 38.2546, -28.6214, -29.9148
3.45535, 4, 17.8837, 15.8626, 23.0551, 38.2547, -28.6215, -29.9148
3.46334, 4, 17.8837, 15.8627, 23.055, 38.2546, -28.6215, -29.9148
3.47133, 4, 17.8837, 15.8626, 23.055, 38.2546, -28.6215, -29.9148
3.47936, 4, 17.8837, 15.8626, 23.055, 38.2546, -28.6214, -29.9148
3.48733, 4, 17.8837, 15.8627, 23.055, 38.2546, -28.6215, -29.9148
3.49534, 4, 17.8837, 15.8627, 23.0551, 38.2546, -28.6215, -29.9148
3.5208, 4, 17.8836, 15.8627, 23.055, 38.2546, -28.6215, -29.9147
3.52366, 4, 17.8836, 15.8627, 23.055, 38.2545, -28.6215, -29.9147
3.52489, 4, 17.8836, 15.8627, 23.055, 38.2545, -28.6215, -29.9147
3.52743, 4, 17.8836, 15.8627, 23.055, 38.2545, -28.6215, -29.9147
3.53551, 4, 17.8836, 15.8627, 23.0551, 38.2544, -28.6215, -29.9146
3.54344, 4, 17.8836, 15.8627, 23.0551, 38.2545, -28.6215, -29.9146
3.55138, 4, 17.8836, 15.8627, 23.0551, 38.2545, -28.6215, -29.9147
3.55953, 4, 17.8835, 15.8627, 23.0551, 38.2544, -28.6215, -29.9146
3.56734, 4, 17.8829, 15.8627, 23.0551, 38.2544, -28.6215, -29.9146
3.57537, 4, 17.8808, 15.8627, 23.0552, 38.254, -28.6216, -29.9145
3.58353, 4, 17.8771, 15.8626, 23.0559, 38.2516, -28.6221, -29.9133
3.59149, 4, 17.8726, 15.8625, 23.0576, 38.2445, -28.6239, -29.9092
3.5995, 4, 17.8677, 15.8621, 23.061, 38.231, -28.6281, -29.8992
3.60794, 4, 17.8621, 15.8612, 23.0668, 38.21, -28.635, -29.8817
3.61735, 5, 17.8555, 15.8597, 23.0752, 38.1809, -28.6451, -29.8566
3.62373, 5, 17.8487, 15.8576, 23.0864, 38.1434, -28.658, -29.8237
3.6319, 5, 17.8417, 15.855, 23.0999, 38.098, -28.6733, -29.7838
3.64164, 5, 17.8337, 15.8521, 23.1149, 38.0487, -28.6905, -29.7397
3.64794, 5, 17.8239, 15.8489, 23.1307, 37.9964, -28.7087, -29.6933
3.65647, 5, 17.8128, 15.8456, 23.1471, 37.9418, -28.7277, -29.6454
3.66393, 5, 17.8009, 15.8421, 23.1637, 37.8879, -28.7474, -29.5962
3.67238, 5, 17.7886, 15.8386, 23.18, 37.8325, -28.7675, -29.5474
3.67929, 5, 17.7822, 15.8368, 23.1884, 37.8047, -28.7775, -29.5231
3.68731, 5, 17.7695, 15.8331, 23.2052, 37.7503, -28.7974, -29.4746
3.69633, 5, 17.7502, 15.8274, 23.2305, 37.6673, -28.8269, -29.4009
3.70332, 5, 17.7438, 15.8255, 23.2388, 37.6399, -28.8367, -29.3764
3.71135, 5, 17.7309, 15.8215, 23.2557, 37.5855, -28.8563, -29.3279
3.7205, 5, 17.7117, 15.8155, 23.2809, 37.5026, -28.8865, -29.2547
3.7273, 5, 17.7052, 15.8134, 23.2892, 37.4757, -28.8968, -29.2301
3.7353, 5, 17.6924, 15.8094, 23.3059, 37.4214, -28.9175, -29.1814
3.74468, 5, 17.6728, 15.8035, 23.3314, 37.3392, -28.948, -29.1093
3.7513, 5, 17.6663, 15.8016, 23.3397, 37.3124, -28.958, -29.0851
3.7593, 5, 17.6533, 15.7978, 23.3563, 37.2575, -28.9781, -29.0362
3.76939, 5, 17.634, 15.7922, 23.3815, 37.1765, -29.0081, -28.9639
3.77531, 5, 17.6276, 15.7903, 23.3898, 37.1495, -29.0183, -28.9399
3.78491, 5, 17.6086, 15.7845, 23.4148, 37.0673, -29.0493, -28.8673
3.79292, 5, 17.5959, 15.7807, 23.4317, 37.0137, -29.07, -28.8188
3.80114, 5, 17.5895, 15.7787, 23.4401, 36.9863, -29.0802, -28.7709
3.80736, 5, 17.5767, 15.7749, 23.4568, 36.9316, -29.1005, -28.7471
3.81634, 5, 17.5641, 15.7711, 23.4736, 36.8783, -29.1205, -28.699
3.82429, 5, 17.5514, 15.7673, 23.4904, 36.8238, -29.1405, -28.6505
3.83136, 5, 17.5388, 15.7634, 23.5069, 36.7699, -29.1607, -28.6029
3.83929, 5, 17.5261, 15.7595, 23.5234, 36.7165, -29.1812, -28.5556
3.84729, 5, 17.5133, 15.7556, 23.5402, 36.6621, -29.2021, -28.5076
3.85545, 5, 17.5003, 15.7516, 23.5569, 36.6091, -29.2228, -28.4596
3.86331, 5, 17.4874, 15.7476, 23.5734, 36.5557, -29.2433, -28.4124
3.8713, 5, 17.4744, 15.7438, 23.5902, 36.5017, -29.2636, -28.3653
3.87937, 5, 17.4615, 15.7399, 23.607, 36.4491, -29.2839, -28.3179
3.88729, 5, 17.4487, 15.7362, 23.6234, 36.3953, -29.3043, -28.2704
3.89529, 5, 17.4359, 15.7325, 23.64, 36.342, -29.325, -28.2237
3.90338, 5, 17.4231, 15.7287, 23.6568, 36.2895, -29.346, -28.1769
3.91132, 5, 17.4103, 15.7249, 23.6734, 36.2356, -29.3668, -28.1296
3.91936, 5, 17.3976, 15.7212, 23.6898, 36.1829, -29.3873, -28.0825
3.92737, 5, 17.3847, 15.7174, 23.7063, 36.1299, -29.4076, -28.0361
3.93529, 5, 17.372, 15.7137, 23.7229, 36.076, -29.4278, -27.9897
3.94332, 5, 17.3592, 15.7101, 23.7392, 36.0237, -29.4482, -27.9429
3.95137, 5, 17.3463, 15.7064, 23.7559, 35.9706, -29.4688, -27.8959
3.9593, 5, 17.3336, 15.7027, 23.7726, 35.9173, -29.4899, -27.8498
3.96731, 5, 17.3208, 15.699, 23.7892, 35.8652, -29.5109, -27.8034
3.97536, 5, 17.308, 15.6952, 23.8057, 35.8119, -29.5316, -27.7566
3.98331, 5, 17.2952, 15.6914, 23.8223, 35.7595, -29.5521, -27.7099
3.99137, 5, 17.2823, 15.6875, 23.8386, 35.7075, -29.5726, -27.6638
3.99932, 5, 17.2694, 15.6837, 23.8549, 35.6544, -29.5931, -27.6177
4.00761, 5, 17.2566, 15.68, 23.8714, 35.6025, -29.614, -27.5712
4.01538, 5, 17.2438, 15.6764, 23.888, 35.5502, -29.6351, -27.5247
4.0234, 5, 17.231, 15.6728, 23.9043, 35.4974, -29.6562, -27.479
4.03177, 5, 17.2181, 15.6692, 23.9208, 35.4459, -29.6769, -27.4332
4.03943, 5, 17.2052, 15.6656, 23.9374, 35.3933, -29.6974, -27.3869
4.04738, 5, 17.192, 15.662, 23.9536, 35.3409, -29.7177, -27.3407
4.05598, 5, 17.179, 15.6585, 23.9699, 35.2893, -29.7382, -27.2953
4.06436, 5, 17.166, 15.655, 23.9865, 35.2365, -29.7591, -27.2499
4.07132, 5, 17.1531, 15.6515, 24.003, 35.1846, -29.7804, -27.2041
4.08028, 5, 17.1402, 15.6481, 24.0192, 35.1331, -29.8016, -27.1583
4.0874, 5, 17.1274, 15.6447, 24.0356, 35.0805, -29.8226, -27.1131
4.09546, 5, 17.1145, 15.6412, 24.052, 35.0289, -29.8434, -27.068
4.10445, 5, 17.1017, 15.6377, 24.068, 34.9774, -29.864, -27.0225
4.11162, 5, 17.0889, 15.6341, 24.0843, 34.9252, -29.8848, -26.9769
4.11968, 5, 17.0761, 15.6305, 24.1009, 34.8743, -29.906, -26.9321
4.12856, 5, 17.0633, 15.6268, 24.1172, 34.8228, -29.9274, -26.8873
4.13578, 5, 17.0504, 15.6232, 24.1334, 34.771, -29.9487, -26.8422
4.14388, 5, 17.0375, 15.6196, 24.1498, 34.7204, -29.9697, -26.7968
4.15274, 5, 17.0245, 15.6161, 24.166, 34.6687, -29.9905, -26.7521
4.15989, 5, 17.0117, 15.6127, 24.1819, 34.6173, -30.0112, -26.7075
4.16839, 5, 16.9987, 15.6093, 24.1981, 34.5668, -30.032, -26.6626
4.17668, 5, 16.9923, 15.6076, 24.2063, 34.541, -30.0532, -26.6174
4.18329, 5, 16.9794, 15.6043, 24.2226, 34.4892, -30.064, -26.595
4.19232, 5, 16.96, 15.5992, 24.2467, 34.4133, -30.0964, -26.5283
4.19929, 5, 16.9536, 15.5976, 24.2549, 34.3873, -30.107, -26.5061
4.20729, 5, 16.9407, 15.5943, 24.2713, 34.3359, -30.128, -26.4611
4.21641, 5, 16.9213, 15.5894, 24.2953, 34.2601, -30.1596, -26.3939
4.22329, 5, 16.9149, 15.5877, 24.3033, 34.2343, -30.1701, -26.3719
4.23132, 5, 16.9019, 15.5845, 24.3197, 34.1832, -30.1914, -26.3277
4.24067, 5, 16.8822, 15.5795, 24.3439, 34.1074, -30.224, -26.2605
4.24732, 5, 16.8757, 15.5778, 24.3519, 34.0817, -30.2348, -26.2381
4.25532, 5, 16.8627, 15.5744, 24.368, 34.0313, -30.2562, -26.1941
4.26487, 5, 16.8433, 15.5692, 24.392, 33.9559, -30.2878, -26.1279
4.27367, 5, 16.8303, 15.5657, 24.4078, 33.9051, -30.3087, -26.0834
4.27937, 5, 16.8239, 15.564, 24.4158, 33.8802, -30.3193, -26.0611
4.28891, 5, 16.8045, 15.5588, 24.4402, 33.8047, -30.3516, -25.9953
4.29771, 5, 16.798, 15.5571, 24.4562, 33.7544, -30.3735, -25.9516
4.30337, 5, 16.7851, 15.5538, 24.4642, 33.7298, -30.3844, -25.9295
4.31299, 5, 16.7722, 15.5507, 24.4802, 33.6797, -30.4166, -25.8633
4.32028, 5, 16.7593, 15.5475, 24.4962, 33.6289, -30.4272, -25.8415
4.32736, 5, 16.7464, 15.5444, 24.5119, 33.5793, -30.4484, -25.7983
4.33527, 5, 16.7334, 15.5412, 24.5278, 33.529, -30.4697, -25.7549
4.34329, 5, 16.7202, 15.5381, 24.5439, 33.4785, -30.4914, -25.711
4.35132, 5, 16.7071, 15.535, 24.5599, 33.4293, -30.5132, -25.6675
4.35928, 5, 16.694, 15.5319, 24.5758, 33.3792, -30.5349, -25.6244
4.36729, 5, 16.6809, 15.5289, 24.5918, 33.329, -30.5563, -25.5813
4.37531, 5, 16.6679, 15.5259, 24.6078, 33.28, -30.5776, -25.5376
4.38334, 5, 16.6549, 15.5229, 24.6235, 33.2298, -30.5988, -25.4939
4.39135, 5, 16.6418, 15.5198, 24.6393, 33.1802, -30.6202, -25.4509
4.39927, 5, 16.6288, 15.5167, 24.6554, 33.1316, -30.6422, -25.408
4.40727, 5, 16.616, 15.5136, 24.6713, 33.0818, -30.6643, -25.3648
4.4154, 5, 16.603, 15.5104, 24.687, 33.0324, -30.6862, -25.3213
4.42329, 5, 16.5901, 15.5072, 24.7028, 32.9837, -30.7078, -25.2784
4.43127, 5, 16.5772, 15.504, 24.7187, 32.9339, -30.7293, -25.2358
4.43933, 5, 16.5641, 15.5008, 24.7342, 32.8849, -30.7509, -25.1931
4.44729, 5, 16.5511, 15.4977, 24.75, 32.8364, -30.7726, -25.1498
4.45527, 5, 16.5382, 15.4947, 24.766, 32.7866, -30.7949, -25.1071
4.46336, 5, 16.5253, 15.4917, 24.7819, 32.7378, -30.8171, -25.0648
4.47129, 5, 16.5124, 15.4888, 24.7976, 32.6893, -30.8389, -25.0224
4.47928, 5, 16.4994, 15.4859, 24.8134, 32.6395, -30.8605, -24.9795
4.48744, 5, 16.4863, 15.483, 24.8291, 32.5907, -30.8819, -24.9368
4.4953, 5, 16.4733, 15.4801, 24.8446, 32.5423, -30.9035, -24.8946
4.50338, 5, 16.4603, 15.4773, 24.8602, 32.4927, -30.9254, -24.8526
4.51218, 5, 16.4473, 15.4744, 24.8761, 32.4443, -30.9478, -24.8102
4.51937, 5, 16.4342, 15.4715, 24.892, 32.3959, -30.9699, -24.7676
4.52745, 5, 16.4211, 15.4687, 24.9075, 32.3466, -30.9918, -24.7256
4.53619, 5, 16.4079, 15.4659, 24.9233, 32.2986, -31.0135, -24.6841
4.54342, 5, 16.3948, 15.463, 24.939, 32.2506, -31.0352, -24.6423
4.55147, 5, 16.3817, 15.4601, 24.9545, 32.2016, -31.057, -24.6
4.56017, 5, 16.3686, 15.4572, 24.9701, 32.1536, -31.0793, -24.5578
4.56731, 5, 16.3555, 15.4543, 24.986, 32.1055, -31.1016, -24.516
4.57558, 5, 16.3424, 15.4513, 25.0018, 32.0566, -31.1237, -24.4744
4.58425, 5, 16.3293, 15.4483, 25.0172, 32.009, -31.1455, -24.432
4.59146, 5, 16.3162, 15.4453, 25.0328, 31.9612, -31.1671, -24.3897
4.59955, 5, 16.3032, 15.4422, 25.0485, 31.9123, -31.1888, -24.348
4.60839, 5, 16.2901, 15.4392, 25.0638, 31.8646, -31.2109, -24.3065
4.61569, 5, 16.277, 15.4362, 25.0793, 31.8168, -31.2334, -24.2647
4.62382, 5, 16.2638, 15.4334, 25.0952, 31.7681, -31.2559, -24.2226
4.63312, 5, 16.2505, 15.4306, 25.111, 31.7205, -31.2781, -24.1809
4.64035, 5, 16.2372, 15.4278, 25.1264, 31.673, -31.3002, -24.1395
4.64783, 5, 16.224, 15.4251, 25.142, 31.6243, -31.3221, -24.0981
4.6572, 5, 16.2108, 15.4224, 25.1575, 31.5769, -31.3442, -24.0563
4.66392, 5, 16.1976, 15.4197, 25.1728, 31.5295, -31.3667, -24.0143
4.67246, 5, 16.1845, 15.417, 25.1881, 31.4812, -31.3895, -23.9731
4.67981, 5, 16.1779, 15.4157, 25.1959, 31.4576, -31.4007, -23.9321
4.6879, 5, 16.1648, 15.4131, 25.2116, 31.4109, -31.4229, -23.8909
4.69526, 5, 16.1519, 15.4105, 25.2272, 31.3632, -31.4449, -23.8701
4.70327, 5, 16.1388, 15.4079, 25.2425, 31.3156, -31.4668, -23.8288
4.71133, 5, 16.1257, 15.4053, 25.2581, 31.2691, -31.4888, -23.788
4.71926, 5, 16.1126, 15.4028, 25.2736, 31.2215, -31.5114, -23.7475
4.72727, 5, 16.0994, 15.4002, 25.2888, 31.1739, -31.5343, -23.7066
4.73526, 5, 16.0863, 15.3977, 25.3042, 31.1275, -31.557, -23.6652
4.74466, 5, 16.0667, 15.3938, 25.3277, 31.0562, -31.5905, -23.6041
4.75134, 5, 16.0601, 15.3925, 25.3353, 31.0326, -31.6016, -23.584
4.76082, 5, 16.0404, 15.3885, 25.3582, 30.9628, -31.635, -23.5234
4.76917, 5, 16.0273, 15.3858, 25.3736, 30.9149, -31.6578, -23.4825
4.77531, 5, 16.0207, 15.3844, 25.3813, 30.8912, -31.6693, -23.4622
4.78488, 5, 16.001, 15.3804, 25.404, 30.8218, -31.7035, -23.4016
4.79289, 5, 15.9879, 15.3777, 25.4193, 30.7743, -31.726, -23.3614
4.79932, 5, 15.9814, 15.3764, 25.4271, 30.7507, -31.7371, -23.3411
4.80892, 5, 15.9683, 15.3737, 25.4427, 30.7046, -31.7704, -23.2799
4.8172, 5, 15.9551, 15.3712, 25.4579, 30.6579, -31.7816, -23.2598
4.82336, 5, 15.9418, 15.3688, 25.4732, 30.6107, -31.8045, -23.2198
4.8323, 5, 15.9285, 15.3663, 25.4885, 30.5648, -31.8276, -23.1798
4.84026, 5, 15.9154, 15.3639, 25.5036, 30.5187, -31.8505, -23.1393
4.84731, 5, 15.9021, 15.3616, 25.5185, 30.4717, -31.873, -23.0986
4.85525, 5, 15.889, 15.3592, 25.5338, 30.4257, -31.8954, -23.0586
4.86335, 5, 15.8759, 15.3568, 25.5493, 30.3797, -31.9178, -23.0189
4.87125, 5, 15.8627, 15.3545, 25.5644, 30.3329, -31.9406, -22.9791
4.87926, 5, 15.8495, 15.3522, 25.5796, 30.2873, -31.9638, -22.9388
4.88736, 5, 15.8364, 15.3498, 25.5949, 30.2416, -31.9868, -22.8986
4.89525, 5, 15.8233, 15.3475, 25.6101, 30.1948, -32.0094, -22.8591
4.90328, 5, 15.8101, 15.3452, 25.6251, 30.1488, -32.0318, -22.8197
4.91132, 5, 15.797, 15.3429, 25.6403, 30.1033, -32.0541, -22.7801
4.91929, 5, 15.7836, 15.3406, 25.6557, 30.0566, -32.0767, -22.74
4.92726, 5, 15.7703, 15.3383, 25.6708, 30.0107, -32.0997, -22.7005
4.93532, 5, 15.757, 15.3359, 25.6857, 29.9654, -32.1229, -22.6614
4.9433, 5, 15.7437, 15.3336, 25.7008, 29.919, -32.1458, -22.6224
4.95128, 5, 15.7304, 15.3312, 25.7158, 29.8731, -32.1685, -22.5828
4.95932, 5, 15.7172, 15.3288, 25.7306, 29.8281, -32.1909, -22.5431
4.96726, 5, 15.7039, 15.3264, 25.7457, 29.7821, -32.2135, -22.5041
4.97528, 5, 15.6906, 15.324, 25.761, 29.7364, -32.2365, -22.4655
4.98335, 5, 15.6775, 15.3216, 25.7762, 29.6917, -32.2598, -22.4267
4.99125, 5, 15.6643, 15.3191, 25.7912, 29.6462, -32.2828, -22.3877
4.99947, 5, 15.651, 15.3167, 25.8062, 29.6005, -32.3054, -22.3484
5.00729, 5, 15.6377, 15.3143, 25.8212, 29.5558, -32.3279, -22.3097
5.01534, 5, 15.6243, 15.312, 25.8361, 29.5107, -32.3504, -22.2713
5.02368, 5, 15.6109, 15.3098, 25.8508, 29.4648, -32.3733, -22.2327
5.03135, 5, 15.5976, 15.3076, 25.8658, 29.4203, -32.3967, -22.1934
5.03936, 5, 15.5844, 15.3054, 25.881, 29.3756, -32.4201, -22.1543
5.0478, 5, 15.5711, 15.3033, 25.8958, 29.3299, -32.4432, -22.1159
5.05531, 5, 15.5579, 15.3012, 25.9107, 29.2851, -32.4661, -22.0776
5.06337, 5, 15.5446, 15.2991, 25.9258, 29.2405, -32.4889, -22.039
5.07202, 5, 15.5313, 15.297, 25.9407, 29.1948, -32.5119, -22
5.08034, 5, 15.5181, 15.2949, 25.9555, 29.1498, -32.5353, -21.9613
5.08734, 5, 15.5048, 15.2929, 25.9705, 29.1056, -32.5589, -21.9232
5.09623, 5, 15.4916, 15.2909, 25.9856, 29.0604, -32.5821, -21.885
5.10352, 5, 15.4782, 15.2889, 26.0005, 29.0154, -32.605, -21.8466
5.11152, 5, 15.4648, 15.2869, 26.0151, 28.9712, -32.6277, -21.8079
5.12043, 5, 15.4514, 15.2849, 26.03, 28.9264, -32.6506, -21.7695
5.12764, 5, 15.438, 15.2829, 26.0448, 28.8813, -32.6739, -21.7317
5.13578, 5, 15.4246, 15.2809, 26.0595, 28.8375, -32.6975, -21.6939
5.14468, 5, 15.4114, 15.2789, 26.0741, 28.7934, -32.7209, -21.6557
5.15177, 5, 15.398, 15.2769, 26.0892, 28.7485, -32.744, -21.6173
5.16036, 5, 15.3846, 15.2749, 26.1042, 28.7044, -32.767, -21.5795
5.16869, 5, 15.3713, 15.2729, 26.1189, 28.6606, -32.79, -21.5421
5.17586, 5, 15.3647, 15.2719, 26.1336, 28.6157, -32.8132, -21.5047
5.18441, 5, 15.3447, 15.2688, 26.1484, 28.5717, -32.837, -21.4667
5.19273, 5, 15.338, 15.2677, 26.1558, 28.5501, -32.8489, -21.4475
5.19924, 5, 15.3246, 15.2656, 26.1704, 28.5061, -32.8722, -21.4096
5.20828, 5, 15.3042, 15.2626, 26.1923, 28.4393, -32.9068, -21.3539
5.21527, 5, 15.2975, 15.2615, 26.1998, 28.4176, -32.9182, -21.3353
5.22324, 5, 15.284, 15.2594, 26.2147, 28.3739, -32.9413, -21.2981
5.2313, 5, 15.2706, 15.2573, 26.2294, 28.3292, -32.9648, -21.2604
5.24139, 5, 15.2505, 15.2542, 26.2513, 28.2637, -33.0006, -21.2043
5.24729, 5, 15.2437, 15.2532, 26.2587, 28.242, -33.0124, -21.1857
5.25675, 5, 15.2237, 15.2501, 26.2806, 28.1754, -33.0474, -21.1301
5.26325, 5, 15.217, 15.2491, 26.2879, 28.1535, -33.059, -21.1115
5.2713, 5, 15.2037, 15.2472, 26.3026, 28.1104, -33.0821, -21.0737
5.28081, 5, 15.1836, 15.2444, 26.3247, 28.0445, -33.1176, -21.0178
5.28961, 5, 15.1703, 15.2426, 26.3392, 28.0011, -33.1414, -20.9811
5.29531, 5, 15.1635, 15.2417, 26.3464, 27.9797, -33.1532, -20.9627
5.30486, 5, 15.1499, 15.239, 26.3682, 27.9147, -33.188, -20.9071
5.31224, 5, 15.1365, 15.2382, 26.3754, 27.8927, -33.1995, -20.8883
5.3193, 5, 15.1232, 15.2365, 26.3899, 27.8496, -33.2226, -20.8512
5.32829, 5, 15.1098, 15.2348, 26.4042, 27.807, -33.246, -20.8147
5.33625, 5, 15.0964, 15.2332, 26.419, 27.7633, -33.2699, -20.778
5.3433, 5, 15.083, 15.2315, 26.4338, 27.7199, -33.2939, -20.7413
5.35125, 5, 15.0695, 15.2298, 26.4484, 27.6774, -33.3174, -20.7041
5.35925, 5, 15.0562, 15.2281, 26.4628, 27.6342, -33.3407, -20.6674
5.36725, 5, 15.0428, 15.2264, 26.4773, 27.5905, -33.364, -20.6311
5.37524, 5, 15.0293, 15.2246, 26.4918, 27.5479, -33.3875, -20.5949
5.38332, 5, 15.0159, 15.2229, 26.5061, 27.5052, -33.4115, -20.5586
5.39124, 5, 15.0023, 15.2211, 26.5205, 27.4614, -33.4356, -20.5219
5.39924, 5, 14.9887, 15.2194, 26.5351, 27.4185, -33.4593, -20.4851
5.40733, 5, 14.9752, 15.2177, 26.5497, 27.3763, -33.4827, -20.4493
5.41524, 5, 14.9617, 15.2159, 26.5641, 27.3331, -33.5059, -20.4134
5.42327, 5, 14.9482, 15.2143, 26.5784, 27.29, -33.5294, -20.3775
5.43131, 5, 14.9347, 15.2126, 26.593, 27.2478, -33.5533, -20.3409
5.43924, 5, 14.9212, 15.2109, 26.6074, 27.205, -33.5775, -20.3045
5.44727, 5, 14.9077, 15.2093, 26.6217, 27.1618, -33.6014, -20.2686
5.45581, 5, 14.8943, 15.2076, 26.6361, 27.1198, -33.625, -20.233
5.46324, 5, 14.8809, 15.2059, 26.6507, 27.0779, -33.6484, -20.1972
5.47124, 5, 14.8674, 15.2042, 26.6651, 27.035, -33.672, -20.1611
5.48007, 5, 14.8539, 15.2025, 26.6793, 26.9927, -33.696, -20.1249
5.48732, 5, 14.8402, 15.2008, 26.6936, 26.9509, -33.7204, -20.0892
5.49531, 5, 14.8266, 15.1991, 26.708, 26.9084, -33.7443, -20.0536
5.50407, 5, 14.8131, 15.1973, 26.7222, 26.8659, -33.7679, -20.0178
5.51224, 5, 14.7995, 15.1955, 26.7363, 26.8244, -33.7914, -19.9815
5.51939, 5, 14.786, 15.1938, 26.7507, 26.7825, -33.815, -19.9452
5.52823, 5, 14.7726, 15.192, 26.7653, 26.7397, -33.8391, -19.9094
5.53534, 5, 14.7591, 15.1903, 26.7796, 26.6977, -33.8636, -19.874
5.54353, 5, 14.7457, 15.1887, 26.7937, 26.6561, -33.8878, -19.8385
5.55216, 5, 14.7322, 15.1871, 26.808, 26.6136, -33.9117, -19.8028
5.55924, 5, 14.7188, 15.1856, 26.8223, 26.5713, -33.9355, -19.7665
5.5675, 5, 14.7053, 15.1841, 26.8363, 26.53, -33.9593, -19.7309
5.57615, 5, 14.6917, 15.1827, 26.8504, 26.4882, -33.9834, -19.6956
5.58329, 5, 14.678, 15.1814, 26.8647, 26.4458, -34.0078, -19.6605
5.5917, 5, 14.6644, 15.1801, 26.879, 26.4043, -34.032, -19.6251
5.60028, 5, 14.6509, 15.1788, 26.8932, 26.3632, -34.0557, -19.5893
5.60771, 5, 14.6374, 15.1775, 26.9072, 26.321, -34.0793, -19.5537
5.61562, 5, 14.624, 15.1762, 26.9215, 26.2795, -34.1031, -19.5189
5.62444, 5, 14.6105, 15.175, 26.9358, 26.2387, -34.1271, -19.4841
5.6317, 5, 14.5969, 15.1737, 26.9498, 26.1973, -34.1517, -19.4491
5.64006, 5, 14.5836, 15.1725, 26.9639, 26.1554, -34.1761, -19.4137
5.64839, 5, 14.5702, 15.1712, 26.9782, 26.1144, -34.2001, -19.3784
5.65585, 5, 14.5567, 15.1699, 26.9924, 26.0737, -34.2239, -19.3437
5.6644, 5, 14.5432, 15.1687, 27.0064, 26.0318, -34.2478, -19.3095
5.67408, 5, 14.5295, 15.1674, 27.0203, 25.9907, -34.272, -19.275
5.67992, 5, 14.5227, 15.1661, 27.0344, 25.9502, -34.2967, -19.24
5.68847, 5, 14.5022, 15.1648, 27.0484, 25.9091, -34.3211, -19.2048
5.69522, 5, 14.4954, 15.1642, 27.0554, 25.8882, -34.3331, -19.1874
5.70328, 5, 14.4817, 15.1629, 27.0693, 25.847, -34.357, -19.1532
5.71237, 5, 14.4613, 15.161, 27.0906, 25.7861, -34.3927, -19.1018
5.71922, 5, 14.4544, 15.1604, 27.0977, 25.7653, -34.4048, -19.0846
5.72727, 5, 14.4407, 15.1591, 27.1117, 25.7236, -34.4294, -19.0501
5.73683, 5, 14.4203, 15.1573, 27.1326, 25.663, -34.4663, -18.9981
5.74323, 5, 14.4134, 15.1567, 27.1397, 25.6427, -34.4785, -18.9811
5.75127, 5, 14.3998, 15.1556, 27.1537, 25.6014, -34.5027, -18.947
5.76077, 5, 14.3793, 15.1538, 27.1744, 25.5403, -34.5389, -18.8958
5.77033, 5, 14.3655, 15.1526, 27.1883, 25.4999, -34.5634, -18.8611
5.77522, 5, 14.3587, 15.1521, 27.1954, 25.4794, -34.5758, -18.8436
5.7851, 5, 14.3382, 15.1504, 27.2164, 25.4181, -34.6128, -18.7921
5.79131, 5, 14.3314, 15.1498, 27.2234, 25.3982, -34.6249, -18.7752
5.79924, 5, 14.3178, 15.1486, 27.2371, 25.3583, -34.649, -18.7415
5.80884, 5, 14.3042, 15.1475, 27.2511, 25.3176, -34.673, -18.6905
5.8153, 5, 14.2906, 15.1464, 27.2651, 25.277, -34.6973, -18.6733
5.82428, 5, 14.2772, 15.1452, 27.279, 25.2371, -34.7221, -18.6389
5.83222, 5, 14.2637, 15.144, 27.2928, 25.1969, -34.7469, -18.6052
5.8393, 5, 14.2501, 15.1428, 27.3068, 25.1561, -34.7715, -18.5716
5.84722, 5, 14.2366, 15.1416, 27.3208, 25.1161, -34.7958, -18.5381
5.85522, 5, 14.2229, 15.1405, 27.3346, 25.0766, -34.8199, -18.5041
5.86329, 5, 14.2091, 15.1392, 27.3483, 25.0361, -34.8444, -18.47
5.87122, 5, 14.1955, 15.138, 27.3621, 24.9956, -34.8693, -18.4363
5.87923, 5, 14.1818, 15.1368, 27.3759, 24.9559, -34.8942, -18.403
5.88728, 5, 14.1682, 15.1356, 27.3896, 24.9161, -34.9186, -18.3699
5.89523, 5, 14.1547, 15.1344, 27.4033, 24.8754, -34.9428, -18.3366
5.9033, 5, 14.1411, 15.1332, 27.4172, 24.8355, -34.9669, -18.3029
5.91122, 5, 14.1275, 15.132, 27.4312, 24.7961, -34.9914, -18.2693
5.91922, 5, 14.114, 15.1309, 27.445, 24.7561, -35.0165, -18.2361
5.92732, 5, 14.1004, 15.1298, 27.4586, 24.7156, -35.0414, -18.2034
5.93523, 5, 14.0868, 15.1287, 27.4724, 24.6761, -35.066, -18.1706
5.94322, 5, 14.0732, 15.1277, 27.4861, 24.6368, -35.0904, -18.1375
5.9513, 5, 14.0595, 15.1267, 27.4997, 24.5967, -35.1148, -18.1039
5.95923, 5, 14.0457, 15.1258, 27.5132, 24.5569, -35.1395, -18.0707
5.96722, 5, 14.032, 15.1248, 27.5269, 24.5181, -35.1646, -18.0381
5.9753, 5, 14.0183, 15.1239, 27.5407, 24.4789, -35.1896, -18.0056
5.98324, 5, 14.0046, 15.1231, 27.5544, 24.4389, -35.2141, -17.9729
5.99122, 5, 13.9909, 15.1222, 27.568, 24.3998, -35.2384, -17.9399
5.99934, 5, 13.9772, 15.1214, 27.5816, 24.3611, -35.2627, -17.9067
6.00723, 5, 13.9635, 15.1206, 27.5953, 24.3216, -35.2875, -17.874
6.01532, 5, 13.9499, 15.1199, 27.6089, 24.2818, -35.3127, -17.8417
6.02331, 5, 13.9363, 15.1191, 27.6224, 24.243, -35.3377, -17.8092
6.03137, 5, 13.9227, 15.1184, 27.6361, 24.2042, -35.3624, -17.7764
6.03938, 5, 13.909, 15.1177, 27.6498, 24.1646, -35.3869, -17.7433
6.04732, 5, 13.8951, 15.1169, 27.6634, 24.1252, -35.4114, -17.7101
6.05533, 5, 13.8813, 15.1162, 27.6768, 24.0867, -35.4364, -17.6775
6.06338, 5, 13.8676, 15.1155, 27.6903, 24.0477, -35.4617, -17.6452
6.07131, 5, 13.8538, 15.1148, 27.7039, 24.0078, -35.4866, -17.613
6.07925, 5, 13.8402, 15.1141, 27.7173, 23.9688, -35.5112, -17.5805
6.08734, 5, 13.8264, 15.1134, 27.7307, 23.9305, -35.5356, -17.5476
6.09533, 5, 13.8126, 15.1127, 27.7443, 23.8915, -35.5602, -17.5151
6.10338, 5, 13.7989, 15.1121, 27.7579, 23.8521, -35.5851, -17.4829
6.1118, 5, 13.7851, 15.1114, 27.7715, 23.8136, -35.6105, -17.4509
6.12029, 5, 13.7713, 15.1107, 27.785, 23.7752, -35.6355, -17.4188
6.12758, 5, 13.7575, 15.1101, 27.7984, 23.736, -35.6602, -17.3862
6.13572, 5, 13.7437, 15.1094, 27.8119, 23.6971, -35.6849, -17.3537
6.14436, 5, 13.7299, 15.1087, 27.8253, 23.6591, -35.7096, -17.3217
6.15175, 5, 13.7161, 15.1081, 27.8386, 23.621, -35.7348, -17.29
6.16037, 5, 13.7025, 15.1074, 27.852, 23.582, -35.7601, -17.2584
6.16779, 5, 13.6889, 15.1068, 27.8655, 23.5435, -35.785, -17.2265
6.17636, 5, 13.6752, 15.1061, 27.879, 23.5056, -35.8097, -17.1942
6.18384, 5, 13.6683, 15.1058, 27.8857, 23.4866, -35.8342, -17.1621
6.19235, 5, 13.6477, 15.1048, 27.9055, 23.4285, -35.859, -17.1303
6.19926, 5, 13.6408, 15.1045, 27.9122, 23.4093, -35.8716, -17.1146
6.20831, 5, 13.6202, 15.1035, 27.9324, 23.3529, -35.9099, -17.0676
6.21521, 5, 13.6134, 15.1032, 27.939, 23.3338, -35.9225, -17.0518
6.22436, 5, 13.5926, 15.1023, 27.9589, 23.2758, -35.9599, -17.004
6.23121, 5, 13.5856, 15.102, 27.9656, 23.2567, -35.9723, -16.988
6.23934, 5, 13.5717, 15.1013, 27.979, 23.219, -35.9972, -16.9562
6.24726, 5, 13.5579, 15.1007, 27.9924, 23.1809, -36.0224, -16.9249
6.25671, 5, 13.5372, 15.0998, 28.0121, 23.123, -36.0608, -16.8783
6.26325, 5, 13.5304, 15.0995, 28.0187, 23.1042, -36.0734, -16.8627
6.2727, 5, 13.5097, 15.0987, 28.0386, 23.0479, -36.1106, -16.8154
6.28078, 5, 13.4959, 15.0981, 28.0517, 23.0093, -36.1353, -16.7838
6.28875, 5, 13.4822, 15.0976, 28.0648, 22.9713, -36.1604, -16.7527
6.29681, 5, 13.4684, 15.0971, 28.0781, 22.9341, -36.186, -16.7218
6.30504, 5, 13.4546, 15.0966, 28.0916, 22.8965, -36.2115, -16.6908
6.31127, 5, 13.4477, 15.0963, 28.0982, 22.8774, -36.224, -16.6752
6.32078, 5, 13.4337, 15.0958, 28.1115, 22.8394, -36.2491, -16.6438
6.32822, 5, 13.4197, 15.0954, 28.1245, 22.8023, -36.2739, -16.6122
6.3362, 5, 13.4058, 15.0949, 28.1377, 22.7653, -36.2989, -16.581
6.34426, 5, 13.3919, 15.0945, 28.1509, 22.7274, -36.3244, -16.5501
6.35221, 5, 13.378, 15.0941, 28.164, 22.6897, -36.35, -16.5195
6.35926, 5, 13.3641, 15.0937, 28.1769, 22.6527, -36.3751, -16.4888
6.36726, 5, 13.3502, 15.0933, 28.1901, 22.6157, -36.4, -16.4576
6.37522, 5, 13.3364, 15.0929, 28.2033, 22.5779, -36.4247, -16.4264
6.38327, 5, 13.3227, 15.0925, 28.2165, 22.5404, -36.4499, -16.3957
6.3912, 5, 13.3089, 15.0922, 28.2295, 22.5038, -36.4756, -16.3652
6.39923, 5, 13.2952, 15.0918, 28.2425, 22.4667, -36.5013, -16.3348
6.40729, 5, 13.2813, 15.0915, 28.2557, 22.429, -36.5265, -16.3043
6.4152, 5, 13.2673, 15.0911, 28.2688, 22.3917, -36.5516, -16.2734
6.42339, 5, 13.2535, 15.0908, 28.2818, 22.3551, -36.5766, -16.2425
6.43124, 5, 13.2397, 15.0905, 28.2948, 22.318, -36.602, -16.2119
6.43921, 5, 13.2258, 15.0902, 28.3079, 22.2801, -36.6278, -16.1818
6.44799, 5, 13.2121, 15.0899, 28.321, 22.243, -36.6532, -16.1518
6.45627, 5, 13.1982, 15.0896, 28.334, 22.2066, -36.6782, -16.1215
6.46322, 5, 13.1843, 15.0894, 28.3468, 22.1696, -36.7031, -16.091
6.47198, 5, 13.1704, 15.0891, 28.3598, 22.1321, -36.7281, -16.0602
6.48026, 5, 13.1565, 15.0889, 28.3727, 22.0954, -36.7537, -16.0297
6.48722, 5, 13.1426, 15.0886, 28.3856, 22.059, -36.7796, -15.9997
6.49614, 5, 13.1287, 15.0884, 28.3985, 22.0221, -36.8052, -15.9698
6.50321, 5, 13.1146, 15.0882, 28.4114, 21.9848, -36.8305, -15.94
6.51124, 5, 13.1007, 15.088, 28.4245, 21.9485, -36.8557, -15.9097
6.5202, 5, 13.0868, 15.0878, 28.4375, 21.9125, -36.881, -15.8792
6.52729, 5, 13.0729, 15.0876, 28.4504, 21.8758, -36.907, -15.8488
6.53536, 5, 13.059, 15.0874, 28.4632, 21.8388, -36.933, -15.819
6.54434, 5, 13.0451, 15.0873, 28.4761, 21.8026, -36.9585, -15.7893
6.55131, 5, 13.0312, 15.0871, 28.4889, 21.7665, -36.9838, -15.7598
6.55937, 5, 13.0174, 15.0869, 28.5017, 21.7298, -37.0089, -15.7298
6.56781, 5, 13.0035, 15.0868, 28.5144, 21.693, -37.0344, -15.6996
6.5755, 5, 12.9897, 15.0867, 28.5273, 21.657, -37.0605, -15.6698
6.58334, 5, 12.9758, 15.0866, 28.5402, 21.6212, -37.0863, -15.6402
6.59289, 5, 12.9616, 15.0865, 28.553, 21.5847, -37.1119, -15.6107
6.60023, 5, 12.9475, 15.0864, 28.5656, 21.5479, -37.1373, -15.5812
6.60775, 5, 12.9335, 15.0863, 28.5784, 21.5119, -37.1627, -15.5513
6.61717, 5, 12.9195, 15.0862, 28.5912, 21.4761, -37.1886, -15.5211
6.62363, 5, 12.9056, 15.0861, 28.604, 21.4394, -37.2147, -15.491
6.63169, 5, 12.8918, 15.0861, 28.6167, 21.4028, -37.2403, -15.4613
6.64114, 5, 12.8778, 15.086, 28.6294, 21.367, -37.2656, -15.4319
6.6477, 5, 12.864, 15.0859, 28.6422, 21.3313, -37.2907, -15.4027
6.65617, 5, 12.8502, 15.0859, 28.655, 21.295, -37.3161, -15.3733
6.6653, 5, 12.8364, 15.0859, 28.6676, 21.2583, -37.3421, -15.3435
6.67182, 5, 12.8225, 15.0858, 28.6802, 21.2227, -37.3682, -15.3137
6.6804, 5, 12.8086, 15.0858, 28.6928, 21.1872, -37.3939, -15.2842
6.68853, 5, 12.8016, 15.0858, 28.6992, 21.1692, -37.4067, -15.255
6.69578, 5, 12.7876, 15.0858, 28.7117, 21.1328, -37.4322, -15.2259
6.70446, 5, 12.7668, 15.0858, 28.7305, 21.0797, -37.4705, -15.1969
6.7112, 5, 12.7599, 15.0858, 28.7368, 21.0621, -37.4835, -15.1821
6.71924, 5, 12.746, 15.0858, 28.7496, 21.0267, -37.5097, -15.1525
6.72845, 5, 12.7251, 15.0858, 28.7687, 20.9727, -37.5481, -15.1086
6.73519, 5, 12.7181, 15.0858, 28.775, 20.955, -37.5608, -15.0941
6.74328, 5, 12.7043, 15.0858, 28.7875, 20.92, -37.5861, -15.0653
6.75286, 5, 12.6834, 15.0858, 28.8064, 20.8668, -37.6248, -15.0223
6.76213, 5, 12.6695, 15.0858, 28.8189, 20.8308, -37.6511, -14.9933
6.76725, 5, 12.6625, 15.0858, 28.8252, 20.8132, -37.6642, -14.9787
6.77679, 5, 12.6413, 15.0859, 28.8438, 20.7608, -37.7027, -14.9347
6.78626, 5, 12.6273, 15.0859, 28.8563, 20.7252, -37.7283, -14.9061
6.7912, 5, 12.6203, 15.0859, 28.8626, 20.7072, -37.7411, -14.8918
6.80101, 5, 12.5993, 15.0859, 28.8814, 20.6541, -37.7805, -14.8491
6.80733, 5, 12.5923, 15.0859, 28.8876, 20.6367, -37.7937, -14.8349
6.81518, 5, 12.5782, 15.0859, 28.9, 20.6017, -37.8198, -14.8062
6.82418, 5, 12.5641, 15.0859, 28.9125, 20.5658, -37.8455, -14.7771
6.83219, 5, 12.5501, 15.0859, 28.925, 20.5302, -37.871, -14.7482
6.83918, 5, 12.5361, 15.086, 28.9374, 20.4954, -37.8967, -14.7197
6.8472, 5, 12.5221, 15.086, 28.9498, 20.4607, -37.923, -14.6914
6.85525, 5, 12.508, 15.086, 28.9621, 20.4252, -37.9494, -14.6631
6.86318, 5, 12.4938, 15.086, 28.9746, 20.3898, -37.9755, -14.6347
6.87118, 5, 12.4796, 15.0861, 28.9871, 20.3551, -38.0013, -14.606
6.87925, 5, 12.4655, 15.0861, 28.9994, 20.3204, -38.027, -14.5772
6.8872, 5, 12.4514, 15.0862, 29.0117, 20.285, -38.0531, -14.5488
6.89518, 5, 12.4373, 15.0863, 29.024, 20.2497, -38.0796, -14.5205
6.90326, 5, 12.4233, 15.0863, 29.0363, 20.2153, -38.1059, -14.4926
6.9112, 5, 12.4092, 15.0864, 29.0486, 20.1811, -38.1317, -14.4646
6.91925, 5, 12.3952, 15.0865, 29.0608, 20.1462, -38.1572, -14.4361
6.9272, 5, 12.3812, 15.0866, 29.073, 20.1111, -38.183, -14.4073
6.93519, 5, 12.3672, 15.0867, 29.0855, 20.0766, -38.2092, -14.3785
6.94325, 5, 12.3532, 15.0868, 29.0979, 20.0425, -38.2358, -14.3504
6.95118, 5, 12.3391, 15.087, 29.1102, 20.0078, -38.2619, -14.3224
6.9592, 5, 12.3249, 15.0871, 29.1224, 19.9727, -38.2879, -14.2947
6.96729, 5, 12.3108, 15.0873, 29.1346, 19.9385, -38.3136, -14.267
6.97518, 5, 12.2968, 15.0875, 29.1468, 19.9047, -38.3397, -14.2387
6.98318, 5, 12.2828, 15.0876, 29.159, 19.8702, -38.3662, -14.2103
6.99127, 5, 12.2688, 15.0878, 29.1712, 19.8351, -38.3925, -14.1823
6.99922, 5, 12.2547, 15.088, 29.1833, 19.8006, -38.4184, -14.1545
7.00719, 5, 12.2406, 15.0882, 29.1955, 19.7666, -38.4441, -14.1268
7.01528, 5, 12.2266, 15.0884, 29.2077, 19.7322, -38.4698, -14.0992
7.02326, 5, 12.2126, 15.0886, 29.2199, 19.6972, -38.496, -14.0715
7.03131, 5, 12.1985, 15.0888, 29.2319, 19.6629, -38.5226, -14.0435
7.03931, 5, 12.1844, 15.0891, 29.244, 19.629, -38.5489, -14.0152
7.04729, 5, 12.1701, 15.0893, 29.2563, 19.5951, -38.575, -13.9876
7.05536, 5, 12.156, 15.0895, 29.2684, 19.5604, -38.6008, -13.9604
7.0633, 5, 12.1419, 15.0897, 29.2805, 19.5259, -38.6269, -13.9332
7.07118, 5, 12.1277, 15.09, 29.2925, 19.4923, -38.6535, -13.9062
7.07935, 5, 12.1136, 15.0903, 29.3047, 19.4586, -38.6801, -13.8786
7.08721, 5, 12.0995, 15.0906, 29.3169, 19.4243, -38.7062, -13.8509
7.09522, 5, 12.0853, 15.091, 29.329, 19.39, -38.732, -13.8232
7.10341, 5, 12.0712, 15.0914, 29.341, 19.3565, -38.7578, -13.7961
7.11137, 5, 12.0571, 15.0918, 29.3529, 19.3232, -38.7841, -13.7693
7.11942, 5, 12.043, 15.0923, 29.365, 19.2893, -38.8108, -13.7424
7.12762, 5, 12.0288, 15.0927, 29.3769, 19.255, -38.8372, -13.7156
7.13565, 5, 12.0144, 15.0933, 29.3889, 19.2214, -38.8634, -13.6885
7.14422, 5, 12.0001, 15.0938, 29.4008, 19.1882, -38.8893, -13.661
7.1518, 5, 11.9859, 15.0945, 29.4129, 19.1547, -38.9153, -13.6338
7.16034, 5, 11.9718, 15.0951, 29.425, 19.1205, -38.942, -13.6068
7.16775, 5, 11.9576, 15.0957, 29.4371, 19.0869, -38.9687, -13.5801
7.17635, 5, 11.9434, 15.0964, 29.4491, 19.0539, -38.9949, -13.5534
7.18375, 5, 11.9363, 15.0967, 29.461, 19.0206, -39.0208, -13.5267
7.19224, 5, 11.9152, 15.0979, 29.473, 18.9867, -39.0467, -13.4998
7.19919, 5, 11.9081, 15.0983, 29.479, 18.9697, -39.0598, -13.4862
7.20718, 5, 11.894, 15.099, 29.4909, 18.9362, -39.0864, -13.4589
7.21621, 5, 11.8726, 15.1003, 29.5086, 18.8866, -39.1264, -13.419
7.22318, 5, 11.8654, 15.1007, 29.5145, 18.8699, -39.1395, -13.4058
7.23235, 5, 11.844, 15.102, 29.5324, 18.8187, -39.1786, -13.3662
7.23923, 5, 11.8369, 15.1025, 29.5384, 18.802, -39.1917, -13.353
7.24855, 5, 11.8156, 15.1038, 29.5562, 18.7526, -39.2315, -13.3124
7.25517, 5, 11.8085, 15.1043, 29.5621, 18.7361, -39.245, -13.2987
7.26462, 5, 11.7872, 15.1058, 29.5799, 18.6856, -39.2846, -13.258
7.27116, 5, 11.78, 15.1063, 29.5858, 18.6689, -39.2977, -13.2447
7.28069, 5, 11.7588, 15.1079, 29.6035, 18.6196, -39.3367, -13.2052
7.28872, 5, 11.7447, 15.109, 29.6153, 18.5866, -39.3631, -13.1789
7.29677, 5, 11.7306, 15.1101, 29.627, 18.553, -39.3899, -13.1525
7.30475, 5, 11.7164, 15.1112, 29.6389, 18.5198, -39.4167, -13.1258
7.31288, 5, 11.702, 15.1124, 29.6507, 18.4872, -39.4431, -13.0988
7.32075, 5, 11.6948, 15.1129, 29.6566, 18.4711, -39.4562, -13.0855
7.32877, 5, 11.6807, 15.1141, 29.6683, 18.4385, -39.4824, -13.0592
7.33617, 5, 11.6664, 15.1153, 29.6799, 18.4051, -39.5089, -13.0329
7.34419, 5, 11.6522, 15.1165, 29.6916, 18.3721, -39.5359, -13.0069
7.35224, 5, 11.638, 15.1176, 29.7033, 18.3397, -39.5626, -12.9808
7.36017, 5, 11.6237, 15.1187, 29.7149, 18.3072, -39.5889, -12.9545
7.36818, 5, 11.6095, 15.1199, 29.7265, 18.274, -39.615, -12.9279
7.37621, 5, 11.5953, 15.121, 29.7381, 18.2408, -39.6412, -12.9012
7.38418, 5, 11.5811, 15.1221, 29.7499, 18.2084, -39.6681, -12.8751
7.39218, 5, 11.5668, 15.1233, 29.7617, 18.1762, -39.6951, -12.8493
7.40025, 5, 11.5524, 15.1244, 29.7734, 18.1436, -39.7217, -12.8236
7.40818, 5, 11.538, 15.1255, 29.7849, 18.1104, -39.7481, -12.7981
7.41618, 5, 11.5237, 15.1266, 29.7965, 18.0776, -39.7744, -12.7721
7.42423, 5, 11.5094, 15.1278, 29.8081, 18.0454, -39.801, -12.7456
7.43218, 5, 11.4952, 15.1289, 29.8197, 18.013, -39.8282, -12.7192
7.44023, 5, 11.4809, 15.1301, 29.8312, 17.9799, -39.855, -12.6933
7.44824, 5, 11.4667, 15.1313, 29.8427, 17.9471, -39.8814, -12.6678
7.45616, 5, 11.4526, 15.1326, 29.8541, 17.9148, -39.9076, -12.6425
7.46458, 5, 11.4384, 15.1338, 29.8657, 17.8829, -39.934, -12.617
7.47118, 5, 11.4242, 15.1351, 29.8773, 17.8504, -39.9611, -12.5915
7.47923, 5, 11.41, 15.1364, 29.8889, 17.8173, -39.9882, -12.5656
7.48717, 5, 11.3956, 15.1378, 29.9003, 17.7849, -40.015, -12.5396
7.49616, 5, 11.3812, 15.1392, 29.9117, 17.753, -40.0415, -12.514
7.50327, 5, 11.367, 15.1406, 29.9233, 17.7209, -40.0679, -12.4886
7.51158, 5, 11.3527, 15.142, 29.9348, 17.6883, -40.0947, -12.4634
7.5192, 5, 11.3385, 15.1435, 29.9462, 17.656, -40.1219, -12.4383
7.52731, 5, 11.3243, 15.145, 29.9576, 17.6244, -40.1488, -12.413
7.53549, 5, 11.31, 15.1465, 29.9691, 17.5929, -40.1752, -12.3876
7.54326, 5, 11.2958, 15.1481, 29.9807, 17.5607, -40.2015, -12.3619
7.55135, 5, 11.2816, 15.1496, 29.9921, 17.5283, -40.2278, -12.3362
7.55965, 5, 11.2674, 15.1511, 30.0035, 17.4965, -40.255, -12.311
7.56723, 5, 11.2532, 15.1526, 30.0148, 17.4651, -40.2822, -12.2861
7.57543, 5, 11.2388, 15.154, 30.0262, 17.4335, -40.3089, -12.2612
7.58465, 5, 11.2243, 15.1555, 30.0375, 17.4011, -40.3355, -12.2363
7.59122, 5, 11.2101, 15.1569, 30.0488, 17.369, -40.3619, -12.2109
7.59933, 5, 11.1957, 15.1583, 30.0601, 17.3375, -40.389, -12.185
7.60888, 5, 11.1814, 15.1597, 30.0714, 17.3061, -40.4163, -12.1593
7.61617, 5, 11.1672, 15.1612, 30.0829, 17.2742, -40.4433, -12.1339
7.62377, 5, 11.1528, 15.1626, 30.0943, 17.2418, -40.4698, -12.1091
7.63317, 5, 11.1385, 15.164, 30.1057, 17.2101, -40.4961, -12.0845
7.63959, 5, 11.1242, 15.1654, 30.1169, 17.1788, -40.5228, -12.0598
7.64769, 5, 11.1099, 15.1669, 30.1282, 17.1473, -40.55, -12.035
7.65637, 5, 11.0956, 15.1684, 30.1395, 17.115, -40.5772, -12.0098
7.66372, 5, 11.0812, 15.1699, 30.1507, 17.0829, -40.604, -11.9843
7.67231, 5, 11.0668, 15.1714, 30.1619, 17.0516, -40.6306, -11.9593
7.68128, 5, 11.0525, 15.1729, 30.173, 17.0205, -40.6572, -11.9346
7.68779, 5, 11.0381, 15.1745, 30.1841, 16.9891, -40.6843, -11.91
7.697, 5, 11.0239, 15.176, 30.1955, 16.957, -40.7117, -11.8854
7.70417, 5, 11.0095, 15.1776, 30.2067, 16.9255, -40.7387, -11.8608
7.7112, 5, 11.0023, 15.1783, 30.2123, 16.91, -40.752, -11.8483
7.72119, 5, 10.9809, 15.1807, 30.229, 16.8633, -40.7918, -11.8109
7.72721, 5, 10.9737, 15.1814, 30.2345, 16.8474, -40.8051, -11.7984
7.73639, 5, 10.9523, 15.1837, 30.2513, 16.7998, -40.8461, -11.7611
7.74315, 5, 10.9452, 15.1844, 30.2569, 16.7843, -40.8598, -11.749
7.75122, 5, 10.9308, 15.1859, 30.268, 16.7536, -40.8869, -11.7249
7.75917, 5, 10.9163, 15.1874, 30.2791, 16.7229, -40.9137, -11.7009
7.76959, 5, 10.8948, 15.1897, 30.2957, 16.6757, -40.9537, -11.6646
7.7752, 5, 10.8877, 15.1905, 30.3013, 16.66, -40.9673, -11.6523
7.78525, 5, 10.8664, 15.1928, 30.3181, 16.6137, -41.0082, -11.6149
7.79115, 5, 10.8593, 15.1936, 30.3236, 16.5984, -41.0217, -11.6026
7.79923, 5, 10.8449, 15.1952, 30.3346, 16.5676, -41.0484, -11.5783
7.80879, 5, 10.8235, 15.1977, 30.351, 16.5204, -41.0883, -11.5422
7.81795, 5, 10.8163, 15.1985, 30.3565, 16.505, -41.1154, -11.5183
7.82415, 5, 10.802, 15.2003, 30.3675, 16.4745, -41.1292, -11.5062
7.83116, 5, 10.7876, 15.2021, 30.3784, 16.4441, -41.1566, -11.4821
7.84015, 5, 10.7731, 15.2039, 30.3894, 16.413, -41.1837, -11.4578
7.84723, 5, 10.7585, 15.2057, 30.4003, 16.3816, -41.2104, -11.4333
7.85515, 5, 10.7441, 15.2076, 30.4114, 16.3506, -41.2373, -11.409
7.86315, 5, 10.7295, 15.2095, 30.4225, 16.3201, -41.2646, -11.3852
7.87117, 5, 10.7151, 15.2114, 30.4335, 16.2895, -41.2922, -11.3614
7.87915, 5, 10.7007, 15.2132, 30.4445, 16.2583, -41.3193, -11.3376
7.88723, 5, 10.6862, 15.2151, 30.4554, 16.227, -41.3461, -11.3139
7.89515, 5, 10.6719, 15.2169, 30.4663, 16.1965, -41.3727, -11.2898
7.90315, 5, 10.6576, 15.2188, 30.4772, 16.1663, -41.3997, -11.2656
7.91121, 5, 10.6432, 15.2206, 30.488, 16.1358, -41.4274, -11.2413
7.91917, 5, 10.6289, 15.2225, 30.4989, 16.1046, -41.4548, -11.2172
7.92716, 5, 10.6143, 15.2243, 30.5096, 16.0739, -41.4819, -11.1934
7.93521, 5, 10.5998, 15.2262, 30.5204, 16.0436, -41.5088, -11.17
7.94314, 5, 10.5853, 15.2281, 30.5314, 16.0135, -41.5358, -11.1465
7.95125, 5, 10.5708, 15.23, 30.5422, 15.9831, -41.5633, -11.1228
7.95921, 5, 10.5563, 15.2319, 30.5531, 15.9522, -41.5909, -11.099
7.96718, 5, 10.5419, 15.2338, 30.5639, 15.9219, -41.6178, -11.0747
7.97514, 5, 10.5274, 15.2357, 30.5746, 15.8922, -41.6446, -11.0503
7.98321, 5, 10.5129, 15.2377, 30.5855, 15.8623, -41.6715, -11.0264
7.99115, 5, 10.4985, 15.2396, 30.5962, 15.8319, -41.6989, -11.0027
7.99922, 5, 10.4842, 15.2415, 30.607, 15.8012, -41.7267, -10.9793
8.0072, 5, 10.4698, 15.2435, 30.6177, 15.7711, -41.754, -10.956
8.01518, 5, 10.4553, 15.2453, 30.6285, 15.7414, -41.7811, -10.9325
8.02326, 5, 10.4408, 15.2473, 30.6393, 15.7116, -41.808, -10.9088
8.03123, 5, 10.4264, 15.2491, 30.65, 15.6811, -41.8352, -10.8849
8.03926, 5, 10.4121, 15.251, 30.6608, 15.6507, -41.863, -10.8611
8.04732, 5, 10.3977, 15.2529, 30.6714, 15.6209, -41.8905, -10.8376
8.05525, 5, 10.3834, 15.2548, 30.682, 15.5913, -41.9175, -10.8145
8.06326, 5, 10.369, 15.2567, 30.6927, 15.5616, -41.9445, -10.7913
8.07132, 5, 10.3546, 15.2587, 30.7033, 15.5311, -41.9715, -10.7681
8.07915, 5, 10.3403, 15.2607, 30.7139, 15.5008, -41.9992, -10.7447
8.08721, 5, 10.3258, 15.2629, 30.7244, 15.4711, -42.027, -10.7212
8.09524, 5, 10.3114, 15.265, 30.7349, 15.4416, -42.0543, -10.6974
8.10321, 5, 10.2968, 15.2671, 30.7457, 15.4116, -42.0814, -10.6738
8.11138, 5, 10.2822, 15.2693, 30.7564, 15.381, -42.1086, -10.6505
8.11937, 5, 10.2677, 15.2715, 30.7671, 15.3509, -42.1362, -10.6278
8.12739, 5, 10.2532, 15.2738, 30.7777, 15.3214, -42.1641, -10.605
8.1356, 5, 10.2388, 15.2759, 30.7882, 15.292, -42.1915, -10.5824
8.14426, 5, 10.2243, 15.2781, 30.7988, 15.2622, -42.2186, -10.5595
8.15159, 5, 10.2098, 15.2803, 30.8094, 15.2319, -42.2456, -10.5364
8.1598, 5, 10.1954, 15.2825, 30.8199, 15.2022, -42.2729, -10.513
8.16831, 5, 10.181, 15.2846, 30.8304, 15.1728, -42.3008, -10.4895
8.17572, 5, 10.1666, 15.2868, 30.8407, 15.1436, -42.3285, -10.4666
8.18425, 5, 10.1522, 15.2889, 30.8512, 15.1137, -42.3558, -10.4439
8.19174, 5, 10.1449, 15.29, 30.8565, 15.0837, -42.383, -10.4214
8.20015, 5, 10.1229, 15.2932, 30.8722, 15.0543, -42.4103, -10.3991
8.20778, 5, 10.1157, 15.2943, 30.8774, 15.0398, -42.4242, -10.3878
8.21624, 5, 10.0939, 15.2975, 30.8931, 14.9965, -42.4661, -10.3536
8.22315, 5, 10.0866, 15.2986, 30.8983, 14.9818, -42.4798, -10.3421
8.23229, 5, 10.0648, 15.3018, 30.914, 14.9371, -42.5205, -10.3076
8.23914, 5, 10.0576, 15.3029, 30.9192, 14.9224, -42.534, -10.2962
8.24835, 5, 10.0359, 15.3062, 30.9348, 14.8788, -42.5752, -10.2626
8.25516, 5, 10.0287, 15.3073, 30.94, 14.8643, -42.5892, -10.2515
8.26451, 5, 10.007, 15.3105, 30.9555, 14.82, -42.6307, -10.2181
8.27118, 5, 9.9997, 15.3116, 30.9607, 14.8051, -42.6444, -10.2069
8.28078, 5, 9.97768, 15.3149, 30.9764, 14.7613, -42.6851, -10.1731
8.28869, 5, 9.96309, 15.3172, 30.9867, 14.7326, -42.7127, -10.1502
8.29669, 5, 9.94856, 15.3194, 30.997, 14.7038, -42.7406, -10.1274
8.30478, 5, 9.93408, 15.3216, 31.0073, 14.6742, -42.7681, -10.1047
8.31275, 5, 9.91959, 15.324, 31.0175, 14.6446, -42.7953, -10.0823
8.32069, 5, 9.91232, 15.3252, 31.0227, 14.63, -42.8088, -10.0602
8.32881, 5, 9.89777, 15.3276, 31.0329, 14.6011, -42.8496, -10.0383
8.33614, 5, 9.88331, 15.3301, 31.043, 14.5723, -42.8635, -10.0272
8.34413, 5, 9.86883, 15.3325, 31.0532, 14.5431, -42.8916, -10.005
8.35216, 5, 9.85438, 15.335, 31.0634, 14.5134, -42.9192, -9.98239
8.36016, 5, 9.83989, 15.3374, 31.0737, 14.4843, -42.9466, -9.95958
8.36817, 5, 9.82525, 15.3399, 31.0841, 14.4557, -42.9739, -9.93667
8.37613, 5, 9.8107, 15.3424, 31.0944, 14.4271, -43.0015, -9.91417
8.38415, 5, 9.79615, 15.3449, 31.1047, 14.398, -43.0296, -9.892
8.39223, 5, 9.78159, 15.3474, 31.1149, 14.3685, -43.0574, -9.87007
8.40013, 5, 9.76709, 15.35, 31.125, 14.3394, -43.0848, -9.84832
8.40816, 5, 9.75252, 15.3525, 31.1352, 14.3109, -43.1119, -9.82651
8.41618, 5, 9.73793, 15.355, 31.1453, 14.2824, -43.1393, -9.8043
8.42415, 5, 9.72342, 15.3575, 31.1554, 14.2535, -43.1674, -9.78191
8.43214, 5, 9.70889, 15.36, 31.1655, 14.2243, -43.1954, -9.7595
8.43914, 5, 9.69436, 15.3625, 31.1755, 14.1957, -43.2229, -9.73731
8.44714, 5, 9.67974, 15.3649, 31.1855, 14.1675, -43.2503, -9.71543
8.45521, 5, 9.66499, 15.3673, 31.1957, 14.1395, -43.2777, -9.6938
8.46313, 5, 9.65032, 15.3698, 31.2058, 14.1108, -43.3057, -9.67227
8.47115, 5, 9.63568, 15.3723, 31.216, 14.0818, -43.3338, -9.65054
8.47928, 5, 9.62108, 15.3747, 31.226, 14.0533, -43.3614, -9.62871
8.48713, 5, 9.60656, 15.3772, 31.236, 14.0252, -43.3887, -9.60659
8.49533, 5, 9.59197, 15.3798, 31.2461, 13.9973, -43.4159, -9.58433
8.50322, 5, 9.57742, 15.3824, 31.2561, 13.9687, -43.4437, -9.56218
8.51117, 5, 9.56292, 15.3851, 31.2661, 13.9398, -43.472, -9.54044
8.51948, 5, 9.54839, 15.3878, 31.2761, 13.9112, -43.4999, -9.51901
8.52799, 5, 9.53387, 15.3906, 31.286, 13.8831, -43.5274, -9.49771
8.53613, 5, 9.51921, 15.3933, 31.2959, 13.8551, -43.5548, -9.47666
8.5437, 5, 9.50447, 15.396, 31.306, 13.8267, -43.5825, -9.45552
8.55202, 5, 9.48985, 15.3987, 31.316, 13.7978, -43.6107, -9.43403
8.56014, 5, 9.47523, 15.4014, 31.3259, 13.7693, -43.6385, -9.41221
8.56775, 5, 9.46065, 15.404, 31.3358, 13.7412, -43.6659, -9.39022
8.57623, 5, 9.4461, 15.4067, 31.3456, 13.7134, -43.6931, -9.36845
8.58314, 5, 9.43143, 15.4094, 31.3555, 13.6851, -43.7205, -9.34695
8.5921, 5, 9.41684, 15.4122, 31.3653, 13.6561, -43.7485, -9.32586
8.60022, 5, 9.40228, 15.4149, 31.3751, 13.6275, -43.7767, -9.30491
8.6072, 5, 9.38766, 15.4177, 31.3849, 13.5996, -43.8044, -9.28402
8.6162, 5, 9.37304, 15.4205, 31.3947, 13.572, -43.8318, -9.26284
8.62418, 5, 9.35826, 15.4232, 31.4044, 13.5441, -43.8593, -9.24149
8.63147, 5, 9.34348, 15.4259, 31.4144, 13.5154, -43.8873, -9.21982
8.64056, 5, 9.32882, 15.4285, 31.4243, 13.4871, -43.9156, -9.19841
8.64756, 5, 9.31408, 15.4311, 31.4342, 13.4593, -43.9434, -9.17715
8.65566, 5, 9.29949, 15.4337, 31.444, 13.4316, -43.9708, -9.15615
8.66453, 5, 9.28487, 15.4364, 31.4537, 13.4037, -43.9981, -9.13534
8.67166, 5, 9.27014, 15.4392, 31.4634, 13.3753, -44.0259, -9.11465
8.67973, 5, 9.25549, 15.442, 31.4732, 13.3471, -44.0543, -9.09382
8.68886, 5, 9.24088, 15.4448, 31.4828, 13.3195, -44.0823, -9.07275
8.69704, 5, 9.22626, 15.4478, 31.4925, 13.2922, -44.11, -9.05137
8.70413, 5, 9.2116, 15.4508, 31.5021, 13.2649, -44.1374, -9.03
8.71114, 5, 9.20419, 15.4523, 31.5069, 13.2509, -44.1512, -9.01922
8.71912, 5, 9.18931, 15.4553, 31.5166, 13.2227, -44.1793, -8.99796
8.72815, 5, 9.16717, 15.4598, 31.5311, 13.1811, -44.2217, -8.96659
8.73513, 5, 9.15978, 15.4613, 31.536, 13.1674, -44.2355, -8.95624
8.74517, 5, 9.13777, 15.4658, 31.5506, 13.1264, -44.2767, -8.92538
8.75111, 5, 9.13045, 15.4673, 31.5554, 13.1125, -44.2903, -8.91506
8.76136, 5, 9.10844, 15.4719, 31.5698, 13.0705, -44.3325, -8.88377
8.76717, 5, 9.10112, 15.4734, 31.5746, 13.0566, -44.3467, -8.87311
8.77663, 5, 9.07932, 15.478, 31.589, 13.0158, -44.3886, -8.84094
8.78564, 5, 9.06472, 15.4811, 31.5986, 12.9887, -44.4163, -8.81971
8.79118, 5, 9.05738, 15.4826, 31.6034, 12.975, -44.4301, -8.80923
8.8007, 5, 9.03523, 15.4871, 31.6177, 12.933, -44.472, -8.77815
8.80956, 5, 9.02052, 15.4901, 31.6273, 12.9053, -44.5003, -8.75772
8.81519, 5, 9.01322, 15.4916, 31.6321, 12.8916, -44.5142, -8.74754
8.82477, 5, 8.99858, 15.4945, 31.6417, 12.8508, -44.5556, -8.71686
8.83212, 5, 8.98401, 15.4975, 31.6513, 12.8371, -44.5693, -8.70654
8.84012, 5, 8.96938, 15.5005, 31.6608, 12.8092, -44.597, -8.68562
8.84715, 5, 8.95469, 15.5035, 31.6703, 12.7814, -44.6253, -8.66445
8.85512, 5, 8.94, 15.5066, 31.6797, 12.754, -44.6536, -8.64341
8.86318, 5, 8.92534, 15.5097, 31.6891, 12.7269, -44.6815, -8.62274
8.87112, 5, 8.91067, 15.5129, 31.6985, 12.7, -44.7092, -8.60233
8.87914, 5, 8.89597, 15.5161, 31.7078, 12.6725, -44.7369, -8.58209
8.88712, 5, 8.88115, 15.5193, 31.7172, 12.6448, -44.7654, -8.56203
8.89512, 5, 8.86639, 15.5225, 31.7266, 12.6174, -44.7938, -8.54187
8.90321, 5, 8.85159, 15.5257, 31.736, 12.5905, -44.8217, -8.5214
8.91111, 5, 8.83683, 15.5288, 31.7455, 12.5638, -44.8493, -8.50078
8.91911, 5, 8.82214, 15.532, 31.755, 12.5367, -44.877, -8.47988
8.9272, 5, 8.8073, 15.5351, 31.7644, 12.5091, -44.9052, -8.45909
8.93511, 5, 8.7925, 15.5384, 31.7739, 12.4818, -44.9338, -8.43857
8.94311, 5, 8.77781, 15.5416, 31.7833, 12.4551, -44.9619, -8.41833
8.95216, 5, 8.76308, 15.5448, 31.7926, 12.4287, -44.9899, -8.3983
8.96017, 5, 8.74836, 15.548, 31.8019, 12.4021, -45.0177, -8.37845
8.96918, 5, 8.73349, 15.5511, 31.8112, 12.3748, -45.046, -8.35874
8.97611, 5, 8.71856, 15.5542, 31.8204, 12.3474, -45.0747, -8.33878
8.98413, 5, 8.70371, 15.5573, 31.8297, 12.3207, -45.1029, -8.31861
8.99117, 5, 8.68889, 15.5604, 31.8389, 12.2942, -45.1308, -8.29815
8.99912, 5, 8.67413, 15.5636, 31.8481, 12.2677, -45.1585, -8.27765
9.00711, 5, 8.6594, 15.5668, 31.8575, 12.2407, -45.1867, -8.25742
9.01522, 5, 8.64464, 15.5701, 31.8668, 12.2134, -45.2155, -8.23741
9.0232, 5, 8.62996, 15.5734, 31.876, 12.1866, -45.2439, -8.21779
9.03118, 5, 8.61527, 15.5768, 31.8853, 12.1601, -45.272, -8.19821
9.03926, 5, 8.60058, 15.5802, 31.8945, 12.1338, -45.2998, -8.17854
9.04724, 5, 8.5858, 15.5837, 31.9037, 12.1072, -45.3279, -8.15887
9.05521, 5, 8.57091, 15.5872, 31.9129, 12.08, -45.3565, -8.13893
9.06334, 5, 8.55612, 15.5906, 31.9221, 12.0531, -45.3848, -8.11866
9.07124, 5, 8.54135, 15.594, 31.9312, 12.0265, -45.4126, -8.09833
9.07912, 5, 8.5266, 15.5975, 31.9404, 12.0002, -45.4403, -8.07827
9.0872, 5, 8.51193, 15.601, 31.9495, 11.9738, -45.4682, -8.0585
9.09516, 5, 8.49717, 15.6046, 31.9586, 11.9467, -45.4968, -8.03903
9.10325, 5, 8.48241, 15.608, 31.9678, 11.9195, -45.5254, -8.01966
9.11129, 5, 8.46779, 15.6115, 31.977, 11.8928, -45.5535, -8.00044
9.11926, 5, 8.45313, 15.6148, 31.9861, 11.8665, -45.5814, -7.9811
9.12743, 5, 8.43846, 15.6182, 31.9952, 11.8403, -45.6094, -7.96152
9.1355, 5, 8.42368, 15.6216, 32.0042, 11.8138, -45.6379, -7.94163
9.14348, 5, 8.40879, 15.625, 32.0132, 11.7868, -45.6665, -7.92143
9.15164, 5, 8.39403, 15.6284, 32.0222, 11.7602, -45.6946, -7.90148
9.16026, 5, 8.37919, 15.6319, 32.0311, 11.7339, -45.7224, -7.88164
9.16764, 5, 8.36439, 15.6354, 32.0401, 11.7079, -45.7502, -7.86212
9.17623, 5, 8.34965, 15.6391, 32.0491, 11.6817, -45.7787, -7.84279
9.18371, 5, 8.33475, 15.6428, 32.0581, 11.655, -45.8074, -7.8235
9.19221, 5, 8.31992, 15.6464, 32.067, 11.6282, -45.8357, -7.80434
9.19977, 5, 8.31254, 15.6482, 32.076, 11.6021, -45.8637, -7.78499
9.20828, 5, 8.29043, 15.6537, 32.0851, 11.5763, -45.8916, -7.76533
9.21513, 5, 8.28306, 15.6555, 32.0896, 11.5635, -45.9058, -7.7554
9.2242, 5, 8.26081, 15.6609, 32.1032, 11.5245, -45.9489, -7.72539
9.23116, 5, 8.25334, 15.6627, 32.1077, 11.5112, -45.9631, -7.71545
9.24024, 5, 8.2311, 15.6682, 32.121, 11.4716, -46.0051, -7.68603
9.2471, 5, 8.22372, 15.6701, 32.1254, 11.4587, -46.0189, -7.67639
9.25635, 5, 8.20167, 15.6754, 32.1388, 11.42, -46.0611, -7.6477
9.26316, 5, 8.19433, 15.6772, 32.1432, 11.4071, -46.0755, -7.63817
9.27258, 5, 8.17215, 15.6824, 32.1564, 11.3675, -46.1184, -7.60971
9.27911, 5, 8.16475, 15.6842, 32.1608, 11.3543, -46.1325, -7.60017
9.28868, 5, 8.14263, 15.6895, 32.174, 11.3151, -46.1744, -7.57114
9.29673, 5, 8.12786, 15.6931, 32.1828, 11.2895, -46.2027, -7.55137
9.30466, 5, 8.11304, 15.6968, 32.1916, 11.264, -46.2314, -7.53177
9.31264, 5, 8.09804, 15.7006, 32.2004, 11.238, -46.2598, -7.51247
9.32081, 5, 8.08308, 15.7044, 32.2093, 11.2115, -46.2877, -7.49351
9.32866, 5, 8.07565, 15.7063, 32.2137, 11.1983, -46.3016, -7.48411
9.3361, 5, 8.0608, 15.7101, 32.2225, 11.1723, -46.3294, -7.46529
9.34419, 5, 8.04603, 15.7139, 32.2313, 11.1466, -46.3577, -7.44667
9.3521, 5, 8.03123, 15.7177, 32.2399, 11.121, -46.3866, -7.42807
9.36011, 5, 8.01642, 15.7215, 32.2487, 11.0949, -46.4151, -7.40911
9.36812, 5, 8.00173, 15.7254, 32.2573, 11.0686, -46.4432, -7.38998
9.37611, 5, 7.98703, 15.7293, 32.266, 11.0425, -46.4712, -7.37078
9.38414, 5, 7.97227, 15.7332, 32.2747, 11.0169, -46.4996, -7.35132
9.3921, 5, 7.95746, 15.737, 32.2834, 10.9915, -46.5285, -7.33219
9.40011, 5, 7.94251, 15.7408, 32.292, 10.966, -46.5569, -7.31331
9.40817, 5, 7.92765, 15.7445, 32.3007, 10.9399, -46.5849, -7.29481
9.41613, 5, 7.91282, 15.7483, 32.3094, 10.9137, -46.6128, -7.27617
9.4241, 5, 7.89796, 15.752, 32.318, 10.8879, -46.6411, -7.25782
9.43216, 5, 7.88316, 15.7558, 32.3267, 10.8624, -46.67, -7.23938
9.44011, 5, 7.86826, 15.7596, 32.3353, 10.8372, -46.6985, -7.22083
9.4481, 5, 7.85338, 15.7636, 32.3437, 10.8116, -46.7268, -7.20192
9.4562, 5, 7.83861, 15.7676, 32.3522, 10.7857, -46.7549, -7.18293
9.4641, 5, 7.8238, 15.7715, 32.3607, 10.7598, -46.7831, -7.16394
9.47209, 5, 7.80897, 15.7754, 32.3691, 10.7346, -46.8119, -7.14496
9.48018, 5, 7.794, 15.7794, 32.3777, 10.7096, -46.8405, -7.12628
9.48712, 5, 7.77895, 15.7834, 32.3862, 10.6848, -46.8686, -7.1078
9.49515, 5, 7.76399, 15.7875, 32.3947, 10.6593, -46.8965, -7.0895
9.5031, 5, 7.74902, 15.7915, 32.4031, 10.6334, -46.9246, -7.07122
9.5114, 5, 7.73411, 15.7954, 32.4117, 10.6079, -46.9534, -7.05295
9.51927, 5, 7.71922, 15.7993, 32.4202, 10.5828, -46.9822, -7.03449
9.52712, 5, 7.70429, 15.8032, 32.4288, 10.5579, -47.0105, -7.01581
9.53613, 5, 7.68945, 15.8071, 32.4374, 10.5329, -47.0386, -6.99688
9.54398, 5, 7.67462, 15.811, 32.4459, 10.5074, -47.0668, -6.97802
9.55209, 5, 7.65978, 15.815, 32.4542, 10.4817, -47.0956, -6.95943
9.55974, 5, 7.64492, 15.819, 32.4626, 10.4563, -47.1243, -6.94121
9.56817, 5, 7.62992, 15.8232, 32.4709, 10.4313, -47.1525, -6.92306
9.57516, 5, 7.61502, 15.8273, 32.4792, 10.4065, -47.1805, -6.90494
9.58385, 5, 7.60024, 15.8315, 32.4875, 10.3813, -47.2084, -6.88691
9.59216, 5, 7.58546, 15.8357, 32.4958, 10.3556, -47.237, -6.86888
9.59914, 5, 7.5707, 15.8399, 32.5041, 10.3301, -47.266, -6.85059
9.60816, 5, 7.55583, 15.8441, 32.5124, 10.3049, -47.2945, -6.83215
9.61602, 5, 7.54092, 15.8483, 32.5206, 10.2801, -47.3226, -6.81348
9.62412, 5, 7.52607, 15.8527, 32.529, 10.2552, -47.3508, -6.79474
9.63225, 5, 7.5112, 15.8569, 32.5374, 10.23, -47.3794, -6.77628
9.64023, 5, 7.4963, 15.8611, 32.5458, 10.2043, -47.4084, -6.75809
9.64755, 5, 7.48127, 15.8653, 32.5542, 10.1788, -47.4369, -6.74009
9.6565, 5, 7.46618, 15.8694, 32.5624, 10.1538, -47.4651, -6.72208
9.66358, 5, 7.45119, 15.8736, 32.5705, 10.1292, -47.4931, -6.70432
9.67181, 5, 7.43621, 15.8777, 32.5787, 10.1046, -47.5218, -6.68634
9.68056, 5, 7.42134, 15.8819, 32.587, 10.0795, -47.5509, -6.66832
9.68769, 5, 7.40647, 15.8862, 32.5952, 10.054, -47.5796, -6.65008
9.6957, 5, 7.39156, 15.8906, 32.6034, 10.029, -47.608, -6.63151
9.70493, 5, 7.37668, 15.8948, 32.6116, 10.0043, -47.6363, -6.613
9.71298, 5, 7.36184, 15.8991, 32.6196, 9.97978, -47.665, -6.59466
9.72013, 5, 7.34698, 15.9033, 32.6278, 9.95502, -47.6941, -6.57647
9.72709, 5, 7.33955, 15.9054, 32.6319, 9.94248, -47.7086, -6.56746
9.73519, 5, 7.32454, 15.9098, 32.6401, 9.91717, -47.737, -6.54956
9.74423, 5, 7.30187, 15.9163, 32.6524, 9.87979, -47.7792, -6.52298
9.75108, 5, 7.2944, 15.9185, 32.6566, 9.86758, -47.7933, -6.5141
9.76162, 5, 7.27191, 15.9249, 32.6688, 9.83134, -47.8369, -6.4875
9.76847, 5, 7.25702, 15.9292, 32.6767, 9.80691, -47.8657, -6.46966
9.77508, 5, 7.24957, 15.9313, 32.6807, 9.79442, -47.88, -6.46065
9.78314, 5, 7.23457, 15.9356, 32.6887, 9.76936, -47.9085, -6.44228
9.79272, 5, 7.21224, 15.9421, 32.7007, 9.73234, -47.9511, -6.41503
9.80164, 5, 7.19736, 15.9465, 32.7088, 9.70803, -47.9802, -6.39738
9.80717, 5, 7.18998, 15.9487, 32.7128, 9.69594, -47.9946, -6.38862
9.81671, 5, 7.16765, 15.9554, 32.7248, 9.65926, -48.0372, -6.3623
9.82557, 5, 7.16011, 15.9576, 32.7327, 9.63425, -48.0654, -6.34486
9.83115, 5, 7.14516, 15.962, 32.7366, 9.62178, -48.0795, -6.33616
9.84012, 5, 7.13029, 15.9665, 32.7447, 9.5972, -48.1083, -6.3187
9.84809, 5, 7.11539, 15.971, 32.7528, 9.57309, -48.1374, -6.30108
9.8561, 5, 7.10059, 15.9756, 32.7609, 9.54906, -48.1661, -6.2832
9.86309, 5, 7.0857, 15.9802, 32.769, 9.52486, -48.1945, -6.26523
9.87111, 5, 7.07076, 15.9847, 32.777, 9.50004, -48.2228, -6.24716
9.87911, 5, 7.05595, 15.9892, 32.7848, 9.47516, -48.2516, -6.22918
9.8871, 5, 7.04102, 15.9937, 32.7926, 9.45055, -48.2809, -6.21156
9.89608, 5, 7.02612, 15.9982, 32.8006, 9.42629, -48.3095, -6.19433
9.90414, 5, 7.01119, 16.0026, 32.8084, 9.40219, -48.3379, -6.17725
9.91364, 5, 6.9886, 16.0095, 32.8202, 9.3655, -48.3804, -6.15147
9.92008, 5, 6.98111, 16.0119, 32.8241, 9.35304, -48.3949, -6.14296
9.92707, 5, 6.96609, 16.0165, 32.8319, 9.32821, -48.4241, -6.12582
9.9351, 5, 6.95116, 16.021, 32.8396, 9.3039, -48.4529, -6.10864
9.94409, 5, 6.93623, 16.0255, 32.8473, 9.27988, -48.4815, -6.09106
9.95214, 5, 6.92118, 16.0301, 32.8551, 9.25601, -48.51, -6.07333
9.96012, 5, 6.9062, 16.0347, 32.8631, 9.23188, -48.5388, -6.0556
9.96807, 5, 6.89122, 16.0394, 32.8709, 9.20731, -48.568, -6.03807
9.97614, 5, 6.87627, 16.0441, 32.8789, 9.18272, -48.5967, -6.02089
9.98307, 5, 6.86127, 16.0486, 32.8867, 9.15851, -48.625, -6.00371
9.99115, 5, 6.84609, 16.0532, 32.8943, 9.13469, -48.6533, -5.98674
9.99908, 5, 6.831, 16.0578, 32.9019, 9.11098, -48.6821, -5.96993
10.0081, 5, 6.81597, 16.0625, 32.9096, 9.08696, -48.7115, -5.95285
10.0161, 5, 6.80092, 16.0672, 32.9174, 9.06262, -48.7404, -5.93593
10.0231, 5, 6.786, 16.0719, 32.925, 9.03823, -48.769, -5.91865
10.0321, 5, 6.77099, 16.0766, 32.9327, 9.01441, -48.7975, -5.90137
10.0402, 5, 6.75607, 16.0813, 32.9404, 8.99081, -48.8263, -5.88369
10.0473, 5, 6.74122, 16.086, 32.9479, 8.96746, -48.8555, -5.86619
10.0553, 5, 6.72635, 16.0907, 32.9555, 8.9437, -48.8844, -5.84887
10.0632, 5, 6.71144, 16.0955, 32.9632, 8.91945, -48.9129, -5.83194
10.0712, 5, 6.69641, 16.1003, 32.9709, 8.89525, -48.9412, -5.81534
10.0793, 5, 6.68134, 16.1051, 32.9787, 8.87145, -48.9699, -5.79853
10.0871, 5, 6.66637, 16.1099, 32.9864, 8.84788, -48.9992, -5.78195
10.0951, 5, 6.65143, 16.1147, 32.9941, 8.82439, -49.0283, -5.76519
10.1032, 5, 6.63651, 16.1195, 33.0016, 8.80073, -49.0569, -5.74843
10.1112, 5, 6.6216, 16.1243, 33.009, 8.77661, -49.0854, -5.73158
10.1193, 5, 6.6066, 16.1291, 33.0165, 8.75244, -49.1143, -5.71425
10.1273, 5, 6.5917, 16.134, 33.024, 8.7287, -49.1437, -5.69687
10.1361, 5, 6.57682, 16.1389, 33.0315, 8.70523, -49.1726, -5.67951
10.1435, 5, 6.5619, 16.1436, 33.0389, 8.68198, -49.2012, -5.66237
10.1515, 5, 6.5469, 16.1484, 33.0464, 8.65845, -49.2295, -5.6455
10.1603, 5, 6.53179, 16.1532, 33.0539, 8.63437, -49.2581, -5.62882
10.1676, 5, 6.51674, 16.1581, 33.0612, 8.61033, -49.2874, -5.61235
10.1762, 5, 6.50175, 16.1629, 33.0687, 8.58657, -49.3165, -5.59566
10.1844, 5, 6.48671, 16.1678, 33.0762, 8.56312, -49.3452, -5.57907
10.1917, 5, 6.47176, 16.1726, 33.0838, 8.5398, -49.3737, -5.56239
10.2002, 5, 6.45673, 16.1774, 33.0914, 8.5163, -49.4025, -5.54559
10.2084, 5, 6.4492, 16.1799, 33.0952, 8.50436, -49.4171, -5.53714
10.2156, 5, 6.43421, 16.1848, 33.1028, 8.48012, -49.4464, -5.51991
10.2242, 5, 6.41177, 16.1924, 33.1139, 8.4444, -49.4893, -5.4942
10.2311, 5, 6.40429, 16.195, 33.1175, 8.4327, -49.5036, -5.48577
10.2391, 5, 6.38923, 16.2, 33.1248, 8.40943, -49.532, -5.46908
10.2483, 5, 6.36654, 16.2075, 33.1359, 8.37458, -49.5756, -5.44425
10.2551, 5, 6.35897, 16.21, 33.1396, 8.36276, -49.5902, -5.43596
10.2631, 5, 6.34384, 16.2151, 33.1469, 8.33882, -49.619, -5.41951
10.2725, 5, 6.32131, 16.2228, 33.1578, 8.30342, -49.6618, -5.39501
10.2791, 5, 6.3138, 16.2253, 33.1614, 8.29179, -49.6761, -5.3868
10.2871, 5, 6.29868, 16.2304, 33.1686, 8.2687, -49.705, -5.37043
10.2967, 5, 6.27614, 16.238, 33.1793, 8.23406, -49.7487, -5.34545
10.3055, 5, 6.26119, 16.2431, 33.1866, 8.21046, -49.7772, -5.32864
10.3111, 5, 6.25367, 16.2456, 33.1903, 8.19855, -49.7915, -5.32022
10.3207, 5, 6.23101, 16.2533, 33.2013, 8.1633, -49.8342, -5.29516
10.3295, 5, 6.22339, 16.2559, 33.205, 8.14039, -49.8635, -5.2788
10.3351, 5, 6.20816, 16.2612, 33.2124, 8.12894, -49.8782, -5.27079
10.3441, 5, 6.19307, 16.2663, 33.2196, 8.10627, -49.9072, -5.25476
10.3521, 5, 6.17803, 16.2714, 33.2267, 8.08336, -49.9359, -5.23876
10.3592, 5, 6.16304, 16.2766, 33.2338, 8.05992, -49.9644, -5.2228
10.3671, 5, 6.14802, 16.2817, 33.241, 8.03638, -49.9933, -5.2068
10.3751, 5, 6.13289, 16.2869, 33.2481, 8.01317, -50.0228, -5.19066
10.3841, 5, 6.11786, 16.292, 33.2553, 7.99029, -50.0518, -5.17424
10.3921, 5, 6.10289, 16.2971, 33.2624, 7.96755, -50.0803, -5.15763
10.4001, 5, 6.08785, 16.3022, 33.2696, 7.94462, -50.1087, -5.1409
10.4071, 5, 6.07277, 16.3073, 33.2767, 7.92125, -50.1376, -5.12443
10.4151, 5, 6.05758, 16.3126, 33.2836, 7.89764, -50.167, -5.10794
10.4241, 5, 6.04249, 16.3179, 33.2906, 7.87445, -50.1961, -5.09183
10.4321, 5, 6.02739, 16.3233, 33.2978, 7.8516, -50.2248, -5.07607
10.4401, 5, 6.01234, 16.3285, 33.3049, 7.82901, -50.2534, -5.06042
10.4481, 5, 5.99731, 16.3338, 33.312, 7.80637, -50.2824, -5.04482
10.4577, 5, 5.98216, 16.339, 33.3191, 7.7833, -50.3118, -5.02127
10.4641, 5, 5.96704, 16.3444, 33.3262, 7.75986, -50.3409, -5.01338
10.4721, 5, 5.95201, 16.3498, 33.3331, 7.73658, -50.3695, -4.99747
10.4801, 5, 5.93695, 16.3551, 33.3399, 7.7136, -50.3979, -4.98161
10.4871, 5, 5.92183, 16.3604, 33.3468, 7.69093, -50.4268, -4.96528
10.4952, 5, 5.90658, 16.3657, 33.3537, 7.66828, -50.4563, -4.94885
10.5031, 5, 5.89135, 16.371, 33.3607, 7.64523, -50.4855, -4.93268
10.5112, 5, 5.87614, 16.3764, 33.3676, 7.62192, -50.5144, -4.91676
10.5191, 5, 5.86095, 16.3819, 33.3745, 7.59864, -50.543, -4.90097
10.5271, 5, 5.84586, 16.3874, 33.3814, 7.57579, -50.5719, -4.8855
10.5359, 5, 5.83073, 16.3927, 33.3882, 7.55324, -50.6013, -4.8698
10.5441, 5, 5.81562, 16.3981, 33.395, 7.53087, -50.6304, -4.85434
10.5512, 5, 5.8006, 16.4035, 33.4018, 7.50823, -50.6589, -4.83873
10.56, 5, 5.78556, 16.4089, 33.4088, 7.48517, -50.6874, -4.82317
10.5681, 5, 5.77048, 16.4143, 33.4158, 7.46195, -50.7162, -4.80742
10.5752, 5, 5.75528, 16.4197, 33.4227, 7.43905, -50.7457, -4.79142
10.584, 5, 5.73999, 16.425, 33.4297, 7.41641, -50.775, -4.77535
10.5921, 5, 5.7248, 16.4304, 33.4367, 7.39406, -50.8038, -4.75905
10.5991, 5, 5.70965, 16.4358, 33.4435, 7.37166, -50.8325, -4.74302
10.6081, 5, 5.69457, 16.4414, 33.4502, 7.34888, -50.8614, -4.72721
10.6161, 5, 5.67947, 16.447, 33.4569, 7.32589, -50.891, -4.71177
10.6236, 5, 5.6643, 16.4525, 33.4637, 7.30313, -50.9202, -4.69655
10.6322, 5, 5.64923, 16.458, 33.4705, 7.28087, -50.9489, -4.68139
10.6393, 5, 5.63416, 16.4635, 33.4771, 7.25877, -50.9775, -4.66607
10.6477, 5, 5.61909, 16.4691, 33.4838, 7.23677, -51.0064, -4.65087
10.6569, 5, 5.6039, 16.4747, 33.4905, 7.21439, -51.0359, -4.63544
10.6641, 5, 5.58864, 16.4803, 33.4972, 7.19168, -51.0653, -4.61979
10.672, 5, 5.57347, 16.4858, 33.5037, 7.16883, -51.0942, -4.60395
10.6809, 5, 5.55824, 16.4912, 33.5103, 7.14636, -51.1229, -4.58788
10.6882, 5, 5.54309, 16.4968, 33.517, 7.12426, -51.1519, -4.57191
10.6958, 5, 5.52797, 16.5024, 33.5238, 7.10225, -51.1814, -4.55607
10.705, 5, 5.51271, 16.5081, 33.5305, 7.08014, -51.2108, -4.54041
10.7121, 5, 5.49751, 16.5138, 33.5373, 7.05761, -51.2395, -4.5252
10.7199, 5, 5.48996, 16.5166, 33.5406, 7.04618, -51.2539, -4.51755
10.7291, 5, 5.46725, 16.5249, 33.5507, 7.01227, -51.2971, -4.49486
10.7361, 5, 5.45213, 16.5305, 33.5572, 6.99004, -51.3266, -4.47969
10.7431, 5, 5.44449, 16.5333, 33.5604, 6.97901, -51.3414, -4.47202
10.7531, 5, 5.42147, 16.5417, 33.5702, 6.94605, -51.385, -4.44916
10.7591, 5, 5.41384, 16.5444, 33.5735, 6.93492, -51.3994, -4.44137
10.7688, 5, 5.39107, 16.5528, 33.5833, 6.90095, -51.4426, -4.41805
10.7764, 5, 5.37597, 16.5585, 33.5898, 6.87834, -51.4721, -4.40224
10.7831, 5, 5.36842, 16.5614, 33.5931, 6.86716, -51.4867, -4.39425
10.7927, 5, 5.34572, 16.5702, 33.6029, 6.83397, -51.53, -4.37087
10.8006, 5, 5.33071, 16.5759, 33.6093, 6.81201, -51.5586, -4.3555
10.8071, 5, 5.32317, 16.5788, 33.6125, 6.80102, -51.5729, -4.34796
10.8151, 5, 5.30815, 16.5846, 33.6189, 6.7787, -51.6022, -4.33288
10.8246, 5, 5.28544, 16.5935, 33.6286, 6.74457, -51.6465, -4.31019
10.8311, 5, 5.27783, 16.5964, 33.6319, 6.73331, -51.6611, -4.30272
10.8408, 5, 5.26265, 16.6022, 33.6384, 6.71108, -51.6899, -4.28027
10.8481, 5, 5.24751, 16.608, 33.6449, 6.68924, -51.7188, -4.27276
10.856, 5, 5.23242, 16.6138, 33.6514, 6.66754, -51.7482, -4.25762
10.8641, 5, 5.21742, 16.6196, 33.6579, 6.64568, -51.7778, -4.24219
10.872, 5, 5.20232, 16.6256, 33.6643, 6.62337, -51.8069, -4.22677
10.8791, 5, 5.18718, 16.6316, 33.6706, 6.60085, -51.8356, -4.21125
10.8871, 5, 5.17219, 16.6375, 33.6768, 6.57866, -51.8643, -4.19581
10.896, 5, 5.15714, 16.6433, 33.6831, 6.55677, -51.8936, -4.18049
10.9031, 5, 5.14208, 16.6492, 33.6894, 6.53508, -51.9233, -4.16548
10.911, 5, 5.12689, 16.6551, 33.6957, 6.51341, -51.9526, -4.15076
10.9201, 5, 5.11162, 16.661, 33.7019, 6.49137, -51.9815, -4.13619
10.9281, 5, 5.09641, 16.6668, 33.7082, 6.46895, -52.0105, -4.12159
10.9361, 5, 5.08118, 16.6725, 33.7144, 6.44662, -52.0399, -4.10695
10.944, 5, 5.06604, 16.6784, 33.7206, 6.42485, -52.0696, -4.09233
10.951, 5, 5.05085, 16.6843, 33.7267, 6.40329, -52.0986, -4.07744
10.9601, 5, 5.0356, 16.6904, 33.7328, 6.38198, -52.1274, -4.06247
10.9681, 5, 5.02043, 16.6964, 33.7391, 6.3605, -52.1562, -4.04719
10.9761, 5, 5.00528, 16.7024, 33.7455, 6.33858, -52.1855, -4.03178
10.984, 5, 4.99016, 16.7085, 33.7518, 6.31639, -52.2151, -4.01645
10.9911, 5, 4.97494, 16.7146, 33.7581, 6.29448, -52.2443, -4.00141
10.999, 5, 4.95955, 16.7207, 33.7645, 6.27287, -52.2731, -3.98654
11.0071, 5, 4.94427, 16.7267, 33.7708, 6.25144, -52.3019, -3.97195
11.0161, 5, 4.92901, 16.7326, 33.777, 6.23001, -52.3313, -3.95754
11.024, 5, 4.91379, 16.7386, 33.7831, 6.20836, -52.3609, -3.94315
11.0313, 5, 4.89862, 16.7447, 33.7891, 6.1863, -52.3899, -3.92899
11.0391, 5, 4.88343, 16.751, 33.7952, 6.16422, -52.4185, -3.91453
11.0471, 5, 4.86829, 16.7572, 33.8013, 6.14258, -52.4473, -3.90009
11.0554, 5, 4.85317, 16.7633, 33.8074, 6.12126, -52.4767, -3.88552
11.0632, 5, 4.83804, 16.7693, 33.8134, 6.10012, -52.5064, -3.87075
11.0712, 5, 4.82289, 16.7755, 33.8195, 6.0788, -52.5356, -3.85596
11.0796, 5, 4.80759, 16.7816, 33.8255, 6.05705, -52.5644, -3.84104
11.087, 5, 4.79241, 16.7876, 33.8314, 6.03495, -52.5934, -3.82613
11.0951, 5, 4.77728, 16.7936, 33.8373, 6.013, -52.6229, -3.81151
11.1039, 5, 4.76219, 16.7996, 33.8432, 5.99137, -52.6525, -3.79699
11.1121, 5, 4.74716, 16.8058, 33.8492, 5.96997, -52.6816, -3.78259
11.12, 5, 4.73198, 16.812, 33.8553, 5.94872, -52.7104, -3.76837
11.128, 5, 4.71678, 16.8183, 33.8614, 5.92722, -52.7393, -3.75408
11.1362, 5, 4.70168, 16.8245, 33.8674, 5.90532, -52.7689, -3.73983
11.1434, 5, 4.6865, 16.8306, 33.8734, 5.88329, -52.7987, -3.72568
11.1523, 5, 4.67131, 16.8369, 33.8795, 5.86162, -52.8279, -3.71141
11.1595, 5, 4.65594, 16.8432, 33.8854, 5.84024, -52.857, -3.69702
11.1676, 5, 4.64058, 16.8494, 33.8912, 5.81913, -52.886, -3.68233
11.1764, 5, 4.62531, 16.8555, 33.897, 5.79808, -52.9156, -3.66753
11.1836, 5, 4.61002, 16.8617, 33.9029, 5.77669, -52.9453, -3.65282
11.1922, 5, 4.59485, 16.8681, 33.9088, 5.75497, -52.9745, -3.63812
11.2005, 5, 4.57969, 16.8745, 33.9147, 5.73316, -53.0034, -3.62349
11.2076, 5, 4.57209, 16.8777, 33.9176, 5.71169, -53.0323, -3.60923
11.2161, 5, 4.54946, 16.8872, 33.9264, 5.69059, -53.0618, -3.59512
11.2231, 5, 4.54193, 16.8903, 33.9294, 5.68013, -53.0768, -3.58814
11.2311, 5, 4.5269, 16.8966, 33.9353, 5.6592, -53.1061, -3.57437
11.2401, 5, 4.5042, 16.9061, 33.9439, 5.62742, -53.1497, -3.55366
11.247, 5, 4.49652, 16.9092, 33.9467, 5.61666, -53.1641, -3.54668
11.255, 5, 4.48119, 16.9154, 33.9523, 5.59505, -53.1933, -3.53276
11.2644, 5, 4.45827, 16.9248, 33.961, 5.56327, -53.2377, -3.51156
11.271, 5, 4.45063, 16.928, 33.9639, 5.55286, -53.2523, -3.50438
11.2791, 5, 4.4354, 16.9345, 33.9697, 5.53206, -53.2811, -3.48991
11.2885, 5, 4.41242, 16.9442, 33.9784, 5.50105, -53.3244, -3.46785
11.2973, 5, 4.3972, 16.9507, 33.9842, 5.47983, -53.3539, -3.45337
11.3031, 5, 4.3896, 16.9539, 33.9871, 5.4691, -53.3688, -3.4462
11.3126, 5, 4.36679, 16.9638, 33.9957, 5.437, -53.4128, -3.42477
11.3214, 5, 4.35161, 16.9703, 34.0013, 5.41599, -53.4418, -3.41086
11.327, 5, 4.34391, 16.9736, 34.0041, 5.40556, -53.4562, -3.4039
11.3366, 5, 4.32857, 16.98, 34.0096, 5.38485, -53.5004, -3.38323
11.344, 5, 4.31334, 16.9865, 34.0152, 5.36417, -53.5153, -3.37637
11.351, 5, 4.29818, 16.993, 34.0208, 5.34315, -53.5447, -3.3626
11.36, 5, 4.28305, 16.9997, 34.0264, 5.32176, -53.5736, -3.34859
11.368, 5, 4.2679, 17.0063, 34.0319, 5.30037, -53.6025, -3.33456
11.3751, 5, 4.25268, 17.0128, 34.0375, 5.27936, -53.6316, -3.32039
11.3831, 5, 4.23756, 17.0193, 34.043, 5.25861, -53.6615, -3.30597
11.392, 5, 4.22242, 17.0259, 34.0486, 5.23808, -53.6909, -3.29156
11.3991, 5, 4.20728, 17.0324, 34.054, 5.21749, -53.72, -3.27717
11.407, 5, 4.19204, 17.0388, 34.0594, 5.19651, -53.7489, -3.26278
11.416, 5, 4.17669, 17.0451, 34.0649, 5.17517, -53.7783, -3.2487
11.423, 5, 4.16145, 17.0516, 34.0705, 5.15392, -53.808, -3.23484
11.431, 5, 4.14616, 17.0582, 34.0762, 5.13287, -53.8375, -3.22119
11.44, 5, 4.13093, 17.0649, 34.0819, 5.1122, -53.8664, -3.20759
11.4471, 5, 4.11577, 17.0716, 34.0875, 5.09162, -53.8952, -3.194
11.4557, 5, 4.10046, 17.0782, 34.0931, 5.07093, -53.9245, -3.18033
11.4641, 5, 4.08525, 17.0849, 34.0987, 5.04982, -53.9544, -3.16676
11.4731, 5, 4.07005, 17.0916, 34.1042, 5.02848, -53.9839, -3.15306
11.48, 5, 4.05483, 17.0983, 34.1096, 5.00725, -54.013, -3.13911
11.4881, 5, 4.03958, 17.1048, 34.115, 4.98636, -54.042, -3.12513
11.496, 5, 4.02418, 17.1114, 34.1203, 4.96585, -54.0714, -3.11099
11.5041, 5, 4.0088, 17.1182, 34.1256, 4.94546, -54.1012, -3.09696
11.5121, 5, 3.99349, 17.1251, 34.1311, 4.92492, -54.1304, -3.08294
11.52, 5, 3.97821, 17.1319, 34.1364, 4.90401, -54.1593, -3.06907
11.528, 5, 3.96298, 17.1386, 34.1417, 4.88284, -54.1881, -3.0553
11.5361, 5, 3.94771, 17.1454, 34.147, 4.86192, -54.2173, -3.04185
11.5431, 5, 3.93252, 17.1521, 34.1523, 4.84128, -54.2471, -3.02846
11.552, 5, 3.9174, 17.1588, 34.1576, 4.82083, -54.2765, -3.01519
11.5601, 5, 3.90222, 17.1654, 34.1628, 4.80052, -54.3055, -3.00203
11.568, 5, 3.88703, 17.1721, 34.168, 4.78005, -54.3344, -2.98874
11.576, 5, 3.8717, 17.1789, 34.1731, 4.75927, -54.3638, -2.97536
11.5841, 5, 3.85633, 17.1858, 34.1783, 4.73827, -54.3937, -2.96195
11.592, 5, 3.84107, 17.1927, 34.1837, 4.71743, -54.4231, -2.9483
11.6, 5, 3.82582, 17.1996, 34.189, 4.6971, -54.452, -2.93459
11.6081, 5, 3.81062, 17.2065, 34.1943, 4.67692, -54.4808, -2.92063
11.616, 5, 3.79536, 17.2134, 34.1996, 4.65696, -54.5101, -2.90661
11.624, 5, 3.78008, 17.2202, 34.2048, 4.6369, -54.5399, -2.89262
11.6321, 5, 3.76492, 17.227, 34.2101, 4.61631, -54.5694, -2.87901
11.64, 5, 3.74972, 17.2337, 34.2154, 4.59547, -54.5984, -2.86563
11.6474, 5, 3.7345, 17.2406, 34.2205, 4.57473, -54.6275, -2.85235
11.6555, 5, 3.71922, 17.2476, 34.2256, 4.55432, -54.6569, -2.83928
11.6641, 5, 3.7038, 17.2545, 34.2306, 4.53416, -54.6868, -2.82613
11.6724, 5, 3.68857, 17.2614, 34.2357, 4.51407, -54.7161, -2.81319
11.6796, 5, 3.6733, 17.2684, 34.2409, 4.49388, -54.7449, -2.80024
11.6882, 5, 3.6581, 17.2753, 34.246, 4.4733, -54.7737, -2.78702
11.6956, 5, 3.64282, 17.2821, 34.2511, 4.45248, -54.8031, -2.77369
11.7042, 5, 3.62747, 17.2888, 34.2562, 4.43177, -54.833, -2.76024
11.7117, 5, 3.61984, 17.2922, 34.2587, 4.4216, -54.8623, -2.7466
11.721, 5, 3.59702, 17.3025, 34.2663, 4.39137, -54.8915, -2.73298
11.7281, 5, 3.5818, 17.3096, 34.2712, 4.37152, -54.9205, -2.71949
11.735, 5, 3.57418, 17.3131, 34.2737, 4.36154, -54.9351, -2.71274
11.745, 5, 3.55109, 17.3236, 34.281, 4.33113, -54.9797, -2.69263
11.7522, 5, 3.5357, 17.3307, 34.2859, 4.31046, -55.0089, -2.67953
11.759, 5, 3.52806, 17.3343, 34.2884, 4.30009, -55.0234, -2.67301
11.7692, 5, 3.50517, 17.3449, 34.2959, 4.26942, -55.0667, -2.65371
11.775, 5, 3.49754, 17.3484, 34.2984, 4.25931, -55.0814, -2.64729
11.7846, 5, 3.4747, 17.3588, 34.306, 4.22932, -55.1263, -2.62795
11.7924, 5, 3.45949, 17.3659, 34.311, 4.20926, -55.1557, -2.61496
11.799, 5, 3.45192, 17.3696, 34.3135, 4.19907, -55.1702, -2.60853
11.8086, 5, 3.42921, 17.3803, 34.321, 4.1682, -55.2139, -2.58899
11.8166, 5, 3.41398, 17.3874, 34.326, 4.1476, -55.2436, -2.57568
11.8246, 5, 3.3986, 17.3946, 34.3308, 4.12738, -55.2735, -2.56227
11.8329, 5, 3.39091, 17.4018, 34.3356, 4.10743, -55.3028, -2.54871
11.8406, 5, 3.37562, 17.4053, 34.338, 4.09752, -55.3173, -2.53525
11.847, 5, 3.36038, 17.4122, 34.3427, 4.07781, -55.3462, -2.52859
11.8572, 5, 3.33764, 17.4228, 34.3498, 4.04779, -55.3904, -2.50885
11.8631, 5, 3.33003, 17.4264, 34.3522, 4.0376, -55.4054, -2.50227
11.8721, 5, 3.31468, 17.4337, 34.357, 4.01703, -55.435, -2.48935
11.88, 5, 3.29944, 17.4409, 34.3617, 3.99668, -55.4643, -2.47666
11.8871, 5, 3.28423, 17.4481, 34.3663, 3.97661, -55.4934, -2.46384
11.895, 5, 3.26901, 17.4554, 34.3711, 3.95681, -55.5229, -2.45141
11.904, 5, 3.25367, 17.4627, 34.3758, 3.93716, -55.5528, -2.4389
11.9121, 5, 3.23825, 17.4698, 34.3805, 3.91735, -55.5824, -2.42623
11.92, 5, 3.22287, 17.4769, 34.3852, 3.8973, -55.6114, -2.41348
11.928, 5, 3.20752, 17.4841, 34.3898, 3.87695, -55.6404, -2.40075
11.9361, 5, 3.19218, 17.4915, 34.3944, 3.85677, -55.6698, -2.38782
11.9457, 5, 3.16918, 17.5025, 34.4014, 3.82719, -55.7147, -2.3681
11.952, 5, 3.16147, 17.5061, 34.4037, 3.81742, -55.7294, -2.36147
11.9616, 5, 3.14614, 17.5134, 34.4085, 3.79799, -55.7732, -2.34134
11.967, 5, 3.13091, 17.5208, 34.4133, 3.77862, -55.7878, -2.33475
11.976, 5, 3.11565, 17.5279, 34.4181, 3.75883, -55.8173, -2.32175
11.9841, 5, 3.10031, 17.535, 34.4229, 3.73872, -55.8472, -2.30895
11.992, 5, 3.08482, 17.5421, 34.4276, 3.71859, -55.8767, -2.29616
12, 5, 3.06934, 17.5494, 34.4323, 3.69866, -55.9057, -2.28363
