hehonglu123/ABB_Primitive_Study/realrobot/movel_30_ori/curve_exe_v300_fine.csv
timestamp, cmd_num, J1, J2, J3, J4, J5, J6
0.000222, -1, -18.7715, 34.1326, 27.9418, -19.9681, -90.5853, -2.05553
0.002057, -1, -18.7715, 34.1326, 27.9418, -19.9681, -90.5853, -2.05555
0.007, -1, -18.7715, 34.1326, 27.9418, -19.9681, -90.5853, -2.05554
0.016049, -1, -18.7715, 34.1325, 27.9418, -19.9681, -90.5853, -2.05552
0.024171, -1, -18.771, 34.1325, 27.9418, -19.968, -90.5853, -2.05549
0.031085, -1, -18.7687, 34.1318, 27.9418, -19.968, -90.5852, -2.05555
0.039373, -1, -18.7635, 34.1297, 27.942, -19.9676, -90.5848, -2.05554
0.047103, -1, -18.7545, 34.1256, 27.9422, -19.9658, -90.5825, -2.05571
0.056002, -1, -18.741, 34.1188, 27.9424, -19.9591, -90.5759, -2.05684
0.063991, -1, -18.7202, 34.1081, 27.9425, -19.9444, -90.561, -2.06214
0.072771, -1, -18.69, 34.0926, 27.9422, -19.9179, -90.5338, -2.0739
0.080002, -1, -18.6493, 34.0719, 27.9407, -19.8744, -90.4882, -2.09392
0.087996, -1, -18.5964, 34.045, 27.9376, -19.8084, -90.4195, -2.12435
0.096768, -1, -18.5299, 34.0113, 27.932, -19.7164, -90.3229, -2.16794
0.103987, -1, -18.4494, 33.9705, 27.9234, -19.5943, -90.1945, -2.22652
0.111986, -1, -18.355, 33.923, 27.9112, -19.4407, -90.0324, -2.29937
0.120802, -1, -18.247, 33.8687, 27.8956, -19.2555, -89.8366, -2.38828
0.127989, -1, -18.1251, 33.8075, 27.8771, -19.0412, -89.61, -2.49039
0.135991, -1, -17.9898, 33.7398, 27.8558, -18.8019, -89.3563, -2.60464
0.144836, -1, -17.8426, 33.6663, 27.8328, -18.5428, -89.0809, -2.72854
0.152058, -1, -17.6848, 33.5874, 27.8087, -18.2689, -88.7898, -2.85948
0.159635, -1, -17.5175, 33.5037, 27.7841, -17.985, -88.4881, -2.99557
0.168871, -1, -17.3422, 33.4162, 27.7592, -17.6952, -88.1796, -3.13477
0.17615, -1, -17.1614, 33.3259, 27.7341, -17.4011, -87.8671, -3.27602
0.183623, -1, -16.9767, 33.2337, 27.709, -17.1049, -87.5522, -3.41828
0.192878, -1, -16.7894, 33.1407, 27.6839, -16.8076, -87.2358, -3.56094
0.200148, -1, -16.6005, 33.0471, 27.6589, -16.5091, -86.9182, -3.70397
0.207575, -1, -16.5057, 33.0002, 27.6463, -16.3596, -86.7591, -3.77546
0.217021, -1, -16.2208, 32.8594, 27.6086, -15.9099, -86.2804, -3.9907
0.224074, -1, -16.0308, 32.7657, 27.5836, -15.609, -85.9605, -4.13458
0.23102, -1, -15.9359, 32.7188, 27.5711, -15.4584, -85.8003, -4.20654
0.241055, -1, -15.6524, 32.5783, 27.5334, -15.0062, -85.319, -4.42317
0.248195, -1, -15.4638, 32.4845, 27.5081, -14.7041, -84.9977, -4.56775
0.254985, -1, -15.3697, 32.4375, 27.4955, -14.5529, -84.837, -4.64005
0.265182, -1, -15.0878, 32.2961, 27.4577, -14.099, -84.3537, -4.85736
0.271043, -1, -14.994, 32.2488, 27.4451, -13.9474, -84.1926, -4.92988
0.280596, -1, -14.7118, 32.1063, 27.4069, -13.4924, -83.7088, -5.14744
0.288493, -1, -14.5225, 32.0111, 27.3814, -13.1889, -83.3858, -5.29279
0.296545, -1, -14.3322, 31.9157, 27.3558, -12.8853, -83.0625, -5.4383
0.304604, -1, -14.1408, 31.8203, 27.3303, -12.5816, -82.7391, -5.58413
0.312541, -1, -14.0448, 31.7247, 27.3047, -12.2774, -82.4153, -5.72983
0.320637, -1, -13.8525, 31.6769, 27.279, -11.973, -82.0914, -5.87529
0.327977, -1, -13.6598, 31.5814, 27.2662, -11.8208, -81.9293, -5.94805
0.335973, -1, -13.4663, 31.4859, 27.2406, -11.5165, -81.6052, -6.09369
0.344074, -1, -13.2724, 31.3905, 27.215, -11.2121, -81.2812, -6.23917
0.351995, -1, -13.079, 31.2952, 27.1894, -10.9078, -80.9571, -6.38502
0.359984, -1, -12.8863, 31.2, 27.1638, -10.6034, -80.6334, -6.53066
0.366995, -1, -12.6941, 31.1049, 27.1383, -10.2988, -80.3099, -6.67656
0.375982, -1, -12.5026, 31.0099, 27.1128, -9.99471, -79.9865, -6.82253
0.38407, -1, -12.3121, 30.9147, 27.0872, -9.69052, -79.6631, -6.96813
0.391985, -1, -12.1223, 30.8195, 27.0615, -9.38653, -79.3395, -7.11364
0.399978, -1, -11.9333, 30.7243, 27.036, -9.08284, -79.0161, -7.25901
0.407033, -1, -11.7446, 30.6289, 27.0105, -8.77922, -78.6929, -7.40437
0.415978, -1, -11.5557, 30.5337, 26.985, -8.47582, -78.3698, -7.54958
0.423971, -1, -11.3663, 30.4385, 26.9593, -8.17305, -78.0475, -7.69477
0.431044, -1, -11.1767, 30.3436, 26.9338, -7.87073, -77.7258, -7.83966
0.438987, -1, -10.9868, 30.2489, 26.9084, -7.56881, -77.4043, -7.98418
0.447976, -1, -10.7964, 30.1544, 26.8831, -7.26755, -77.0837, -8.12845
0.457597, -1, -10.6058, 30.0601, 26.8577, -6.9663, -76.7635, -8.34422
0.463972, -1, -10.415, 29.966, 26.8324, -6.66567, -76.4436, -8.41605
0.471987, -1, -10.2241, 29.8721, 26.8072, -6.36595, -76.1242, -8.55945
0.480118, -1, -10.0341, 29.7784, 26.782, -6.06654, -75.8054, -8.70264
0.486996, -1, -9.84466, 29.6849, 26.757, -5.76766, -75.4871, -8.84591
0.49505, -1, -9.65611, 29.5915, 26.7318, -5.46945, -75.1698, -8.98877
0.504021, -1, -9.46843, 29.4982, 26.7068, -5.17159, -74.8531, -9.13101
0.511977, -1, -9.28176, 29.4051, 26.6818, -4.87467, -74.5373, -9.273
0.519992, -1, -9.09609, 29.3121, 26.6568, -4.5786, -74.2222, -9.41457
0.527986, -1, -8.91128, 29.2193, 26.6319, -4.28309, -73.9078, -9.55572
0.536073, -1, -8.72731, 29.1266, 26.607, -3.98869, -73.5943, -9.69689
0.543099, -1, -8.54376, 29.0342, 26.5823, -3.69485, -73.2815, -9.83742
0.551088, -1, -8.3604, 28.9421, 26.5576, -3.40176, -72.9698, -9.97791
0.559155, -1, -8.17734, 28.8505, 26.533, -3.10984, -72.6591, -10.1178
0.567088, -1, -7.99429, 28.7591, 26.5083, -2.81874, -72.3491, -10.257
0.575047, -1, -7.81111, 28.6681, 26.4839, -2.52851, -72.0401, -10.3959
0.583969, -1, -7.62815, 28.5774, 26.4596, -2.23932, -71.732, -10.5342
0.59204, -1, -7.4455, 28.487, 26.4354, -1.95075, -71.4247, -10.672
0.59998, -1, -7.2631, 28.397, 26.4112, -1.66311, -71.1187, -10.8096
0.607974, -1, -7.0813, 28.3072, 26.3871, -1.3766, -70.8137, -10.9466
0.616041, -1, -6.90022, 28.2178, 26.3631, -1.09114, -70.5097, -11.0833
0.623336, -1, -6.72024, 28.1286, 26.3392, -0.806744, -70.2071, -11.2196
0.6313, -1, -6.54132, 28.0397, 26.3155, -0.523472, -69.9058, -11.3552
0.639308, -1, -6.36346, 27.9511, 26.2915, -0.241038, -69.6055, -11.4903
0.647777, -1, -6.18691, 27.8627, 26.2678, 0.040479, -69.3061, -11.625
0.656109, -1, -6.01128, 27.7747, 26.2443, 0.320805, -69.0078, -11.7592
0.663607, -1, -5.83665, 27.687, 26.2208, 0.599913, -68.7106, -11.8928
0.672129, -1, -5.66285, 27.5995, 26.1974, 0.878104, -68.4144, -12.0261
0.679538, -1, -5.48959, 27.5126, 26.174, 1.15501, -68.1192, -12.1589
0.688081, -1, -5.31668, 27.426, 26.1507, 1.4308, -67.8253, -12.291
0.69615, -1, -5.14405, 27.3398, 26.1275, 1.7058, -67.5329, -12.4226
0.703521, -1, -5.05783, 27.2968, 26.1161, 1.84288, -67.3872, -12.4881
0.711991, -1, -4.79963, 27.1686, 26.0817, 2.25184, -66.9518, -12.6837
0.720127, -1, -4.6281, 27.0836, 26.0588, 2.52311, -66.6633, -12.8133
0.726972, -1, -4.54255, 27.0412, 26.0474, 2.65827, -66.5195, -12.8779
0.736113, -1, -4.28628, 26.9145, 26.0134, 3.06175, -66.0898, -13.071
0.742971, -1, -4.20108, 26.8725, 26.0021, 3.19573, -65.9472, -13.1351
0.752318, -1, -3.94697, 26.7469, 25.9685, 3.59618, -65.5211, -13.327
0.758975, -1, -3.86283, 26.7051, 25.9572, 3.72896, -65.3796, -13.3906
0.768357, -1, -3.61234, 26.5805, 25.9239, 4.12572, -64.9571, -13.5803
0.775049, -1, -3.52941, 26.5391, 25.9128, 4.25747, -64.8169, -13.6433
0.784575, -1, -3.28219, 26.4155, 25.8795, 4.65052, -64.3984, -13.8312
0.792851, -1, -3.11862, 26.3335, 25.8575, 4.91132, -64.1209, -13.9557
0.800528, -1, -2.95627, 26.2519, 25.8356, 5.17102, -63.8447, -14.0798
0.808765, -1, -2.79485, 26.1707, 25.8139, 5.42949, -63.5697, -14.2035
0.8166, -1, -2.7144, 26.0898, 25.7923, 5.68666, -63.2961, -14.3263
0.824629, -1, -2.55397, 26.0496, 25.7708, 5.94263, -63.0236, -14.4491
0.832552, -1, -2.39376, 25.9694, 25.76, 6.07017, -62.8879, -14.5103
0.839955, -1, -2.23383, 25.8897, 25.7385, 6.32424, -62.6174, -14.6319
0.847948, -1, -2.07437, 25.8103, 25.7172, 6.57716, -62.348, -14.753
0.856026, -1, -1.91532, 25.7313, 25.696, 6.82922, -62.0799, -14.8733
0.86396, -1, -1.75675, 25.6527, 25.675, 7.08004, -61.8128, -14.9932
0.872001, -1, -1.59878, 25.5744, 25.6541, 7.32953, -61.547, -15.1125
0.879964, -1, -1.44103, 25.4965, 25.6331, 7.57787, -61.2822, -15.2313
0.888004, -1, -1.2837, 25.4188, 25.6122, 7.82528, -61.0185, -15.3498
0.895973, -1, -1.12723, 25.3415, 25.5916, 8.07137, -60.7562, -15.4675
0.903958, -1, -0.971678, 25.2645, 25.571, 8.31642, -60.4952, -15.5852
0.912016, -1, -0.817437, 25.1879, 25.5505, 8.56079, -60.2354, -15.7021
0.919961, -1, -0.664364, 25.1116, 25.5301, 8.80378, -59.9768, -15.8185
0.927961, -1, -0.51227, 25.0356, 25.5095, 9.04551, -59.7195, -15.9343
0.935018, -1, -0.361352, 24.9601, 25.4893, 9.28626, -59.4637, -16.0495
0.943958, -1, -0.211521, 24.8849, 25.4692, 9.5259, -59.209, -16.1643
0.951976, -1, -0.0626898, 24.81, 25.4492, 9.76425, -58.9554, -16.2786
0.960017, -1, 0.0852809, 24.7355, 25.4294, 10.0016, -58.7028, -16.3923
0.968964, -1, 0.232672, 24.6613, 25.4094, 10.2381, -58.4512, -16.5056
0.976019, -1, 0.379868, 24.5875, 25.3895, 10.4734, -58.2006, -16.6185
0.98501, -1, 0.526962, 24.514, 25.3699, 10.7075, -57.951, -16.7309
0.991983, -1, 0.673863, 24.4408, 25.3502, 10.9405, -57.7024, -16.8427
1.00003, -1, 0.820573, 24.3679, 25.3307, 11.1726, -57.4549, -16.9536
1.00795, -1, 0.966813, 24.2952, 25.3114, 11.4035, -57.2088, -17.0643
1.01597, -1, 1.11243, 24.223, 25.2919, 11.6335, -56.9638, -17.1742
1.02402, -1, 1.25755, 24.1511, 25.2726, 11.8624, -56.7202, -17.2836
1.03197, -1, 1.40228, 24.0795, 25.2535, 12.0905, -56.4776, -17.3927
1.04001, -1, 1.5465, 24.0083, 25.2343, 12.3175, -56.2364, -17.501
1.04802, -1, 1.69003, 23.9374, 25.2155, 12.5433, -55.9961, -17.6092
1.056, -1, 1.83274, 23.8668, 25.1966, 12.7682, -55.757, -17.7168
1.06396, -1, 1.97425, 23.7966, 25.1777, 12.9922, -55.5188, -17.8242
1.07203, -1, 2.11486, 23.7266, 25.159, 13.2149, -55.2817, -17.9309
1.07995, -1, 2.25461, 23.657, 25.1404, 13.4367, -55.0455, -18.0369
1.08849, -1, 2.39321, 23.5877, 25.1218, 13.6576, -54.8103, -18.1427
1.095, -1, 2.53101, 23.5187, 25.1034, 13.8778, -54.5759, -18.2477
1.10395, -1, 2.66783, 23.4499, 25.0851, 14.0968, -54.3424, -18.3525
1.11274, -1, 2.80367, 23.3815, 25.0668, 14.3148, -54.1101, -18.4566
1.11995, -1, 2.93885, 23.3134, 25.0485, 14.5319, -53.8789, -18.5605
1.12795, -1, 3.07371, 23.2454, 25.0303, 14.7482, -53.6488, -18.6641
1.13676, -1, 3.20852, 23.1777, 25.0121, 14.9632, -53.4196, -18.7669
1.14395, -1, 3.34338, 23.1104, 24.9942, 15.1776, -53.1915, -18.8699
1.152, -1, 3.47795, 23.0434, 24.9763, 15.3912, -52.9642, -18.9722
1.16088, -1, 3.61233, 22.9766, 24.9584, 15.604, -52.7381, -19.074
1.16804, -1, 3.74634, 22.9102, 24.9407, 15.8157, -52.5127, -19.1751
1.17605, -1, 3.87986, 22.844, 24.923, 16.0264, -52.2884, -19.2761
1.18494, -1, 4.013, 22.7782, 24.9053, 16.2364, -52.0651, -19.3763
1.19208, -1, 4.14581, 22.7127, 24.8878, 16.4455, -51.8424, -19.4763
1.19961, -1, 4.27812, 22.6474, 24.8704, 16.6537, -51.6208, -19.5758
1.20889, -1, 4.40978, 22.5823, 24.8529, 16.8609, -51.3998, -19.6749
1.21598, -1, 4.5407, 22.5175, 24.8356, 17.0674, -51.1799, -19.7739
1.223, -1, 4.60593, 22.4851, 24.827, 17.1705, -51.0702, -19.8233
1.23294, -1, 4.80048, 22.3884, 24.8011, 17.4782, -50.7424, -19.9705
1.24005, -1, 4.92924, 22.3242, 24.784, 17.6823, -50.5251, -20.0683
1.24701, -1, 4.99332, 22.2922, 24.7756, 17.784, -50.4167, -20.1171
1.25713, -1, 5.1843, 22.1965, 24.7501, 18.0882, -50.0929, -20.2624
1.26302, -1, 5.24758, 22.1647, 24.7415, 18.1892, -49.9854, -20.3108
1.27237, -1, 5.43615, 22.0699, 24.7162, 18.4908, -49.6642, -20.4551
1.27895, -1, 5.49854, 22.0384, 24.7078, 18.591, -49.5576, -20.503
1.28846, -1, 5.68488, 21.9443, 24.6825, 18.8905, -49.2391, -20.6461
1.29649, -1, 5.80875, 21.882, 24.6659, 19.0894, -49.0277, -20.7413
1.30453, -1, 5.93249, 21.82, 24.6494, 19.2872, -48.8175, -20.8359
1.31102, -1, 5.99432, 21.789, 24.6411, 19.3858, -48.7126, -20.8833
1.32057, -1, 6.17977, 21.6965, 24.6164, 19.6807, -48.3991, -21.0243
1.32858, -1, 6.24148, 21.6657, 24.6082, 19.7787, -48.2949, -21.1183
1.33594, -1, 6.36483, 21.6044, 24.5918, 19.9739, -48.0871, -21.1649
1.34399, -1, 6.48796, 21.5433, 24.5753, 20.1683, -47.88, -21.2584
1.35194, -1, 6.61078, 21.4823, 24.5591, 20.3619, -47.6737, -21.351
1.35903, -1, 6.73321, 21.4217, 24.543, 20.5551, -47.468, -21.4436
1.36799, -1, 6.85528, 21.3612, 24.5268, 20.7476, -47.2628, -21.5354
1.376, -1, 6.97689, 21.3011, 24.5105, 20.9391, -47.0587, -21.6271
1.38295, -1, 7.09788, 21.2412, 24.4945, 21.1302, -46.8551, -21.7183
1.39199, -1, 7.21821, 21.1815, 24.4785, 21.3203, -46.6524, -21.8093
1.39994, -1, 7.338, 21.1221, 24.4626, 21.51, -46.4505, -21.9
1.40799, -1, 7.45719, 21.063, 24.4469, 21.699, -46.2494, -21.9902
1.41594, -1, 7.57587, 21.004, 24.4313, 21.8871, -46.049, -22.0803
1.42396, -1, 7.69412, 20.9452, 24.4155, 22.0747, -45.8496, -22.1701
1.43201, -1, 7.81186, 20.8866, 24.3997, 22.2616, -45.6507, -22.2597
1.43994, -1, 7.92911, 20.828, 24.3841, 22.4481, -45.4526, -22.3489
1.44794, -1, 8.0457, 20.7696, 24.3684, 22.6339, -45.2554, -22.4376
1.45745, -1, 8.16169, 20.7115, 24.3528, 22.8187, -45.0589, -22.5259
1.46395, -1, 8.2772, 20.6535, 24.3374, 23.0031, -44.8629, -22.6143
1.47295, -1, 8.39241, 20.5956, 24.3221, 23.1868, -44.6674, -22.7018
1.47896, -1, 8.50724, 20.5381, 24.3068, 23.3699, -44.4725, -22.7895
1.48794, -1, 8.62152, 20.4809, 24.2913, 23.5522, -44.2782, -22.8762
1.49594, -1, 8.7353, 20.4238, 24.2761, 23.7339, -44.0845, -22.9635
1.50396, -1, 8.84878, 20.3669, 24.2609, 23.915, -43.8913, -23.0499
1.51194, -1, 8.962, 20.3103, 24.2457, 24.0958, -43.6987, -23.1365
1.52001, -1, 9.0751, 20.2538, 24.2307, 24.2759, -43.5072, -23.2224
1.52794, -1, 9.18817, 20.1976, 24.2158, 24.4553, -43.3163, -23.3088
1.536, -1, 9.30121, 20.1415, 24.2008, 24.6341, -43.1258, -23.3944
1.54401, -1, 9.41413, 20.0855, 24.1857, 24.8122, -42.936, -23.48
1.552, -1, 9.52658, 20.0296, 24.1707, 24.99, -42.7469, -23.5648
1.55998, -1, 9.63854, 19.974, 24.1558, 25.1672, -42.5584, -23.6496
1.56794, -1, 9.75011, 19.9184, 24.141, 25.3436, -42.3705, -23.7342
1.576, -1, 9.86145, 19.863, 24.1262, 25.5196, -42.183, -23.818
1.58395, -1, 9.97246, 19.8079, 24.1116, 25.6951, -41.9963, -23.902
1.59194, -1, 10.083, 19.753, 24.0971, 25.8703, -41.8104, -23.9852
1.6, -1, 10.1933, 19.6983, 24.0824, 26.0449, -41.6247, -24.0688
1.60793, -1, 10.3032, 19.6438, 24.0676, 26.2187, -41.4398, -24.1515
1.61604, -1, 10.4124, 19.5895, 24.0531, 26.392, -41.2552, -24.2347
1.62395, -1, 10.5212, 19.5353, 24.0386, 26.5647, -41.0714, -24.3172
1.63194, -1, 10.6297, 19.4813, 24.0241, 26.7372, -40.8878, -24.3999
1.64016, -1, 10.7378, 19.4274, 24.0097, 26.9088, -40.7051, -24.4824
1.64737, -1, 10.8455, 19.3737, 23.9955, 27.08, -40.5227, -24.5643
1.65545, -1, 10.9527, 19.3201, 23.9813, 27.2505, -40.3408, -24.6464
1.66443, -1, 11.0597, 19.2666, 23.9669, 27.4208, -40.1595, -24.7274
1.6715, -1, 11.1662, 19.2133, 23.9525, 27.5906, -39.9789, -24.8091
1.68009, -1, 11.2724, 19.1601, 23.9383, 27.7598, -39.7988, -24.8897
1.68858, -1, 11.3781, 19.1071, 23.9241, 27.9285, -39.6192, -24.9705
1.69604, -1, 11.4835, 19.0543, 23.91, 28.0966, -39.4401, -25.0509
1.704, -1, 11.5885, 19.0018, 23.896, 28.2642, -39.2617, -25.1312
1.71275, -1, 11.6934, 18.9493, 23.8821, 28.4315, -39.0835, -25.2115
1.72002, -1, 11.7981, 18.8971, 23.8681, 28.5983, -38.9061, -25.2911
1.72698, -1, 11.8504, 18.8711, 23.8611, 28.6815, -38.8176, -25.3312
1.73689, -1, 12.0071, 18.7931, 23.8401, 28.9304, -38.5523, -25.4503
1.7441, -1, 12.1113, 18.7412, 23.8262, 29.0956, -38.3765, -25.5301
1.75109, -1, 12.1634, 18.7153, 23.8193, 29.1782, -38.2888, -25.5697
1.75894, -1, 12.2674, 18.6636, 23.8055, 29.3432, -38.1138, -25.6484
1.76824, -1, 12.4229, 18.5863, 23.7849, 29.5894, -37.8521, -25.7667
1.77504, -1, 12.4746, 18.5606, 23.7781, 29.6713, -37.7651, -25.8056
1.78293, -1, 12.5778, 18.5093, 23.7645, 29.8345, -37.5915, -25.8841
1.79246, -1, 12.7321, 18.4326, 23.7439, 30.0787, -37.3315, -26.0006
1.80126, -1, 12.8346, 18.3816, 23.7302, 30.241, -37.1589, -26.0785
1.80693, -1, 12.8856, 18.3563, 23.7234, 30.3219, -37.0727, -26.1172
1.81652, -1, 13.0383, 18.2804, 23.7031, 30.564, -36.8147, -26.2324
1.82524, -1, 13.089, 18.2552, 23.6963, 30.7246, -36.6435, -26.3096
1.83095, -1, 13.1901, 18.2049, 23.6828, 30.8049, -36.5579, -26.3477
1.84103, -1, 13.3412, 18.1297, 23.6629, 31.0454, -36.3021, -26.4626
1.847, -1, 13.3914, 18.1047, 23.6563, 31.1253, -36.2169, -26.5009
1.85599, -1, 13.4916, 18.0547, 23.6429, 31.2846, -36.0471, -26.5767
1.86393, -1, 13.5917, 18.0047, 23.6295, 31.4437, -35.8778, -26.6534
1.87192, -1, 13.6915, 17.9549, 23.6162, 31.602, -35.7091, -26.729
1.87895, -1, 13.7911, 17.9052, 23.603, 31.7602, -35.5407, -26.805
1.88693, -1, 13.8906, 17.8555, 23.5897, 31.9181, -35.3729, -26.8806
1.89598, -1, 13.9899, 17.8059, 23.5764, 32.0754, -35.2054, -26.9556
1.90293, -1, 14.089, 17.7565, 23.5633, 32.2324, -35.0383, -27.0311
1.91192, -1, 14.1878, 17.7073, 23.5503, 32.3889, -34.8719, -27.1054
1.91998, -1, 14.2862, 17.6582, 23.5372, 32.545, -34.7058, -27.1803
1.92693, -1, 14.3842, 17.6093, 23.5241, 32.701, -34.5403, -27.2547
1.93599, -1, 14.4818, 17.5606, 23.5109, 32.8566, -34.375, -27.3286
1.94393, -1, 14.5791, 17.5121, 23.498, 33.0117, -34.2098, -27.4031
1.95371, -1, 14.676, 17.4636, 23.4851, 33.1663, -33.963, -27.5137
1.95997, -1, 14.7727, 17.4154, 23.4721, 33.3206, -33.8808, -27.5509
1.96892, -1, 14.8692, 17.3672, 23.4592, 33.4745, -33.7171, -27.6246
1.97493, -1, 14.9654, 17.3189, 23.4465, 33.6282, -33.5535, -27.6981
1.98393, -1, 15.0616, 17.2707, 23.4337, 33.7813, -33.3903, -27.772
1.99192, -1, 15.1576, 17.2227, 23.421, 33.9342, -33.2273, -27.8449
2.00004, -1, 15.2535, 17.1748, 23.408, 34.0864, -33.0651, -27.9182
2.00792, -1, 15.3494, 17.1269, 23.3952, 34.2385, -32.9032, -27.9911
2.01593, -1, 15.4452, 17.0791, 23.3824, 34.3902, -32.7419, -28.0633
2.02398, -1, 15.5409, 17.0314, 23.3696, 34.5418, -32.5808, -28.1362
2.03191, -1, 15.6365, 16.9841, 23.3568, 34.6927, -32.4201, -28.2081
2.03998, -1, 15.7318, 16.9368, 23.3441, 34.8434, -32.2597, -28.2803
2.04803, -1, 15.8269, 16.8897, 23.3317, 34.9936, -32.0996, -28.3523
2.05592, -1, 15.9217, 16.8428, 23.3192, 35.1434, -31.9401, -28.4233
2.06397, -1, 16.0163, 16.796, 23.3066, 35.2932, -31.781, -28.4953
2.07198, -1, 16.1105, 16.7493, 23.294, 35.4427, -31.622, -28.5666
2.07997, -1, 16.2043, 16.7028, 23.2815, 35.5916, -31.4635, -28.6378
2.08792, -1, 16.2979, 16.6562, 23.269, 35.7401, -31.3055, -28.7093
2.09599, -1, 16.3912, 16.6097, 23.2566, 35.8884, -31.1475, -28.7798
2.10392, -1, 16.4842, 16.5632, 23.2441, 36.0364, -30.99, -28.8512
2.11192, -1, 16.577, 16.5167, 23.2317, 36.1842, -30.8328, -28.9219
2.12003, -1, 16.6695, 16.4703, 23.2194, 36.3318, -30.6758, -28.9923
2.12792, -1, 16.7619, 16.424, 23.207, 36.4789, -30.5194, -29.0633
2.13593, -1, 16.8543, 16.3777, 23.1946, 36.6255, -30.363, -29.1331
2.14399, -1, 16.9465, 16.3317, 23.1822, 36.7719, -30.2074, -29.2031
2.15194, -1, 17.0384, 16.2858, 23.1699, 36.9179, -30.0517, -29.2731
2.16002, -1, 17.1301, 16.2401, 23.1576, 37.0638, -29.8965, -29.3423
2.16807, -1, 17.2204, 16.195, 23.1452, 37.2093, -29.7414, -29.4122
2.17548, -1, 17.3072, 16.1515, 23.1327, 37.3539, -29.5876, -29.4811
2.18402, -1, 17.3891, 16.1105, 23.1201, 37.4962, -29.4357, -29.5489
2.19217, -1, 17.4655, 16.0724, 23.1077, 37.6341, -29.2888, -29.6155
2.19953, -1, 17.5364, 16.0375, 23.0955, 37.764, -29.1499, -29.6776
2.20792, -1, 17.6004, 16.0064, 23.0843, 37.8826, -29.0235, -29.7344
2.21615, -1, 17.6568, 15.9789, 23.0745, 37.9858, -28.9128, -29.7846
2.22295, -1, 17.6826, 15.9663, 23.0703, 38.0305, -28.8648, -29.8063
2.23205, -1, 17.7508, 15.9316, 23.0615, 38.1364, -28.7508, -29.8577
2.23897, -1, 17.7706, 15.9213, 23.0597, 38.162, -28.7229, -29.8701
2.24809, -1, 17.8196, 15.8962, 23.0566, 38.2143, -28.6657, -29.8956
2.25498, -1, 17.8325, 15.8898, 23.0561, 38.2253, -28.6536, -29.9008
2.26292, -1, 17.8542, 15.8794, 23.0556, 38.2402, -28.6372, -29.9079
2.27224, -1, 17.875, 15.8698, 23.0553, 38.2507, -28.6257, -29.9127
2.27904, -1, 17.8788, 15.8681, 23.0552, 38.2524, -28.6239, -29.9134
2.28842, 2, 17.8843, 15.8654, 23.0551, 38.2549, -28.6212, -29.9145
2.29645, 2, 17.8853, 15.8648, 23.0551, 38.2554, -28.6205, -29.9149
2.30451, 2, 17.885, 15.8645, 23.0551, 38.2557, -28.6202, -29.915
2.31249, 2, 17.8842, 15.8643, 23.0551, 38.2558, -28.6201, -29.9151
2.32056, 2, 17.8835, 15.8643, 23.0551, 38.2559, -28.62, -29.9151
2.32844, 2, 17.8832, 15.8643, 23.0551, 38.2559, -28.62, -29.9151
2.33655, 2, 17.883, 15.8642, 23.0551, 38.2559, -28.62, -29.9151
2.34479, 2, 17.8829, 15.864, 23.0551, 38.256, -28.62, -29.9151
2.3519, 2, 17.883, 15.8639, 23.0551, 38.256, -28.62, -29.9151
2.36002, 2, 17.8831, 15.8636, 23.0551, 38.256, -28.62, -29.915
2.36813, 2, 17.8835, 15.8633, 23.0551, 38.256, -28.62, -29.9151
2.37592, 2, 17.8839, 15.863, 23.0551, 38.256, -28.62, -29.9151
2.38403, 2, 17.8844, 15.8627, 23.0551, 38.256, -28.62, -29.9151
2.3919, 2, 17.8853, 15.8626, 23.0551, 38.256, -28.62, -29.9151
2.4, 2, 17.8862, 15.8625, 23.0551, 38.2559, -28.62, -29.9151
2.40795, 2, 17.8868, 15.8625, 23.0551, 38.256, -28.62, -29.9152
2.41591, 2, 17.8873, 15.8625, 23.0551, 38.256, -28.62, -29.9151
2.4239, 2, 17.8875, 15.8625, 23.0551, 38.256, -28.62, -29.9151
2.43092, 2, 17.8877, 15.8625, 23.0551, 38.256, -28.6201, -29.9151
2.43996, 2, 17.8877, 15.8626, 23.0551, 38.256, -28.6201, -29.9151
2.44705, 2, 17.8878, 15.8625, 23.0551, 38.256, -28.6201, -29.9151
2.45599, 2, 17.8878, 15.8625, 23.0551, 38.256, -28.6201, -29.9151
2.46578, 2, 17.8877, 15.8625, 23.0551, 38.256, -28.6201, -29.9151
2.4719, 2, 17.8876, 15.8624, 23.0551, 38.256, -28.6202, -29.9151
2.48003, 2, 17.8874, 15.8624, 23.0551, 38.256, -28.6202, -29.9152
2.48985, 2, 17.8872, 15.8622, 23.0551, 38.256, -28.6203, -29.9151
2.49591, 2, 17.8871, 15.8622, 23.0551, 38.2559, -28.6203, -29.9151
2.50397, 2, 17.887, 15.8622, 23.0551, 38.2559, -28.6203, -29.9151
2.51191, 2, 17.887, 15.8622, 23.0551, 38.2559, -28.6203, -29.9151
2.51996, 2, 17.887, 15.8622, 23.0551, 38.2559, -28.6203, -29.9151
2.52797, 2, 17.887, 15.8623, 23.0551, 38.256, -28.6203, -29.9151
2.53591, 2, 17.887, 15.8623, 23.0551, 38.2559, -28.6203, -29.9151
2.54391, 2, 17.887, 15.8623, 23.0551, 38.256, -28.6204, -29.9151
2.55201, 2, 17.887, 15.8623, 23.0551, 38.256, -28.6204, -29.9151
2.55996, 2, 17.887, 15.8623, 23.0551, 38.256, -28.6204, -29.9151
2.56795, 2, 17.887, 15.8623, 23.0551, 38.256, -28.6204, -29.9151
2.57599, 2, 17.887, 15.8623, 23.0551, 38.256, -28.6204, -29.9151
2.58391, 2, 17.887, 15.8622, 23.0551, 38.2559, -28.6204, -29.9151
2.5919, 2, 17.887, 15.8622, 23.0551, 38.2559, -28.6205, -29.9151
2.60003, 2, 17.8869, 15.8622, 23.0551, 38.256, -28.6205, -29.9151
2.6079, 2, 17.8869, 15.8622, 23.0551, 38.256, -28.6205, -29.9151
2.61592, 2, 17.8869, 15.8622, 23.0551, 38.2559, -28.6205, -29.915
2.62396, 2, 17.8868, 15.8622, 23.0551, 38.2559, -28.6205, -29.915
2.63191, 2, 17.8868, 15.8623, 23.0551, 38.2559, -28.6205, -29.9151
2.63997, 2, 17.8868, 15.8623, 23.0551, 38.2559, -28.6206, -29.915
2.64797, 2, 17.8868, 15.8623, 23.0551, 38.2559, -28.6206, -29.915
2.65594, 2, 17.8868, 15.8623, 23.0551, 38.2559, -28.6206, -29.915
2.66396, 2, 17.8868, 15.8623, 23.0551, 38.2559, -28.6206, -29.915
2.67205, 2, 17.8868, 15.8623, 23.0551, 38.2559, -28.6206, -29.915
2.68005, 2, 17.8868, 15.8623, 23.0551, 38.2559, -28.6206, -29.915
2.68755, 2, 17.8868, 15.8623, 23.0551, 38.2559, -28.6206, -29.915
2.69609, 2, 17.8867, 15.8623, 23.0551, 38.2559, -28.6206, -29.915
2.70353, 2, 17.8868, 15.8623, 23.0551, 38.2559, -28.6207, -29.915
2.71191, 2, 17.8868, 15.8623, 23.0551, 38.2559, -28.6208, -29.915
2.8509, 2, 17.8861, 15.8624, 23.0551, 38.2557, -28.6208, -29.915
2.85303, 2, 17.8861, 15.8624, 23.0551, 38.2557, -28.6208, -29.9149
2.85434, 2, 17.8861, 15.8624, 23.0551, 38.2557, -28.6208, -29.9149
2.85565, 2, 17.8861, 15.8624, 23.0551, 38.2557, -28.6208, -29.9149
2.85771, 2, 17.886, 15.8624, 23.0551, 38.2557, -28.6208, -29.9149
2.85896, 2, 17.886, 15.8624, 23.0551, 38.2557, -28.6208, -29.9149
2.86093, 2, 17.886, 15.8624, 23.0551, 38.2557, -28.6209, -29.9149
2.86497, 2, 17.886, 15.8624, 23.0551, 38.2557, -28.6209, -29.9149
2.86632, 2, 17.886, 15.8624, 23.0551, 38.2557, -28.6209, -29.9149
2.86766, 2, 17.886, 15.8624, 23.0551, 38.2557, -28.6209, -29.9149
2.86966, 2, 17.886, 15.8624, 23.0551, 38.2557, -28.6209, -29.915
2.87089, 2, 17.886, 15.8624, 23.0551, 38.2557, -28.6209, -29.915
2.87207, 2, 17.886, 15.8624, 23.0551, 38.2557, -28.6209, -29.915
2.87426, 2, 17.886, 15.8624, 23.0551, 38.2556, -28.6209, -29.915
2.87545, 2, 17.886, 15.8624, 23.0551, 38.2556, -28.6209, -29.915
2.87793, 2, 17.886, 15.8624, 23.0551, 38.2556, -28.6209, -29.915
2.87919, 2, 17.886, 15.8624, 23.0551, 38.2556, -28.6209, -29.915
2.88112, 2, 17.8859, 15.8624, 23.0551, 38.2556, -28.6209, -29.915
2.88254, 2, 17.8859, 15.8624, 23.0551, 38.2556, -28.6209, -29.915
2.88381, 2, 17.8859, 15.8624, 23.0551, 38.2556, -28.6209, -29.915
2.88597, 2, 17.8859, 15.8624, 23.0551, 38.2557, -28.621, -29.915
2.88988, 2, 17.8859, 15.8624, 23.0551, 38.2556, -28.621, -29.915
2.89591, 2, 17.8858, 15.8624, 23.0551, 38.2556, -28.621, -29.9149
2.90297, 2, 17.8858, 15.8624, 23.0551, 38.2556, -28.621, -29.9149
2.91194, 2, 17.8857, 15.8624, 23.0551, 38.2556, -28.621, -29.915
2.91995, 2, 17.8857, 15.8624, 23.0551, 38.2556, -28.621, -29.915
2.9279, 2, 17.8857, 15.8624, 23.0551, 38.2556, -28.621, -29.915
2.93597, 2, 17.8856, 15.8624, 23.0551, 38.2556, -28.621, -29.915
2.94389, 2, 17.8856, 15.8624, 23.0551, 38.2556, -28.6211, -29.9149
2.95189, 2, 17.8855, 15.8624, 23.0551, 38.2556, -28.6211, -29.915
2.96146, 2, 17.8854, 15.8624, 23.0551, 38.2556, -28.6212, -29.915
2.96789, 2, 17.8854, 15.8624, 23.0551, 38.2556, -28.6211, -29.915
2.9769, 2, 17.8853, 15.8624, 23.0551, 38.2555, -28.6211, -29.9149
2.98395, 2, 17.8853, 15.8624, 23.0551, 38.2555, -28.6211, -29.9149
2.99189, 2, 17.8852, 15.8624, 23.0551, 38.2555, -28.6211, -29.9149
2.99995, 2, 17.8851, 15.8624, 23.0551, 38.2555, -28.6212, -29.9149
3.00796, 2, 17.8851, 15.8624, 23.0551, 38.2555, -28.6212, -29.915
3.0159, 2, 17.885, 15.8624, 23.0551, 38.2555, -28.6211, -29.915
3.02389, 2, 17.885, 15.8624, 23.0551, 38.2554, -28.6212, -29.9149
3.03195, 2, 17.8849, 15.8624, 23.0551, 38.2554, -28.6212, -29.9149
3.03995, 2, 17.8848, 15.8624, 23.0551, 38.2554, -28.6211, -29.9149
3.04789, 2, 17.8848, 15.8624, 23.0551, 38.2554, -28.6211, -29.9149
3.05601, 2, 17.8848, 15.8624, 23.0551, 38.2554, -28.6212, -29.9149
3.06388, 2, 17.8847, 15.8624, 23.0551, 38.2554, -28.6212, -29.9149
3.07194, 2, 17.8847, 15.8625, 23.0551, 38.2554, -28.6212, -29.9149
3.08001, 2, 17.8846, 15.8624, 23.0551, 38.2553, -28.6212, -29.9149
3.08789, 2, 17.8846, 15.8625, 23.0551, 38.2553, -28.6212, -29.915
3.0959, 2, 17.8845, 15.8625, 23.0551, 38.2553, -28.6212, -29.915
3.10396, 2, 17.8845, 15.8625, 23.0551, 38.2552, -28.6212, -29.915
3.11189, 2, 17.8844, 15.8625, 23.0551, 38.2553, -28.6212, -29.915
3.11995, 2, 17.8844, 15.8625, 23.0551, 38.2552, -28.6212, -29.9149
3.12795, 2, 17.8843, 15.8625, 23.0551, 38.2552, -28.6212, -29.9149
3.1359, 2, 17.8843, 15.8625, 23.0551, 38.2552, -28.6212, -29.9149
3.1439, 2, 17.8842, 15.8625, 23.0551, 38.2552, -28.6212, -29.9149
3.15195, 2, 17.8842, 15.8625, 23.0551, 38.2552, -28.6212, -29.9149
3.15998, 2, 17.8842, 15.8625, 23.0551, 38.2552, -28.6212, -29.9149
3.16797, 2, 17.8841, 15.8625, 23.0551, 38.2551, -28.6212, -29.9149
3.17605, 2, 17.8841, 15.8625, 23.0551, 38.2551, -28.6212, -29.9149
3.18399, 2, 17.8841, 15.8625, 23.0551, 38.2551, -28.6212, -29.9149
3.192, 2, 17.8841, 15.8625, 23.0551, 38.255, -28.6213, -29.9149
3.20012, 2, 17.8841, 15.8625, 23.0551, 38.255, -28.6213, -29.9149
3.20742, 2, 17.884, 15.8625, 23.0551, 38.255, -28.6213, -29.9149
3.21591, 2, 17.884, 15.8625, 23.0551, 38.2549, -28.6213, -29.9149
3.22413, 2, 17.884, 15.8625, 23.0551, 38.2549, -28.6213, -29.9149
3.2309, 2, 17.884, 15.8625, 23.0551, 38.2549, -28.6214, -29.9149
3.24004, 2, 17.884, 15.8625, 23.0551, 38.2549, -28.6213, -29.9149
3.24688, 2, 17.884, 15.8625, 23.0551, 38.2549, -28.6214, -29.9149
3.25604, 2, 17.8839, 15.8625, 23.0551, 38.2549, -28.6213, -29.9149
3.26296, 2, 17.8839, 15.8625, 23.0551, 38.2549, -28.6214, -29.9149
3.27223, 2, 17.8839, 15.8625, 23.0551, 38.2549, -28.6214, -29.9149
3.27888, 2, 17.8839, 15.8626, 23.0551, 38.2549, -28.6214, -29.9149
3.28833, 2, 17.8839, 15.8626, 23.0551, 38.2549, -28.6214, -29.9149
3.2952, 2, 17.8839, 15.8626, 23.0551, 38.2548, -28.6214, -29.9149
3.30443, 2, 17.8839, 15.8626, 23.0551, 38.2547, -28.6214, -29.9149
3.31243, 2, 17.8839, 15.8626, 23.0551, 38.2547, -28.6215, -29.9149
3.32085, 2, 17.8839, 15.8626, 23.0551, 38.2547, -28.6214, -29.9149
3.32846, 2, 17.8839, 15.8626, 23.0551, 38.2547, -28.6214, -29.9149
3.33642, 2, 17.8838, 15.8626, 23.0551, 38.2547, -28.6214, -29.9149
3.34447, 2, 17.8838, 15.8626, 23.0551, 38.2546, -28.6214, -29.9149
3.35185, 4, 17.8838, 15.8626, 23.0551, 38.2546, -28.6215, -29.9149
3.35994, 4, 17.8837, 15.8626, 23.0551, 38.2547, -28.6215, -29.9149
3.36882, 4, 17.8837, 15.8626, 23.0551, 38.2547, -28.6214, -29.9149
3.37588, 4, 17.8838, 15.8626, 23.0551, 38.2546, -28.6214, -29.9149
3.38388, 4, 17.8838, 15.8626, 23.0551, 38.2546, -28.6215, -29.9148
3.39199, 4, 17.8837, 15.8626, 23.0551, 38.2546, -28.6215, -29.9149
3.39993, 4, 17.8837, 15.8626, 23.0551, 38.2546, -28.6215, -29.9148
3.40792, 4, 17.8837, 15.8626, 23.0551, 38.2545, -28.6215, -29.9148
3.41594, 4, 17.8837, 15.8626, 23.0551, 38.2545, -28.6215, -29.9149
3.42387, 4, 17.8837, 15.8626, 23.0551, 38.2546, -28.6214, -29.9148
3.43187, 4, 17.8837, 15.8626, 23.0551, 38.2546, -28.6214, -29.9148
3.43888, 4, 17.8836, 15.8626, 23.0551, 38.2545, -28.6215, -29.9148
3.44787, 4, 17.8836, 15.8626, 23.0551, 38.2545, -28.6215, -29.9148
3.47849, 4, 17.8836, 15.8626, 23.0551, 38.2544, -28.6215, -29.9149
3.47984, 4, 17.8836, 15.8627, 23.0551, 38.2544, -28.6215, -29.9149
3.48171, 4, 17.8836, 15.8627, 23.0551, 38.2544, -28.6215, -29.9149
3.48305, 4, 17.8836, 15.8627, 23.0551, 38.2544, -28.6215, -29.9149
3.48788, 4, 17.8836, 15.8627, 23.0551, 38.2544, -28.6215, -29.9149
3.49594, 4, 17.8835, 15.8627, 23.0551, 38.2544, -28.6215, -29.9149
3.50388, 4, 17.8829, 15.8627, 23.0551, 38.2544, -28.6215, -29.9148
3.51195, 4, 17.8801, 15.8627, 23.0553, 38.2539, -28.6216, -29.9146
3.51993, 4, 17.8739, 15.8626, 23.0562, 38.2503, -28.6224, -29.9128
3.52789, 4, 17.8638, 15.8621, 23.0593, 38.2386, -28.6256, -29.9051
3.53598, 4, 17.8495, 15.8606, 23.067, 38.2121, -28.6343, -29.8838
3.54387, 5, 17.8298, 15.8574, 23.082, 38.1629, -28.6512, -29.8419
3.55195, 5, 17.804, 15.8518, 23.1067, 38.0811, -28.6792, -29.7714
3.56004, 5, 17.7721, 15.8436, 23.1431, 37.9607, -28.7212, -29.6664
3.56788, 5, 17.7347, 15.8324, 23.1926, 37.7974, -28.7796, -29.5236
3.57589, 5, 17.6919, 15.8184, 23.2549, 37.5923, -28.8532, -29.3436
3.58395, 5, 17.6429, 15.8019, 23.3286, 37.3502, -28.942, -29.131
3.59188, 5, 17.5883, 15.7835, 23.4114, 37.079, -29.0423, -28.892
3.60062, 5, 17.5287, 15.7637, 23.5009, 36.7872, -29.1515, -28.6345
3.60787, 5, 17.4638, 15.7429, 23.5948, 36.4827, -29.2673, -28.3653
3.61587, 5, 17.3944, 15.7217, 23.691, 36.1715, -29.3868, -28.0908
3.62465, 5, 17.3211, 15.7003, 23.788, 35.8582, -29.509, -27.8144
3.63188, 5, 17.2453, 15.6789, 23.8853, 35.545, -29.6326, -27.5381
3.63993, 5, 17.1683, 15.6578, 23.9826, 35.2328, -29.7572, -27.2633
3.64865, 5, 17.0904, 15.6369, 24.0798, 34.9226, -29.8829, -26.9904
3.65588, 5, 17.0122, 15.6162, 24.1769, 34.6143, -30.0089, -26.7194
3.66391, 5, 16.934, 15.5961, 24.2736, 34.3079, -30.1361, -26.4503
3.67275, 5, 16.8558, 15.5764, 24.3699, 34.0036, -30.2638, -26.1833
3.68001, 5, 16.7776, 15.5571, 24.4658, 33.7013, -30.3924, -25.9187
3.68799, 5, 16.6996, 15.5383, 24.5611, 33.4012, -30.5216, -25.6565
3.69675, 5, 16.622, 15.52, 24.6562, 33.1033, -30.6514, -25.3961
3.70403, 5, 16.5443, 15.502, 24.7511, 32.8075, -30.7821, -25.1381
3.71198, 5, 16.4668, 15.4845, 24.8457, 32.5138, -30.9129, -24.8822
3.72081, 5, 16.3895, 15.4674, 24.94, 32.2222, -31.0447, -24.6286
3.72806, 5, 16.312, 15.4504, 25.0337, 31.9324, -31.1769, -24.3768
3.73492, 5, 16.2732, 15.442, 25.0803, 31.7882, -31.2434, -24.2516
3.74498, 5, 16.1563, 15.4174, 25.2195, 31.3593, -31.4437, -23.8789
3.75197, 5, 16.0778, 15.4016, 25.3119, 31.0756, -31.5782, -23.6332
3.76015, 5, 15.9989, 15.386, 25.404, 30.7939, -31.7132, -23.3893
3.76692, 5, 15.9593, 15.3783, 25.45, 30.6538, -31.7809, -23.2679
3.77487, 5, 15.8798, 15.3633, 25.5417, 30.3751, -31.9169, -23.0269
3.78423, 5, 15.7598, 15.3416, 25.6784, 29.9607, -32.1219, -22.6691
3.79092, 5, 15.7197, 15.3346, 25.7236, 29.8237, -32.1906, -22.5509
3.8004, 5, 15.5993, 15.3139, 25.8586, 29.415, -32.3972, -22.1991
3.80837, 5, 15.5189, 15.3009, 25.9483, 29.1449, -32.5357, -21.967
3.81653, 5, 15.4384, 15.2883, 26.0376, 28.8769, -32.6746, -21.7369
3.82525, 5, 15.3579, 15.2761, 26.1267, 28.6108, -32.8142, -21.5087
3.83093, 5, 15.3176, 15.2701, 26.1711, 28.4783, -32.8841, -21.3954
3.84074, 5, 15.1967, 15.2526, 26.3037, 28.0837, -33.095, -21.0582
3.84786, 5, 15.1564, 15.2469, 26.3475, 27.9532, -33.1654, -20.9467
3.85499, 5, 15.076, 15.2361, 26.4349, 27.6933, -33.3068, -20.7251
3.86491, 5, 14.9553, 15.2204, 26.5652, 27.3067, -33.5196, -20.3965
3.87191, 5, 14.9149, 15.2154, 26.6085, 27.1788, -33.5909, -20.288
3.87894, 5, 14.8342, 15.2056, 26.6948, 26.9242, -33.7337, -20.072
3.88791, 5, 14.7535, 15.196, 26.7809, 26.6712, -33.8771, -19.8576
3.89595, 5, 14.6726, 15.1868, 26.8665, 26.4202, -34.021, -19.6449
3.90286, 5, 14.5916, 15.1782, 26.9518, 26.171, -34.1652, -19.4339
3.91186, 5, 14.5102, 15.1701, 27.0364, 25.9234, -34.3101, -19.2249
3.92212, 5, 14.3876, 15.1585, 27.1625, 25.5552, -34.5285, -18.9145
3.92686, 5, 14.3466, 15.1549, 27.2043, 25.4333, -34.6015, -18.8117
3.93585, 5, 14.2644, 15.148, 27.2878, 25.1908, -34.748, -18.6077
3.94293, 5, 14.1821, 15.1414, 27.371, 24.9499, -34.8949, -18.4053
3.95193, 5, 14.0997, 15.135, 27.4538, 24.7106, -35.0423, -18.2047
3.95995, 5, 14.0171, 15.1291, 27.5362, 24.4732, -35.1903, -18.0059
3.96786, 5, 13.9345, 15.1238, 27.6183, 24.2371, -35.3386, -17.8084
3.97691, 5, 13.852, 15.1188, 27.6998, 24.0026, -35.4874, -17.6126
3.98387, 5, 13.7694, 15.1143, 27.7808, 23.7696, -35.6367, -17.4186
3.99286, 5, 13.6869, 15.1102, 27.8613, 23.5382, -35.7864, -17.2259
3.99888, 5, 13.6046, 15.1064, 27.9416, 23.3083, -35.9366, -17.0352
4.00785, 5, 13.5222, 15.103, 28.0215, 23.0798, -36.0871, -16.8461
4.01585, 5, 13.4398, 15.1, 28.101, 22.8532, -36.2381, -16.6584
4.02387, 5, 13.3572, 15.0974, 28.1801, 22.6279, -36.3893, -16.4722
4.03186, 5, 13.2745, 15.0953, 28.2589, 22.4042, -36.5411, -16.2876
4.04002, 5, 13.1916, 15.0935, 28.3371, 22.1818, -36.6929, -16.1046
4.04786, 5, 13.1083, 15.0922, 28.4148, 21.961, -36.8456, -15.9231
4.05585, 5, 13.0248, 15.0913, 28.4921, 21.7417, -36.9985, -15.7433
4.06398, 5, 12.941, 15.0907, 28.5689, 21.5237, -37.152, -15.5645
4.07185, 5, 12.8571, 15.0905, 28.6455, 21.307, -37.3055, -15.3872
4.07991, 5, 12.7729, 15.0905, 28.7217, 21.092, -37.4597, -15.2111
4.08791, 5, 12.6885, 15.0907, 28.7975, 20.8783, -37.6142, -15.0366
4.09585, 5, 12.604, 15.0911, 28.8729, 20.6659, -37.7692, -14.8636
4.10386, 5, 12.5194, 15.0919, 28.9479, 20.4546, -37.9247, -14.692
4.11192, 5, 12.4349, 15.093, 29.0224, 20.2449, -38.0805, -14.5216
4.1199, 5, 12.3504, 15.0945, 29.0963, 20.0364, -38.2368, -14.3523
4.12785, 5, 12.2658, 15.0964, 29.1698, 19.8292, -38.3934, -14.1844
4.13592, 5, 12.1814, 15.0986, 29.2429, 19.6232, -38.5502, -14.0178
4.14387, 5, 12.0968, 15.1013, 29.3156, 19.4188, -38.7076, -13.8526
4.15201, 5, 12.012, 15.1043, 29.3879, 19.2157, -38.8651, -13.6889
4.15991, 5, 11.9272, 15.1079, 29.4599, 19.0138, -39.0229, -13.5265
4.16796, 5, 11.8423, 15.112, 29.5314, 18.813, -39.1812, -13.3653
4.17594, 5, 11.7573, 15.1165, 29.6025, 18.6137, -39.3396, -13.2052
4.18396, 5, 11.6722, 15.1215, 29.6731, 18.4157, -39.4986, -13.0464
4.19201, 5, 11.5868, 15.1269, 29.7433, 18.2188, -39.6575, -12.8888
4.20001, 5, 11.5013, 15.1329, 29.8131, 18.0229, -39.817, -12.7326
4.20806, 5, 11.4155, 15.1393, 29.8823, 17.8283, -39.9769, -12.5779
4.21592, 5, 11.3296, 15.1464, 29.9513, 17.6352, -40.1371, -12.4244
4.22387, 5, 11.2435, 15.1538, 30.0198, 17.4432, -40.2976, -12.2721
4.2321, 5, 11.1572, 15.1615, 30.088, 17.2523, -40.4583, -12.1209
4.23994, 5, 11.0709, 15.1697, 30.1558, 17.0624, -40.6194, -11.9709
4.2469, 5, 11.0278, 15.1739, 30.1895, 16.9679, -40.7001, -11.8963
4.25607, 5, 10.8985, 15.187, 30.29, 16.6863, -40.9425, -11.6746
4.26285, 5, 10.8554, 15.1914, 30.3232, 16.5929, -41.0235, -11.6013
4.27212, 5, 10.726, 15.2059, 30.4222, 16.3145, -41.2668, -11.3834
4.27887, 5, 10.6828, 15.2111, 30.455, 16.2222, -41.348, -11.3113
4.28827, 5, 10.5535, 15.227, 30.5527, 15.9473, -41.5922, -11.0963
4.29629, 5, 10.4673, 15.2382, 30.6174, 15.7656, -41.7554, -10.9545
4.30285, 5, 10.4241, 15.2439, 30.6495, 15.6751, -41.8372, -10.8839
4.31243, 5, 10.2946, 15.2617, 30.7454, 15.4051, -42.0829, -10.6738
4.32043, 5, 10.208, 15.2744, 30.8089, 15.2265, -42.2472, -10.5353
4.32847, 5, 10.1212, 15.2874, 30.8718, 15.0491, -42.4117, -10.3979
4.33647, 5, 10.0777, 15.3007, 30.9344, 14.8726, -42.5766, -10.2618
4.34435, 5, 9.99057, 15.3074, 30.9656, 14.7848, -42.6591, -10.1941
4.35185, 5, 9.90331, 15.3214, 31.0275, 14.6098, -42.8241, -10.0594
4.36054, 5, 9.81588, 15.3358, 31.0889, 14.4357, -42.9896, -9.9255
4.36789, 5, 9.72826, 15.3507, 31.1498, 14.2628, -43.1552, -9.79269
4.37589, 5, 9.64043, 15.3659, 31.2103, 14.0909, -43.3211, -9.66087
4.38385, 5, 9.55255, 15.3813, 31.2705, 13.92, -43.4874, -9.53005
4.39189, 5, 9.46457, 15.3973, 31.3302, 13.7499, -43.6537, -9.40029
4.39998, 5, 9.37658, 15.4137, 31.3895, 13.5808, -43.8203, -9.27168
4.40784, 5, 9.28853, 15.4303, 31.4484, 13.4126, -43.9869, -9.14415
4.4159, 5, 9.20051, 15.4474, 31.5069, 13.2454, -44.1539, -9.0175
4.42385, 5, 9.11248, 15.465, 31.5649, 13.0792, -44.3209, -8.89168
4.43185, 5, 9.02449, 15.4831, 31.6225, 12.9137, -44.4883, -8.76677
4.43996, 5, 8.93638, 15.5015, 31.6795, 12.749, -44.6558, -8.64269
4.44785, 5, 8.8481, 15.5204, 31.7362, 12.5856, -44.8236, -8.51973
4.45586, 5, 8.75976, 15.5397, 31.7924, 12.423, -44.9917, -8.39762
4.46391, 5, 8.67132, 15.5593, 31.8481, 12.2614, -45.1602, -8.27638
4.47346, 5, 8.58281, 15.5793, 31.9035, 12.1007, -45.329, -8.0966
4.47992, 5, 8.49429, 15.5998, 31.9584, 11.9406, -45.4978, -8.03726
4.48882, 5, 8.40563, 15.6206, 32.0128, 11.7816, -45.6671, -7.91899
4.49586, 5, 8.31675, 15.6418, 32.0668, 11.6235, -45.8365, -7.80174
4.50384, 5, 8.22761, 15.6634, 32.1205, 11.4662, -46.0061, -7.68503
4.5119, 5, 8.13843, 15.6853, 32.1737, 11.3098, -46.1758, -7.56927
4.51991, 5, 8.04923, 15.7077, 32.2264, 11.154, -46.3457, -7.45464
4.52791, 5, 7.96009, 15.7305, 32.2787, 10.9991, -46.5159, -7.34057
4.53583, 5, 7.87088, 15.7536, 32.3305, 10.845, -46.6861, -7.22767
4.54388, 5, 7.78159, 15.7773, 32.3819, 10.6919, -46.8563, -7.11545
4.55192, 5, 7.69233, 15.8012, 32.4328, 10.5397, -47.0269, -7.00412
4.55989, 5, 7.60313, 15.8256, 32.4832, 10.3881, -47.1973, -6.89403
4.56785, 5, 7.51412, 15.8506, 32.5332, 10.2371, -47.3681, -6.78427
4.5759, 5, 7.42512, 15.8758, 32.5828, 10.087, -47.5389, -6.67555
4.58384, 5, 7.33607, 15.9014, 32.632, 9.93768, -47.7102, -6.56729
4.59185, 5, 7.247, 15.9274, 32.6806, 9.78923, -47.8816, -6.45999
4.59996, 5, 7.15774, 15.9538, 32.7289, 9.64161, -48.0531, -6.35347
4.60783, 5, 7.06827, 15.9807, 32.7768, 9.49461, -48.2248, -6.24757
4.61631, 5, 6.97856, 16.0079, 32.8241, 9.34814, -48.3968, -6.14277
4.62296, 5, 6.88867, 16.0357, 32.8711, 9.2027, -48.5688, -6.03837
4.6319, 5, 6.79859, 16.0637, 32.9175, 9.05794, -48.7413, -5.93507
4.64068, 5, 6.70836, 16.0922, 32.9636, 8.91418, -48.9139, -5.83252
4.64784, 5, 6.61806, 16.1211, 33.0092, 8.77103, -49.0867, -5.73083
4.65589, 5, 6.52765, 16.1503, 33.0542, 8.62869, -49.2597, -5.62975
4.66464, 5, 6.43713, 16.1799, 33.099, 8.48692, -49.4326, -5.52923
4.67188, 5, 6.34664, 16.21, 33.1431, 8.3459, -49.6058, -5.42934
4.68004, 5, 6.2562, 16.2405, 33.1868, 8.20565, -49.779, -5.33003
4.68873, 5, 6.16573, 16.2714, 33.2302, 8.06623, -49.9524, -5.23188
4.69594, 5, 6.0754, 16.3025, 33.2729, 7.92743, -50.1258, -5.13387
4.704, 5, 5.98497, 16.3341, 33.3154, 7.78924, -50.2993, -5.03733
4.7129, 5, 5.89451, 16.3661, 33.3573, 7.65162, -50.473, -4.94104
4.72002, 5, 5.80406, 16.3985, 33.3988, 7.51463, -50.6466, -4.84572
4.72792, 5, 5.71356, 16.4312, 33.4399, 7.37835, -50.8206, -4.7509
4.7383, 5, 5.62303, 16.4644, 33.4805, 7.24301, -50.9946, -4.65731
4.74395, 5, 5.53229, 16.498, 33.5206, 7.10828, -51.1688, -4.56377
4.7519, 5, 5.44137, 16.5319, 33.5604, 6.97417, -51.343, -4.47135
4.7603, 5, 5.35043, 16.5661, 33.5996, 6.84055, -51.5173, -4.37899
4.76684, 5, 5.30494, 16.5835, 33.619, 6.77393, -51.6045, -4.33326
4.77616, 5, 5.16811, 16.6362, 33.6767, 6.57508, -51.8665, -4.19667
4.78289, 5, 5.12242, 16.6538, 33.6956, 6.50911, -51.9539, -4.15167
4.79231, 5, 4.9853, 16.7075, 33.7519, 6.31233, -52.2162, -4.01701
4.79884, 5, 4.93962, 16.7256, 33.7705, 6.24695, -52.3037, -3.97263
4.80862, 5, 4.80265, 16.7805, 33.8252, 6.05204, -52.5662, -3.84008
4.81646, 5, 4.71146, 16.8175, 33.8613, 5.92247, -52.7415, -3.75306
4.82439, 5, 4.62027, 16.8551, 33.8969, 5.79374, -52.9169, -3.66597
4.83244, 5, 4.52922, 16.8929, 33.932, 5.66565, -53.0924, -3.58032
4.84057, 5, 4.43826, 16.9311, 33.9666, 5.53814, -53.2679, -3.49484
4.84833, 5, 4.39284, 16.9503, 33.9838, 5.47473, -53.3557, -3.45213
4.85582, 5, 4.30198, 16.9893, 34.0178, 5.34821, -53.5314, -3.36787
4.86388, 5, 4.21118, 17.0285, 34.0513, 5.22235, -53.7071, -3.2836
4.87182, 5, 4.12017, 17.068, 34.0845, 5.09692, -53.8828, -3.20033
4.87992, 5, 4.02901, 17.1079, 34.1172, 4.97196, -54.0588, -3.11725
4.88788, 5, 3.93772, 17.1483, 34.1493, 4.84766, -54.2345, -3.03513
4.89582, 5, 3.84628, 17.1889, 34.181, 4.72402, -54.4103, -2.95345
4.90384, 5, 3.75472, 17.2299, 34.2124, 4.60094, -54.5862, -2.87216
4.91183, 5, 3.663, 17.2712, 34.2431, 4.47843, -54.7619, -2.79196
4.91989, 5, 3.57099, 17.3129, 34.2734, 4.3565, -54.9379, -2.71179
4.92787, 5, 3.47888, 17.355, 34.3034, 4.23485, -55.1139, -2.6328
4.93582, 5, 3.38678, 17.3975, 34.3328, 4.1138, -55.2899, -2.55369
4.94382, 5, 3.2947, 17.4404, 34.3616, 3.99321, -55.4661, -2.47576
4.95082, 5, 3.20259, 17.4836, 34.3901, 3.87333, -55.6423, -2.39834
4.95989, 5, 3.11052, 17.5273, 34.4183, 3.75407, -55.8188, -2.3209
4.967, 5, 3.01856, 17.5714, 34.4458, 3.63523, -55.9952, -2.24463
4.97589, 5, 2.92663, 17.6158, 34.4728, 3.51699, -56.1719, -2.168
4.98623, 5, 2.83477, 17.6607, 34.4994, 3.39907, -56.3486, -2.0927
4.9909, 5, 2.74294, 17.7059, 34.5256, 3.28149, -56.5253, -2.01735
4.99995, 5, 2.65105, 17.7515, 34.5513, 3.16454, -56.7021, -1.94262
5.00782, 5, 2.55922, 17.7973, 34.5765, 3.04794, -56.8788, -1.86884
5.01582, 5, 2.46744, 17.8436, 34.6013, 2.93208, -57.0555, -1.7947
5.02389, 5, 2.37562, 17.8901, 34.6255, 2.81667, -57.2322, -1.72193
5.03182, 5, 2.28362, 17.937, 34.6495, 2.7018, -57.4089, -1.64938
5.03989, 5, 2.19139, 17.9841, 34.6727, 2.58737, -57.5855, -1.57728
5.04793, 5, 2.09911, 18.0316, 34.6955, 2.47318, -57.7619, -1.50613
5.05582, 5, 2.00681, 18.0795, 34.7178, 2.3596, -57.9384, -1.43479
5.06382, 5, 1.91454, 18.1278, 34.7398, 2.24655, -58.115, -1.36458
5.07188, 5, 1.82228, 18.1764, 34.7614, 2.13405, -58.2916, -1.29485
5.07988, 5, 1.72991, 18.2255, 34.7823, 2.02214, -58.4682, -1.22505
5.08782, 5, 1.63751, 18.2749, 34.8028, 1.9106, -58.6448, -1.15636
5.09589, 5, 1.54521, 18.3249, 34.8228, 1.79976, -58.8216, -1.08723
5.10382, 5, 1.45315, 18.3751, 34.8423, 1.68908, -58.9985, -1.01892
5.11182, 5, 1.36132, 18.4257, 34.8614, 1.57866, -59.1753, -0.951521
5.11995, 5, 1.26961, 18.4768, 34.8802, 1.4689, -59.3523, -0.88353
5.12782, 5, 1.17792, 18.5281, 34.8983, 1.35955, -59.5295, -0.816811
5.13586, 5, 1.08624, 18.5797, 34.916, 1.25077, -59.7065, -0.750507
5.14388, 5, 0.994431, 18.6316, 34.9334, 1.14245, -59.8835, -0.684013
5.15182, 5, 0.902592, 18.6838, 34.9501, 1.03449, -60.0605, -0.618769
5.1599, 5, 0.810609, 18.7363, 34.9663, 0.927081, -60.2373, -0.553635
5.16797, 5, 0.719246, 18.7888, 34.9823, 0.81986, -60.4141, -0.48875
5.17588, 5, 0.630228, 18.8406, 34.9978, 0.713172, -60.5905, -0.425312
5.18391, 5, 0.544777, 18.8908, 35.0129, 0.60784, -60.7654, -0.36199
5.19197, 5, 0.463316, 18.9387, 35.0277, 0.504879, -60.9371, -0.300476
5.19998, 5, 0.386535, 18.9836, 35.0417, 0.406761, -61.1018, -0.242391
5.20792, 5, 0.315888, 19.0249, 35.0545, 0.315471, -61.2555, -0.188004
5.21607, 5, 0.252781, 19.062, 35.0657, 0.233883, -61.3936, -0.138874
5.22383, 5, 0.197122, 19.0949, 35.0753, 0.16397, -61.5124, -0.0970716
5.23183, 5, 0.148437, 19.1242, 35.0825, 0.107524, -61.6085, -0.0635687
5.24004, 5, 0.106644, 19.1495, 35.0874, 0.0654153, -61.6818, -0.0381616
5.24685, 5, 0.0883634, 19.1606, 35.0892, 0.0490019, -61.7099, -0.0283228
5.2559, 5, 0.0446196, 19.1873, 35.0921, 0.0156223, -61.7672, -0.0084051
5.26433, 5, 0.0235552, 19.1995, 35.0928, 0.00357476, -61.7879, -0.00139632
5.28534, 5, -0.0042063, 19.2147, 35.0932, -0.0077446, -61.807, 0.00484553
5.28658, 5, -0.0042063, 19.2147, 35.0932, -0.0077446, -61.807, 0.00484553
5.28922, 5, -0.00619248, 19.2158, 35.0932, -0.00844956, -61.8081, 0.00521852
5.29489, 5, -0.00757496, 19.2165, 35.0932, -0.0089356, -61.809, 0.00548213
5.3044, 5, -0.00918556, 19.2175, 35.0932, -0.00972649, -61.8102, 0.00587453
5.31234, 5, -0.00972803, 19.2178, 35.0932, -0.00995602, -61.8106, 0.00600582
5.32035, 5, -0.0120121, 19.2187, 35.0931, -0.0102749, -61.811, 0.00602196
5.32843, 5, -0.0177134, 19.2213, 35.0929, -0.0111488, -61.8123, 0.00604418
5.3364, 6, -0.0279835, 19.2267, 35.0928, -0.0142807, -61.8165, 0.00616765
5.34435, 6, -0.0351162, 19.2307, 35.0927, -0.0174737, -61.8268, 0.00639298
5.35242, 6, -0.0540522, 19.2417, 35.0927, -0.0284634, -61.8352, 0.00717352
5.35982, 6, -0.0802375, 19.2573, 35.0931, -0.0478224, -61.8606, 0.00800972
5.36781, 6, -0.114409, 19.2769, 35.0944, -0.0781144, -61.9012, 0.0106032
5.37587, 6, -0.155822, 19.2995, 35.0972, -0.122434, -61.9611, 0.0146246
5.38386, 6, -0.20411, 19.3243, 35.102, -0.182426, -62.0407, 0.0202039
5.3918, 6, -0.259697, 19.3522, 35.1083, -0.255387, -62.1403, 0.0270934
5.39977, 6, -0.322436, 19.3844, 35.1158, -0.341722, -62.257, 0.0351973
5.40781, 6, -0.391534, 19.421, 35.1239, -0.437285, -62.3874, 0.0441376
5.41586, 6, -0.466264, 19.4612, 35.1322, -0.539733, -62.5278, 0.0534219
5.4239, 6, -0.546588, 19.5048, 35.1403, -0.646557, -62.6742, 0.0629264
5.43183, 6, -0.632195, 19.5511, 35.1477, -0.755287, -62.824, 0.0721876
5.43985, 6, -0.721677, 19.5996, 35.1547, -0.865134, -62.9753, 0.0812154
5.44781, 6, -0.813285, 19.6494, 35.1613, -0.975497, -63.1275, 0.0899201
5.45581, 6, -0.906021, 19.7001, 35.1675, -1.08564, -63.28, 0.0981827
5.46279, 6, -0.99938, 19.7514, 35.1732, -1.19578, -63.4325, 0.106286
5.47187, 6, -1.09295, 19.8032, 35.1787, -1.30575, -63.5853, 0.114002
5.47981, 6, -1.18664, 19.8554, 35.1838, -1.41543, -63.738, 0.121289
5.48787, 6, -1.28018, 19.9078, 35.1886, -1.52496, -63.8907, 0.128336
5.49687, 6, -1.37361, 19.9605, 35.1929, -1.63424, -64.0433, 0.135005
5.50381, 6, -1.46689, 20.0134, 35.1968, -1.74341, -64.196, 0.141383
5.51188, 6, -1.56032, 20.0663, 35.2003, -1.85259, -64.3484, 0.147543
5.5198, 6, -1.6535, 20.1194, 35.2033, -1.96153, -64.5011, 0.153409
5.52781, 6, -1.74624, 20.1726, 35.2058, -2.07032, -64.6535, 0.159003
5.53587, 6, -1.83863, 20.226, 35.2079, -2.17885, -64.8061, 0.164389
5.54381, 6, -1.93092, 20.2797, 35.2096, -2.28705, -64.9582, 0.169481
5.55193, 6, -2.02325, 20.3338, 35.211, -2.39517, -65.1106, 0.174313
5.5598, 6, -2.1157, 20.3883, 35.2119, -2.503, -65.2628, 0.17896
5.56782, 6, -2.20841, 20.4432, 35.2124, -2.61074, -65.415, 0.183382
5.57588, 6, -2.30142, 20.4985, 35.2126, -2.71844, -65.567, 0.187768
5.5838, 6, -2.39481, 20.5542, 35.2127, -2.82582, -65.7192, 0.191715
5.59181, 6, -2.48846, 20.6102, 35.2125, -2.9331, -65.8711, 0.195375
5.60012, 6, -2.58236, 20.6667, 35.212, -3.04002, -66.023, 0.198828
5.6068, 6, -2.6765, 20.7235, 35.2111, -3.14674, -66.1747, 0.201965
5.61581, 6, -2.7707, 20.7804, 35.2098, -3.25317, -66.3266, 0.204961
5.6246, 6, -2.86491, 20.8375, 35.208, -3.35946, -66.4783, 0.207609
5.6318, 6, -2.95914, 20.8948, 35.2056, -3.46584, -66.6302, 0.209984
5.63986, 6, -3.05327, 20.9521, 35.2027, -3.57211, -66.782, 0.212131
5.64859, 6, -3.14732, 21.0095, 35.1994, -3.67813, -66.9336, 0.214041
5.6558, 6, -3.24124, 21.0673, 35.1956, -3.78407, -67.0852, 0.215616
5.66402, 6, -3.33489, 21.1252, 35.1913, -3.8898, -67.2365, 0.216922
5.67272, 6, -3.42853, 21.1835, 35.1865, -3.9951, -67.388, 0.218028
5.67988, 6, -3.52209, 21.242, 35.1812, -4.1005, -67.5391, 0.218837
5.68813, 6, -3.61548, 21.3011, 35.1753, -4.20551, -67.6904, 0.219277
5.69534, 6, -3.70886, 21.3604, 35.1691, -4.31046, -67.8413, 0.219741
5.70362, 6, -3.80218, 21.4201, 35.1625, -4.41543, -67.9924, 0.219975
5.71232, 6, -3.89574, 21.4803, 35.1556, -4.52005, -68.1429, 0.220112
5.71937, 6, -3.94254, 21.5104, 35.152, -4.62455, -68.2935, 0.220146
5.72763, 6, -4.03617, 21.571, 35.1443, -4.67673, -68.3687, 0.220191
5.73657, 6, -4.17692, 21.662, 35.132, -4.83263, -68.5944, 0.220138
5.74545, 6, -4.27089, 21.7229, 35.1231, -4.93641, -68.7447, 0.22004
5.75187, 6, -4.36501, 21.7839, 35.1138, -5.03994, -68.8952, 0.219922
5.7607, 6, -4.45923, 21.8452, 35.1042, -5.14332, -69.0453, 0.219703
5.76797, 6, -4.55322, 21.9065, 35.094, -5.24661, -69.1954, 0.21943
5.77621, 6, -4.64696, 21.9682, 35.0834, -5.35012, -69.3454, 0.218751
5.78284, 6, -4.69369, 21.9991, 35.0779, -5.40164, -69.4204, 0.218246
5.79083, 6, -4.78707, 22.0612, 35.0664, -5.50468, -69.5704, 0.216924
5.80038, 6, -4.92697, 22.155, 35.0484, -5.65878, -69.7952, 0.213988
5.80916, 6, -5.02009, 22.218, 35.0359, -5.76125, -69.9449, 0.211419
5.81486, 6, -5.06669, 22.2496, 35.0295, -5.81244, -70.0198, 0.209942
5.82481, 6, -5.20643, 22.3449, 35.0096, -5.96563, -70.2442, 0.205009
5.83317, 6, -5.2997, 22.4088, 34.996, -6.06782, -70.3936, 0.201102
5.83886, 6, -5.34637, 22.4407, 34.989, -6.11885, -70.4682, 0.199037
5.84844, 6, -5.43983, 22.5048, 34.9672, -6.27175, -70.6918, 0.192302
5.85579, 6, -5.53342, 22.5691, 34.9596, -6.32273, -70.7662, 0.189893
5.86287, 6, -5.62713, 22.6334, 34.9442, -6.42431, -70.9151, 0.184938
5.87379, 6, -5.76805, 22.7303, 34.9204, -6.57624, -71.1381, 0.177034
5.8798, 6, -5.81506, 22.7627, 34.9122, -6.62685, -71.2123, 0.174321
5.88685, 6, -5.90893, 22.8278, 34.8954, -6.72785, -71.3606, 0.168586
5.89584, 6, -6.00282, 22.8931, 34.8784, -6.82876, -71.5089, 0.162709
5.90379, 6, -6.09667, 22.9587, 34.8608, -6.92968, -71.6568, 0.15663
5.91079, 6, -6.1905, 23.0246, 34.8427, -7.03055, -71.805, 0.150482
5.91979, 6, -6.28435, 23.0908, 34.8243, -7.13119, -71.9528, 0.144219
5.92779, 6, -6.37805, 23.1573, 34.8054, -7.23176, -72.1007, 0.137694
5.93477, 6, -6.4716, 23.2239, 34.7861, -7.33222, -72.248, 0.130975
5.94379, 6, -6.56495, 23.2908, 34.7664, -7.43222, -72.3955, 0.12401
5.95179, 6, -6.65825, 23.3579, 34.7463, -7.5323, -72.5427, 0.117162
5.95878, 6, -6.75156, 23.4252, 34.7255, -7.63216, -72.69, 0.110016
5.96779, 6, -6.84486, 23.4927, 34.7044, -7.73188, -72.8371, 0.102536
5.97591, 6, -6.93813, 23.5603, 34.6828, -7.83166, -72.9841, 0.0947735
5.98385, 6, -7.03141, 23.6282, 34.6609, -7.93139, -73.1309, 0.0868407
5.99384, 6, -7.17136, 23.7306, 34.6271, -8.08045, -73.3507, 0.0743026
5.99979, 6, -7.21801, 23.7648, 34.6156, -8.13, -73.4238, 0.0700662
6.00785, 6, -7.31136, 23.8334, 34.5923, -8.22911, -73.5702, 0.0614236
6.0158, 6, -7.40465, 23.9022, 34.5686, -8.32783, -73.7162, 0.0523092
6.02379, 6, -7.49778, 23.9713, 34.5445, -8.42647, -73.8622, 0.0430629
6.03185, 6, -7.59089, 24.0407, 34.5198, -8.52507, -74.008, 0.0335465
6.03979, 6, -7.68401, 24.1102, 34.4947, -8.62343, -74.1537, 0.0238077
6.04779, 6, -7.77696, 24.18, 34.4692, -8.72188, -74.2993, 0.0138854
6.0559, 6, -7.86965, 24.2501, 34.4433, -8.82032, -74.4447, 0.00391945
6.06378, 6, -7.9622, 24.3203, 34.417, -8.91845, -74.5898, -0.00616147
6.0718, 6, -8.0548, 24.3908, 34.3901, -9.01659, -74.735, -0.0162045
6.07985, 6, -8.14739, 24.4615, 34.3628, -9.11425, -74.8798, -0.0262805
6.08778, 6, -8.23999, 24.5324, 34.3352, -9.21193, -75.0247, -0.0364528
6.09579, 6, -8.33258, 24.6034, 34.3071, -9.30962, -75.169, -0.0466546
6.10385, 6, -8.4252, 24.6746, 34.2785, -9.40688, -75.3135, -0.0570346
6.11184, 6, -8.51787, 24.746, 34.2494, -9.50442, -75.4574, -0.0675409
6.11979, 6, -8.61069, 24.8176, 34.2201, -9.60175, -75.6015, -0.0781269
6.12785, 6, -8.70357, 24.8894, 34.1901, -9.69889, -75.745, -0.0889331
6.13579, 6, -8.79653, 24.9615, 34.1598, -9.79619, -75.8886, -0.0999243
6.14384, 6, -8.88937, 25.0338, 34.129, -9.89314, -76.0318, -0.11125
6.15186, 6, -8.98216, 25.1063, 34.0979, -9.98976, -76.1749, -0.12296
6.15979, 6, -9.07496, 25.1792, 34.0662, -10.0864, -76.3178, -0.134819
6.16806, 6, -9.16768, 25.2523, 34.0341, -10.1828, -76.4605, -0.147001
6.17584, 6, -9.26026, 25.3255, 34.0016, -10.279, -76.6031, -0.159439
6.18387, 6, -9.3527, 25.3988, 33.9687, -10.3755, -76.7456, -0.172005
6.19212, 6, -9.44507, 25.4724, 33.9352, -10.4718, -76.8879, -0.184762
6.19931, 6, -9.53743, 25.5461, 33.9014, -10.568, -77.0303, -0.197596
6.20795, 6, -9.62976, 25.62, 33.8671, -10.6641, -77.1722, -0.210278
6.21632, 6, -9.72186, 25.694, 33.8322, -10.7602, -77.3141, -0.222853
6.22333, 6, -9.76793, 25.7311, 33.8147, -10.8081, -77.4557, -0.235563
6.23179, 6, -9.90603, 25.8426, 33.7614, -10.9515, -77.5972, -0.24832
6.24064, 6, -9.99813, 25.9172, 33.7253, -11.047, -77.7383, -0.261157
6.24788, 6, -10.0903, 25.992, 33.6887, -11.1422, -77.8794, -0.274057
6.25585, 6, -10.1824, 26.067, 33.6519, -11.2376, -78.0201, -0.287286
6.26472, 6, -10.2745, 26.1422, 33.6145, -11.333, -78.1607, -0.300652
6.27196, 6, -10.3664, 26.2176, 33.5767, -11.428, -78.3009, -0.31426
6.27883, 6, -10.4124, 26.2554, 33.5577, -11.4755, -78.3709, -0.321164
6.289, 6, -10.5503, 26.369, 33.4997, -11.6178, -78.5808, -0.342703
6.29614, 6, -10.6419, 26.445, 33.4606, -11.7123, -78.7202, -0.357248
6.30277, 6, -10.6876, 26.4831, 33.441, -11.7595, -78.7899, -0.364548
6.31308, 6, -10.8244, 26.5975, 33.381, -11.9011, -78.9985, -0.386694
6.31877, 6, -10.8699, 26.6358, 33.3608, -11.9483, -79.0681, -0.394012
6.32833, 6, -11.0062, 26.7509, 33.2997, -12.0894, -79.2759, -0.415849
6.3371, 6, -11.097, 26.8277, 33.2583, -12.1835, -79.4145, -0.430475
6.34276, 6, -11.1424, 26.8661, 33.2374, -12.2307, -79.4836, -0.437714
6.35233, 6, -11.2331, 26.9432, 33.1954, -12.3245, -79.6218, -0.459692
6.35977, 6, -11.3239, 27.0206, 33.1529, -12.4184, -79.7598, -0.46722
6.36677, 6, -11.4148, 27.0981, 33.11, -12.512, -79.8977, -0.482432
6.37687, 6, -11.5514, 27.2147, 33.0448, -12.6519, -80.1044, -0.505658
6.38378, 6, -11.597, 27.2536, 33.0228, -12.6986, -80.1732, -0.513442
6.39076, 6, -11.6881, 27.3317, 32.9787, -12.7919, -80.3105, -0.529406
6.39978, 6, -11.7791, 27.4099, 32.934, -12.8848, -80.4476, -0.545445
6.40777, 6, -11.8703, 27.4882, 32.8889, -12.978, -80.5847, -0.561443
6.41477, 6, -11.9615, 27.5667, 32.8434, -13.0711, -80.7214, -0.577239
6.42378, 6, -12.0525, 27.6453, 32.7975, -13.164, -80.8579, -0.59306
6.43178, 6, -12.1434, 27.724, 32.7512, -13.257, -80.994, -0.608933
6.43876, 6, -12.2342, 27.8029, 32.7042, -13.3497, -81.13, -0.624925
6.44778, 6, -12.3249, 27.8821, 32.6569, -13.442, -81.2655, -0.640887
6.45584, 6, -12.4154, 27.9614, 32.6092, -13.5343, -81.4011, -0.657164
6.46276, 6, -12.5058, 28.0408, 32.5609, -13.6264, -81.5361, -0.673768
6.47178, 6, -12.596, 28.1204, 32.5123, -13.7186, -81.6712, -0.69073
6.4799, 6, -12.686, 28.2003, 32.4632, -13.8108, -81.8056, -0.707948
6.48676, 6, -12.7759, 28.2803, 32.4137, -13.9027, -81.9402, -0.72536
6.49579, 6, -12.8658, 28.3604, 32.3638, -13.9948, -82.0741, -0.74275
6.50384, 6, -12.9556, 28.4407, 32.3135, -14.0865, -82.2078, -0.759958
6.51177, 6, -13.0454, 28.5211, 32.2627, -14.1783, -82.3414, -0.777085
6.5198, 6, -13.1352, 28.6018, 32.2115, -14.2699, -82.4746, -0.79418
6.52784, 6, -13.225, 28.6825, 32.1598, -14.3611, -82.608, -0.811272
6.53578, 6, -13.3149, 28.7634, 32.1078, -14.4525, -82.7407, -0.828521
6.54511, 6, -13.4046, 28.8446, 32.0552, -14.5436, -82.8736, -0.845995
6.55187, 6, -13.4943, 28.9258, 32.0022, -14.6345, -83.0058, -0.863598
6.55988, 6, -13.5838, 29.0071, 31.9487, -14.7257, -83.1381, -0.881606
6.56777, 6, -13.6732, 29.0886, 31.8948, -14.8168, -83.2699, -0.89991
6.57577, 6, -13.7624, 29.1702, 31.8404, -14.9074, -83.4017, -0.918298
6.58383, 6, -13.8515, 29.252, 31.7857, -14.9982, -83.5332, -0.93656
6.59177, 6, -13.9403, 29.334, 31.7305, -15.0888, -83.6645, -0.954819
6.59977, 6, -14.0289, 29.4162, 31.6748, -15.1789, -83.7957, -0.972765
6.60784, 6, -14.1172, 29.4984, 31.6188, -15.2692, -83.9263, -0.990721
6.61577, 6, -14.2056, 29.5809, 31.5623, -15.3591, -84.057, -1.00868
6.62376, 6, -14.2939, 29.6635, 31.5054, -15.449, -84.1872, -1.02693
6.63183, 6, -14.3821, 29.7463, 31.4481, -15.5389, -84.3172, -1.04539
6.63977, 6, -14.4702, 29.8291, 31.3902, -15.6287, -84.4469, -1.06425
6.64781, 6, -14.5584, 29.9121, 31.3319, -15.7187, -84.5765, -1.08337
6.65584, 6, -14.6467, 29.9954, 31.2732, -15.8082, -84.7056, -1.1026
6.66377, 6, -14.7351, 30.0788, 31.2139, -15.8977, -84.8347, -1.12178
6.67184, 6, -14.8236, 30.1622, 31.1543, -15.9871, -84.9633, -1.14056
6.67991, 6, -14.912, 30.2457, 31.0943, -16.076, -85.0918, -1.15931
6.68785, 6, -15.0003, 30.3295, 31.0338, -16.1652, -85.22, -1.17802
6.69593, 6, -15.0886, 30.4134, 30.9728, -16.2542, -85.3476, -1.19677
6.70386, 6, -15.1768, 30.4972, 30.9116, -16.3428, -85.4755, -1.21557
6.71187, 6, -15.2649, 30.5812, 30.8499, -16.4318, -85.6024, -1.23478
6.71994, 6, -15.3528, 30.6654, 30.7877, -16.5207, -85.7295, -1.25424
6.72796, 6, -15.4406, 30.7497, 30.725, -16.6093, -85.8563, -1.27396
6.73579, 6, -15.5281, 30.8342, 30.6619, -16.6981, -85.9828, -1.29348
6.74408, 6, -15.6156, 30.9188, 30.5982, -16.7865, -86.1093, -1.31309
6.7518, 6, -15.703, 31.0035, 30.5342, -16.8746, -86.2351, -1.33233
6.75987, 6, -15.7901, 31.0883, 30.4697, -16.9627, -86.3609, -1.35152
6.76799, 6, -15.8771, 31.1733, 30.4048, -17.0506, -86.4861, -1.37063
6.77595, 6, -15.964, 31.2583, 30.3395, -17.1385, -86.6112, -1.38993
6.78275, 6, -16.0073, 31.3009, 30.3067, -17.1824, -86.6737, -1.39963
6.79233, 6, -16.1376, 31.4288, 30.2077, -17.314, -86.8605, -1.42881
6.80013, 6, -16.2244, 31.5143, 30.1412, -17.4019, -86.9851, -1.44879
6.80675, 6, -16.2678, 31.5571, 30.1077, -17.4457, -87.0471, -1.45886
6.81636, 6, -16.3977, 31.6857, 30.0066, -17.5769, -87.233, -1.48882
6.82428, 6, -16.4842, 31.7716, 29.9386, -17.6643, -87.3564, -1.50874
6.83239, 6, -16.5707, 31.8576, 29.8702, -17.7513, -87.4799, -1.52855
6.8406, 6, -16.657, 31.9437, 29.8013, -17.8383, -87.603, -1.54806
6.84831, 6, -16.7, 31.9868, 29.7667, -17.9252, -87.7259, -1.56775
6.85642, 6, -16.7859, 32.073, 29.6972, -18.0119, -87.8487, -1.58749
6.86375, 6, -16.8716, 32.1593, 29.6274, -18.0551, -87.9098, -1.59759
6.87176, 6, -16.957, 32.2458, 29.5571, -18.142, -88.0322, -1.61801
6.87981, 6, -17.0422, 32.3323, 29.4863, -18.2285, -88.154, -1.63848
6.88775, 6, -17.1274, 32.419, 29.4151, -18.315, -88.2755, -1.65908
6.89581, 6, -17.2124, 32.5058, 29.3434, -18.4014, -88.3969, -1.67924
6.9038, 6, -17.2973, 32.5928, 29.2713, -18.4875, -88.5178, -1.69917
6.91174, 6, -17.3821, 32.6799, 29.1987, -18.5735, -88.6386, -1.71888
6.91975, 6, -17.4671, 32.767, 29.1257, -18.6591, -88.7589, -1.73878
6.92776, 6, -17.5521, 32.8542, 29.0523, -18.7448, -88.879, -1.75867
6.93577, 6, -17.6372, 32.9417, 28.9785, -18.8302, -88.999, -1.77885
6.9438, 6, -17.7222, 33.0293, 28.9043, -18.9155, -89.1181, -1.79945
6.95175, 6, -17.8073, 33.1169, 28.8296, -19.0009, -89.2372, -1.82033
6.95975, 6, -17.8921, 33.2046, 28.7546, -19.086, -89.3558, -1.84114
6.96782, 6, -17.9768, 33.2924, 28.679, -19.1714, -89.4742, -1.86174
6.97576, 6, -18.061, 33.3801, 28.6031, -19.2562, -89.5925, -1.88231
6.9838, 6, -18.1441, 33.4672, 28.5268, -19.341, -89.7101, -1.90248
6.9928, 6, -18.2243, 33.5525, 28.451, -19.4254, -89.8273, -1.92245
6.99976, 6, -18.3001, 33.6343, 28.3768, -19.5084, -89.9429, -1.94228
7.00775, 6, -18.3706, 33.7117, 28.3052, -19.5894, -90.0555, -1.96167
7.01583, 6, -18.4361, 33.7837, 28.2375, -19.666, -90.1624, -1.98039
7.02376, 6, -18.4958, 33.8496, 28.175, -19.7365, -90.2601, -1.99769
7.03175, 6, -18.5486, 33.908, 28.1196, -19.7977, -90.3465, -2.01322
7.03982, 6, -18.5953, 33.959, 28.0724, -19.8496, -90.4183, -2.02641
7.04775, 6, -18.6366, 34.0032, 28.0336, -19.89, -90.4754, -2.03658
7.05576, 6, -18.673, 34.0405, 28.0033, -19.9193, -90.5171, -2.04393
7.06386, 6, -18.703, 34.0702, 27.9812, -19.9392, -90.5454, -2.04899
7.07175, 6, -18.7268, 34.0922, 27.9661, -19.9519, -90.5635, -2.05215
7.07975, 6, -18.745, 34.1081, 27.9562, -19.9594, -90.574, -2.05399
7.08787, 6, -18.7577, 34.1188, 27.9502, -19.9635, -90.5796, -2.05501
7.09576, 6, -18.7656, 34.1251, 27.9467, -19.9656, -90.5825, -2.05559
7.10374, 7, -18.7697, 34.128, 27.9447, -19.9666, -90.584, -2.05583
7.11182, 7, -18.7715, 34.1292, 27.9435, -19.9672, -90.5847, -2.05594
7.11975, 7, -18.7723, 34.1296, 27.9428, -19.9676, -90.585, -2.05597
7.12775, 7, -18.7726, 34.1295, 27.9424, -19.9678, -90.5852, -2.05605
7.13583, 7, -18.7723, 34.1295, 27.9422, -19.9679, -90.5854, -2.0561
7.14375, 7, -18.772, 34.1296, 27.942, -19.9679, -90.5854, -2.05612
7.1518, 7, -18.7718, 34.1297, 27.9419, -19.968, -90.5855, -2.05606
7.15981, 7, -18.7716, 34.1302, 27.9419, -19.968, -90.5856, -2.0561
7.16775, 7, -18.7714, 34.1309, 27.9418, -19.968, -90.5856, -2.05612
7.17577, 7, -18.7714, 34.1319, 27.9418, -19.9681, -90.5856, -2.05611
7.18387, 7, -18.7714, 34.1329, 27.9418, -19.9681, -90.5856, -2.05611
7.19184, 7, -18.7715, 34.1337, 27.9418, -19.9681, -90.5856, -2.05603
7.19999, 7, -18.7717, 34.1342, 27.9418, -19.9681, -90.5856, -2.05605
7.20791, 7, -18.772, 34.1344, 27.9418, -19.9681, -90.5856, -2.05605
7.21587, 7, -18.7721, 34.1345, 27.9418, -19.9681, -90.5856, -2.0561
7.22416, 7, -18.7724, 34.1344, 27.9417, -19.9682, -90.5856, -2.05608
