hehonglu123/ABB_Primitive_Study/realrobot/movel_30_ori/curve_exe_v500_fine.csv
timestamp, cmd_num, J1, J2, J3, J4, J5, J6
0.000469, -1, -18.7722, 34.1329, 27.9415, -19.9681, -90.585, -2.05546
0.004975, -1, -18.7722, 34.1329, 27.9415, -19.9681, -90.585, -2.05542
0.007179, -1, -18.7722, 34.1329, 27.9415, -19.9681, -90.585, -2.05542
0.029537, -1, -18.7722, 34.1329, 27.9416, -19.9681, -90.585, -2.05545
0.030827, -1, -18.7722, 34.1329, 27.9416, -19.9681, -90.585, -2.05545
0.033943, -1, -18.7722, 34.1329, 27.9415, -19.9681, -90.585, -2.05548
0.040377, -1, -18.7722, 34.1329, 27.9415, -19.9681, -90.585, -2.05548
0.047056, -1, -18.7722, 34.1329, 27.9416, -19.9681, -90.585, -2.0555
0.056676, -1, -18.7709, 34.1325, 27.9416, -19.9681, -90.585, -2.05554
0.064548, -1, -18.7672, 34.1312, 27.9417, -19.968, -90.5848, -2.05552
0.072651, -1, -18.76, 34.1282, 27.9419, -19.967, -90.5836, -2.05561
0.080623, -1, -18.7489, 34.1228, 27.9421, -19.9628, -90.5795, -2.05597
0.0894, -1, -18.7413, 34.1141, 27.9423, -19.9523, -90.5691, -2.05866
0.095039, -1, -18.7204, 34.1082, 27.9423, -19.9436, -90.5603, -2.06205
0.10405, -1, -18.69, 34.0927, 27.942, -19.9171, -90.533, -2.07385
0.112062, -1, -18.6491, 34.072, 27.9406, -19.8735, -90.4873, -2.09381
0.119072, -1, -18.5961, 34.0452, 27.9374, -19.8073, -90.4187, -2.12428
0.128107, -1, -18.5295, 34.0114, 27.9318, -19.7154, -90.322, -2.16804
0.136156, -1, -18.4488, 33.9706, 27.9231, -19.5932, -90.1936, -2.22667
0.143038, -1, -18.3543, 33.9231, 27.9109, -19.4396, -90.0316, -2.29954
0.152062, -1, -18.2461, 33.8688, 27.8953, -19.2545, -89.8358, -2.38845
0.16009, -1, -18.1241, 33.8077, 27.8768, -19.0402, -89.6093, -2.49049
0.167047, -1, -17.9888, 33.7399, 27.8556, -18.801, -89.3555, -2.60488
0.175046, -1, -17.8416, 33.6664, 27.8325, -18.5419, -89.0802, -2.72871
0.183105, -1, -17.6838, 33.5875, 27.8085, -18.2681, -88.789, -2.85959
0.19211, -1, -17.5165, 33.5038, 27.7838, -17.9842, -88.4874, -2.99552
0.200049, -1, -17.3412, 33.4162, 27.7589, -17.6944, -88.1789, -3.13455
0.208048, -1, -17.1604, 33.3259, 27.7338, -17.4005, -87.8665, -3.27568
0.215037, -1, -16.9757, 33.2337, 27.7087, -17.1043, -87.5516, -3.41788
0.223095, -1, -16.7885, 33.1406, 27.6836, -16.8071, -87.2352, -3.56053
0.232052, -1, -16.5997, 33.0471, 27.6586, -16.5086, -86.9177, -3.7035
0.241083, -1, -16.4098, 32.9533, 27.6335, -16.2094, -86.5991, -3.84669
0.248051, -1, -16.2198, 32.8595, 27.6084, -15.9096, -86.2799, -3.99015
0.255103, -1, -16.0299, 32.7658, 27.5834, -15.6086, -85.9599, -4.1341
0.263038, -1, -15.8403, 32.672, 27.5584, -15.3074, -85.6396, -4.27799
0.271299, -1, -15.6515, 32.5784, 27.5332, -15.006, -85.3186, -4.4226
0.279044, -1, -15.4629, 32.4846, 27.5079, -14.7039, -84.9974, -4.56737
0.287144, -1, -15.2747, 32.3905, 27.4827, -14.4015, -84.6756, -4.71203
0.295871, -1, -15.087, 32.2962, 27.4575, -14.0989, -84.3534, -4.857
0.304149, -1, -14.8993, 32.2015, 27.4322, -13.7956, -84.0312, -5.00194
0.311203, -1, -14.7111, 32.1064, 27.4067, -13.4924, -83.7085, -5.14707
0.320341, -1, -14.5218, 32.0112, 27.3811, -13.189, -83.3856, -5.29248
0.327139, -1, -14.3315, 31.9158, 27.3555, -12.8853, -83.0624, -5.43793
0.335221, -1, -14.1402, 31.8204, 27.33, -12.5817, -82.739, -5.58381
0.343156, -1, -13.9481, 31.7247, 27.3044, -12.2775, -82.4152, -5.7296
0.352041, -1, -13.7557, 31.6292, 27.2787, -11.9732, -82.0913, -5.87513
0.360045, -1, -13.5625, 31.5337, 27.253, -11.6689, -81.7671, -6.02073
0.368837, -1, -13.3689, 31.4383, 27.2274, -11.3646, -81.4433, -6.1662
0.376093, -1, -13.1752, 31.3429, 27.2019, -11.0601, -81.1192, -6.31185
0.383263, -1, -12.9821, 31.2478, 27.1762, -10.7559, -80.7953, -6.45767
0.391337, -1, -12.7898, 31.1526, 27.1507, -10.4514, -80.4718, -6.60336
0.400079, -1, -12.5978, 31.0576, 27.1252, -10.147, -80.1483, -6.74936
0.408125, -1, -12.4069, 30.9625, 27.0997, -9.84298, -79.8249, -6.89503
0.415548, -1, -12.2167, 30.8674, 27.074, -9.53886, -79.5014, -7.04053
0.42407, -1, -12.0275, 30.7722, 27.0484, -9.23506, -79.178, -7.18608
0.432379, -1, -11.8387, 30.6769, 27.0229, -8.93146, -78.8547, -7.33142
0.4396, -1, -11.6499, 30.5815, 26.9974, -8.62791, -78.5314, -7.47665
0.448155, -1, -11.4609, 30.4863, 26.9719, -8.32481, -78.2088, -7.62173
0.456487, -1, -11.2714, 30.3913, 26.9463, -8.02235, -77.8869, -7.76683
0.4638, -1, -11.0817, 30.2965, 26.9208, -7.72018, -77.5652, -7.91155
0.472198, -1, -10.8916, 30.2019, 26.8955, -7.4186, -77.2443, -8.05596
0.480394, -1, -10.7964, 30.1546, 26.8828, -7.268, -77.084, -8.12808
0.487027, -1, -10.6058, 30.0604, 26.8575, -6.96683, -76.7637, -8.27194
0.496176, -1, -10.3196, 29.9192, 26.8196, -6.51632, -76.2842, -8.48731
0.50303, -1, -10.2242, 29.8723, 26.807, -6.36655, -76.1246, -8.55896
0.511035, -1, -10.0342, 29.7786, 26.7819, -6.0671, -75.8057, -8.70215
0.520251, -1, -9.75036, 29.6384, 26.7442, -5.61917, -75.3288, -8.91687
0.527024, -1, -9.65621, 29.5918, 26.7317, -5.47013, -75.1702, -8.98822
0.535127, -1, -9.46852, 29.4985, 26.7067, -5.17229, -74.8535, -9.13058
0.544447, -1, -9.18892, 29.3589, 26.6692, -4.72731, -74.3801, -9.34341
0.55103, -1, -9.09625, 29.3125, 26.6568, -4.57936, -74.2226, -9.41416
0.55913, -1, -8.91146, 29.2197, 26.6318, -4.28383, -73.9082, -9.55539
0.568628, -1, -8.63568, 29.0807, 26.5946, -3.84249, -73.4383, -9.7668
0.577597, -1, -8.45219, 28.9885, 26.5699, -3.54891, -73.126, -9.90724
0.584641, -1, -8.26902, 28.8967, 26.5453, -3.25648, -72.8149, -10.0475
0.591025, -1, -8.17752, 28.8508, 26.533, -3.11064, -72.6596, -10.1175
0.601479, -1, -7.99449, 28.7594, 26.5083, -2.81949, -72.1949, -10.3262
0.607093, -1, -7.81137, 28.6684, 26.4839, -2.52922, -72.0405, -10.3954
0.618031, -1, -7.53715, 28.5325, 26.4475, -2.0957, -71.5787, -10.6026
0.623129, -1, -7.44583, 28.4874, 26.4354, -1.95149, -71.4252, -10.6715
0.63203, -1, -7.26348, 28.3973, 26.4112, -1.66389, -71.1192, -10.8091
0.640246, -1, -7.08165, 28.3076, 26.3871, -1.37738, -70.8143, -10.9462
0.648028, -1, -6.90057, 28.2181, 26.3631, -1.09189, -70.5102, -11.083
0.655084, -1, -6.72061, 28.129, 26.3392, -0.807471, -70.2075, -11.2192
0.663022, -1, -6.54165, 28.0401, 26.3154, -0.524184, -69.9063, -11.3548
0.671022, -1, -6.36378, 27.9515, 26.2915, -0.24177, -69.606, -11.49
0.680089, -1, -6.18728, 27.8632, 26.2678, 0.0397158, -69.3067, -11.6246
0.690352, -1, -5.92428, 27.7313, 26.2325, 0.459705, -68.8597, -11.8256
0.695027, -1, -5.83711, 27.6874, 26.2208, 0.599167, -68.7112, -11.8924
0.703164, -1, -5.66332, 27.6, 26.1974, 0.87728, -68.415, -12.0256
0.711097, -1, -5.49004, 27.513, 26.1739, 1.15423, -68.1198, -12.1584
0.720112, -1, -5.31716, 27.4265, 26.1507, 1.42994, -67.826, -12.2907
0.728026, -1, -5.14454, 27.3402, 26.1275, 1.70489, -67.5336, -12.4222
0.737021, -1, -4.97213, 27.2544, 26.1046, 1.97871, -67.2423, -12.5532
0.743019, -1, -4.80006, 27.1691, 26.0816, 2.25095, -66.9524, -12.6833
0.752031, -1, -4.62857, 27.084, 26.0587, 2.52224, -66.664, -12.813
0.760085, -1, -4.45755, 26.9993, 26.036, 2.7922, -66.3767, -12.9421
0.768097, -1, -4.28677, 26.915, 26.0133, 3.06083, -66.0905, -13.0707
0.775027, -1, -4.11664, 26.831, 25.9909, 3.32864, -65.8055, -13.1987
0.784031, -1, -3.94748, 26.7474, 25.9684, 3.59526, -65.5218, -13.3266
0.792026, -1, -3.77961, 26.6641, 25.946, 3.86057, -65.2391, -13.4537
0.800044, -1, -3.61293, 26.5811, 25.9239, 4.12487, -64.9577, -13.58
0.808139, -1, -3.44733, 26.4984, 25.9016, 4.3879, -64.6778, -13.7058
0.815108, -1, -3.28277, 26.4161, 25.8796, 4.64963, -64.399, -13.831
0.823267, -1, -3.11924, 26.3341, 25.8575, 4.91035, -64.1216, -13.9555
0.831131, -1, -2.95694, 26.2525, 25.8356, 5.17013, -63.8454, -14.0796
0.839128, -1, -2.79551, 26.1712, 25.8139, 5.42858, -63.5704, -14.2032
0.847194, -1, -2.63485, 26.0903, 25.7923, 5.68571, -63.2968, -14.3262
0.855026, -1, -2.47455, 26.01, 25.7708, 5.94172, -63.0243, -14.449
0.863028, -1, -2.31449, 25.93, 25.7493, 6.1964, -62.7531, -14.5711
0.871295, -1, -2.15473, 25.8504, 25.7279, 6.4498, -62.4833, -14.6922
0.879063, -1, -1.99548, 25.7712, 25.7066, 6.7023, -62.2145, -14.8131
0.887235, -1, -1.83659, 25.6924, 25.6855, 6.95381, -61.9468, -14.9331
0.895338, -1, -1.67836, 25.614, 25.6646, 7.20392, -61.6804, -15.0525
0.903242, -1, -1.52039, 25.5358, 25.6436, 7.45289, -61.4152, -15.1716
0.91142, -1, -1.36284, 25.4581, 25.6227, 7.7008, -61.151, -15.2903
0.919357, -1, -1.2059, 25.3806, 25.6021, 7.94752, -60.8879, -15.4083
0.92745, -1, -1.04991, 25.3035, 25.5815, 8.19306, -60.6263, -15.526
0.935611, -1, -0.895014, 25.2267, 25.5609, 8.43781, -60.3659, -15.6433
0.944179, -1, -0.741446, 25.1502, 25.5405, 8.68155, -60.1067, -15.7598
0.951599, -1, -0.588892, 25.0741, 25.52, 8.92379, -59.8487, -15.8759
0.960125, -1, -0.43741, 24.9983, 25.4996, 9.16503, -59.5922, -15.9914
0.968192, -1, -0.287072, 24.9229, 25.4795, 9.40526, -59.3371, -16.1065
0.975609, -1, -0.212275, 24.8854, 25.4695, 9.52497, -59.0829, -16.2209
0.984035, -1, 0.0105964, 24.7732, 25.4396, 9.88216, -58.8297, -16.3348
0.991008, -1, 0.0845019, 24.7359, 25.4297, 10.0007, -58.7035, -16.3917
0.999017, -1, 0.231919, 24.6618, 25.4097, 10.2371, -58.452, -16.505
1.00808, -1, 0.452739, 24.5512, 25.3801, 10.5896, -58.0765, -16.6743
1.01501, -1, 0.526297, 24.5144, 25.3702, 10.7065, -57.9518, -16.7303
1.02305, -1, 0.673222, 24.4412, 25.3506, 10.9396, -57.7033, -16.8422
1.03228, -1, 0.893126, 24.332, 25.3215, 11.2873, -57.3326, -17.0086
1.03906, -1, 0.966167, 24.2957, 25.3118, 11.4026, -57.2096, -17.0637
1.04709, -1, 1.11175, 24.2235, 25.2924, 11.6325, -56.9646, -17.1734
1.05656, -1, 1.32929, 24.1158, 25.2635, 11.9756, -56.5996, -17.3373
1.06534, -1, 1.47373, 24.0444, 25.2444, 12.2033, -56.3578, -17.4459
1.07108, -1, 1.54576, 24.0088, 25.2348, 12.3166, -56.2373, -17.5
1.08066, -1, 1.76077, 23.9025, 25.2065, 12.6549, -55.8773, -17.6619
1.08938, -1, 1.90288, 23.8322, 25.1876, 12.8794, -55.6387, -17.7695
1.09508, -1, 1.97351, 23.7971, 25.1782, 12.9912, -55.5197, -17.8231
1.10463, -1, 2.11411, 23.7271, 25.1595, 13.3249, -55.1644, -17.983
1.11203, -1, 2.25387, 23.6575, 25.1409, 13.4357, -55.0464, -18.0359
1.11942, -1, 2.39255, 23.5882, 25.1223, 13.6566, -54.8111, -18.1417
1.12806, -1, 2.53024, 23.5191, 25.1039, 13.8767, -54.5768, -18.2468
1.13607, -1, 2.66708, 23.4503, 25.0856, 14.0958, -54.3432, -18.3516
1.14398, -1, 2.80292, 23.3819, 25.0672, 14.3137, -54.1109, -18.4559
1.15208, -1, 2.93808, 23.3137, 25.049, 14.5309, -53.8798, -18.5598
1.16001, -1, 3.07293, 23.2457, 25.0307, 14.7472, -53.6496, -18.6634
1.16787, -1, 3.20778, 23.178, 25.0125, 14.9622, -53.4205, -18.7663
1.17501, -1, 3.34261, 23.1107, 24.9946, 15.1767, -53.1924, -18.8693
1.18401, -1, 3.4772, 23.0437, 24.9768, 15.3902, -52.9651, -18.9716
1.19182, -1, 3.61154, 22.977, 24.9589, 15.603, -52.739, -19.0735
1.199, -1, 3.7456, 22.9106, 24.9412, 15.8148, -52.5135, -19.1746
1.20806, -1, 3.87916, 22.8444, 24.9235, 16.0255, -52.2894, -19.2756
1.21587, -1, 4.01233, 22.7786, 24.9057, 16.2355, -52.066, -19.3759
1.22401, -1, 4.14508, 22.713, 24.8882, 16.4446, -51.8433, -19.4758
1.23203, -1, 4.27739, 22.6478, 24.8708, 16.6527, -51.6217, -19.5753
1.241, -1, 4.40908, 22.5827, 24.8533, 16.8599, -51.4007, -19.6745
1.24801, -1, 4.54001, 22.5179, 24.836, 17.0665, -51.1808, -19.7735
1.25607, -1, 4.67024, 22.4532, 24.8188, 17.2724, -50.9617, -19.8719
1.26409, -1, 4.79971, 22.3888, 24.8015, 17.4772, -50.7434, -19.97
1.27203, -1, 4.9284, 22.3246, 24.7844, 17.6813, -50.526, -20.0679
1.27907, -1, 5.05635, 22.2606, 24.7675, 17.8845, -50.3096, -20.1654
1.28803, -1, 5.18356, 22.1969, 24.7504, 18.0871, -50.0938, -20.2621
1.29606, -1, 5.30998, 22.1334, 24.7333, 18.2889, -49.879, -20.3587
1.30407, -1, 5.43538, 22.0702, 24.7165, 18.4898, -49.6651, -20.4546
1.31206, -1, 5.55999, 22.0073, 24.6996, 18.69, -49.452, -20.5504
1.31915, -1, 5.68415, 21.9447, 24.6827, 18.8896, -49.2399, -20.6455
1.3271, -1, 5.80803, 21.8824, 24.6661, 19.0884, -49.0286, -20.7407
1.33594, -1, 5.93175, 21.8204, 24.6496, 19.2862, -48.8184, -20.8352
1.34401, -1, 6.05543, 21.7585, 24.633, 19.4833, -48.6089, -20.9299
1.35208, -1, 6.17899, 21.6968, 24.6165, 19.6798, -48.4, -21.0237
1.36002, -1, 6.30237, 21.6353, 24.6001, 19.8755, -48.1918, -21.1179
1.36802, -1, 6.42553, 21.5741, 24.5836, 20.0702, -47.9844, -21.2112
1.37613, -1, 6.54853, 21.513, 24.5672, 20.2642, -47.7778, -21.3044
1.38405, -1, 6.67112, 21.4522, 24.5511, 20.4576, -47.5717, -21.3967
1.39201, -1, 6.79342, 21.3916, 24.5349, 20.6505, -47.3662, -21.4893
1.40008, -1, 6.91523, 21.3314, 24.5187, 20.8425, -47.1616, -21.5807
1.40918, -1, 7.03659, 21.2714, 24.5026, 21.0337, -46.9577, -21.6724
1.41532, -1, 7.1573, 21.2117, 24.4865, 21.2243, -46.7546, -21.7632
1.42336, -1, 7.27744, 21.1521, 24.4706, 21.4142, -46.5523, -21.8543
1.4318, -1, 7.39694, 21.0929, 24.4547, 21.6036, -46.3508, -21.9444
1.43949, -1, 7.51587, 21.0338, 24.4391, 21.7921, -46.15, -22.0351
1.44811, -1, 7.63434, 20.9749, 24.4234, 21.9799, -45.95, -22.1247
1.45565, -1, 7.75238, 20.9162, 24.4076, 22.1672, -45.751, -22.2147
1.46418, -1, 7.8698, 20.8576, 24.3918, 22.3539, -45.5525, -22.3039
1.47157, -1, 7.92835, 20.8284, 24.3762, 22.5401, -45.3548, -22.3931
1.4802, -1, 8.10308, 20.7409, 24.3606, 22.7253, -45.158, -22.4815
1.48819, -1, 8.21879, 20.6828, 24.345, 22.91, -44.9618, -22.57
1.49499, -1, 8.27649, 20.6538, 24.3374, 23.0021, -44.8639, -22.614
1.50414, -1, 8.44915, 20.5672, 24.3144, 23.2775, -44.5709, -22.7455
1.51212, -1, 8.5637, 20.5098, 24.299, 23.4601, -44.3761, -22.8327
1.51899, -1, 8.62079, 20.4812, 24.2912, 23.5513, -44.2791, -22.8761
1.52857, -1, 8.79131, 20.3958, 24.2684, 23.8235, -43.9888, -23.0066
1.53499, -1, 8.84804, 20.3674, 24.2608, 23.9141, -43.8922, -23.0497
1.54432, -1, 9.01781, 20.2824, 24.2381, 24.1849, -43.6039, -23.1794
1.551, -1, 9.0743, 20.2542, 24.2306, 24.2749, -43.5082, -23.2222
1.559, -1, 9.18735, 20.1979, 24.2157, 24.4543, -43.3172, -23.3086
1.5685, -1, 9.35695, 20.1138, 24.1932, 24.7221, -43.0319, -23.4368
1.57697, -1, 9.46969, 20.0579, 24.1781, 24.9002, -42.8424, -23.5223
1.58459, -1, 9.58192, 20.0021, 24.1632, 25.0777, -42.6535, -23.6067
1.59256, -1, 9.69368, 19.9466, 24.1484, 25.2545, -42.4653, -23.6916
1.60072, -1, 9.80513, 19.8911, 24.1335, 25.4307, -42.2776, -23.7755
1.60698, -1, 9.86076, 19.8634, 24.1261, 25.5186, -42.184, -23.8175
1.61655, -1, 9.97177, 19.8083, 24.1116, 25.6942, -41.9972, -23.9016
1.62407, -1, 10.0823, 19.7534, 24.097, 25.8693, -41.8113, -23.9847
1.63199, -1, 10.1925, 19.6988, 24.0823, 26.0439, -41.6258, -24.0683
1.63999, -1, 10.3025, 19.6442, 24.0676, 26.2177, -41.4407, -24.1511
1.6481, -1, 10.4118, 19.5899, 24.053, 26.3909, -41.2562, -24.2343
1.65499, -1, 10.5205, 19.5357, 24.0385, 26.5637, -41.0723, -24.3167
1.66401, -1, 10.629, 19.4816, 24.024, 26.7361, -40.8888, -24.3994
1.67205, -1, 10.7371, 19.4278, 24.0096, 26.9078, -40.7061, -24.4817
1.68001, -1, 10.8448, 19.3741, 23.9954, 27.079, -40.5236, -24.5636
1.68804, -1, 10.9521, 19.3205, 23.9812, 27.2495, -40.3418, -24.6457
1.6961, -1, 11.059, 19.267, 23.9668, 27.4197, -40.1606, -24.7267
1.704, -1, 11.1655, 19.2137, 23.9524, 27.5896, -39.9798, -24.8084
1.71206, -1, 11.2717, 19.1605, 23.9382, 27.7588, -39.7997, -24.889
1.72001, -1, 11.3774, 19.1075, 23.9241, 27.9275, -39.6202, -24.9701
1.72799, -1, 11.4827, 19.0547, 23.9099, 28.0956, -39.4411, -25.0504
1.73611, -1, 11.5878, 19.0022, 23.8959, 28.2632, -39.2625, -25.1308
1.74575, -1, 11.6927, 18.9497, 23.8821, 28.4306, -39.0843, -25.2508
1.75198, -1, 11.7974, 18.8975, 23.8681, 28.5974, -38.907, -25.2907
1.76007, -1, 11.902, 18.8454, 23.8541, 28.7636, -38.73, -25.3708
1.76799, -1, 12.0063, 18.7934, 23.8401, 28.9293, -38.5533, -25.4499
1.77605, -1, 12.1106, 18.7415, 23.8262, 29.0947, -38.3774, -25.5297
1.78407, -1, 12.2147, 18.6897, 23.8124, 29.2597, -38.2022, -25.6086
1.79198, -1, 12.3185, 18.6381, 23.7986, 29.4244, -38.0274, -25.6878
1.8, -1, 12.4221, 18.5866, 23.7849, 29.5884, -37.8532, -25.7665
1.80807, -1, 12.5254, 18.5351, 23.7713, 29.7519, -37.6792, -25.8444
1.81609, -1, 12.6285, 18.4839, 23.7577, 29.9149, -37.5058, -25.9229
1.82315, -1, 12.7314, 18.4328, 23.7439, 30.0777, -37.3324, -26.0001
1.83132, -1, 12.8338, 18.3819, 23.7302, 30.24, -37.1598, -26.0779
1.83909, -1, 12.9359, 18.3313, 23.7167, 30.4018, -36.9876, -26.1548
1.84716, -1, 13.0375, 18.2807, 23.7031, 30.563, -36.8156, -26.2317
1.85553, -1, 13.1388, 18.2304, 23.6896, 30.7237, -36.6443, -26.309
1.86398, -1, 13.2398, 18.1802, 23.6761, 30.8842, -36.4734, -26.3851
1.87198, -1, 13.3405, 18.13, 23.6629, 31.0444, -36.303, -26.4621
1.88008, -1, 13.4408, 18.0801, 23.6496, 31.204, -36.133, -26.5382
1.88798, -1, 13.541, 18.03, 23.6362, 31.3632, -35.9634, -26.6144
1.89604, -1, 13.641, 17.9801, 23.6228, 31.5219, -35.7944, -26.6907
1.90407, -1, 13.7407, 17.9304, 23.6096, 31.6801, -35.6258, -26.7663
1.91198, -1, 13.8402, 17.8806, 23.5963, 31.8382, -35.4577, -26.8426
1.92, -1, 13.9396, 17.831, 23.583, 31.9958, -35.2901, -26.9175
1.92818, -1, 14.0388, 17.7815, 23.5697, 32.153, -35.1227, -26.9929
1.93542, -1, 14.1378, 17.7322, 23.5567, 32.3097, -34.956, -27.0678
1.94408, -1, 14.2364, 17.6831, 23.5436, 32.466, -34.7898, -27.1423
1.95236, -1, 14.3346, 17.6341, 23.5305, 32.6221, -34.624, -27.2171
1.95951, -1, 14.4323, 17.5853, 23.5174, 32.7779, -34.4586, -27.291
1.9681, -1, 14.5299, 17.5366, 23.5043, 32.9333, -34.2934, -27.3654
1.9766, -1, 14.627, 17.4882, 23.4914, 33.0881, -34.1285, -27.4396
1.98415, -1, 14.7238, 17.4398, 23.4784, 33.2426, -33.964, -27.5133
1.99156, -1, 14.7721, 17.4157, 23.472, 33.3197, -33.8818, -27.5504
2.00061, -1, 14.9168, 17.3433, 23.4526, 33.5505, -33.6362, -27.6607
2.00808, -1, 15.013, 17.2951, 23.4399, 33.7039, -33.4729, -27.7345
2.01505, -1, 15.061, 17.2711, 23.4336, 33.7804, -33.3913, -27.7714
2.02497, -1, 15.2049, 17.199, 23.4143, 34.0094, -33.1472, -27.8809
2.03218, -1, 15.3008, 17.1511, 23.4014, 34.1614, -32.9851, -27.9543
2.03902, -1, 15.3487, 17.1272, 23.395, 34.2374, -32.9042, -27.9905
2.04702, -1, 15.4445, 17.0794, 23.3822, 34.3893, -32.7428, -28.0628
2.05642, -1, 15.588, 17.008, 23.363, 34.6163, -32.5014, -28.1717
2.0652, -1, 15.6834, 16.9607, 23.3503, 34.7672, -32.3408, -28.2436
2.07103, -1, 15.731, 16.937, 23.344, 34.8425, -32.2607, -28.2799
2.08053, -1, 15.8736, 16.8664, 23.3253, 35.0676, -32.0208, -28.3874
2.08935, -1, 15.9683, 16.8196, 23.3127, 35.2174, -31.8615, -28.4589
2.09497, -1, 16.0156, 16.7962, 23.3064, 35.2922, -31.7819, -28.4949
2.10456, -1, 16.1098, 16.7495, 23.2938, 35.4416, -31.5436, -28.6016
2.11313, -1, 16.2037, 16.7029, 23.2813, 35.5906, -31.4645, -28.6374
2.11897, -1, 16.2973, 16.6563, 23.2689, 35.7391, -31.3064, -28.7088
2.12907, -1, 16.4372, 16.5866, 23.2501, 35.9614, -31.0698, -28.815
2.13504, -1, 16.4837, 16.5633, 23.2439, 36.0354, -30.991, -28.8508
2.14507, -1, 16.6228, 16.4937, 23.2253, 36.2571, -30.7552, -28.9566
2.15099, -1, 16.6691, 16.4705, 23.2192, 36.3308, -30.6768, -28.9918
2.15997, -1, 16.7615, 16.4242, 23.2068, 36.4779, -30.5204, -29.0628
2.16803, -1, 16.8537, 16.378, 23.1944, 36.6245, -30.364, -29.1325
2.17608, -1, 16.9458, 16.3319, 23.182, 36.7709, -30.2084, -29.2026
2.18397, -1, 17.0378, 16.286, 23.1696, 36.917, -30.0527, -29.2727
2.19098, -1, 17.1294, 16.2403, 23.1573, 37.0629, -29.8975, -29.342
2.19997, -1, 17.2197, 16.1952, 23.145, 37.2083, -29.7424, -29.4118
2.20798, -1, 17.3064, 16.1517, 23.1325, 37.3529, -29.5886, -29.4807
2.2161, -1, 17.3884, 16.1107, 23.1199, 37.4953, -29.4368, -29.5486
2.22397, -1, 17.4649, 16.0725, 23.1074, 37.6332, -29.2898, -29.6151
2.23196, -1, 17.5359, 16.0376, 23.0953, 37.7632, -29.1508, -29.6773
2.24152, -1, 17.5999, 16.0065, 23.0841, 37.8817, -29.0243, -29.7342
2.24797, -1, 17.6564, 15.9791, 23.0742, 37.9852, -28.9134, -29.7844
2.25704, -1, 17.7065, 15.9544, 23.0665, 38.0698, -28.8224, -29.8257
2.26412, -1, 17.7506, 15.9317, 23.0612, 38.1359, -28.7512, -29.8576
2.27196, -1, 17.7885, 15.9121, 23.058, 38.1827, -28.7002, -29.8804
2.27997, -1, 17.8193, 15.8963, 23.0563, 38.2141, -28.6659, -29.8956
2.288, -1, 17.8439, 15.8843, 23.0555, 38.2337, -28.6444, -29.9049
2.29605, -1, 17.8626, 15.8756, 23.0552, 38.2449, -28.6321, -29.9101
2.30396, -1, 17.8748, 15.8699, 23.055, 38.2506, -28.6257, -29.9127
2.312, 2, 17.8813, 15.8669, 23.0549, 38.2535, -28.6227, -29.914
2.32002, 2, 17.8842, 15.8655, 23.0549, 38.2548, -28.6212, -29.9147
2.32807, 2, 17.8852, 15.8648, 23.0549, 38.2554, -28.6205, -29.915
2.33611, 2, 17.8848, 15.8645, 23.0549, 38.2557, -28.6203, -29.9151
2.34401, 2, 17.8841, 15.8644, 23.0549, 38.2558, -28.6201, -29.9152
2.35196, 2, 17.8834, 15.8643, 23.0549, 38.2559, -28.62, -29.9152
2.36004, 2, 17.883, 15.8643, 23.0549, 38.2559, -28.62, -29.9152
2.36796, 2, 17.8828, 15.8642, 23.0549, 38.2559, -28.62, -29.9152
2.37604, 2, 17.8828, 15.864, 23.0549, 38.2559, -28.62, -29.9152
2.38404, 2, 17.8829, 15.8638, 23.0549, 38.2559, -28.62, -29.9152
2.39196, 2, 17.8832, 15.8635, 23.0549, 38.2559, -28.62, -29.9153
2.39997, 2, 17.8836, 15.8631, 23.0549, 38.2559, -28.6201, -29.9152
2.40805, 2, 17.884, 15.8629, 23.0549, 38.2559, -28.6201, -29.9152
2.41604, 2, 17.8847, 15.8627, 23.0549, 38.2559, -28.6201, -29.9153
2.42397, 2, 17.8857, 15.8626, 23.0549, 38.2559, -28.62, -29.9152
2.43205, 2, 17.8864, 15.8626, 23.0549, 38.256, -28.62, -29.9152
2.44002, 2, 17.8869, 15.8625, 23.0549, 38.2559, -28.6201, -29.9153
2.44808, 2, 17.8872, 15.8626, 23.0549, 38.2559, -28.6201, -29.9153
2.4555, 2, 17.8874, 15.8626, 23.0549, 38.2559, -28.6201, -29.9152
2.46408, 2, 17.8875, 15.8626, 23.0549, 38.2559, -28.6201, -29.9153
2.47192, 2, 17.8876, 15.8626, 23.0549, 38.2559, -28.6201, -29.9152
2.48014, 2, 17.8876, 15.8626, 23.0549, 38.256, -28.6201, -29.9152
2.48748, 2, 17.8876, 15.8626, 23.0549, 38.256, -28.6201, -29.9152
2.49623, 2, 17.8876, 15.8625, 23.0549, 38.256, -28.6202, -29.9152
2.50296, 2, 17.8875, 15.8625, 23.0549, 38.256, -28.6202, -29.9152
2.51206, 2, 17.8872, 15.8623, 23.0549, 38.2559, -28.6202, -29.9152
2.51988, 2, 17.8871, 15.8623, 23.0549, 38.2559, -28.6202, -29.9152
2.5282, 2, 17.8869, 15.8622, 23.0549, 38.2559, -28.6202, -29.9152
2.53496, 2, 17.8869, 15.8622, 23.0549, 38.2558, -28.6202, -29.9152
2.54473, 2, 17.8868, 15.8623, 23.0549, 38.2559, -28.6203, -29.9152
2.55236, 2, 17.8868, 15.8623, 23.0549, 38.2559, -28.6203, -29.9152
2.55895, 2, 17.8868, 15.8623, 23.0549, 38.2559, -28.6203, -29.9152
2.56882, 2, 17.8868, 15.8623, 23.0549, 38.2559, -28.6204, -29.9152
2.57661, 2, 17.8868, 15.8624, 23.0549, 38.2559, -28.6204, -29.9152
2.58459, 2, 17.8868, 15.8624, 23.0549, 38.2559, -28.6204, -29.9152
2.59308, 2, 17.8868, 15.8623, 23.0549, 38.2559, -28.6205, -29.9151
2.59895, 2, 17.8868, 15.8623, 23.0549, 38.2559, -28.6204, -29.9152
2.60856, 2, 17.8868, 15.8623, 23.0549, 38.2559, -28.6205, -29.9152
2.6169, 2, 17.8868, 15.8623, 23.0549, 38.2559, -28.6205, -29.9152
2.624, 2, 17.8868, 15.8623, 23.0549, 38.2559, -28.6205, -29.9152
2.63195, 2, 17.8868, 15.8622, 23.0549, 38.2559, -28.6205, -29.9152
2.64096, 2, 17.8867, 15.8622, 23.0549, 38.2559, -28.6205, -29.9152
2.64705, 2, 17.8867, 15.8622, 23.0549, 38.2559, -28.6205, -29.9152
2.65609, 2, 17.8867, 15.8623, 23.0549, 38.2559, -28.6205, -29.9152
2.66395, 2, 17.8867, 15.8623, 23.0549, 38.2559, -28.6205, -29.9151
2.672, 2, 17.8867, 15.8623, 23.0549, 38.2559, -28.6205, -29.9151
2.67999, 2, 17.8866, 15.8624, 23.0549, 38.2559, -28.6206, -29.9152
2.68795, 2, 17.8866, 15.8624, 23.0549, 38.2559, -28.6206, -29.9151
2.69496, 2, 17.8866, 15.8624, 23.0549, 38.2559, -28.6206, -29.9151
2.70395, 2, 17.8866, 15.8623, 23.0549, 38.2559, -28.6206, -29.9151
2.71206, 2, 17.8866, 15.8623, 23.0549, 38.2559, -28.6206, -29.9151
2.719, 2, 17.8866, 15.8623, 23.0549, 38.2558, -28.6207, -29.9151
2.72795, 2, 17.8866, 15.8623, 23.0549, 38.2559, -28.6207, -29.9152
2.73603, 2, 17.8865, 15.8623, 23.0549, 38.2559, -28.6207, -29.9151
2.74299, 2, 17.8866, 15.8623, 23.0549, 38.2558, -28.6207, -29.9152
2.75194, 2, 17.8865, 15.8623, 23.0549, 38.2559, -28.6207, -29.9151
2.75995, 2, 17.8865, 15.8623, 23.0549, 38.2558, -28.6207, -29.9151
2.76802, 2, 17.8865, 15.8623, 23.0549, 38.2559, -28.6207, -29.9151
2.77603, 2, 17.8865, 15.8624, 23.0549, 38.2558, -28.6208, -29.9152
2.78395, 2, 17.8865, 15.8624, 23.0549, 38.2558, -28.6208, -29.9151
2.79202, 2, 17.8864, 15.8624, 23.0549, 38.2558, -28.6208, -29.9151
2.79994, 2, 17.8864, 15.8624, 23.0549, 38.2558, -28.6208, -29.9151
2.80795, 2, 17.8864, 15.8624, 23.0549, 38.2558, -28.6208, -29.9151
2.81621, 2, 17.8864, 15.8624, 23.0549, 38.2558, -28.6208, -29.9151
2.82303, 2, 17.8863, 15.8624, 23.0549, 38.2558, -28.6208, -29.9151
2.95955, 2, 17.8856, 15.8624, 23.0549, 38.2556, -28.6211, -29.9151
2.96103, 2, 17.8856, 15.8624, 23.0549, 38.2556, -28.6211, -29.9151
2.96222, 2, 17.8856, 15.8624, 23.0549, 38.2556, -28.6211, -29.9151
2.96423, 2, 17.8856, 15.8624, 23.0549, 38.2556, -28.6211, -29.9151
2.96544, 2, 17.8856, 15.8624, 23.0549, 38.2556, -28.6211, -29.9151
2.9667, 2, 17.8856, 15.8624, 23.0549, 38.2556, -28.6211, -29.9151
2.96866, 2, 17.8855, 15.8624, 23.0549, 38.2556, -28.6211, -29.9151
2.974, 2, 17.8855, 15.8624, 23.0549, 38.2556, -28.6211, -29.915
2.97617, 2, 17.8855, 15.8624, 23.0549, 38.2556, -28.6211, -29.915
2.97739, 2, 17.8855, 15.8624, 23.0549, 38.2556, -28.6211, -29.915
2.97856, 2, 17.8855, 15.8624, 23.0549, 38.2556, -28.6211, -29.915
2.98101, 2, 17.8855, 15.8624, 23.0549, 38.2556, -28.6211, -29.915
2.98225, 2, 17.8855, 15.8624, 23.0549, 38.2556, -28.6211, -29.915
2.98428, 2, 17.8854, 15.8624, 23.0549, 38.2556, -28.6211, -29.9151
2.98553, 2, 17.8854, 15.8624, 23.0549, 38.2556, -28.6211, -29.9151
2.98835, 2, 17.8854, 15.8624, 23.0549, 38.2555, -28.6211, -29.9151
2.98959, 2, 17.8854, 15.8624, 23.0549, 38.2555, -28.6211, -29.9151
2.99083, 2, 17.8854, 15.8624, 23.0549, 38.2555, -28.6211, -29.9151
2.99289, 2, 17.8854, 15.8624, 23.0549, 38.2555, -28.6212, -29.915
2.99412, 2, 17.8854, 15.8624, 23.0549, 38.2555, -28.6212, -29.915
2.9962, 2, 17.8854, 15.8624, 23.0549, 38.2555, -28.6212, -29.915
2.99891, 2, 17.8854, 15.8624, 23.0549, 38.2555, -28.6212, -29.915
3.00697, 2, 17.8853, 15.8624, 23.0549, 38.2555, -28.6212, -29.915
3.01613, 2, 17.8852, 15.8624, 23.0549, 38.2555, -28.6211, -29.915
3.02294, 2, 17.8852, 15.8624, 23.0549, 38.2555, -28.6211, -29.915
3.0322, 2, 17.8851, 15.8624, 23.0549, 38.2555, -28.6212, -29.915
3.03899, 2, 17.8851, 15.8624, 23.0549, 38.2555, -28.6212, -29.915
3.04825, 2, 17.885, 15.8624, 23.0549, 38.2554, -28.6212, -29.915
3.05502, 2, 17.885, 15.8624, 23.0549, 38.2554, -28.6212, -29.915
3.06438, 2, 17.8849, 15.8624, 23.0549, 38.2554, -28.6212, -29.9149
3.07095, 2, 17.8849, 15.8624, 23.0549, 38.2554, -28.6212, -29.9149
3.08056, 2, 17.8848, 15.8624, 23.0549, 38.2554, -28.6212, -29.915
3.08848, 2, 17.8847, 15.8624, 23.0549, 38.2554, -28.6212, -29.915
3.09652, 2, 17.8847, 15.8624, 23.0549, 38.2553, -28.6212, -29.915
3.10461, 2, 17.8846, 15.8625, 23.0549, 38.2553, -28.6212, -29.915
3.11254, 2, 17.8846, 15.8625, 23.0549, 38.2553, -28.6212, -29.915
3.12052, 2, 17.8846, 15.8625, 23.0549, 38.2553, -28.6212, -29.915
3.12796, 2, 17.8845, 15.8624, 23.0549, 38.2553, -28.6212, -29.915
3.13593, 2, 17.8844, 15.8625, 23.0549, 38.2552, -28.6212, -29.915
3.14396, 2, 17.8844, 15.8624, 23.0549, 38.2552, -28.6212, -29.915
3.15197, 2, 17.8843, 15.8625, 23.0549, 38.2553, -28.6212, -29.915
3.15998, 2, 17.8843, 15.8625, 23.0549, 38.2552, -28.6212, -29.915
3.16796, 2, 17.8842, 15.8625, 23.0549, 38.2552, -28.6212, -29.915
3.17596, 2, 17.8842, 15.8625, 23.0549, 38.2552, -28.6212, -29.915
3.18397, 2, 17.8841, 15.8625, 23.0549, 38.2552, -28.6212, -29.915
3.19197, 2, 17.8841, 15.8625, 23.0549, 38.2552, -28.6212, -29.915
3.19995, 2, 17.8841, 15.8625, 23.0549, 38.2552, -28.6213, -29.915
3.20794, 2, 17.884, 15.8625, 23.0549, 38.2552, -28.6212, -29.915
3.21596, 2, 17.884, 15.8625, 23.0549, 38.2552, -28.6212, -29.9149
3.22396, 2, 17.8839, 15.8625, 23.0549, 38.2552, -28.6212, -29.9149
3.23195, 2, 17.8839, 15.8625, 23.0549, 38.2551, -28.6213, -29.9149
3.23996, 2, 17.8839, 15.8625, 23.0549, 38.2551, -28.6212, -29.9149
3.24796, 2, 17.8839, 15.8625, 23.0549, 38.2551, -28.6213, -29.915
3.25701, 2, 17.8838, 15.8625, 23.0549, 38.255, -28.6214, -29.9149
3.26396, 2, 17.8838, 15.8625, 23.0549, 38.255, -28.6213, -29.9149
3.27197, 2, 17.8838, 15.8625, 23.0549, 38.255, -28.6214, -29.9149
3.27993, 2, 17.8837, 15.8625, 23.0549, 38.2549, -28.6214, -29.9149
3.28796, 2, 17.8837, 15.8625, 23.0549, 38.2549, -28.6213, -29.915
3.29596, 2, 17.8837, 15.8625, 23.0549, 38.2549, -28.6214, -29.9149
3.30393, 2, 17.8837, 15.8625, 23.0549, 38.2549, -28.6214, -29.9149
3.31212, 2, 17.8837, 15.8625, 23.0549, 38.2549, -28.6214, -29.9149
3.31993, 2, 17.8837, 15.8626, 23.0549, 38.2549, -28.6214, -29.9149
3.32703, 2, 17.8837, 15.8626, 23.0549, 38.2549, -28.6214, -29.9149
3.33503, 2, 17.8837, 15.8626, 23.0549, 38.2549, -28.6214, -29.9149
3.34393, 2, 17.8836, 15.8626, 23.0549, 38.2549, -28.6214, -29.9149
3.35207, 2, 17.8836, 15.8626, 23.0549, 38.2548, -28.6214, -29.9149
3.35993, 2, 17.8836, 15.8626, 23.0549, 38.2549, -28.6214, -29.9149
3.36793, 2, 17.8836, 15.8626, 23.0549, 38.2549, -28.6214, -29.9149
3.376, 2, 17.8836, 15.8626, 23.0549, 38.2548, -28.6214, -29.9149
3.38392, 4, 17.8836, 15.8626, 23.0549, 38.2548, -28.6214, -29.9149
3.39194, 4, 17.8836, 15.8626, 23.0549, 38.2548, -28.6214, -29.9149
3.39999, 4, 17.8836, 15.8626, 23.0549, 38.2548, -28.6214, -29.9149
3.40793, 4, 17.8836, 15.8626, 23.0549, 38.2547, -28.6214, -29.9149
3.41596, 4, 17.8835, 15.8626, 23.0549, 38.2547, -28.6214, -29.9149
3.424, 4, 17.8835, 15.8626, 23.0549, 38.2547, -28.6214, -29.9148
3.43194, 4, 17.8835, 15.8626, 23.0549, 38.2547, -28.6214, -29.9148
3.43996, 4, 17.8835, 15.8626, 23.0549, 38.2546, -28.6214, -29.9148
3.44809, 4, 17.8835, 15.8626, 23.0549, 38.2547, -28.6214, -29.9148
3.45603, 4, 17.8835, 15.8626, 23.0549, 38.2547, -28.6214, -29.9149
3.46368, 4, 17.8834, 15.8626, 23.0549, 38.2547, -28.6215, -29.9148
3.47211, 4, 17.8834, 15.8626, 23.0549, 38.2546, -28.6215, -29.9148
3.48017, 4, 17.8834, 15.8626, 23.0549, 38.2546, -28.6215, -29.9147
3.50772, 4, 17.8834, 15.8626, 23.0549, 38.2546, -28.6215, -29.9148
3.50906, 4, 17.8834, 15.8626, 23.0549, 38.2546, -28.6215, -29.9148
3.51033, 4, 17.8834, 15.8626, 23.0549, 38.2546, -28.6215, -29.9148
3.51255, 4, 17.8834, 15.8626, 23.0549, 38.2546, -28.6215, -29.9148
3.52078, 4, 17.8834, 15.8627, 23.055, 38.2546, -28.6215, -29.9147
3.5281, 4, 17.8832, 15.8627, 23.055, 38.2545, -28.6215, -29.9146
3.53497, 4, 17.8827, 15.8627, 23.055, 38.2545, -28.6215, -29.9146
3.54426, 4, 17.8774, 15.8626, 23.0556, 38.2529, -28.6218, -29.914
3.55092, 4, 17.8738, 15.8625, 23.0563, 38.2504, -28.6224, -29.9127
3.55897, 4, 17.8632, 15.8621, 23.0596, 38.2385, -28.6256, -29.9048
3.56836, 4, 17.8356, 15.859, 23.0748, 38.1887, -28.6424, -29.8636
3.57724, 5, 17.8058, 15.8541, 23.0971, 38.1164, -28.667, -29.802
3.58298, 5, 17.7869, 15.8505, 23.1135, 38.0633, -28.6852, -29.7562
3.59245, 5, 17.7151, 15.8334, 23.1892, 37.8162, -28.7729, -29.5417
3.60127, 5, 17.6551, 15.8162, 23.2653, 37.5671, -28.8629, -29.3244
3.60693, 5, 17.6213, 15.8059, 23.3113, 37.4162, -28.9184, -29.1925
3.61646, 5, 17.5462, 15.7822, 23.4188, 37.0647, -29.0491, -28.8843
3.62391, 5, 17.4612, 15.7546, 23.5446, 36.6551, -29.2037, -28.5243
3.63092, 5, 17.3677, 15.7242, 23.6847, 36.2001, -29.3783, -28.1243
3.64102, 5, 17.2107, 15.6756, 23.9117, 35.4667, -29.6666, -27.4787
3.64699, 5, 17.1539, 15.659, 23.99, 35.2153, -29.7673, -27.2577
3.65749, 5, 16.9723, 15.6092, 24.228, 34.4562, -30.0776, -26.5907
3.66298, 5, 16.9091, 15.5928, 24.3075, 34.2034, -30.183, -26.3691
3.67197, 5, 16.7805, 15.5605, 24.4659, 33.7011, -30.3957, -25.9294
3.67892, 5, 16.65, 15.5292, 24.6236, 33.2037, -30.6107, -25.4945
3.68796, 5, 16.5183, 15.4988, 24.781, 32.7111, -30.8279, -25.0651
3.69597, 5, 16.3862, 15.4695, 24.9375, 32.2242, -31.0469, -24.6413
3.70293, 5, 16.2542, 15.4412, 25.0924, 31.7429, -31.2677, -24.2225
3.71191, 5, 16.1223, 15.4142, 25.2464, 31.2671, -31.4903, -23.8095
3.71892, 5, 15.9906, 15.3884, 25.3999, 30.7965, -31.7148, -23.4022
3.72794, 5, 15.8589, 15.3638, 25.5525, 30.3313, -31.9411, -23.0003
3.73593, 5, 15.7273, 15.3404, 25.7038, 29.8718, -32.169, -22.6036
3.74547, 5, 15.5956, 15.318, 25.8536, 29.4175, -32.3983, -22.2123
3.75191, 5, 15.4642, 15.2967, 26.0028, 28.9684, -32.6293, -21.8262
3.76092, 5, 15.3324, 15.2766, 26.1511, 28.5244, -32.8619, -21.4458
3.76799, 5, 15.2001, 15.2573, 26.2981, 28.0858, -33.096, -21.0705
3.77593, 5, 15.0671, 15.2391, 26.4438, 27.6521, -33.3315, -20.7004
3.78397, 5, 14.933, 15.222, 26.5886, 27.223, -33.5682, -20.3357
3.79193, 5, 14.798, 15.2058, 26.7322, 26.799, -33.8067, -19.9756
3.79999, 5, 14.6624, 15.1905, 26.8749, 26.3801, -34.0465, -19.6201
3.80792, 5, 14.5259, 15.1763, 27.0163, 25.9658, -34.2875, -19.2698
3.81593, 5, 14.3888, 15.1634, 27.1565, 25.5564, -34.5301, -18.9244
3.82402, 5, 14.2513, 15.1517, 27.2957, 25.1515, -34.7743, -18.5834
3.83194, 5, 14.1134, 15.1409, 27.434, 24.7512, -35.0197, -18.2472
3.83992, 5, 13.9752, 15.1311, 27.5711, 24.3556, -35.2664, -17.9156
3.84799, 5, 13.8369, 15.1226, 27.7071, 23.9641, -35.5143, -17.5884
3.85597, 5, 13.6986, 15.1155, 27.8418, 23.5769, -35.7635, -17.2657
3.86392, 5, 13.5605, 15.1094, 27.9755, 23.1941, -36.0139, -16.9477
3.87199, 5, 13.4224, 15.1044, 28.1081, 22.8156, -36.2653, -16.6341
3.87991, 5, 13.2846, 15.1005, 28.2395, 22.441, -36.5178, -16.3247
3.88793, 5, 13.147, 15.0978, 28.3698, 22.0708, -36.7715, -16.0198
3.89601, 5, 13.0093, 15.0961, 28.4988, 21.7046, -37.0263, -15.719
3.90391, 5, 12.8712, 15.0954, 28.6267, 21.3422, -37.2823, -15.4218
3.91191, 5, 12.7327, 15.0955, 28.7536, 20.9841, -37.5393, -15.1285
3.9208, 5, 12.5934, 15.0964, 28.8794, 20.6294, -37.7977, -14.8394
3.92791, 5, 12.4533, 15.0985, 29.004, 20.2784, -38.057, -14.5541
3.93592, 5, 12.3126, 15.1016, 29.1272, 19.9312, -38.3175, -14.2724
3.94483, 5, 12.1711, 15.1059, 29.2493, 19.5878, -38.579, -13.9944
3.95199, 5, 12.029, 15.1113, 29.3702, 19.248, -38.8413, -13.72
3.96, 5, 11.8864, 15.118, 29.4901, 18.9117, -39.1047, -13.4494
3.96903, 5, 11.7435, 15.1255, 29.6088, 18.579, -39.3688, -13.182
3.97602, 5, 11.6001, 15.134, 29.7262, 18.2498, -39.6338, -12.9184
3.9841, 5, 11.4566, 15.1441, 29.8424, 17.9238, -39.8998, -12.6584
3.99245, 5, 11.313, 15.1554, 29.9575, 17.6014, -40.1668, -12.4021
3.99951, 5, 11.241, 15.1614, 30.0146, 17.4413, -40.3006, -12.1488
4.00801, 5, 11.0253, 15.1811, 30.1841, 16.9658, -40.7031, -11.8991
4.01796, 5, 10.8815, 15.1958, 30.2958, 16.6529, -40.9726, -11.6527
4.02404, 5, 10.7376, 15.2118, 30.4063, 16.3432, -41.2429, -11.4099
4.03091, 5, 10.6656, 15.2203, 30.461, 16.1895, -41.3783, -11.2896
4.04087, 5, 10.45, 15.2473, 30.6233, 15.7332, -41.786, -10.9328
4.04823, 5, 10.3064, 15.2668, 30.73, 15.4326, -42.0591, -10.6988
4.0549, 5, 10.2345, 15.2771, 30.783, 15.2834, -42.1958, -10.5831
4.06504, 5, 10.0186, 15.3094, 30.9403, 14.8406, -42.6073, -10.2407
4.07241, 5, 9.87424, 15.3325, 31.0436, 14.5488, -42.8823, -10.0159
4.07891, 5, 9.80184, 15.3444, 31.0948, 14.404, -43.0202, -9.90449
4.08924, 5, 9.58352, 15.3819, 31.2463, 13.974, -43.4349, -9.5747
4.09651, 5, 9.43739, 15.4082, 31.3457, 13.6906, -43.7121, -9.35851
4.10447, 5, 9.29054, 15.4356, 31.4441, 13.4097, -43.9899, -9.14502
4.11341, 5, 9.14318, 15.4642, 31.5414, 13.1316, -44.2683, -8.93422
4.11891, 5, 9.06936, 15.479, 31.5897, 12.9934, -44.4077, -8.82966
4.12789, 5, 8.92143, 15.5094, 31.6852, 12.719, -44.687, -8.62281
4.13591, 5, 8.77315, 15.5408, 31.7793, 12.4473, -44.967, -8.41847
4.1429, 5, 8.62486, 15.5733, 31.872, 12.178, -45.248, -8.21689
4.1519, 5, 8.47657, 15.607, 31.9635, 11.9111, -45.5294, -8.01796
4.15989, 5, 8.32808, 15.6418, 32.0538, 11.6468, -45.8115, -7.82152
4.16794, 5, 8.17939, 15.6777, 32.1432, 11.3848, -46.0942, -7.62724
4.17595, 5, 8.03077, 15.7148, 32.2316, 11.125, -46.3771, -7.43568
4.18394, 5, 7.88214, 15.753, 32.3185, 10.8676, -46.6606, -7.24656
4.1919, 5, 7.73343, 15.7922, 32.404, 10.6125, -46.9446, -7.05975
4.1999, 5, 7.585, 15.8326, 32.4881, 10.3597, -47.2288, -6.87564
4.20795, 5, 7.4366, 15.8742, 32.571, 10.1087, -47.5135, -6.69334
4.21591, 5, 7.28814, 15.9168, 32.6528, 9.86011, -47.799, -6.51332
4.2239, 5, 7.13968, 15.9606, 32.7336, 9.61373, -48.0849, -6.33531
4.23095, 5, 6.99092, 16.0056, 32.8131, 9.36923, -48.3713, -6.15975
4.2399, 5, 6.8418, 16.0517, 32.8914, 9.12705, -48.6583, -5.98637
4.2489, 5, 6.69236, 16.099, 32.9684, 8.88704, -48.9459, -5.81523
4.25598, 5, 6.54246, 16.1472, 33.0439, 8.64902, -49.2339, -5.64619
4.26493, 5, 6.39203, 16.1967, 33.1181, 8.41294, -49.5223, -5.47887
4.27191, 5, 6.24116, 16.2474, 33.1912, 8.17903, -49.811, -5.31372
4.27994, 5, 6.08996, 16.2991, 33.2631, 7.94714, -50.0999, -5.15039
4.2879, 5, 5.93835, 16.3519, 33.3338, 7.71694, -50.3891, -4.98927
4.29596, 5, 5.78663, 16.4057, 33.4033, 7.48861, -50.6786, -4.8301
4.3039, 5, 5.63488, 16.4606, 33.4714, 7.26235, -50.9686, -4.67292
4.31191, 5, 5.48299, 16.5165, 33.5383, 7.03795, -51.2589, -4.5177
4.31996, 5, 5.33083, 16.5734, 33.6039, 6.81497, -51.5496, -4.36405
4.32789, 5, 5.17875, 16.6315, 33.6682, 6.59394, -51.8406, -4.21213
4.33594, 5, 5.02643, 16.6906, 33.7312, 6.37451, -52.1319, -4.06215
4.34396, 5, 4.87423, 16.7509, 33.7929, 6.15692, -52.4235, -3.91396
4.3519, 5, 4.72228, 16.8122, 33.8533, 5.94079, -52.7154, -3.76775
4.3599, 5, 4.57028, 16.8747, 33.9125, 5.7265, -53.0078, -3.62337
4.36806, 5, 4.41846, 16.9383, 33.9704, 5.51385, -53.3003, -3.48066
4.37589, 5, 4.26692, 17.0031, 34.0271, 5.30298, -53.5929, -3.33964
4.3839, 5, 4.11546, 17.0689, 34.0826, 5.09359, -53.8857, -3.20023
4.39197, 5, 3.96392, 17.1357, 34.1368, 4.8857, -54.1786, -3.06241
4.39991, 5, 3.81232, 17.2036, 34.1897, 4.67957, -54.4716, -2.92617
4.4079, 5, 3.66043, 17.2724, 34.2413, 4.47505, -54.7648, -2.79163
4.41596, 5, 3.50809, 17.3421, 34.2916, 4.27184, -55.0582, -2.65868
4.42395, 5, 3.35539, 17.4129, 34.3406, 4.07007, -55.3517, -2.5274
4.4319, 5, 3.2022, 17.4847, 34.3882, 3.87008, -55.6454, -2.39773
4.43997, 5, 3.04861, 17.5576, 34.4347, 3.67133, -55.9396, -2.26926
4.44797, 5, 2.89491, 17.6315, 34.4798, 3.47412, -56.2338, -2.14231
4.45597, 5, 2.74102, 17.7064, 34.5235, 3.27815, -56.5283, -2.01667
4.46406, 5, 2.5868, 17.7825, 34.5661, 3.08355, -56.8229, -1.8926
4.47219, 5, 2.43269, 17.8595, 34.6074, 2.89048, -57.1172, -1.76983
4.47969, 5, 2.27861, 17.9375, 34.6474, 2.69871, -57.4116, -1.64872
4.4887, 5, 2.12441, 18.0166, 34.6861, 2.50813, -57.7058, -1.52915
4.4959, 5, 1.97039, 18.0967, 34.7235, 2.31893, -58, -1.4107
4.50393, 5, 1.81656, 18.1778, 34.7596, 2.13108, -58.2945, -1.29393
4.51202, 5, 1.66277, 18.2598, 34.7944, 1.94473, -58.5889, -1.17838
4.51889, 5, 1.58594, 18.3012, 34.8112, 1.85201, -58.7362, -1.12091
4.52831, 5, 1.35655, 18.4268, 34.8599, 1.57544, -59.1784, -0.95069
4.53488, 5, 1.28088, 18.4689, 34.8755, 1.48389, -59.3259, -0.894431
4.54419, 5, 1.05984, 18.5937, 34.9207, 1.21219, -59.7669, -0.728389
4.55095, 5, 0.988905, 18.6342, 34.9352, 1.12286, -59.9128, -0.674
4.56031, 5, 0.786283, 18.7502, 34.9768, 0.862457, -60.3409, -0.51641
4.56692, 5, 0.722511, 18.7868, 34.9897, 0.779422, -60.4781, -0.466467
4.57666, 5, 0.545038, 18.8891, 35.0249, 0.548679, -60.8615, -0.327688
4.58448, 5, 0.439747, 18.9501, 35.0445, 0.414928, -61.0858, -0.247829
4.59252, 5, 0.345917, 19.0046, 35.0604, 0.300426, -61.2789, -0.179048
4.6005, 5, 0.263724, 19.0527, 35.0728, 0.20733, -61.4373, -0.12274
4.60852, 5, 0.192955, 19.0943, 35.0817, 0.134582, -61.5608, -0.0792898
4.61684, 5, 0.13398, 19.129, 35.0875, 0.0820873, -61.6523, -0.0474366
4.62471, 5, 0.109071, 19.1437, 35.0895, 0.0620542, -61.687, -0.0254704
4.6325, 5, 0.0683772, 19.1676, 35.0922, 0.0320911, -61.7386, -0.0173849
4.64119, 5, 0.0276589, 19.1923, 35.0939, 0.00644611, -61.7824, -0.00217986
4.66674, 5, 0.0181897, 19.2121, 35.0942, -0.00879974, -61.8082, 0.00631099
4.66801, 5, -0.0056628, 19.2121, 35.0942, -0.00879974, -61.8082, 0.00631099
4.67005, 5, -0.00691518, 19.213, 35.0942, -0.0094362, -61.8093, 0.0066269
4.67193, 5, -0.00691518, 19.213, 35.0942, -0.0094362, -61.8093, 0.0066269
4.67988, 5, -0.00756328, 19.2141, 35.0941, -0.0102704, -61.8105, 0.00701162
4.68688, 5, -0.00731534, 19.2146, 35.0941, -0.0106874, -61.8111, 0.00714405
4.69589, 5, -0.00801996, 19.2154, 35.094, -0.0109358, -61.8115, 0.00720482
4.70388, 5, -0.0116244, 19.2175, 35.0939, -0.0112997, -61.8121, 0.00724752
4.71193, 5, -0.0199576, 19.2219, 35.0936, -0.0129423, -61.8146, 0.00723006
4.72164, 6, -0.0448856, 19.2364, 35.0933, -0.0228407, -61.8277, 0.00746233
4.72789, 6, -0.0576185, 19.2441, 35.0932, -0.0295, -61.8366, 0.00772405
4.73597, 6, -0.0915876, 19.2644, 35.0933, -0.0504773, -61.8642, 0.00930233
4.74388, 6, -0.137895, 19.2913, 35.0941, -0.0854587, -61.9112, 0.0122157
4.75289, 6, -0.195812, 19.3234, 35.0969, -0.140048, -61.9842, 0.0171204
4.75999, 6, -0.26522, 19.3606, 35.1021, -0.216471, -62.0868, 0.0240701
4.76893, 6, -0.346671, 19.4034, 35.1096, -0.316085, -62.2218, 0.0332568
4.77588, 6, -0.440117, 19.4521, 35.1191, -0.438167, -62.3876, 0.0441833
4.78394, 6, -0.544378, 19.5063, 35.1306, -0.579666, -62.581, 0.0566052
4.79188, 6, -0.658962, 19.5668, 35.1428, -0.736949, -62.7964, 0.0698251
4.79989, 6, -0.783965, 19.6345, 35.1548, -0.905135, -63.0276, 0.0832785
4.80797, 6, -0.918743, 19.709, 35.1656, -1.08031, -63.2691, 0.0965906
4.81598, 6, -1.06148, 19.7883, 35.1753, -1.25903, -63.5169, 0.109401
4.82387, 6, -1.21005, 19.8711, 35.1838, -1.4395, -63.7679, 0.121614
4.83195, 6, -1.36253, 19.9565, 35.1913, -1.62057, -64.0204, 0.133098
4.83991, 6, -1.51737, 20.0439, 35.1976, -1.80185, -64.2738, 0.143752
4.84795, 6, -1.67361, 20.1324, 35.2028, -1.98305, -64.5275, 0.153585
4.85588, 6, -1.83006, 20.2219, 35.2069, -2.16356, -64.7812, 0.162765
4.86387, 6, -1.98651, 20.3123, 35.2097, -2.34377, -65.0348, 0.171232
4.87194, 6, -2.14285, 20.4035, 35.2114, -2.52356, -65.2884, 0.179015
4.87989, 6, -2.29871, 20.4955, 35.212, -2.70306, -65.5419, 0.186125
4.88789, 6, -2.45421, 20.5881, 35.2117, -2.88194, -65.7953, 0.192573
4.89594, 6, -2.60927, 20.6812, 35.2103, -3.06021, -66.0484, 0.198308
4.90389, 6, -2.76368, 20.7751, 35.2076, -3.23812, -66.3015, 0.203303
4.91187, 6, -2.91772, 20.8696, 35.2039, -3.41556, -66.5545, 0.207563
4.91994, 6, -3.07185, 20.9647, 35.1988, -3.59282, -66.8074, 0.211144
4.92795, 6, -3.22624, 21.0608, 35.1925, -3.76928, -67.06, 0.213999
4.93588, 6, -3.38126, 21.1578, 35.1849, -3.94519, -67.3124, 0.216128
4.94396, 6, -3.53699, 21.2556, 35.176, -4.12069, -67.5645, 0.217491
4.95209, 6, -3.693, 21.3543, 35.1661, -4.29563, -67.8163, 0.218261
4.95946, 6, -3.84952, 21.4539, 35.155, -4.47037, -68.0677, 0.218635
4.96805, 6, -4.00666, 21.5541, 35.1427, -4.64438, -68.3187, 0.218822
4.97626, 6, -4.16392, 21.6549, 35.1291, -4.81785, -68.5695, 0.218795
4.98349, 6, -4.32126, 21.7565, 35.1143, -4.99078, -68.8202, 0.218595
4.99205, 6, -4.47871, 21.8587, 35.0984, -5.16331, -69.0706, 0.217935
5.00044, 6, -4.63587, 21.9616, 35.0811, -5.33559, -69.3208, 0.216412
5.00794, 6, -4.79264, 22.0651, 35.0624, -5.50734, -69.5708, 0.21382
5.01597, 6, -4.94889, 22.1692, 35.0426, -5.67855, -69.8206, 0.210346
5.02485, 6, -5.10453, 22.2738, 35.0215, -5.84932, -70.0701, 0.205627
5.03199, 6, -5.25956, 22.3792, 34.9992, -6.01985, -70.3193, 0.200107
5.03891, 6, -5.33696, 22.4321, 34.9876, -6.105, -70.4438, 0.197051
5.04894, 6, -5.5687, 22.5921, 34.9509, -6.35975, -70.8163, 0.18655
5.05617, 6, -5.72327, 22.6999, 34.925, -6.52883, -71.0642, 0.178728
5.06287, 6, -5.80065, 22.7541, 34.9116, -6.61324, -71.1879, 0.17455
5.07229, 6, -6.03308, 22.9176, 34.8696, -6.86584, -71.5587, 0.161057
5.07894, 6, -6.11077, 22.9725, 34.8549, -6.95001, -71.6822, 0.156279
5.08687, 6, -6.26644, 23.0826, 34.8246, -7.11778, -71.9288, 0.146377
5.09644, 6, -6.50061, 23.2488, 34.7771, -7.3688, -72.2978, 0.130372
5.10522, 6, -6.65707, 23.3604, 34.7438, -7.53552, -72.5436, 0.119165
5.11087, 6, -6.73543, 23.4165, 34.7266, -7.61872, -72.6663, 0.113331
5.12047, 6, -6.89232, 23.5293, 34.6915, -7.86796, -73.0338, 0.094666
5.12787, 6, -7.0492, 23.6424, 34.6553, -7.9509, -73.156, 0.0880718
5.13489, 6, -7.20596, 23.756, 34.6176, -8.11638, -73.4002, 0.0744653
5.14496, 6, -7.44045, 23.9275, 34.5589, -8.36384, -73.7657, 0.0525589
5.15187, 6, -7.51837, 23.985, 34.5387, -8.44608, -73.8873, 0.0449013
5.15892, 6, -7.67393, 24.1005, 34.4973, -8.61037, -74.1304, 0.0292633
5.16786, 6, -7.82915, 24.2167, 34.4548, -8.77444, -74.3728, 0.0128182
5.1759, 6, -7.98375, 24.3336, 34.4111, -8.93812, -74.6148, -0.00385484
5.18286, 6, -8.13766, 24.4512, 34.3661, -9.10134, -74.8564, -0.020819
5.19186, 6, -8.29091, 24.5693, 34.3201, -9.26421, -75.0975, -0.0380238
5.19986, 6, -8.44369, 24.6879, 34.2727, -9.4268, -75.338, -0.0555619
5.20686, 6, -8.59656, 24.8072, 34.2241, -9.58914, -75.5782, -0.0735836
5.21586, 6, -8.74975, 24.9272, 34.1742, -9.75126, -75.8175, -0.0919628
5.22388, 6, -8.90321, 25.0478, 34.1232, -9.91276, -76.0564, -0.111009
5.23086, 6, -9.05711, 25.1688, 34.071, -10.0738, -76.2948, -0.130621
5.23986, 6, -9.21158, 25.2904, 34.0175, -10.2347, -76.5327, -0.151088
5.24788, 6, -9.36608, 25.4124, 33.9627, -10.3952, -76.7701, -0.171863
5.25686, 6, -9.52073, 25.5351, 33.9067, -10.5554, -77.0073, -0.193095
5.26391, 6, -9.67554, 25.6585, 33.8493, -10.7155, -77.2438, -0.214361
5.27497, 6, -9.90767, 25.8446, 33.7611, -10.9546, -77.5977, -0.246444
5.27992, 6, -9.98501, 25.9067, 33.7312, -11.0342, -77.7153, -0.257329
5.28787, 6, -10.1396, 26.0314, 33.6703, -11.1931, -77.9502, -0.279491
5.29592, 6, -10.2938, 26.1565, 33.6082, -11.3519, -78.1844, -0.302063
5.30389, 6, -10.4477, 26.2822, 33.5449, -11.5102, -78.4181, -0.325279
5.31185, 6, -10.6013, 26.4084, 33.4802, -11.6682, -78.651, -0.349337
5.31992, 6, -10.7542, 26.5352, 33.4144, -11.8256, -78.8831, -0.373676
5.32786, 6, -10.9065, 26.6625, 33.3473, -11.9828, -79.1148, -0.398067
5.33586, 6, -11.0582, 26.7902, 33.2789, -12.1399, -79.3459, -0.422334
5.34397, 6, -11.209, 26.9184, 33.2093, -12.2967, -79.5765, -0.446941
5.35185, 6, -11.3592, 27.0473, 33.1385, -12.4529, -79.8066, -0.472074
5.35986, 6, -11.5092, 27.1767, 33.0665, -12.6089, -80.0362, -0.497716
5.36792, 6, -11.6592, 27.3068, 32.9933, -12.7644, -80.2653, -0.524058
5.37586, 6, -11.8093, 27.4373, 32.919, -12.9197, -80.4937, -0.550616
5.3839, 6, -11.96, 27.5681, 32.8435, -13.0748, -80.7217, -0.577101
5.39192, 6, -12.1109, 27.6993, 32.7667, -13.2296, -80.9489, -0.603653
5.39986, 6, -12.2622, 27.8311, 32.6886, -13.3839, -81.1754, -0.630601
5.40786, 6, -12.4137, 27.9633, 32.6091, -13.5377, -81.4012, -0.657659
5.41592, 6, -12.5651, 28.0959, 32.5284, -13.6914, -81.6262, -0.685586
5.42386, 6, -12.7165, 28.2288, 32.4465, -13.8449, -81.8506, -0.714038
5.43203, 6, -12.8678, 28.3619, 32.3635, -13.998, -82.0743, -0.742709
5.43988, 6, -13.0188, 28.4957, 32.2794, -14.1509, -82.2972, -0.771202
5.44795, 6, -13.1697, 28.63, 32.194, -14.3033, -82.5195, -0.799879
5.45615, 6, -13.3201, 28.7648, 32.1073, -14.4555, -82.7412, -0.828737
5.46337, 6, -13.4701, 28.9, 32.0194, -14.6074, -82.9622, -0.858137
5.47197, 6, -13.6195, 29.0355, 31.9302, -14.7592, -83.1825, -0.888166
5.48032, 6, -13.7686, 29.1713, 31.8398, -14.9106, -83.4021, -0.918644
5.48743, 6, -13.9171, 29.3078, 31.7481, -15.0616, -83.6212, -0.948872
5.49598, 6, -14.0646, 29.4448, 31.6553, -15.2123, -83.8396, -0.978912
5.50451, 6, -14.2112, 29.5821, 31.5614, -15.3625, -84.0572, -1.0092
5.51191, 6, -14.3574, 29.7198, 31.4664, -15.5125, -84.2741, -1.03995
5.51991, 6, -14.5032, 29.8577, 31.37, -15.6623, -84.4904, -1.07134
5.52873, 6, -14.6489, 29.9961, 31.2723, -15.8118, -84.7059, -1.10299
5.53597, 6, -14.7947, 30.1351, 31.1733, -15.9608, -84.9206, -1.13449
5.5429, 6, -14.8677, 30.2047, 31.1233, -16.0352, -85.0277, -1.1501
5.55279, 6, -15.087, 30.4141, 30.9716, -16.2578, -85.3478, -1.19732
5.56017, 6, -15.2335, 30.5541, 30.8692, -16.406, -85.5602, -1.22928
5.5669, 6, -15.3069, 30.6241, 30.8175, -16.4799, -85.6661, -1.24546
5.57715, 6, -15.5271, 30.8351, 30.6607, -16.7014, -85.983, -1.29431
5.58295, 6, -15.6006, 30.9057, 30.6076, -16.775, -86.0882, -1.3105
5.59345, 6, -15.8204, 31.1177, 30.4466, -16.9953, -86.4026, -1.35862
5.59894, 6, -15.8935, 31.1885, 30.3924, -17.0685, -86.5071, -1.37471
5.60847, 6, -16.1123, 31.401, 30.2282, -17.288, -86.8193, -1.42363
5.61715, 6, -16.1852, 31.4721, 30.1173, -17.434, -87.0265, -1.45682
5.62292, 6, -16.3306, 31.6148, 30.0614, -17.5069, -87.1299, -1.47344
5.63287, 6, -16.5478, 31.8296, 29.8915, -17.7252, -87.439, -1.52282
5.63987, 6, -16.6201, 31.9012, 29.8342, -17.7977, -87.5417, -1.53931
5.64786, 6, -16.7642, 32.0445, 29.7186, -17.9426, -87.7465, -1.57217
5.65589, 6, -16.9072, 32.1882, 29.6021, -18.087, -87.9505, -1.60565
5.66384, 6, -17.0495, 32.3327, 29.4843, -18.2315, -88.1538, -1.63962
5.67184, 6, -17.1909, 32.4775, 29.3655, -18.3755, -88.3563, -1.67319
5.67994, 6, -17.331, 32.6223, 29.2455, -18.5191, -88.5579, -1.70624
5.68785, 6, -17.4693, 32.7664, 29.1244, -18.6622, -88.7586, -1.73943
5.69585, 6, -17.6056, 32.9095, 29.0029, -18.8044, -88.9582, -1.77277
5.7039, 6, -17.7393, 33.0509, 28.8813, -18.9455, -89.1555, -1.80663
5.71184, 6, -17.8685, 33.189, 28.761, -19.0849, -89.3497, -1.84019
5.71986, 6, -17.9918, 33.3212, 28.6435, -19.2208, -89.5391, -1.87286
5.7279, 6, -18.1075, 33.4452, 28.5307, -19.3508, -89.7204, -1.90382
5.73583, 6, -18.2149, 33.5604, 28.4245, -19.4723, -89.8902, -1.93287
5.74384, 6, -18.3139, 33.6661, 28.3268, -19.5825, -90.0442, -1.95959
5.75191, 6, -18.4031, 33.7607, 28.2399, -19.6791, -90.1791, -1.98336
5.75986, 6, -18.4818, 33.8433, 28.1653, -19.7598, -90.2926, -2.00359
5.7679, 6, -18.5503, 33.9139, 28.1038, -19.8247, -90.3837, -2.02014
5.77687, 6, -18.609, 33.9732, 28.0547, -19.8743, -90.4532, -2.03272
5.78384, 6, -18.6576, 34.0211, 28.0174, -19.9095, -90.5034, -2.04157
5.79184, 6, -18.6951, 34.0575, 27.9905, -19.9334, -90.5373, -2.04752
5.79989, 6, -18.7227, 34.0836, 27.972, -19.9486, -90.5589, -2.05126
5.80787, 6, -18.7426, 34.1018, 27.9597, -19.9579, -90.5717, -2.05346
5.81584, 6, -18.7559, 34.1142, 27.9522, -19.9631, -90.5788, -2.0547
5.82393, 7, -18.7641, 34.1216, 27.9478, -19.9657, -90.5824, -2.05535
5.83184, 7, -18.7686, 34.1252, 27.9453, -19.967, -90.5842, -2.05568
5.83985, 7, -18.77, 34.1268, 27.9437, -19.9677, -90.5851, -2.05578
5.84795, 7, -18.77, 34.1276, 27.9427, -19.9681, -90.5856, -2.05589
5.85584, 7, -18.7697, 34.1279, 27.9421, -19.9683, -90.5857, -2.05589
5.86384, 7, -18.7693, 34.1283, 27.9418, -19.9684, -90.5859, -2.05588
5.87191, 7, -18.7692, 34.1288, 27.9417, -19.9684, -90.5859, -2.05587
5.87986, 7, -18.7693, 34.1296, 27.9416, -19.9685, -90.586, -2.05591
5.88785, 7, -18.7696, 34.1306, 27.9416, -19.9685, -90.5859, -2.05592
5.89591, 7, -18.7703, 34.1317, 27.9416, -19.9685, -90.5859, -2.05586
5.90384, 7, -18.7709, 34.1327, 27.9416, -19.9685, -90.5859, -2.05588
5.91183, 7, -18.7717, 34.1334, 27.9416, -19.9685, -90.5859, -2.05589
5.91992, 7, -18.7728, 34.134, 27.9416, -19.9685, -90.586, -2.05591
5.92785, 7, -18.7739, 34.1344, 27.9416, -19.9685, -90.586, -2.05591
5.93589, 7, -18.775, 34.1345, 27.9416, -19.9685, -90.586, -2.0559
