hehonglu123/ABB_Primitive_Study/realrobot/movel_30_ori/curve_exe_vmax_z20.csv
timestamp, cmd_num, J1, J2, J3, J4, J5, J6
0.000369, -1, -18.7725, 34.1326, 27.9421, -19.9674, -90.5846, -2.05555
0.002174, -1, -18.7725, 34.1326, 27.9421, -19.9674, -90.5846, -2.05555
0.008324, -1, -18.7725, 34.1326, 27.9421, -19.9674, -90.5846, -2.05552
0.030054, -1, -18.7725, 34.1326, 27.9421, -19.9673, -90.5846, -2.05555
0.032135, -1, -18.7725, 34.1326, 27.9421, -19.9673, -90.5845, -2.05557
0.033398, -1, -18.7725, 34.1326, 27.9421, -19.9673, -90.5845, -2.05557
0.040548, -1, -18.7725, 34.1326, 27.9421, -19.9673, -90.5846, -2.05552
0.047745, -1, -18.7725, 34.1326, 27.9421, -19.9673, -90.5846, -2.05556
0.056319, -1, -18.7712, 34.1323, 27.9421, -19.9673, -90.5845, -2.05553
0.063047, -1, -18.7697, 34.1318, 27.9422, -19.9673, -90.5845, -2.05551
0.072381, -1, -18.7603, 34.1281, 27.9424, -19.9662, -90.5831, -2.05552
0.079098, -1, -18.7553, 34.1258, 27.9424, -19.9647, -90.5815, -2.05561
0.089068, -1, -18.7322, 34.1143, 27.9426, -19.9513, -90.5682, -2.05861
0.096462, -1, -18.7067, 34.1014, 27.9425, -19.931, -90.5475, -2.0669
0.103055, -1, -18.6904, 34.0931, 27.9422, -19.916, -90.5319, -2.07365
0.113343, -1, -18.6247, 34.0599, 27.9393, -19.8421, -90.4548, -2.10729
0.119115, -1, -18.5965, 34.0456, 27.9374, -19.8061, -90.4174, -2.1239
0.12862, -1, -18.4914, 33.9925, 27.9277, -19.6569, -90.2606, -2.19504
0.137455, -1, -18.4038, 33.9483, 27.9171, -19.5191, -90.1156, -2.2606
0.14312, -1, -18.3548, 33.9237, 27.9105, -19.4383, -90.0302, -2.29883
0.152684, -1, -18.1874, 33.8398, 27.8858, -19.1493, -89.7249, -2.43726
0.161437, -1, -18.1247, 33.8083, 27.8761, -18.922, -89.4841, -2.54522
0.167184, -1, -17.9894, 33.7406, 27.8548, -18.7996, -89.3542, -2.60381
0.176798, -1, -17.8421, 33.6671, 27.8317, -18.4052, -88.935, -2.79241
0.184042, -1, -17.6843, 33.5882, 27.8076, -18.2667, -88.7878, -2.85864
0.19111, -1, -17.5169, 33.5045, 27.7829, -17.9828, -88.4862, -2.99467
0.19906, -1, -17.3416, 33.417, 27.758, -17.693, -88.1777, -3.13378
0.207059, -1, -17.1608, 33.3267, 27.7328, -17.3991, -87.8653, -3.275
0.216096, -1, -16.9761, 33.2345, 27.7077, -17.103, -87.5505, -3.41713
0.224043, -1, -16.7889, 33.1414, 27.6826, -16.8058, -87.2341, -3.55971
0.232049, -1, -16.6, 33.0479, 27.6576, -16.5073, -86.9167, -3.70284
0.239056, -1, -16.4102, 32.9541, 27.6324, -16.2083, -86.5981, -3.84603
0.247073, -1, -16.2201, 32.8602, 27.6073, -15.9084, -86.2789, -3.98962
0.256085, -1, -16.0302, 32.7665, 27.5823, -15.6075, -85.959, -4.13346
0.263073, -1, -15.8406, 32.6727, 27.5573, -15.3063, -85.6387, -4.2776
0.271058, -1, -15.6518, 32.579, 27.5322, -15.0049, -85.3177, -4.42216
0.280037, -1, -15.4632, 32.4852, 27.5069, -14.7029, -84.9966, -4.56682
0.289679, -1, -15.2751, 32.3912, 27.4817, -14.4005, -84.5137, -4.78411
0.296118, -1, -15.0874, 32.2969, 27.4565, -14.0979, -84.3527, -4.85652
0.304035, -1, -14.8997, 32.2022, 27.4313, -13.7947, -84.0305, -5.00152
0.313057, -1, -14.7115, 32.1071, 27.4057, -13.4915, -83.7079, -5.14674
0.320046, -1, -14.5223, 32.0119, 27.3802, -13.1881, -83.385, -5.29209
0.328113, -1, -14.332, 31.9165, 27.3546, -12.8844, -83.0618, -5.43762
0.33505, -1, -14.1406, 31.821, 27.3291, -12.5808, -82.7384, -5.58336
0.344042, -1, -13.9486, 31.7254, 27.3036, -12.2767, -82.4147, -5.72908
0.352103, -1, -13.7561, 31.6298, 27.2779, -11.9724, -82.0907, -5.87468
0.359057, -1, -13.563, 31.5343, 27.2523, -11.668, -81.7667, -6.0204
0.368076, -1, -13.3692, 31.4389, 27.2267, -11.3638, -81.4427, -6.16582
0.375119, -1, -13.1755, 31.3435, 27.2011, -11.0595, -81.1188, -6.3116
0.383139, -1, -12.9825, 31.2484, 27.1755, -10.7552, -80.7948, -6.45735
0.392529, -1, -12.7901, 31.1532, 27.1501, -10.4507, -80.4713, -6.60307
0.399177, -1, -12.5982, 31.0582, 27.1246, -10.1464, -80.148, -6.74891
0.407221, -1, -12.4072, 30.963, 27.099, -9.8423, -79.8245, -6.89462
0.415101, -1, -12.2171, 30.8678, 27.0734, -9.53822, -79.5011, -7.04012
0.424045, -1, -12.0278, 30.7726, 27.0478, -9.23434, -79.1776, -7.18561
0.431892, -1, -11.839, 30.6773, 27.0223, -8.93083, -78.8543, -7.33097
0.440835, -1, -11.6502, 30.582, 26.9969, -8.62729, -78.5311, -7.47638
0.448031, -1, -11.4612, 30.4868, 26.9713, -8.32427, -78.2085, -7.62149
0.456114, -1, -11.2717, 30.3918, 26.9458, -8.02179, -77.8865, -7.76672
0.464842, -1, -11.082, 30.2969, 26.9203, -7.71965, -77.5649, -7.91138
0.472033, -1, -10.8919, 30.2023, 26.895, -7.41811, -77.2438, -8.05585
0.480186, -1, -10.7013, 30.1079, 26.8697, -7.11692, -76.9235, -8.19992
0.487386, -1, -10.5107, 30.0137, 26.8443, -6.81605, -76.6036, -8.34368
0.495631, -1, -10.3198, 29.9197, 26.8191, -6.51591, -76.284, -8.48735
0.50434, -1, -10.1293, 29.8258, 26.794, -6.2163, -75.9649, -8.63064
0.511556, -1, -9.93955, 29.7322, 26.7689, -5.91717, -75.6463, -8.77366
0.519662, -1, -9.75059, 29.6387, 26.7438, -5.61873, -75.3285, -8.91682
0.528551, -1, -9.56255, 29.5454, 26.7187, -5.3207, -75.0116, -9.05933
0.535655, -1, -9.46882, 29.4522, 26.6937, -5.02335, -74.6953, -9.20148
0.544034, -1, -9.18922, 29.3592, 26.6688, -4.72691, -74.3799, -9.34323
0.551038, -1, -9.09656, 29.3127, 26.6563, -4.57898, -74.2225, -9.41402
0.55965, -1, -8.91179, 29.22, 26.6314, -4.28346, -73.908, -9.55524
0.568064, -1, -8.63606, 29.081, 26.5942, -3.84217, -73.4381, -9.76664
0.575049, -1, -8.54434, 29.0348, 26.5818, -3.69532, -73.2819, -9.83676
0.584969, -1, -8.26944, 28.8969, 26.5449, -3.25611, -72.8147, -10.0472
0.59232, -1, -8.08639, 28.8053, 26.5202, -2.96471, -72.5044, -10.1867
0.599055, -1, -7.99485, 28.7597, 26.5079, -2.81919, -72.3495, -10.2564
0.607084, -1, -7.81175, 28.6688, 26.4835, -2.52895, -72.0405, -10.3952
0.616585, -1, -7.53754, 28.5328, 26.4471, -2.09546, -71.5786, -10.6025
0.625348, -1, -7.35492, 28.4426, 26.4229, -1.80737, -71.2721, -10.7402
0.631097, -1, -7.26379, 28.3976, 26.4108, -1.6637, -71.1192, -10.8089
0.640596, -1, -6.99126, 28.2631, 26.3747, -1.23434, -70.6621, -11.0143
0.649333, -1, -6.81073, 28.1737, 26.3508, -0.949392, -70.3588, -11.1508
0.655096, -1, -6.72092, 28.1292, 26.3389, -0.807351, -70.2076, -11.2189
0.664667, -1, -6.45284, 27.9959, 26.3031, -0.382772, -69.756, -11.4222
0.673475, -1, -6.36411, 27.9517, 26.2912, -0.241684, -69.4563, -11.557
0.679108, -1, -6.18765, 27.8634, 26.2675, 0.039772, -69.3067, -11.6244
0.689769, -1, -5.92464, 27.7315, 26.2321, 0.459798, -68.8597, -11.8253
0.696074, -1, -5.83747, 27.6876, 26.2204, 0.59923, -68.7113, -11.8921
0.704043, -1, -5.6637, 27.6002, 26.197, 0.87738, -68.4151, -12.0253
0.711048, -1, -5.49042, 27.5132, 26.1735, 1.15433, -68.1199, -12.1581
0.720026, -1, -5.31759, 27.4267, 26.1503, 1.43005, -67.8261, -12.2903
0.728019, -1, -5.1449, 27.3404, 26.1271, 1.70505, -67.5336, -12.4219
0.735029, -1, -4.97251, 27.2546, 26.1042, 1.97879, -67.2425, -12.5528
0.743036, -1, -4.80049, 27.1692, 26.0813, 2.25099, -66.9526, -12.6829
0.752024, -1, -4.629, 27.0842, 26.0584, 2.52242, -66.664, -12.8126
0.760072, -1, -4.45795, 26.9995, 26.0357, 2.79232, -66.3768, -12.9418
0.767061, -1, -4.28718, 26.9151, 26.013, 3.06089, -66.0907, -13.0704
0.776065, -1, -4.117, 26.8311, 25.9905, 3.32868, -65.8057, -13.1984
0.78638, -1, -3.86374, 26.7058, 25.9568, 3.72808, -65.3805, -13.39
0.791092, -1, -3.77998, 26.6642, 25.9457, 3.86058, -65.2393, -13.4534
0.799031, -1, -3.61327, 26.5811, 25.9235, 4.12491, -64.9579, -13.5798
0.80802, -1, -3.44774, 26.4984, 25.9013, 4.38795, -64.678, -13.7056
0.817042, -1, -3.28318, 26.4161, 25.8792, 4.64965, -64.3992, -13.8308
0.824079, -1, -3.11961, 26.3341, 25.8572, 4.91036, -64.1217, -13.9552
0.832062, -1, -2.95736, 26.2525, 25.8352, 5.17008, -63.8456, -14.0794
0.839096, -1, -2.79597, 26.1713, 25.8135, 5.42858, -63.5706, -14.2031
0.848086, -1, -2.6353, 26.0904, 25.792, 5.68576, -63.2969, -14.3259
0.856065, -1, -2.47502, 26.01, 25.7705, 5.94168, -63.0245, -14.4488
0.863085, -1, -2.31496, 25.93, 25.749, 6.19647, -62.7533, -14.5708
0.872115, -1, -2.1552, 25.8504, 25.7275, 6.44983, -62.4835, -14.692
0.88002, -1, -1.99594, 25.7712, 25.7063, 6.7023, -62.2148, -14.8131
0.888037, -1, -1.8371, 25.6925, 25.6852, 6.9538, -61.9472, -14.933
0.896123, -1, -1.67882, 25.6141, 25.6642, 7.20392, -61.6807, -15.0525
0.903156, -1, -1.52093, 25.536, 25.6433, 7.45274, -61.4155, -15.1716
0.911205, -1, -1.36329, 25.4582, 25.6224, 7.70074, -61.1512, -15.2903
0.919092, -1, -1.20631, 25.3807, 25.6017, 7.94743, -60.8882, -15.4082
0.927037, -1, -1.05032, 25.3036, 25.5811, 8.19298, -60.6266, -15.526
0.93515, -1, -0.895404, 25.2268, 25.5606, 8.43771, -60.3662, -15.6431
0.94328, -1, -0.741862, 25.1503, 25.5402, 8.68137, -60.107, -15.7596
0.951102, -1, -0.589324, 25.0741, 25.5197, 8.9237, -59.849, -15.8758
0.959264, -1, -0.437808, 24.9984, 25.4993, 9.1649, -59.5924, -15.9911
0.967253, -1, -0.287457, 24.923, 25.4792, 9.4051, -59.3374, -16.1063
0.975318, -1, -0.138191, 24.848, 25.4591, 9.64424, -59.0832, -16.2207
0.983454, -1, 0.0101395, 24.7733, 25.4392, 9.88195, -58.8301, -16.3346
0.992393, -1, 0.157747, 24.6989, 25.4194, 10.1189, -58.578, -16.4484
0.9995, -1, 0.305026, 24.6249, 25.3994, 10.3548, -58.3269, -16.5613
1.00811, -1, 0.452233, 24.5513, 25.3797, 10.5894, -58.0768, -16.6741
1.01644, -1, 0.599291, 24.4779, 25.36, 10.823, -57.8277, -16.786
1.02365, -1, 0.746014, 24.4049, 25.3405, 11.0556, -57.5797, -16.8973
1.03212, -1, 0.892561, 24.3321, 25.3211, 11.2871, -57.3329, -17.0084
1.04063, -1, 0.96558, 24.2597, 25.3017, 11.5175, -57.0873, -17.1183
1.04818, -1, 1.18388, 24.1877, 25.2823, 11.747, -56.843, -17.2281
1.05504, -1, 1.25636, 24.1517, 25.2727, 11.8613, -56.7214, -17.2826
1.06497, -1, 1.47327, 24.0445, 25.244, 12.2031, -56.3581, -17.4459
1.07209, -1, 1.61724, 23.9734, 25.225, 12.4294, -56.1173, -17.5542
1.07904, -1, 1.68891, 23.938, 25.2156, 12.5421, -55.9973, -17.6082
1.08917, -1, 1.90248, 23.8323, 25.1873, 12.8792, -55.639, -17.7696
1.09504, -1, 1.97309, 23.7973, 25.1779, 12.991, -55.5201, -17.8231
1.10433, -1, 2.18365, 23.6924, 25.1498, 13.3248, -55.1647, -17.983
1.11104, -1, 2.25336, 23.6577, 25.1405, 13.4355, -55.0467, -18.0359
1.11907, -1, 2.39197, 23.5883, 25.1219, 13.6564, -54.8115, -18.1417
1.12857, -1, 2.5983, 23.4848, 25.0944, 13.9861, -54.4603, -18.2992
1.13761, -1, 2.73451, 23.4162, 25.076, 14.2047, -54.2273, -18.4036
1.1431, -1, 2.80233, 23.382, 25.0669, 14.3135, -54.1113, -18.4558
1.15259, -1, 3.00496, 23.2798, 25.0396, 14.6389, -53.765, -18.6115
1.16149, -1, 3.07238, 23.212, 25.0214, 14.8546, -53.5353, -18.7148
1.16709, -1, 3.20727, 23.1782, 25.0123, 14.9621, -53.4208, -18.7661
1.17659, -1, 3.34218, 23.1109, 24.9944, 15.1764, -53.1927, -18.9203
1.18402, -1, 3.4768, 23.0439, 24.9766, 15.3899, -52.9655, -18.9713
1.19201, -1, 3.61114, 22.9771, 24.9587, 15.6028, -52.7394, -19.0732
1.20005, -1, 3.74515, 22.9107, 24.941, 15.8146, -52.5139, -19.1742
1.20802, -1, 3.87868, 22.8445, 24.9234, 16.0253, -52.2898, -19.2753
1.21507, -1, 4.01181, 22.7787, 24.9056, 16.2352, -52.0663, -19.3755
1.22404, -1, 4.14461, 22.7131, 24.8881, 16.4444, -51.8437, -19.4756
1.232, -1, 4.27692, 22.6478, 24.8707, 16.6524, -51.622, -19.575
1.24007, -1, 4.4086, 22.5827, 24.8533, 16.8596, -51.4011, -19.6741
1.248, -1, 4.53946, 22.5179, 24.8359, 17.0662, -51.1812, -19.773
1.25601, -1, 4.66975, 22.4532, 24.8187, 17.2721, -50.9622, -19.8713
1.26303, -1, 4.79923, 22.3888, 24.8015, 17.4769, -50.7438, -19.9697
1.272, -1, 4.92794, 22.3246, 24.7843, 17.681, -50.5264, -20.0674
1.28, -1, 5.0559, 22.2606, 24.7674, 17.8842, -50.3099, -20.165
1.28703, -1, 5.18308, 22.1969, 24.7504, 18.0869, -50.0942, -20.2617
1.29607, -1, 5.30943, 22.1335, 24.7333, 18.2886, -49.8794, -20.3584
1.30402, -1, 5.43483, 22.0703, 24.7165, 18.4895, -49.6655, -20.4544
1.31303, -1, 5.5595, 22.0075, 24.6997, 18.6897, -49.4523, -20.5501
1.32, -1, 5.68363, 21.9449, 24.6828, 18.8892, -49.2403, -20.6453
1.328, -1, 5.80751, 21.8825, 24.6662, 19.0881, -49.0289, -20.7406
1.33604, -1, 5.9313, 21.8205, 24.6497, 19.2859, -48.8188, -20.8349
1.34408, -1, 6.055, 21.7587, 24.6331, 19.483, -48.6093, -20.9297
1.352, -1, 6.17859, 21.697, 24.6166, 19.6794, -48.4005, -21.0235
1.36002, -1, 6.30201, 21.6355, 24.6003, 19.8751, -48.1922, -21.1175
1.36807, -1, 6.4252, 21.5743, 24.5838, 20.0699, -47.9848, -21.2108
1.37602, -1, 6.54822, 21.5132, 24.5674, 20.2639, -47.7782, -21.304
1.38401, -1, 6.67078, 21.4525, 24.5513, 20.4572, -47.572, -21.3962
1.39206, -1, 6.79309, 21.3919, 24.5351, 20.6502, -47.3667, -21.4889
1.40002, -1, 6.91489, 21.3316, 24.5189, 20.8422, -47.162, -21.5803
1.4083, -1, 7.03618, 21.2716, 24.5028, 21.0334, -46.9581, -21.6721
1.41513, -1, 7.15688, 21.2118, 24.4868, 21.224, -46.755, -21.7629
1.42319, -1, 7.27696, 21.1523, 24.4708, 21.4139, -46.5527, -21.854
1.43102, -1, 7.39649, 21.0931, 24.455, 21.6033, -46.3512, -21.9442
1.44, -1, 7.5154, 21.034, 24.4394, 21.7918, -46.1505, -22.0346
1.44711, -1, 7.63385, 20.9751, 24.4237, 21.9796, -45.9505, -22.1243
1.45514, -1, 7.75187, 20.9164, 24.4079, 22.1669, -45.7514, -22.2142
1.46405, -1, 7.86935, 20.8578, 24.3922, 22.3536, -45.5529, -22.3035
1.47124, -1, 7.98625, 20.7994, 24.3765, 22.5399, -45.3553, -22.3927
1.47934, -1, 8.1025, 20.7411, 24.3609, 22.7251, -45.1585, -22.4809
1.48732, -1, 8.21826, 20.683, 24.3454, 22.9097, -44.9623, -22.5696
1.49543, -1, 8.33364, 20.6251, 24.3301, 23.0936, -44.7666, -22.6573
1.50355, -1, 8.44866, 20.5675, 24.3147, 23.2771, -44.5715, -22.745
1.51154, -1, 8.56328, 20.51, 24.2993, 23.4598, -44.3766, -22.8321
1.52013, -1, 8.67738, 20.4529, 24.2839, 23.6418, -44.1827, -22.9192
1.52761, -1, 8.791, 20.3959, 24.2687, 23.8231, -43.9893, -23.0061
1.53556, -1, 8.90436, 20.3392, 24.2536, 24.0042, -43.7962, -23.0926
1.54412, -1, 9.01756, 20.2826, 24.2384, 24.1846, -43.6043, -23.179
1.55157, -1, 9.07409, 20.2544, 24.2309, 24.2745, -43.5086, -23.2649
1.55905, -1, 9.18716, 20.1982, 24.216, 24.454, -43.3177, -23.3081
1.56812, -1, 9.35665, 20.114, 24.1934, 24.7218, -43.0323, -23.4364
1.57501, -1, 9.41302, 20.0861, 24.1859, 24.8108, -42.9375, -23.4793
1.58412, -1, 9.58151, 20.0023, 24.1634, 25.0773, -42.654, -23.6065
1.59101, -1, 9.63745, 19.9745, 24.156, 25.1657, -42.5598, -23.6489
1.60029, -1, 9.8047, 19.8912, 24.1337, 25.4304, -42.2781, -23.7755
1.60708, -1, 9.86032, 19.8636, 24.1263, 25.5183, -42.1844, -23.8175
1.61641, -1, 10.0267, 19.781, 24.1045, 25.7814, -41.9048, -23.943
1.623, -1, 10.0819, 19.7536, 24.0972, 25.8689, -41.8118, -23.9846
1.63256, -1, 10.2471, 19.6716, 24.0751, 26.1304, -41.5337, -24.1097
1.64055, -1, 10.3568, 19.6171, 24.0605, 26.304, -41.3489, -24.1925
1.64857, -1, 10.4658, 19.5629, 24.046, 26.477, -41.1646, -24.2756
1.65657, -1, 10.5744, 19.5088, 24.0314, 26.6495, -40.981, -24.3578
1.66458, -1, 10.6286, 19.4818, 24.0169, 26.8216, -40.7978, -24.4407
1.67263, -1, 10.7367, 19.4279, 24.0098, 26.993, -40.6153, -24.5226
1.68112, -1, 10.8981, 19.3474, 23.9885, 27.1639, -40.4331, -24.6049
1.68701, -1, 10.9517, 19.3206, 23.9813, 27.2491, -40.3422, -24.6458
1.696, -1, 11.0586, 19.2671, 23.967, 27.4193, -40.1611, -24.7268
1.70404, -1, 11.1652, 19.2138, 23.9526, 27.5892, -39.9803, -24.8085
1.71202, -1, 11.2714, 19.1606, 23.9384, 27.7583, -39.8002, -24.8891
1.71999, -1, 11.3771, 19.1076, 23.9243, 27.927, -39.6206, -24.9702
1.72805, -1, 11.4824, 19.0548, 23.9101, 28.0951, -39.4415, -25.0505
1.73598, -1, 11.5874, 19.0023, 23.8961, 28.2628, -39.2631, -25.1307
1.74399, -1, 11.6923, 18.9498, 23.8822, 28.4301, -39.0849, -25.211
1.75203, -1, 11.797, 18.8976, 23.8682, 28.5969, -38.9075, -25.2906
1.75998, -1, 11.9016, 18.8456, 23.8542, 28.7631, -38.7305, -25.3706
1.76801, -1, 12.0059, 18.7935, 23.8402, 28.9289, -38.5538, -25.4497
1.77502, -1, 12.1102, 18.7416, 23.8263, 29.0943, -38.3779, -25.5296
1.78399, -1, 12.2143, 18.6898, 23.8125, 29.2593, -38.2026, -25.6085
1.79099, -1, 12.3181, 18.6382, 23.7987, 29.424, -38.028, -25.6876
1.80003, -1, 12.4217, 18.5867, 23.785, 29.588, -37.8537, -25.7662
1.80801, -1, 12.5251, 18.5353, 23.7715, 29.7515, -37.6797, -25.844
1.81605, -1, 12.6282, 18.4841, 23.7578, 29.9145, -37.5063, -25.9226
1.82504, -1, 12.731, 18.4329, 23.744, 30.0772, -37.333, -26
1.83203, -1, 12.8334, 18.382, 23.7303, 30.2395, -37.1605, -26.0777
1.84008, -1, 12.9355, 18.3313, 23.7168, 30.4013, -36.9882, -26.1548
1.848, -1, 13.0372, 18.2808, 23.7032, 30.5625, -36.8162, -26.2317
1.85599, -1, 13.1386, 18.2305, 23.6897, 30.7233, -36.6449, -26.3089
1.86405, -1, 13.2395, 18.1803, 23.6763, 30.8838, -36.4739, -26.3851
1.87198, -1, 13.3402, 18.1301, 23.663, 31.044, -36.3035, -26.462
1.88001, -1, 13.4406, 18.0802, 23.6497, 31.2036, -36.1335, -26.5381
1.88805, -1, 13.5407, 18.0302, 23.6364, 31.3628, -35.964, -26.6144
1.896, -1, 13.6407, 17.9803, 23.623, 31.5215, -35.7949, -26.6907
1.904, -1, 13.7404, 17.9305, 23.6097, 31.6796, -35.6263, -26.7663
1.91205, -1, 13.8399, 17.8808, 23.5964, 31.8377, -35.4582, -26.8423
1.91998, -1, 13.9393, 17.8311, 23.5832, 31.9953, -35.2907, -26.9172
1.92799, -1, 14.0384, 17.7817, 23.5699, 32.1526, -35.1233, -26.9926
1.93605, -1, 14.1374, 17.7324, 23.5569, 32.3093, -34.9566, -27.0675
1.94399, -1, 14.236, 17.6832, 23.5438, 32.4655, -34.7903, -27.1419
1.95199, -1, 14.3342, 17.6342, 23.5307, 32.6216, -34.6245, -27.2168
1.96005, -1, 14.4319, 17.5855, 23.5175, 32.7774, -34.4592, -27.2906
1.96803, -1, 14.5295, 17.5369, 23.5045, 32.9328, -34.2939, -27.365
1.97601, -1, 14.6266, 17.4884, 23.4915, 33.0877, -34.1291, -27.4392
1.98401, -1, 14.7234, 17.44, 23.4786, 33.2421, -33.9646, -27.5129
1.99137, -1, 14.8199, 17.3918, 23.4657, 33.3962, -33.8005, -27.587
2.00006, -1, 14.9163, 17.3436, 23.4528, 33.55, -33.6368, -27.6603
2.00809, -1, 15.0126, 17.2954, 23.4401, 33.7034, -33.4735, -27.7341
2.01555, -1, 15.1087, 17.2473, 23.4273, 33.8564, -33.3102, -27.8076
2.02443, -1, 15.2046, 17.1993, 23.4145, 34.009, -33.1478, -27.8805
2.03163, -1, 15.3004, 17.1513, 23.4015, 34.161, -32.9856, -27.9539
2.04044, -1, 15.3962, 17.1035, 23.3887, 34.3129, -32.824, -28.0262
2.04757, -1, 15.4441, 17.0796, 23.3823, 34.3887, -32.6628, -28.0988
2.056, -1, 15.5876, 17.0082, 23.3631, 34.6158, -32.5019, -28.1713
2.06303, -1, 15.6354, 16.9845, 23.3567, 34.6912, -32.4216, -28.2071
2.07101, -1, 15.7308, 16.9373, 23.3441, 34.8419, -32.2613, -28.2794
2.08009, -1, 15.8732, 16.8667, 23.3254, 35.0671, -32.0214, -28.387
2.22121, -1, 17.4647, 16.0729, 23.1078, 37.6327, -29.2903, -29.6148
2.22273, -1, 17.4647, 16.0729, 23.1078, 37.6327, -29.2903, -29.6148
2.22393, -1, 17.4647, 16.0729, 23.1078, 37.6327, -29.2903, -29.6148
2.22604, -1, 17.5009, 16.0549, 23.1017, 37.6989, -29.2194, -29.6465
2.22722, -1, 17.5009, 16.0549, 23.1017, 37.6989, -29.2194, -29.6465
2.22913, -1, 17.5009, 16.0379, 23.0957, 37.7628, -29.1513, -29.677
2.23048, -1, 17.5357, 16.0379, 23.0957, 37.7628, -29.1513, -29.677
2.23383, -1, 17.5686, 16.0219, 23.0899, 37.8238, -29.0863, -29.7061
2.23506, -1, 17.5686, 16.0219, 23.0899, 37.8238, -29.0863, -29.7061
2.23624, -1, 17.5686, 16.0219, 23.0899, 37.8238, -29.0863, -29.7061
2.23832, -1, 17.5997, 16.0068, 23.0844, 37.8814, -29.0247, -29.7338
2.23957, -1, 17.5997, 16.0068, 23.0844, 37.8814, -29.0247, -29.7338
2.2415, -1, 17.6288, 15.9927, 23.0793, 37.9353, -28.967, -29.76
2.24299, -1, 17.6288, 15.9927, 23.0793, 37.9353, -28.967, -29.76
2.24419, -1, 17.6288, 15.9927, 23.0793, 37.9353, -28.967, -29.76
2.24639, -1, 17.6561, 15.9793, 23.0746, 37.9848, -28.9137, -29.7841
2.24757, -1, 17.6561, 15.9793, 23.0746, 37.9848, -28.9137, -29.7841
2.24978, -1, 17.6819, 15.9667, 23.0704, 38.0294, -28.8656, -29.8059
2.25102, -1, 17.6819, 15.9667, 23.0704, 38.0294, -28.8656, -29.8059
2.25228, -1, 17.6819, 15.9667, 23.0704, 38.0294, -28.8656, -29.8059
2.25426, -1, 17.7062, 15.9546, 23.0668, 38.0694, -28.8227, -29.8254
2.25561, -1, 17.7062, 15.9546, 23.0668, 38.0694, -28.8227, -29.8254
2.26557, -1, 17.7701, 15.9216, 23.0597, 38.1614, -28.7234, -29.8698
2.27201, -1, 17.7882, 15.9122, 23.0583, 38.1825, -28.7003, -29.8801
2.27997, -1, 17.8191, 15.8964, 23.0566, 38.214, -28.6659, -29.8954
2.28808, -1, 17.8436, 15.8843, 23.0558, 38.2337, -28.6444, -29.9047
2.29599, -1, 17.8624, 15.8756, 23.0555, 38.2449, -28.6321, -29.91
2.30402, -1, 17.8747, 15.87, 23.0553, 38.2506, -28.6258, -29.9126
2.31298, 2, 17.8812, 15.867, 23.0552, 38.2534, -28.6227, -29.9139
2.31996, 2, 17.8842, 15.8655, 23.0552, 38.2547, -28.6213, -29.9145
2.32899, 2, 17.8852, 15.8648, 23.0552, 38.2554, -28.6206, -29.9148
2.33613, 2, 17.8849, 15.8645, 23.0552, 38.2556, -28.6203, -29.9149
2.34299, 2, 17.8842, 15.8644, 23.0552, 38.2558, -28.6202, -29.915
2.35197, 2, 17.8835, 15.8643, 23.0552, 38.2558, -28.6202, -29.915
2.36003, 2, 17.8831, 15.8643, 23.0552, 38.2559, -28.6201, -29.9151
2.36796, 2, 17.8829, 15.8642, 23.0552, 38.2559, -28.6201, -29.9151
2.37596, 2, 17.8829, 15.8641, 23.0552, 38.2559, -28.6201, -29.9151
2.38405, 2, 17.883, 15.8638, 23.0552, 38.2559, -28.6201, -29.9151
2.39196, 2, 17.8832, 15.8635, 23.0552, 38.2559, -28.6201, -29.9151
2.39998, 2, 17.8836, 15.8632, 23.0551, 38.2559, -28.6201, -29.9151
2.40803, 2, 17.884, 15.8629, 23.0551, 38.2559, -28.6201, -29.9151
2.41596, 2, 17.8847, 15.8627, 23.0551, 38.2559, -28.6201, -29.9151
2.42397, 2, 17.8856, 15.8626, 23.0551, 38.2559, -28.6201, -29.915
2.43203, 2, 17.8863, 15.8626, 23.0551, 38.2559, -28.6201, -29.915
2.43996, 2, 17.8868, 15.8626, 23.0552, 38.2559, -28.6202, -29.915
2.44796, 2, 17.8872, 15.8626, 23.0552, 38.2559, -28.6202, -29.915
2.45603, 2, 17.8873, 15.8626, 23.0551, 38.2559, -28.6202, -29.915
2.46398, 2, 17.8875, 15.8627, 23.0552, 38.2559, -28.6202, -29.9151
2.47202, 2, 17.8875, 15.8626, 23.0551, 38.2559, -28.6202, -29.9151
2.48003, 2, 17.8876, 15.8627, 23.0551, 38.256, -28.6202, -29.9151
2.48797, 2, 17.8876, 15.8626, 23.0551, 38.256, -28.6202, -29.9151
2.49597, 2, 17.8875, 15.8626, 23.0551, 38.2559, -28.6203, -29.9151
2.50408, 2, 17.8874, 15.8625, 23.0551, 38.2559, -28.6203, -29.915
2.51207, 2, 17.8872, 15.8624, 23.0551, 38.2559, -28.6202, -29.915
2.5199, 2, 17.8871, 15.8623, 23.0551, 38.2559, -28.6203, -29.915
2.52813, 2, 17.887, 15.8623, 23.0551, 38.2559, -28.6203, -29.915
2.53555, 2, 17.887, 15.8623, 23.0551, 38.2559, -28.6204, -29.9151
2.54409, 2, 17.887, 15.8623, 23.0551, 38.2559, -28.6204, -29.9151
2.55216, 2, 17.8869, 15.8623, 23.0551, 38.2559, -28.6205, -29.915
2.55898, 2, 17.8869, 15.8623, 23.0551, 38.2559, -28.6205, -29.915
2.568, 2, 17.887, 15.8624, 23.0551, 38.2559, -28.6205, -29.915
2.57499, 2, 17.887, 15.8624, 23.0551, 38.2559, -28.6205, -29.915
2.58401, 2, 17.887, 15.8624, 23.0551, 38.2559, -28.6205, -29.915
2.59107, 2, 17.887, 15.8624, 23.0552, 38.2559, -28.6205, -29.915
2.60024, 2, 17.887, 15.8624, 23.0551, 38.2559, -28.6205, -29.915
2.60696, 2, 17.8869, 15.8624, 23.0551, 38.2559, -28.6205, -29.915
2.61654, 2, 17.8869, 15.8623, 23.0552, 38.2559, -28.6205, -29.915
2.6244, 2, 17.8869, 15.8623, 23.0552, 38.2558, -28.6205, -29.915
2.63099, 2, 17.8869, 15.8623, 23.0552, 38.2559, -28.6205, -29.9151
2.64084, 2, 17.8868, 15.8623, 23.0551, 38.2559, -28.6205, -29.915
2.64861, 2, 17.8868, 15.8623, 23.0551, 38.2559, -28.6205, -29.915
2.65651, 2, 17.8868, 15.8623, 23.0551, 38.2559, -28.6205, -29.915
2.66475, 2, 17.8868, 15.8624, 23.0551, 38.2559, -28.6206, -29.915
2.67259, 2, 17.8868, 15.8624, 23.0551, 38.2559, -28.6206, -29.915
2.68052, 2, 17.8868, 15.8624, 23.0551, 38.2558, -28.6206, -29.915
2.6888, 2, 17.8867, 15.8624, 23.0551, 38.2559, -28.6206, -29.915
2.696, 2, 17.8867, 15.8624, 23.0551, 38.2559, -28.6206, -29.915
2.70396, 2, 17.8867, 15.8624, 23.0551, 38.2559, -28.6207, -29.915
2.71217, 2, 17.8867, 15.8624, 23.0551, 38.2559, -28.6207, -29.915
2.72002, 2, 17.8867, 15.8624, 23.0552, 38.2559, -28.6206, -29.915
2.72795, 2, 17.8867, 15.8624, 23.0552, 38.2558, -28.6207, -29.915
2.73595, 2, 17.8867, 15.8624, 23.0552, 38.2558, -28.6207, -29.915
2.74402, 2, 17.8867, 15.8624, 23.0552, 38.2558, -28.6208, -29.915
2.75195, 2, 17.8866, 15.8624, 23.0552, 38.2558, -28.6208, -29.915
2.75995, 2, 17.8866, 15.8624, 23.0552, 38.2558, -28.6208, -29.915
2.768, 2, 17.8866, 15.8624, 23.0552, 38.2558, -28.6208, -29.915
2.77603, 2, 17.8865, 15.8624, 23.0552, 38.2558, -28.6208, -29.915
2.78396, 2, 17.8865, 15.8624, 23.0552, 38.2557, -28.6208, -29.915
2.79201, 2, 17.8865, 15.8624, 23.0551, 38.2557, -28.6208, -29.915
2.79995, 2, 17.8864, 15.8624, 23.0551, 38.2557, -28.6208, -29.915
2.80985, 2, 17.8864, 15.8624, 23.0551, 38.2557, -28.6208, -29.9149
2.81601, 2, 17.8864, 15.8624, 23.0551, 38.2557, -28.6208, -29.9149
2.82396, 2, 17.8863, 15.8624, 23.0551, 38.2557, -28.6208, -29.915
2.83195, 2, 17.8863, 15.8624, 23.0552, 38.2557, -28.6208, -29.915
2.84002, 2, 17.8862, 15.8624, 23.0552, 38.2557, -28.6208, -29.915
2.84798, 2, 17.8862, 15.8624, 23.0551, 38.2557, -28.6208, -29.915
2.85595, 2, 17.8862, 15.8624, 23.0552, 38.2557, -28.6208, -29.915
2.86403, 2, 17.8861, 15.8624, 23.0552, 38.2557, -28.6209, -29.915
2.87194, 2, 17.8861, 15.8624, 23.0552, 38.2557, -28.6209, -29.915
2.87994, 2, 17.886, 15.8624, 23.0552, 38.2557, -28.6209, -29.915
2.88803, 2, 17.886, 15.8624, 23.0552, 38.2556, -28.6209, -29.915
2.89595, 2, 17.8859, 15.8624, 23.0552, 38.2556, -28.6209, -29.915
2.90396, 2, 17.8859, 15.8625, 23.0552, 38.2557, -28.6209, -29.915
2.91201, 2, 17.8858, 15.8625, 23.0552, 38.2557, -28.6209, -29.915
2.91994, 2, 17.8858, 15.8625, 23.0551, 38.2557, -28.621, -29.915
2.92795, 2, 17.8857, 15.8624, 23.0552, 38.2556, -28.621, -29.915
2.93601, 2, 17.8857, 15.8624, 23.0552, 38.2556, -28.621, -29.915
2.94395, 2, 17.8857, 15.8624, 23.0552, 38.2556, -28.6211, -29.915
2.95194, 2, 17.8856, 15.8624, 23.0552, 38.2556, -28.6211, -29.915
2.96001, 2, 17.8855, 15.8624, 23.0552, 38.2556, -28.6211, -29.9149
2.96794, 2, 17.8855, 15.8624, 23.0552, 38.2556, -28.621, -29.9149
2.976, 2, 17.8854, 15.8624, 23.0552, 38.2556, -28.621, -29.9149
2.98402, 2, 17.8854, 15.8625, 23.0552, 38.2556, -28.6211, -29.9149
2.99195, 2, 17.8853, 15.8625, 23.0552, 38.2555, -28.6211, -29.9149
2.99996, 2, 17.8853, 15.8625, 23.0552, 38.2555, -28.6212, -29.9149
3.00806, 2, 17.8852, 15.8625, 23.0552, 38.2555, -28.6212, -29.9149
3.01609, 2, 17.8852, 15.8625, 23.0552, 38.2555, -28.6212, -29.9149
3.02385, 2, 17.8851, 15.8625, 23.0552, 38.2555, -28.6211, -29.9149
3.03211, 2, 17.885, 15.8625, 23.0552, 38.2555, -28.6212, -29.9149
3.04005, 2, 17.885, 15.8625, 23.0552, 38.2555, -28.6212, -29.9149
3.04805, 2, 17.8849, 15.8625, 23.0552, 38.2554, -28.6212, -29.9149
3.05614, 2, 17.8849, 15.8625, 23.0552, 38.2554, -28.6212, -29.9149
3.06295, 2, 17.8848, 15.8625, 23.0552, 38.2554, -28.6212, -29.9149
3.07206, 2, 17.8848, 15.8625, 23.0552, 38.2554, -28.6212, -29.9149
3.07902, 2, 17.8848, 15.8625, 23.0552, 38.2554, -28.6212, -29.9149
3.08801, 2, 17.8847, 15.8625, 23.0552, 38.2554, -28.6212, -29.9149
3.09499, 2, 17.8847, 15.8625, 23.0552, 38.2554, -28.6212, -29.9149
3.10428, 2, 17.8846, 15.8625, 23.0552, 38.2554, -28.6212, -29.9149
3.11094, 2, 17.8845, 15.8625, 23.0552, 38.2554, -28.6212, -29.9149
3.12044, 2, 17.8845, 15.8625, 23.0552, 38.2553, -28.6212, -29.9149
3.12846, 2, 17.8844, 15.8625, 23.0552, 38.2553, -28.6212, -29.9149
3.13641, 2, 17.8844, 15.8626, 23.0552, 38.2553, -28.6212, -29.9149
3.14458, 2, 17.8843, 15.8625, 23.0552, 38.2552, -28.6212, -29.9149
3.15256, 2, 17.8843, 15.8625, 23.0552, 38.2552, -28.6212, -29.9149
3.16049, 2, 17.8843, 15.8625, 23.0552, 38.2552, -28.6212, -29.9149
3.1687, 2, 17.8842, 15.8625, 23.0552, 38.2552, -28.6212, -29.9149
3.17664, 2, 17.8842, 15.8625, 23.0552, 38.2552, -28.6212, -29.9149
3.18451, 2, 17.8841, 15.8625, 23.0552, 38.2552, -28.6212, -29.9148
3.19193, 2, 17.8841, 15.8625, 23.0552, 38.2552, -28.6212, -29.9148
3.19999, 2, 17.8841, 15.8626, 23.0552, 38.2552, -28.6212, -29.9148
3.20793, 2, 17.884, 15.8626, 23.0552, 38.2552, -28.6212, -29.9148
3.21593, 2, 17.884, 15.8626, 23.0552, 38.2551, -28.6212, -29.9149
3.22402, 2, 17.8839, 15.8626, 23.0552, 38.2551, -28.6212, -29.9149
3.23193, 2, 17.8839, 15.8626, 23.0552, 38.2551, -28.6213, -29.9149
3.23992, 2, 17.8839, 15.8626, 23.0552, 38.2551, -28.6212, -29.9149
3.24799, 2, 17.8839, 15.8626, 23.0552, 38.2551, -28.6213, -29.9149
3.25594, 2, 17.8839, 15.8626, 23.0552, 38.255, -28.6213, -29.9148
3.26394, 2, 17.8838, 15.8626, 23.0552, 38.255, -28.6213, -29.9148
3.272, 2, 17.8838, 15.8626, 23.0552, 38.255, -28.6213, -29.9149
3.27993, 2, 17.8838, 15.8626, 23.0552, 38.255, -28.6213, -29.9148
3.28793, 2, 17.8838, 15.8626, 23.0552, 38.255, -28.6213, -29.9148
3.29604, 2, 17.8837, 15.8626, 23.0552, 38.255, -28.6213, -29.9148
3.30394, 2, 17.8837, 15.8626, 23.0552, 38.2549, -28.6214, -29.9148
3.31294, 2, 17.8837, 15.8626, 23.0552, 38.2549, -28.6214, -29.9148
3.31919, 2, 17.8837, 15.8626, 23.0552, 38.2549, -28.6214, -29.9148
3.32792, 2, 17.8837, 15.8626, 23.0552, 38.2549, -28.6214, -29.9148
3.33697, 2, 17.8837, 15.8626, 23.0552, 38.2549, -28.6214, -29.9148
3.34401, 2, 17.8837, 15.8626, 23.0552, 38.2549, -28.6213, -29.9148
3.35196, 2, 17.8837, 15.8626, 23.0552, 38.2549, -28.6214, -29.9148
3.35993, 2, 17.8837, 15.8626, 23.0552, 38.2548, -28.6214, -29.9148
3.36799, 2, 17.8837, 15.8626, 23.0552, 38.2548, -28.6214, -29.9148
3.37589, 2, 17.8837, 15.8626, 23.0552, 38.2547, -28.6214, -29.9148
3.38394, 2, 17.8837, 15.8626, 23.0552, 38.2547, -28.6214, -29.9148
3.39201, 2, 17.8836, 15.8626, 23.0552, 38.2547, -28.6215, -29.9148
3.40002, 4, 17.8837, 15.8626, 23.0552, 38.2547, -28.6215, -29.9148
3.40793, 4, 17.8836, 15.8626, 23.0552, 38.2547, -28.6215, -29.9148
3.41599, 4, 17.8836, 15.8627, 23.0552, 38.2546, -28.6215, -29.9148
3.42394, 4, 17.8836, 15.8627, 23.0552, 38.2547, -28.6215, -29.9148
3.43193, 4, 17.8836, 15.8627, 23.0552, 38.2546, -28.6214, -29.9148
3.43999, 4, 17.8836, 15.8627, 23.0552, 38.2547, -28.6214, -29.9148
3.44793, 4, 17.8836, 15.8627, 23.0552, 38.2546, -28.6214, -29.9148
3.45593, 4, 17.8836, 15.8627, 23.0552, 38.2547, -28.6214, -29.9148
3.46403, 4, 17.8836, 15.8627, 23.0552, 38.2546, -28.6214, -29.9148
3.47193, 4, 17.8836, 15.8627, 23.0552, 38.2546, -28.6214, -29.9148
3.47998, 4, 17.8836, 15.8627, 23.0552, 38.2545, -28.6215, -29.9147
3.488, 4, 17.8835, 15.8627, 23.0552, 38.2545, -28.6215, -29.9147
3.49593, 4, 17.8835, 15.8627, 23.0552, 38.2545, -28.6215, -29.9148
3.5213, 4, 17.8835, 15.8627, 23.0552, 38.2545, -28.6215, -29.9147
3.52539, 4, 17.8835, 15.8627, 23.0552, 38.2545, -28.6215, -29.9147
3.52807, 4, 17.8834, 15.8627, 23.0552, 38.2544, -28.6215, -29.9147
3.52993, 4, 17.8834, 15.8627, 23.0552, 38.2544, -28.6215, -29.9147
3.53625, 4, 17.8834, 15.8627, 23.0552, 38.2544, -28.6215, -29.9147
3.5499, 4, 17.8828, 15.8627, 23.0552, 38.2543, -28.6215, -29.9147
3.55207, 4, 17.8818, 15.8627, 23.0553, 38.2542, -28.6215, -29.9146
3.56053, 4, 17.8775, 15.8627, 23.0557, 38.2528, -28.6218, -29.914
3.56793, 4, 17.8693, 15.8624, 23.0575, 38.2458, -28.6234, -29.91
3.57603, 4, 17.856, 15.8615, 23.0627, 38.2272, -28.6291, -29.8963
3.58296, 4, 17.8469, 15.8605, 23.0676, 38.2111, -28.6346, -29.8828
3.59098, 4, 17.8219, 15.8569, 23.0842, 38.1575, -28.653, -29.8373
3.60015, 5, 17.7626, 15.8459, 23.1344, 37.9949, -28.709, -29.697
3.60694, 5, 17.7359, 15.8401, 23.1602, 37.9112, -28.7388, -29.6245
3.61497, 5, 17.6708, 15.8249, 23.2292, 37.6876, -28.8191, -29.4303
3.62434, 5, 17.5394, 15.7914, 23.3831, 37.1894, -29.0029, -28.9965
3.63094, 5, 17.4854, 15.7773, 23.4493, 36.9754, -29.0833, -28.8093
3.64038, 5, 17.2897, 15.7258, 23.6956, 36.1808, -29.3897, -28.1149
3.6555, 5, 17.0386, 15.6617, 24.0136, 35.1604, -29.7992, -27.2233
3.6575, 5, 16.9422, 15.6379, 24.1357, 34.7726, -29.9596, -26.8845
3.66452, 5, 16.7299, 15.5874, 24.4024, 33.9287, -30.3171, -26.1497
3.67251, 5, 16.614, 15.5341, 24.6973, 33.0013, -30.7245, -25.3474
3.6813, 5, 16.3613, 15.5069, 24.8552, 32.509, -31.1816, -24.4827
3.68691, 5, 16.0807, 15.4519, 25.1895, 31.4735, -31.4295, -24.0283
3.69702, 5, 15.6083, 15.3717, 25.7342, 29.8049, -32.2511, -22.5966
3.70393, 5, 15.437, 15.3466, 25.9262, 29.2227, -32.5506, -22.0987
3.71096, 5, 15.0743, 15.2998, 26.3239, 28.0274, -33.1887, -21.08
3.71992, 5, 14.6843, 15.2591, 26.738, 26.7943, -33.8799, -20.0365
3.72794, 5, 14.2674, 15.2263, 27.1658, 25.5318, -34.6246, -18.974
3.73597, 5, 13.8252, 15.2026, 27.6055, 24.2489, -35.4226, -17.9005
3.74394, 5, 13.3597, 15.1893, 28.0538, 22.9499, -36.2722, -16.8233
3.75192, 5, 12.8735, 15.1876, 28.508, 21.6435, -37.1731, -15.7499
3.75996, 5, 12.3681, 15.1987, 28.9653, 20.337, -38.1256, -14.6839
3.76792, 5, 11.8442, 15.2241, 29.422, 19.0365, -39.124, -13.634
3.77592, 5, 11.3027, 15.2649, 29.8744, 17.7543, -40.16, -12.6076
3.784, 5, 10.7467, 15.322, 30.3178, 16.4977, -41.2298, -11.6151
3.79192, 5, 10.1824, 15.3962, 30.7472, 15.2745, -42.3251, -10.6581
3.79992, 5, 9.61222, 15.4882, 31.1593, 14.0929, -43.4358, -9.74326
3.80799, 5, 9.03582, 15.5981, 31.5524, 12.9551, -44.5563, -8.87419
3.81752, 5, 8.45202, 15.726, 31.924, 11.8637, -45.684, -8.05219
3.82393, 5, 7.86171, 15.8713, 32.274, 10.8195, -46.8127, -7.27637
3.83198, 5, 7.26698, 16.0335, 32.6023, 9.81709, -47.9414, -6.54144
3.83991, 5, 6.67153, 16.212, 32.9103, 8.85428, -49.073, -5.84746
3.84792, 5, 6.0791, 16.4057, 33.1972, 7.92859, -50.2031, -5.19009
3.85602, 5, 5.49233, 16.6136, 33.4642, 7.03797, -51.332, -4.56628
3.86293, 5, 4.91108, 16.8349, 33.7113, 6.17821, -52.4625, -3.97476
3.87192, 5, 4.33531, 17.0682, 33.9378, 5.35065, -53.5885, -3.41463
3.87998, 5, 3.7664, 17.3114, 34.1444, 4.55497, -54.704, -2.8845
3.88792, 5, 3.20548, 17.5651, 34.3304, 3.79305, -55.8074, -2.38525
3.89594, 5, 2.6522, 17.8283, 34.4952, 3.06451, -56.8899, -1.91835
3.90404, 5, 2.10138, 18.0997, 34.6391, 2.3689, -57.9439, -1.48926
3.91211, 6, 1.54654, 18.3802, 34.7622, 1.70172, -58.9709, -1.10333
3.91981, 6, 0.985718, 18.6701, 34.8652, 1.05395, -59.9707, -0.767662
3.92798, 6, 0.420763, 18.9707, 34.9497, 0.416867, -60.9436, -0.487719
3.93592, 6, -0.146657, 19.2831, 35.0172, -0.220151, -61.901, -0.264725
3.94392, 6, -0.719259, 19.6062, 35.0689, -0.864806, -62.8549, -0.0960888
3.95198, 6, -1.30081, 19.9409, 35.105, -1.52157, -63.8112, 0.0251903
3.95994, 6, -1.89279, 20.2883, 35.1248, -2.19588, -64.7783, 0.105584
3.96791, 6, -2.49512, 20.6517, 35.1272, -2.88623, -65.7654, 0.156497
3.97598, 6, -3.10868, 21.0325, 35.1109, -3.59116, -66.7755, 0.185677
3.98406, 6, -3.73759, 21.4331, 35.0743, -4.31044, -67.8069, 0.198533
3.99166, 6, -4.38558, 21.8531, 35.0163, -5.04026, -68.8605, 0.197747
4, 6, -5.04951, 22.2919, 34.9358, -5.77962, -69.9366, 0.18261
4.00795, 6, -5.72344, 22.749, 34.8317, -6.52604, -71.0264, 0.154812
4.01598, 6, -6.40134, 23.2223, 34.704, -7.27606, -72.1236, 0.115159
4.0241, 6, -7.07912, 23.7096, 34.5529, -8.02473, -73.2255, 0.0633421
4.03201, 6, -7.75457, 24.2092, 34.3789, -8.76651, -74.3201, 0.000233875
4.04003, 6, -8.42335, 24.7178, 34.183, -9.49693, -75.3975, -0.0715844
4.04809, 6, -9.08152, 25.2319, 33.9658, -10.2114, -76.4533, -0.152321
4.05603, 6, -9.72679, 25.7488, 33.7298, -10.9058, -77.4799, -0.239483
4.06394, 6, -10.3586, 26.2644, 33.4789, -11.5746, -78.4683, -0.331963
4.07207, 6, -10.9759, 26.7742, 33.2141, -12.2182, -79.418, -0.428376
4.07996, 6, -11.5745, 27.2764, 32.938, -12.8364, -80.3293, -0.52737
4.08701, 6, -11.8648, 27.5238, 32.7967, -13.1349, -80.7691, -0.577429
4.0961, 6, -12.695, 28.249, 32.3634, -13.99, -82.0217, -0.728847
4.10291, 6, -12.9589, 28.4845, 32.2173, -14.2615, -82.4187, -0.779083
4.11229, 6, -13.7182, 29.1685, 31.7758, -15.0348, -83.5478, -0.92888
4.11891, 6, -13.9605, 29.388, 31.6283, -15.2797, -83.9038, -0.977736
4.12895, 6, -14.6479, 30.0195, 31.1873, -15.9758, -84.9115, -1.12178
4.13651, 6, -15.0699, 30.4184, 30.8983, -16.4073, -85.5335, -1.21384
4.14545, 6, -15.4645, 30.7985, 30.6162, -16.8127, -86.1165, -1.30276
4.15096, 6, -15.6528, 30.9813, 30.4781, -17.0058, -86.3934, -1.34533
4.16056, 6, -16.1841, 31.4989, 30.0785, -17.5464, -87.1661, -1.46752
4.16847, 6, -16.5099, 31.8183, 29.8248, -17.8747, -87.6335, -1.54258
4.17657, 6, -16.8119, 32.1158, 29.5843, -18.1771, -88.0627, -1.61321
4.18479, 6, -16.9537, 32.3915, 29.359, -18.4536, -88.4541, -1.67815
4.1925, 6, -17.218, 32.521, 29.2521, -18.5823, -88.6358, -1.73707
4.19994, 6, -17.4576, 32.762, 29.0509, -18.8201, -88.9716, -1.76482
4.20799, 6, -17.6726, 32.9794, 28.8681, -19.0328, -89.2706, -1.81675
4.21594, 6, -17.8628, 33.1743, 28.7031, -19.2202, -89.5342, -1.86267
4.22391, 6, -18.0294, 33.3473, 28.5558, -19.3831, -89.7627, -1.90229
4.23197, 6, -18.1736, 33.4974, 28.4278, -19.5218, -89.9572, -1.9362
4.23992, 6, -18.2968, 33.6262, 28.319, -19.6374, -90.1193, -1.96505
4.24791, 6, -18.4006, 33.7347, 28.2283, -19.731, -90.2506, -1.98899
4.25596, 6, -18.4872, 33.8243, 28.155, -19.8042, -90.3542, -2.00823
4.2639, 6, -18.5586, 33.8969, 28.0973, -19.8602, -90.4326, -2.02307
4.2719, 6, -18.6162, 33.955, 28.0528, -19.9002, -90.49, -2.03394
4.27996, 6, -18.6613, 34.0001, 28.0199, -19.928, -90.5293, -2.04143
4.28791, 6, -18.6948, 34.0339, 27.9965, -19.9463, -90.5551, -2.04659
4.29593, 6, -18.7199, 34.059, 27.9805, -19.9577, -90.5708, -2.04973
4.30397, 6, -18.739, 34.0776, 27.9697, -19.964, -90.5796, -2.05167
4.3119, 6, -18.7526, 34.0908, 27.9627, -19.967, -90.584, -2.05275
4.32091, 7, -18.7614, 34.0996, 27.9581, -19.9685, -90.5861, -2.05333
4.32797, 7, -18.7663, 34.1055, 27.9549, -19.9692, -90.5871, -2.0537
4.33697, 7, -18.7691, 34.1097, 27.9526, -19.9695, -90.5876, -2.05389
4.3439, 7, -18.7707, 34.113, 27.9507, -19.9696, -90.5878, -2.05409
4.35196, 7, -18.7713, 34.1157, 27.9493, -19.9697, -90.5878, -2.05421
4.35994, 7, -18.7718, 34.1181, 27.9482, -19.9697, -90.5879, -2.05428
4.3679, 7, -18.7723, 34.1204, 27.9474, -19.9697, -90.5879, -2.05435
4.37597, 7, -18.7728, 34.1224, 27.9467, -19.9697, -90.5878, -2.0544
4.3839, 7, -18.7732, 34.1243, 27.9461, -19.9697, -90.5878, -2.05445
4.3919, 7, -18.7734, 34.1259, 27.9457, -19.9697, -90.5878, -2.05448
4.40001, 7, -18.7735, 34.1273, 27.9452, -19.9696, -90.5878, -2.05452
4.40791, 7, -18.7735, 34.1285, 27.945, -19.9696, -90.5877, -2.05459
4.4159, 7, -18.7735, 34.1294, 27.9447, -19.9696, -90.5876, -2.05458
4.42393, 7, -18.7735, 34.1299, 27.9445, -19.9696, -90.5874, -2.05462
4.43191, 7, -18.7735, 34.1303, 27.9443, -19.9696, -90.5873, -2.05462
4.43992, 7, -18.7735, 34.1304, 27.9441, -19.9695, -90.5871, -2.05469
