hehonglu123/ABB_Primitive_Study/realrobot/movel_30_ori/curve_exe_v50_z20.csv
timestamp, cmd_num, J1, J2, J3, J4, J5, J6
0.001574, -1, -18.7725, 34.1304, 27.9455, -19.9674, -90.5846, -2.05577
0.004114, -1, -18.7725, 34.1304, 27.9455, -19.9674, -90.5845, -2.05573
0.027381, -1, -18.7725, 34.1304, 27.9455, -19.9674, -90.5845, -2.05577
0.029475, -1, -18.7726, 34.1304, 27.9455, -19.9674, -90.5845, -2.05578
0.03119, -1, -18.7726, 34.1304, 27.9455, -19.9674, -90.5845, -2.05578
0.033255, -1, -18.7725, 34.1304, 27.9455, -19.9674, -90.5845, -2.05576
0.039448, -1, -18.7725, 34.1304, 27.9455, -19.9674, -90.5845, -2.05578
0.047492, -1, -18.7725, 34.1304, 27.9455, -19.9674, -90.5845, -2.05579
0.055444, -1, -18.772, 34.1303, 27.9455, -19.9673, -90.5844, -2.05577
0.063447, -1, -18.7697, 34.1298, 27.9455, -19.9673, -90.5844, -2.05577
0.071557, -1, -18.7644, 34.1278, 27.9456, -19.967, -90.5839, -2.05588
0.079467, -1, -18.7555, 34.1238, 27.9457, -19.9647, -90.5813, -2.05595
0.087491, -1, -18.7418, 34.117, 27.9458, -19.9576, -90.5743, -2.05646
0.095446, -1, -18.7208, 34.1064, 27.9458, -19.9427, -90.5592, -2.06035
0.103447, -1, -18.6905, 34.091, 27.9454, -19.916, -90.5317, -2.07131
0.11152, -1, -18.6497, 34.0704, 27.9439, -19.8723, -90.4859, -2.09078
0.119445, -1, -18.5967, 34.0436, 27.9407, -19.8061, -90.4173, -2.12079
0.127447, -1, -18.5302, 34.01, 27.935, -19.7141, -90.3205, -2.16392
0.137835, -1, -18.4496, 33.9693, 27.9263, -19.5919, -90.1922, -2.25685
0.14347, -1, -18.3551, 33.9218, 27.9141, -19.4382, -90.0301, -2.295
0.152435, -1, -18.2469, 33.8675, 27.8984, -19.2531, -89.8343, -2.38374
0.159503, -1, -18.125, 33.8064, 27.8799, -19.0386, -89.6078, -2.48572
0.167444, -1, -17.9897, 33.7386, 27.8587, -18.7994, -89.354, -2.59994
0.175447, -1, -17.8426, 33.665, 27.8357, -18.5404, -89.0787, -2.72391
0.183541, -1, -17.6848, 33.586, 27.8116, -18.2665, -88.7875, -2.85491
0.191477, -1, -17.5174, 33.5022, 27.7869, -17.9826, -88.486, -2.991
0.199568, -1, -17.3421, 33.4146, 27.762, -17.6927, -88.1776, -3.13027
0.20754, -1, -17.1612, 33.3242, 27.7368, -17.3989, -87.8651, -3.2716
0.215441, -1, -16.9766, 33.232, 27.7117, -17.1028, -87.5503, -3.41397
0.223443, -1, -16.7894, 33.139, 27.6866, -16.8056, -87.234, -3.55678
0.231518, -1, -16.6004, 33.0454, 27.6616, -16.507, -86.9164, -3.70005
0.239445, -1, -16.4106, 32.9517, 27.6365, -16.208, -86.598, -3.84333
0.247441, -1, -16.2205, 32.8579, 27.6113, -15.9081, -86.2787, -3.98709
0.255505, -1, -16.0306, 32.7642, 27.5863, -15.6073, -85.9589, -4.13109
0.263445, -1, -15.841, 32.6705, 27.5612, -15.3062, -85.6385, -4.27536
0.271452, -1, -15.6522, 32.5768, 27.5361, -15.0047, -85.3176, -4.42012
0.279508, -1, -15.4636, 32.483, 27.5108, -14.7026, -84.9964, -4.56495
0.287438, -1, -15.2755, 32.3889, 27.4855, -14.4004, -84.6747, -4.70965
0.295443, -1, -15.0877, 32.2946, 27.4602, -14.0976, -84.3525, -4.85482
0.303511, -1, -14.9, 32.1999, 27.4349, -13.7945, -84.0303, -4.99985
0.311457, -1, -14.7118, 32.1048, 27.4093, -13.4912, -83.7078, -5.14523
0.319493, -1, -14.5225, 32.0095, 27.3837, -13.1878, -83.3848, -5.29069
0.32746, -1, -14.3322, 31.9141, 27.3581, -12.8842, -83.0616, -5.43622
0.335481, -1, -14.1408, 31.8186, 27.3326, -12.5806, -82.7381, -5.58218
0.34359, -1, -13.9488, 31.723, 27.3069, -12.2765, -82.4145, -5.72803
0.351574, -1, -13.7563, 31.6275, 27.2812, -11.9721, -82.0906, -5.87368
0.359557, -1, -13.5632, 31.532, 27.2556, -11.6679, -81.7664, -6.01948
0.367626, -1, -13.3694, 31.4366, 27.23, -11.3636, -81.4426, -6.16497
0.37558, -1, -13.1757, 31.3414, 27.2044, -11.0592, -81.1186, -6.3108
0.383615, -1, -12.9826, 31.2462, 27.1788, -10.755, -80.7946, -6.45655
0.391659, -1, -12.7903, 31.1512, 27.1532, -10.4504, -80.4711, -6.60238
0.399478, -1, -12.5983, 31.0561, 27.1277, -10.1461, -80.1477, -6.74831
0.407478, -1, -12.4074, 30.961, 27.1022, -9.84209, -79.8243, -6.89406
0.41557, -1, -12.2173, 30.8658, 27.0765, -9.53806, -79.501, -7.03963
0.42356, -1, -12.028, 30.7706, 27.0508, -9.23422, -79.1775, -7.1853
0.432412, -1, -11.8392, 30.6752, 27.0253, -8.93067, -78.8542, -7.33056
0.439773, -1, -11.6504, 30.5798, 26.9998, -8.62709, -78.5309, -7.476
0.447751, -1, -11.4613, 30.4846, 26.9742, -8.32403, -78.2083, -7.62119
0.456753, -1, -11.2719, 30.3896, 26.9486, -8.02162, -77.8864, -7.76648
0.46399, -1, -11.0822, 30.2947, 26.9231, -7.7194, -77.5647, -7.91133
0.471965, -1, -10.892, 30.2002, 26.8977, -7.41789, -77.2438, -8.05586
0.480763, -1, -10.7014, 30.1058, 26.8724, -7.11667, -76.9234, -8.19992
0.488021, -1, -10.5109, 30.0117, 26.847, -6.81577, -76.6034, -8.34371
0.495995, -1, -10.3199, 29.9177, 26.8218, -6.51564, -76.2838, -8.48734
0.504756, -1, -10.2245, 29.8707, 26.7966, -6.21609, -75.9647, -8.63059
0.512096, -1, -10.0345, 29.7771, 26.7841, -5.91694, -75.6461, -8.77368
0.519469, -1, -9.84503, 29.6836, 26.7591, -5.76761, -75.487, -8.84531
0.527451, -1, -9.65657, 29.5903, 26.7339, -5.46937, -75.1697, -8.98811
0.535499, -1, -9.46894, 29.4971, 26.7089, -5.17156, -74.8531, -9.13044
0.543459, -1, -9.28223, 29.404, 26.6838, -4.87467, -74.5372, -9.2724
0.551438, -1, -9.09664, 29.311, 26.6589, -4.57876, -74.2222, -9.41396
0.559437, -1, -8.91181, 29.2181, 26.634, -4.28318, -73.9077, -9.55525
0.567431, -1, -8.72782, 29.1253, 26.6091, -3.98875, -73.5943, -9.69623
0.57548, -1, -8.54432, 29.033, 26.5843, -3.69502, -73.2816, -9.8368
0.583437, -1, -8.36097, 28.9409, 26.5596, -3.40194, -72.9699, -9.9772
0.59143, -1, -8.17791, 28.8493, 26.535, -3.11001, -72.6593, -10.1172
0.601741, -1, -7.90331, 28.7123, 26.4981, -2.6736, -72.1946, -10.326
0.607455, -1, -7.81177, 28.6669, 26.4859, -2.52872, -72.0403, -10.3952
0.616981, -1, -7.53753, 28.5311, 26.4495, -2.09519, -71.5784, -10.6026
0.623431, -1, -7.44619, 28.4859, 26.4374, -1.95095, -71.4249, -10.6715
0.631442, -1, -7.26379, 28.3959, 26.4132, -1.66335, -71.119, -10.8091
0.641207, -1, -7.08197, 28.2614, 26.3771, -1.23396, -70.6618, -11.0145
0.647443, -1, -6.90089, 28.2167, 26.3651, -1.09137, -70.51, -11.0829
0.656419, -1, -6.72096, 28.1276, 26.3412, -0.806982, -70.2073, -11.2192
0.66349, -1, -6.542, 28.0387, 26.3174, -0.523735, -69.906, -11.3549
0.671425, -1, -6.36415, 27.95, 26.2935, -0.241378, -69.6058, -11.4901
0.679438, -1, -6.18773, 27.8617, 26.2698, 0.0401403, -69.3065, -11.6248
0.687534, -1, -6.0121, 27.7737, 26.2462, 0.320473, -69.0081, -11.7589
0.695444, -1, -5.83747, 27.6859, 26.2227, 0.599549, -68.711, -11.8926
0.703459, -1, -5.66376, 27.5985, 26.1993, 0.877695, -68.4148, -12.0258
0.711614, -1, -5.49046, 27.5115, 26.1759, 1.15466, -68.1196, -12.1587
0.719427, -1, -5.31754, 27.425, 26.1526, 1.43042, -67.8258, -12.2909
0.727458, -1, -5.14489, 27.3388, 26.1294, 1.70539, -67.5334, -12.4225
0.735488, -1, -4.97248, 27.2529, 26.1065, 1.97909, -67.2422, -12.5535
0.743421, -1, -4.80047, 27.1676, 26.0836, 2.25134, -66.9523, -12.6836
0.751438, -1, -4.62893, 27.0826, 26.0607, 2.52271, -66.6637, -12.8133
0.759487, -1, -4.45788, 26.9979, 26.038, 2.79264, -66.3765, -12.9425
0.767441, -1, -4.28711, 26.9136, 26.0153, 3.06127, -66.0903, -13.071
0.776003, -1, -4.11698, 26.8296, 25.9928, 3.32903, -65.8054, -13.199
0.783425, -1, -3.94778, 26.7459, 25.9704, 3.59574, -65.5216, -13.327
0.791426, -1, -3.7799, 26.6626, 25.948, 3.86093, -65.2391, -13.454
0.800235, -1, -3.61323, 26.5796, 25.9258, 4.12525, -64.9576, -13.5803
0.807441, -1, -3.44767, 26.4969, 25.9036, 4.38826, -64.6776, -13.7062
0.815423, -1, -3.28318, 26.4146, 25.8815, 4.64996, -64.399, -13.8314
0.824214, -1, -3.11968, 26.3326, 25.8594, 4.91077, -64.1215, -13.9559
0.831431, -1, -2.95737, 26.251, 25.8375, 5.17048, -63.8453, -14.08
0.839466, -1, -2.79592, 26.1697, 25.8158, 5.42899, -63.5703, -14.2036
0.848306, -1, -2.63524, 26.0889, 25.7942, 5.68612, -63.2966, -14.3265
0.855546, -1, -2.47488, 26.0086, 25.7727, 5.94207, -63.0241, -14.4494
0.863546, -1, -2.31482, 25.9287, 25.7512, 6.19677, -62.753, -14.5713
0.872332, -1, -2.1551, 25.8491, 25.7298, 6.45023, -62.4831, -14.6926
0.879568, -1, -1.99574, 25.7699, 25.7086, 6.70268, -62.2143, -14.8135
0.887499, -1, -1.83691, 25.6912, 25.6874, 6.95412, -61.9467, -14.9336
0.896308, -1, -1.67869, 25.6128, 25.6665, 7.20423, -61.6803, -15.0531
0.90346, -1, -1.52071, 25.5346, 25.6455, 7.45317, -61.4151, -15.1722
0.911467, -1, -1.36313, 25.4568, 25.6246, 7.70115, -61.1509, -15.2909
0.92036, -1, -1.20617, 25.3794, 25.6039, 7.9479, -60.8878, -15.4089
0.927806, -1, -1.05018, 25.3023, 25.5832, 8.19346, -60.6262, -15.5265
0.935679, -1, -0.895281, 25.2255, 25.5627, 8.4381, -60.3657, -15.6437
0.944496, -1, -0.741727, 25.149, 25.5423, 8.68189, -60.1066, -15.7602
0.951781, -1, -0.589176, 25.0729, 25.5218, 8.9241, -59.8486, -15.8763
0.96006, -1, -0.437709, 24.9972, 25.5013, 9.1654, -59.5921, -15.9916
0.967897, -1, -0.287373, 24.9218, 25.4812, 9.40558, -59.3369, -16.1067
0.976531, -1, -0.138047, 24.8468, 25.4611, 9.64462, -59.0828, -16.2211
0.984017, -1, 0.0102864, 24.7721, 25.4412, 9.88235, -58.8297, -16.3352
0.994557, -1, 0.157884, 24.6978, 25.4214, 10.1192, -58.5777, -16.4489
1, -1, 0.231546, 24.6607, 25.4014, 10.3552, -58.3265, -16.5617
1.00802, -1, 0.378815, 24.5869, 25.3816, 10.5898, -58.0764, -16.6746
1.01681, -1, 0.525931, 24.5134, 25.3717, 10.7067, -57.8272, -16.7866
1.02428, -1, 0.672895, 24.4403, 25.3521, 10.9398, -57.7032, -16.8424
1.03144, -1, 0.819559, 24.3673, 25.3326, 11.1719, -57.4557, -16.9533
1.03948, -1, 0.965812, 24.2947, 25.3132, 11.4028, -57.2095, -17.0639
1.04746, -1, 1.1114, 24.2225, 25.2938, 11.6327, -56.9646, -17.1738
1.05541, -1, 1.25651, 24.1506, 25.2745, 11.8617, -56.721, -17.2831
1.06346, -1, 1.40131, 24.079, 25.2554, 12.0898, -56.4783, -17.3921
1.07141, -1, 1.54545, 24.0078, 25.2362, 12.3168, -56.2372, -17.5005
1.07941, -1, 1.68903, 23.9368, 25.2174, 12.5425, -55.9968, -17.6086
1.08974, -1, 1.9026, 23.8311, 25.189, 12.8796, -55.6386, -17.77
1.09541, -1, 1.97322, 23.7961, 25.1796, 12.9915, -55.5196, -17.8235
1.10341, -1, 2.11381, 23.7261, 25.1609, 13.2141, -55.2825, -17.9303
1.11372, -1, 2.32293, 23.6219, 25.133, 13.5464, -54.9286, -18.0892
1.11938, -1, 2.39215, 23.5872, 25.1237, 13.6568, -54.8111, -18.1421
1.129, -1, 2.5985, 23.4838, 25.0962, 13.9865, -54.4598, -18.2995
1.13785, -1, 2.66677, 23.4494, 25.0778, 14.2051, -54.2269, -18.4039
1.14341, -1, 2.80257, 23.381, 25.0686, 14.3139, -54.1109, -18.456
1.15244, -1, 2.93777, 23.3128, 25.0504, 14.5311, -53.8797, -18.5599
1.15941, -1, 3.07267, 23.2448, 25.0322, 14.7474, -53.6496, -18.6635
1.16743, -1, 3.20746, 23.1772, 25.014, 14.9624, -53.4204, -18.7664
1.17547, -1, 3.34229, 23.1099, 24.9961, 15.1768, -53.1923, -18.8693
1.18341, -1, 3.47693, 23.0429, 24.9783, 15.3904, -52.965, -18.9716
1.1915, -1, 3.61127, 22.9762, 24.9603, 15.6032, -52.7389, -19.0734
1.19949, -1, 3.7453, 22.9098, 24.9426, 15.815, -52.5134, -19.1745
1.20745, -1, 3.87885, 22.8436, 24.925, 16.0257, -52.2893, -19.2755
1.21544, -1, 4.01204, 22.7778, 24.9072, 16.2356, -52.0659, -19.3758
1.22347, -1, 4.14479, 22.7122, 24.8897, 16.4447, -51.8433, -19.4757
1.23141, -1, 4.2771, 22.647, 24.8723, 16.6528, -51.6216, -19.5753
1.23941, -1, 4.40882, 22.5819, 24.8548, 16.8601, -51.4007, -19.6744
1.24749, -1, 4.53968, 22.5171, 24.8375, 17.0666, -51.1808, -19.7733
1.2554, -1, 4.66992, 22.4524, 24.8203, 17.2726, -50.9617, -19.8717
1.26351, -1, 4.79938, 22.388, 24.803, 17.4774, -50.7434, -19.9699
1.27147, -1, 4.92811, 22.3239, 24.7858, 17.6815, -50.526, -20.0678
1.27941, -1, 5.05608, 22.2599, 24.7689, 17.8847, -50.3095, -20.1653
1.28743, -1, 5.1832, 22.1962, 24.7519, 18.0873, -50.0938, -20.262
1.29547, -1, 5.30962, 22.1328, 24.7348, 18.289, -49.879, -20.3587
1.30341, -1, 5.43508, 22.0697, 24.7179, 18.49, -49.665, -20.4547
1.31141, -1, 5.55969, 22.0068, 24.7011, 18.6901, -49.452, -20.5504
1.31948, -1, 5.68384, 21.9442, 24.6842, 18.8896, -49.24, -20.6457
1.32746, -1, 5.8077, 21.8818, 24.6676, 19.0885, -49.0286, -20.7409
1.33543, -1, 5.93148, 21.8198, 24.6511, 19.2863, -48.8184, -20.8354
1.34351, -1, 6.05521, 21.7579, 24.6345, 19.4834, -48.6089, -20.93
1.35149, -1, 6.17876, 21.6962, 24.618, 19.6798, -48.4001, -21.0239
1.3596, -1, 6.30217, 21.6348, 24.6016, 19.8755, -48.1917, -21.118
1.36754, -1, 6.42538, 21.5735, 24.5851, 20.0703, -47.9843, -21.2112
1.37553, -1, 6.54841, 21.5125, 24.5687, 20.2643, -47.7778, -21.3045
1.38362, -1, 6.67104, 21.4517, 24.5525, 20.4577, -47.5717, -21.3966
1.39141, -1, 6.79334, 21.3911, 24.5363, 20.6505, -47.3662, -21.4892
1.39942, -1, 6.91515, 21.3308, 24.5201, 20.8426, -47.1616, -21.5807
1.40746, -1, 7.03646, 21.2709, 24.5039, 21.0338, -46.9576, -21.6724
1.41544, -1, 7.15716, 21.2112, 24.4878, 21.2243, -46.7546, -21.7631
1.42355, -1, 7.27726, 21.1516, 24.4719, 21.4143, -46.5522, -21.8543
1.43159, -1, 7.39678, 21.0924, 24.456, 21.6037, -46.3508, -21.9444
1.43963, -1, 7.51566, 21.0333, 24.4403, 21.7922, -46.15, -22.0349
1.44775, -1, 7.63408, 20.9744, 24.4246, 21.98, -45.9501, -22.1246
1.45583, -1, 7.75207, 20.9157, 24.4088, 22.1672, -45.751, -22.2146
1.46447, -1, 7.86954, 20.8572, 24.393, 22.354, -45.5524, -22.3038
1.4719, -1, 7.98645, 20.7987, 24.3774, 22.5401, -45.3549, -22.393
1.48059, -1, 8.10271, 20.7404, 24.3617, 22.7254, -45.1581, -22.4813
1.48795, -1, 8.2185, 20.6823, 24.3461, 22.9101, -44.9619, -22.5699
1.49651, -1, 8.3339, 20.6244, 24.3308, 23.094, -44.7662, -22.6577
1.504, -1, 8.44894, 20.5668, 24.3155, 23.2775, -44.571, -22.7454
1.51194, -1, 8.5063, 20.538, 24.3077, 23.3689, -44.3762, -22.8325
1.5204, -1, 8.6776, 20.4523, 24.2846, 23.6422, -44.1823, -22.9196
1.52746, -1, 8.73445, 20.4238, 24.277, 23.733, -44.0854, -22.9632
1.53542, -1, 8.84796, 20.367, 24.2618, 23.9141, -43.8923, -23.0496
1.54346, -1, 8.96117, 20.3104, 24.2466, 24.0949, -43.6998, -23.1363
1.55144, -1, 9.07422, 20.2539, 24.2315, 24.275, -43.5082, -23.2223
1.55945, -1, 9.18737, 20.1976, 24.2166, 24.4544, -43.3173, -23.3086
1.56741, -1, 9.30036, 20.1415, 24.2016, 24.6331, -43.1268, -23.3942
1.57541, -1, 9.41319, 20.0855, 24.1865, 24.8112, -42.937, -23.4798
1.58348, -1, 9.52568, 20.0296, 24.1715, 24.9891, -42.748, -23.5648
1.59139, -1, 9.6377, 19.974, 24.1566, 25.1662, -42.5593, -23.6495
1.60094, -1, 9.80493, 19.8907, 24.1342, 25.4307, -42.2776, -23.776
1.60745, -1, 9.86054, 19.8631, 24.1268, 25.5186, -42.184, -23.8181
1.61697, -1, 10.0269, 19.7805, 24.105, 25.7818, -41.9043, -23.9436
1.62498, -1, 10.1373, 19.7257, 24.0903, 25.9567, -41.7185, -24.0271
1.63146, -1, 10.1923, 19.6984, 24.083, 26.0439, -41.6258, -24.0688
1.64126, -1, 10.3023, 19.6166, 24.0609, 26.3044, -41.3486, -24.193
1.64758, -1, 10.4115, 19.5895, 24.0537, 26.391, -41.2563, -24.2347
1.65543, -1, 10.5203, 19.5353, 24.0391, 26.5638, -41.0724, -24.3172
1.66438, -1, 10.6287, 19.4813, 24.0246, 26.7361, -40.8889, -24.3998
1.67216, -1, 10.7368, 19.4275, 24.0102, 26.9078, -40.7061, -24.4821
1.67939, -1, 10.8445, 19.3737, 23.996, 27.079, -40.5237, -24.5641
1.6874, -1, 10.9518, 19.3201, 23.9818, 27.2495, -40.3418, -24.6461
1.69627, -1, 11.0587, 19.2666, 23.9674, 27.4198, -40.1607, -24.7272
1.70455, -1, 11.1653, 19.2133, 23.953, 27.5896, -39.9799, -24.8088
1.71141, -1, 11.2715, 19.1601, 23.9388, 27.7588, -39.7999, -24.8894
1.72021, -1, 11.3773, 19.1071, 23.9246, 27.9274, -39.6202, -24.9703
1.72739, -1, 11.4826, 19.0544, 23.9105, 28.0955, -39.4411, -25.0508
1.73539, -1, 11.5876, 19.0019, 23.8964, 28.2632, -39.2626, -25.131
1.74348, -1, 11.6925, 18.9494, 23.8826, 28.4305, -39.0844, -25.2112
1.75139, -1, 11.7972, 18.8971, 23.8686, 28.5974, -38.9071, -25.2908
1.75939, -1, 11.9018, 18.8451, 23.8546, 28.7636, -38.7301, -25.3708
1.76913, -1, 12.0062, 18.7931, 23.8405, 28.9293, -38.5534, -25.4499
1.77539, -1, 12.1104, 18.7412, 23.8267, 29.0946, -38.3775, -25.5297
1.78351, -1, 12.2145, 18.6894, 23.8128, 29.2597, -38.2022, -25.6086
1.79139, -1, 12.3184, 18.6378, 23.799, 29.4243, -38.0276, -25.6877
1.79939, -1, 12.4219, 18.5863, 23.7853, 29.5883, -37.8532, -25.7664
1.80747, -1, 12.5253, 18.5348, 23.7717, 29.7518, -37.6793, -25.8443
1.81539, -1, 12.6284, 18.4836, 23.7581, 29.9149, -37.5059, -25.9228
1.8234, -1, 12.7313, 18.4325, 23.7443, 30.0776, -37.3326, -26.0001
1.83161, -1, 12.8337, 18.3816, 23.7306, 30.2399, -37.1599, -26.078
1.83943, -1, 12.9358, 18.3309, 23.717, 30.4016, -36.9877, -26.1551
1.84745, -1, 13.0375, 18.2804, 23.7035, 30.5629, -36.8158, -26.2319
1.85572, -1, 13.1388, 18.23, 23.6899, 30.7236, -36.6445, -26.3092
1.86353, -1, 13.2398, 18.1798, 23.6765, 30.8842, -36.4735, -26.3853
1.8715, -1, 13.3405, 18.1297, 23.6633, 31.0443, -36.3031, -26.4623
1.87995, -1, 13.4409, 18.0797, 23.65, 31.204, -36.1331, -26.5384
1.8875, -1, 13.541, 18.0297, 23.6366, 31.3632, -35.9635, -26.6146
1.89563, -1, 13.641, 17.9798, 23.6232, 31.5218, -35.7945, -26.691
1.90415, -1, 13.7407, 17.93, 23.6099, 31.68, -35.6258, -26.7664
1.91142, -1, 13.8402, 17.8803, 23.5966, 31.8381, -35.4578, -26.8425
1.91946, -1, 13.9395, 17.8307, 23.5834, 31.9957, -35.2903, -26.9174
1.92831, -1, 14.0386, 17.7812, 23.5701, 32.1529, -35.1228, -26.9928
1.93555, -1, 14.1375, 17.7319, 23.557, 32.3097, -34.9562, -27.0676
1.9438, -1, 14.2361, 17.6828, 23.544, 32.466, -34.7899, -27.1421
1.95253, -1, 14.3343, 17.6339, 23.5308, 32.622, -34.6241, -27.217
1.95976, -1, 14.4321, 17.5851, 23.5176, 32.7778, -34.4587, -27.2908
1.9679, -1, 14.5296, 17.5365, 23.5046, 32.9332, -34.2935, -27.3652
1.97669, -1, 14.6268, 17.488, 23.4916, 33.0881, -34.1287, -27.4395
1.98391, -1, 14.7235, 17.4396, 23.4787, 33.2425, -33.9642, -27.5131
1.99249, -1, 14.8201, 17.3914, 23.4657, 33.3966, -33.8001, -27.5873
2.00067, -1, 14.9165, 17.3432, 23.4529, 33.5504, -33.6364, -27.6606
2.00795, -1, 14.9647, 17.2949, 23.4401, 33.7039, -33.473, -27.7344
2.01643, -1, 15.1089, 17.2469, 23.4274, 33.8568, -33.3098, -27.8079
2.02339, -1, 15.1569, 17.2228, 23.4209, 33.9331, -33.2284, -27.8443
2.03142, -1, 15.2528, 17.1749, 23.408, 34.0854, -33.0663, -27.9176
2.04137, -1, 15.3965, 17.1031, 23.3887, 34.3133, -32.8237, -28.0265
2.0474, -1, 15.4444, 17.0792, 23.3823, 34.3892, -32.743, -28.0627
2.05538, -1, 15.5401, 17.0316, 23.3695, 34.5407, -32.582, -28.1355
2.06539, -1, 15.6833, 16.9606, 23.3504, 34.7671, -32.341, -28.2433
2.07137, -1, 15.731, 16.937, 23.3441, 34.8424, -32.2609, -28.2795
2.07938, -1, 15.826, 16.8899, 23.3316, 34.9926, -32.1008, -28.3514
2.08743, -1, 15.9208, 16.843, 23.3191, 35.1425, -31.9412, -28.4226
2.09688, -1, 16.0626, 16.7728, 23.3002, 35.367, -31.7026, -28.5303
2.10491, -1, 16.1566, 16.7262, 23.2876, 35.5161, -31.5438, -28.6012
2.11352, -1, 16.2503, 16.6796, 23.2751, 35.6649, -31.3857, -28.6729
2.11939, -1, 16.2971, 16.6563, 23.2689, 35.7391, -31.3066, -28.7084
2.12892, -1, 16.437, 16.5866, 23.2502, 35.9614, -31.07, -28.8145
2.13544, -1, 16.4835, 16.5633, 23.2439, 36.0353, -30.9912, -28.8503
2.14338, -1, 16.5763, 16.5168, 23.2315, 36.1831, -30.834, -28.9211
2.15138, -1, 16.6689, 16.4705, 23.2192, 36.3307, -30.677, -28.9913
2.15945, -1, 16.7612, 16.4242, 23.2069, 36.4778, -30.5205, -29.0622
2.16844, -1, 16.8536, 16.3779, 23.1945, 36.6244, -30.3643, -29.132
2.17545, -1, 16.9457, 16.3319, 23.182, 36.7708, -30.2086, -29.2021
2.18347, -1, 17.0377, 16.286, 23.1697, 36.9168, -30.0529, -29.2721
2.19138, -1, 17.1293, 16.2404, 23.1575, 37.0627, -29.8977, -29.3414
2.19942, -1, 17.2196, 16.1953, 23.1451, 37.2081, -29.7427, -29.4114
2.20747, -1, 17.3064, 16.1519, 23.1326, 37.3528, -29.5889, -29.4804
2.21539, -1, 17.3884, 16.1109, 23.12, 37.4952, -29.437, -29.5483
2.22338, -1, 17.4649, 16.0727, 23.1075, 37.633, -29.2898, -29.6148
2.23144, -1, 17.5358, 16.0378, 23.0954, 37.763, -29.1509, -29.677
2.23939, -1, 17.5998, 16.0067, 23.0841, 37.8816, -29.0244, -29.7339
2.24737, -1, 17.6563, 15.9792, 23.0743, 37.9851, -28.9134, -29.7842
2.25544, -1, 17.7064, 15.9545, 23.0666, 38.0696, -28.8225, -29.8256
2.26337, -1, 17.7504, 15.9318, 23.0613, 38.1358, -28.7512, -29.8574
2.27137, -1, 17.7884, 15.9121, 23.058, 38.1825, -28.7002, -29.8803
2.27946, -1, 17.8193, 15.8963, 23.0563, 38.214, -28.6659, -29.8956
2.28734, -1, 17.8438, 15.8843, 23.0556, 38.2336, -28.6444, -29.9049
2.29537, -1, 17.8625, 15.8756, 23.0552, 38.2448, -28.6321, -29.91
2.30344, -1, 17.8748, 15.87, 23.0551, 38.2506, -28.6257, -29.9126
2.31134, 2, 17.8813, 15.867, 23.055, 38.2533, -28.6227, -29.9139
2.31939, 2, 17.8843, 15.8655, 23.055, 38.2547, -28.6213, -29.9146
2.32743, 2, 17.8852, 15.8648, 23.055, 38.2554, -28.6206, -29.9149
2.33538, 2, 17.8848, 15.8645, 23.055, 38.2557, -28.6203, -29.915
2.34341, 2, 17.8841, 15.8644, 23.055, 38.2558, -28.6201, -29.9151
2.35155, 2, 17.8834, 15.8643, 23.055, 38.2558, -28.6201, -29.9151
2.35948, 2, 17.883, 15.8643, 23.055, 38.2559, -28.62, -29.9151
2.3675, 2, 17.8829, 15.8642, 23.055, 38.2559, -28.62, -29.9151
2.37556, 2, 17.8828, 15.8641, 23.055, 38.2559, -28.62, -29.9152
2.3835, 2, 17.8829, 15.8638, 23.055, 38.2559, -28.62, -29.9151
2.39152, 2, 17.8831, 15.8634, 23.055, 38.2559, -28.62, -29.9151
2.39948, 2, 17.8835, 15.8631, 23.055, 38.2559, -28.62, -29.9151
2.4074, 2, 17.884, 15.8629, 23.055, 38.2559, -28.62, -29.9151
2.41545, 2, 17.8847, 15.8627, 23.055, 38.2559, -28.6201, -29.9152
2.42347, 2, 17.8856, 15.8626, 23.055, 38.2559, -28.6201, -29.9152
2.43148, 2, 17.8863, 15.8626, 23.055, 38.2559, -28.6201, -29.9152
2.43959, 2, 17.8868, 15.8626, 23.055, 38.2559, -28.6201, -29.9152
2.44797, 2, 17.8872, 15.8626, 23.055, 38.2559, -28.6201, -29.9151
2.45643, 2, 17.8874, 15.8626, 23.055, 38.2559, -28.6202, -29.9151
2.46378, 2, 17.8874, 15.8626, 23.055, 38.2559, -28.6202, -29.9151
2.47221, 2, 17.8875, 15.8626, 23.055, 38.2559, -28.6201, -29.9151
2.47988, 2, 17.8875, 15.8626, 23.055, 38.2559, -28.6202, -29.9151
2.48847, 2, 17.8875, 15.8626, 23.055, 38.2559, -28.6202, -29.9151
2.49626, 2, 17.8875, 15.8625, 23.055, 38.2559, -28.6202, -29.9152
2.50392, 2, 17.8874, 15.8625, 23.055, 38.2559, -28.6202, -29.9151
2.51196, 2, 17.8872, 15.8624, 23.055, 38.2559, -28.6202, -29.9152
2.52051, 2, 17.887, 15.8623, 23.055, 38.2559, -28.6203, -29.9151
2.52736, 2, 17.887, 15.8623, 23.055, 38.2559, -28.6203, -29.9151
2.53639, 2, 17.8869, 15.8623, 23.055, 38.2559, -28.6202, -29.9151
2.5434, 2, 17.8869, 15.8623, 23.055, 38.2559, -28.6202, -29.9151
2.55138, 2, 17.8868, 15.8623, 23.055, 38.2559, -28.6202, -29.9151
2.5594, 2, 17.8869, 15.8623, 23.055, 38.2559, -28.6203, -29.9151
2.56893, 2, 17.8868, 15.8623, 23.055, 38.2559, -28.6203, -29.9151
2.57536, 2, 17.8868, 15.8623, 23.055, 38.2559, -28.6203, -29.9151
2.58476, 2, 17.8868, 15.8623, 23.055, 38.2559, -28.6203, -29.9151
2.59139, 2, 17.8868, 15.8624, 23.055, 38.2559, -28.6203, -29.9151
2.59937, 2, 17.8868, 15.8623, 23.055, 38.2558, -28.6204, -29.9151
2.60888, 2, 17.8868, 15.8623, 23.055, 38.2558, -28.6204, -29.9151
2.61726, 2, 17.8868, 15.8623, 23.055, 38.2558, -28.6204, -29.9151
2.62336, 2, 17.8868, 15.8623, 23.055, 38.2558, -28.6204, -29.915
2.63296, 2, 17.8868, 15.8623, 23.055, 38.2558, -28.6205, -29.9151
2.64129, 2, 17.8867, 15.8623, 23.055, 38.2558, -28.6205, -29.9151
2.64736, 2, 17.8867, 15.8623, 23.055, 38.2558, -28.6205, -29.9151
2.65636, 2, 17.8867, 15.8623, 23.055, 38.2558, -28.6205, -29.9151
2.66521, 2, 17.8867, 15.8623, 23.055, 38.2559, -28.6205, -29.9151
2.67136, 2, 17.8866, 15.8623, 23.055, 38.2559, -28.6205, -29.9151
2.67941, 2, 17.8867, 15.8623, 23.055, 38.2559, -28.6205, -29.915
2.68742, 2, 17.8866, 15.8624, 23.055, 38.2559, -28.6205, -29.9151
2.69536, 2, 17.8866, 15.8623, 23.055, 38.2559, -28.6206, -29.9151
2.70342, 2, 17.8866, 15.8624, 23.055, 38.2558, -28.6206, -29.915
2.71142, 2, 17.8866, 15.8623, 23.055, 38.2558, -28.6206, -29.9151
2.71939, 2, 17.8866, 15.8623, 23.055, 38.2558, -28.6206, -29.9151
2.7276, 2, 17.8866, 15.8623, 23.055, 38.2558, -28.6206, -29.915
2.73538, 2, 17.8865, 15.8623, 23.055, 38.2558, -28.6206, -29.9151
2.74336, 2, 17.8865, 15.8623, 23.055, 38.2558, -28.6206, -29.915
2.75139, 2, 17.8865, 15.8623, 23.055, 38.2558, -28.6207, -29.915
2.75941, 2, 17.8865, 15.8623, 23.055, 38.2558, -28.6207, -29.915
2.76735, 2, 17.8865, 15.8623, 23.055, 38.2558, -28.6207, -29.915
2.77539, 2, 17.8865, 15.8624, 23.055, 38.2558, -28.6207, -29.915
2.78339, 2, 17.8864, 15.8624, 23.055, 38.2557, -28.6207, -29.9151
2.79135, 2, 17.8864, 15.8624, 23.055, 38.2558, -28.6207, -29.9151
2.7994, 2, 17.8864, 15.8624, 23.055, 38.2557, -28.6208, -29.9151
2.80745, 2, 17.8863, 15.8624, 23.055, 38.2557, -28.6208, -29.9151
2.81536, 2, 17.8863, 15.8624, 23.055, 38.2557, -28.6208, -29.9151
2.82339, 2, 17.8862, 15.8624, 23.055, 38.2557, -28.6208, -29.915
2.83139, 2, 17.8862, 15.8623, 23.055, 38.2557, -28.6208, -29.915
2.83937, 2, 17.8861, 15.8623, 23.055, 38.2557, -28.6208, -29.915
2.84742, 2, 17.8861, 15.8623, 23.055, 38.2558, -28.6208, -29.915
2.85549, 2, 17.8861, 15.8624, 23.055, 38.2557, -28.6209, -29.915
2.86345, 2, 17.886, 15.8624, 23.055, 38.2557, -28.6209, -29.9151
2.87152, 2, 17.886, 15.8624, 23.055, 38.2557, -28.6209, -29.9151
2.87952, 2, 17.8859, 15.8624, 23.055, 38.2557, -28.6209, -29.915
2.88748, 2, 17.8859, 15.8624, 23.055, 38.2557, -28.6209, -29.915
2.89551, 2, 17.8858, 15.8624, 23.055, 38.2556, -28.6209, -29.915
2.90339, 2, 17.8858, 15.8624, 23.055, 38.2556, -28.6209, -29.915
2.91164, 2, 17.8857, 15.8624, 23.055, 38.2557, -28.6209, -29.9151
2.91945, 2, 17.8857, 15.8624, 23.055, 38.2556, -28.6209, -29.915
2.92742, 2, 17.8856, 15.8624, 23.055, 38.2557, -28.621, -29.915
2.93558, 2, 17.8856, 15.8624, 23.055, 38.2556, -28.621, -29.9149
2.94357, 2, 17.8855, 15.8624, 23.055, 38.2556, -28.621, -29.9149
2.95164, 2, 17.8855, 15.8624, 23.055, 38.2556, -28.621, -29.915
2.96022, 2, 17.8854, 15.8624, 23.055, 38.2556, -28.621, -29.915
2.96778, 2, 17.8854, 15.8624, 23.055, 38.2556, -28.6211, -29.9149
2.97581, 2, 17.8853, 15.8624, 23.055, 38.2556, -28.621, -29.9149
2.98448, 2, 17.8853, 15.8624, 23.055, 38.2556, -28.621, -29.915
2.9919, 2, 17.8852, 15.8624, 23.055, 38.2556, -28.6211, -29.915
3.00048, 2, 17.8852, 15.8624, 23.055, 38.2556, -28.6211, -29.915
3.00819, 2, 17.8852, 15.8624, 23.055, 38.2556, -28.6211, -29.915
3.01593, 2, 17.8851, 15.8624, 23.055, 38.2556, -28.6211, -29.915
3.02451, 2, 17.885, 15.8624, 23.055, 38.2556, -28.6212, -29.915
3.03135, 2, 17.885, 15.8624, 23.055, 38.2556, -28.6211, -29.915
3.03942, 2, 17.885, 15.8625, 23.055, 38.2555, -28.6211, -29.915
3.04842, 2, 17.8849, 15.8624, 23.055, 38.2555, -28.6211, -29.9149
3.18759, 2, 17.8841, 15.8625, 23.055, 38.2552, -28.6212, -29.9149
3.18947, 2, 17.8841, 15.8625, 23.055, 38.2552, -28.6212, -29.9149
3.19082, 2, 17.8841, 15.8625, 23.055, 38.2552, -28.6212, -29.9149
3.19214, 2, 17.8841, 15.8625, 23.055, 38.2552, -28.6212, -29.9149
3.19418, 2, 17.884, 15.8625, 23.055, 38.2552, -28.6212, -29.9149
3.19545, 2, 17.884, 15.8625, 23.055, 38.2552, -28.6212, -29.9149
3.19662, 2, 17.884, 15.8625, 23.055, 38.2552, -28.6212, -29.9149
3.20042, 2, 17.884, 15.8625, 23.055, 38.2552, -28.6212, -29.9149
3.20284, 2, 17.884, 15.8625, 23.055, 38.2552, -28.6212, -29.9149
3.20413, 2, 17.884, 15.8625, 23.055, 38.2552, -28.6212, -29.9149
3.20612, 2, 17.884, 15.8625, 23.055, 38.2552, -28.6212, -29.9149
3.20742, 2, 17.884, 15.8625, 23.055, 38.2552, -28.6212, -29.9149
3.20861, 2, 17.884, 15.8625, 23.055, 38.2552, -28.6212, -29.9149
3.21067, 2, 17.884, 15.8625, 23.055, 38.2552, -28.6213, -29.9149
3.21192, 2, 17.884, 15.8625, 23.055, 38.2552, -28.6213, -29.9149
3.21628, 2, 17.8839, 15.8625, 23.055, 38.2552, -28.6213, -29.9149
3.21829, 2, 17.8839, 15.8625, 23.055, 38.2552, -28.6213, -29.9149
3.21956, 2, 17.8839, 15.8625, 23.055, 38.2552, -28.6213, -29.9149
3.22073, 2, 17.8839, 15.8625, 23.055, 38.2552, -28.6213, -29.9149
3.22309, 2, 17.8839, 15.8625, 23.055, 38.2552, -28.6213, -29.9149
3.22433, 2, 17.8839, 15.8625, 23.055, 38.2552, -28.6213, -29.9149
3.22641, 2, 17.8839, 15.8625, 23.055, 38.2552, -28.6213, -29.9149
3.23394, 2, 17.8838, 15.8625, 23.055, 38.2552, -28.6213, -29.9149
3.23938, 2, 17.8838, 15.8625, 23.055, 38.2552, -28.6213, -29.9149
3.24734, 2, 17.8838, 15.8625, 23.055, 38.2552, -28.6213, -29.9149
3.25536, 2, 17.8838, 15.8625, 23.055, 38.2551, -28.6213, -29.9149
3.26337, 2, 17.8837, 15.8625, 23.055, 38.2551, -28.6213, -29.9149
3.27134, 2, 17.8837, 15.8625, 23.055, 38.2551, -28.6213, -29.9149
3.2794, 2, 17.8836, 15.8625, 23.055, 38.2551, -28.6213, -29.9149
3.28737, 2, 17.8836, 15.8625, 23.055, 38.2551, -28.6213, -29.9149
3.29534, 2, 17.8836, 15.8625, 23.055, 38.2551, -28.6214, -29.9149
3.30337, 2, 17.8836, 15.8626, 23.055, 38.2551, -28.6213, -29.9149
3.31152, 2, 17.8836, 15.8626, 23.055, 38.255, -28.6214, -29.9149
3.32033, 2, 17.8835, 15.8626, 23.055, 38.255, -28.6214, -29.9149
3.32741, 2, 17.8835, 15.8626, 23.055, 38.255, -28.6214, -29.9149
3.33534, 2, 17.8835, 15.8626, 23.055, 38.2549, -28.6214, -29.9149
3.34336, 2, 17.8835, 15.8626, 23.055, 38.2549, -28.6214, -29.9149
3.35153, 2, 17.8835, 15.8626, 23.055, 38.2549, -28.6214, -29.9149
3.35947, 2, 17.8835, 15.8626, 23.055, 38.2549, -28.6214, -29.9149
3.36743, 2, 17.8835, 15.8626, 23.055, 38.2549, -28.6214, -29.9149
3.37549, 4, 17.8835, 15.8626, 23.055, 38.2548, -28.6214, -29.9149
3.38345, 4, 17.8835, 15.8626, 23.055, 38.2548, -28.6214, -29.9149
3.39146, 4, 17.8834, 15.8626, 23.055, 38.2547, -28.6214, -29.9149
3.39953, 4, 17.8835, 15.8626, 23.0551, 38.2547, -28.6214, -29.9149
3.40734, 4, 17.8834, 15.8626, 23.055, 38.2547, -28.6214, -29.9149
3.41569, 4, 17.8834, 15.8626, 23.055, 38.2547, -28.6215, -29.9148
3.42344, 4, 17.8834, 15.8626, 23.055, 38.2547, -28.6215, -29.9149
3.43141, 4, 17.8834, 15.8626, 23.0551, 38.2547, -28.6215, -29.9149
3.43979, 4, 17.8834, 15.8626, 23.0551, 38.2547, -28.6215, -29.9148
3.44759, 4, 17.8834, 15.8626, 23.0551, 38.2547, -28.6215, -29.9148
3.45559, 4, 17.8834, 15.8626, 23.0551, 38.2547, -28.6215, -29.9148
3.4641, 4, 17.8834, 15.8626, 23.0551, 38.2547, -28.6215, -29.9148
3.47235, 4, 17.8834, 15.8626, 23.0551, 38.2546, -28.6215, -29.9148
3.49786, 4, 17.8833, 15.8626, 23.0551, 38.2546, -28.6214, -29.9148
3.50063, 4, 17.8833, 15.8626, 23.0551, 38.2546, -28.6214, -29.9148
3.50197, 4, 17.8833, 15.8626, 23.0551, 38.2546, -28.6214, -29.9148
3.50392, 4, 17.8833, 15.8626, 23.0551, 38.2546, -28.6215, -29.9147
3.51249, 4, 17.8833, 15.8626, 23.0551, 38.2546, -28.6215, -29.9147
3.51993, 4, 17.8833, 15.8626, 23.0551, 38.2545, -28.6215, -29.9147
3.52934, 4, 17.8833, 15.8626, 23.0551, 38.2546, -28.6215, -29.9147
3.53532, 4, 17.8833, 15.8627, 23.0551, 38.2546, -28.6215, -29.9148
3.54336, 4, 17.8831, 15.8627, 23.0551, 38.2545, -28.6215, -29.9148
3.55235, 4, 17.8806, 15.8626, 23.0552, 38.2541, -28.6215, -29.9145
3.55936, 4, 17.879, 15.8626, 23.0555, 38.2534, -28.6217, -29.9142
3.56734, 4, 17.8749, 15.8625, 23.0566, 38.2489, -28.6228, -29.9119
3.57657, 4, 17.8677, 15.862, 23.0611, 38.2312, -28.628, -29.8994
3.58332, 4, 17.865, 15.8616, 23.0637, 38.2216, -28.6311, -29.8916
3.59348, 5, 17.8556, 15.8594, 23.0753, 38.181, -28.645, -29.8569
3.59938, 5, 17.8522, 15.8584, 23.0806, 38.1633, -28.6511, -29.8414
3.60885, 5, 17.8418, 15.8547, 23.1001, 38.098, -28.6731, -29.7842
3.6169, 5, 17.834, 15.8518, 23.1151, 38.0487, -28.6903, -29.7399
3.62332, 5, 17.8294, 15.8502, 23.1229, 38.0231, -28.6992, -29.7169
3.63291, 5, 17.8132, 15.8454, 23.1474, 37.9418, -28.7275, -29.6457
3.64093, 5, 17.8013, 15.842, 23.164, 37.8879, -28.7472, -29.5966
3.64897, 5, 17.7952, 15.8385, 23.1804, 37.8325, -28.7673, -29.5477
3.65633, 5, 17.7826, 15.8367, 23.1888, 37.8047, -28.7773, -29.5233
3.66339, 5, 17.7699, 15.8331, 23.2057, 37.7504, -28.7972, -29.4747
3.67236, 5, 17.7571, 15.8293, 23.2225, 37.6952, -28.817, -29.4256
3.68031, 5, 17.7442, 15.8255, 23.2392, 37.6399, -28.8366, -29.3765
3.6874, 5, 17.7313, 15.8215, 23.2561, 37.5856, -28.8563, -29.3279
3.69536, 5, 17.7186, 15.8175, 23.2729, 37.5301, -28.8763, -29.2794
3.70332, 5, 17.7057, 15.8133, 23.2895, 37.4758, -28.8967, -29.2303
3.71142, 5, 17.6928, 15.8093, 23.3063, 37.4214, -28.9174, -29.1816
3.71934, 5, 17.6798, 15.8053, 23.3233, 37.3663, -28.9378, -29.1336
3.72732, 5, 17.6667, 15.8015, 23.3401, 37.3124, -28.958, -29.0854
3.73541, 5, 17.6537, 15.7977, 23.3567, 37.2575, -28.978, -29.0365
3.74332, 5, 17.6409, 15.794, 23.3735, 37.2032, -28.998, -28.9882
3.75139, 5, 17.6281, 15.7902, 23.3902, 37.1495, -29.0182, -28.9402
3.75933, 5, 17.6154, 15.7864, 23.4068, 37.0944, -29.0389, -28.8919
3.76732, 5, 17.6027, 15.7826, 23.4236, 37.0406, -29.0597, -28.8431
3.7754, 5, 17.5899, 15.7788, 23.4405, 36.9863, -29.0802, -28.7949
3.78332, 5, 17.5771, 15.775, 23.4572, 36.9317, -29.1005, -28.7471
3.79134, 5, 17.5645, 15.7712, 23.474, 36.8783, -29.1205, -28.6991
3.79939, 5, 17.5518, 15.7674, 23.4908, 36.8238, -29.1405, -28.6506
3.80733, 5, 17.5392, 15.7635, 23.5073, 36.77, -29.1607, -28.6031
3.81533, 5, 17.5265, 15.7596, 23.5238, 36.7166, -29.1813, -28.5556
3.82339, 5, 17.5136, 15.7556, 23.5405, 36.6621, -29.2022, -28.5077
3.83152, 5, 17.5006, 15.7516, 23.5573, 36.6092, -29.2229, -28.4595
3.83933, 5, 17.4876, 15.7476, 23.5738, 36.5558, -29.2434, -28.4123
3.84742, 5, 17.4747, 15.7438, 23.5905, 36.5018, -29.2637, -28.3652
3.85555, 5, 17.4617, 15.7399, 23.6073, 36.4491, -29.2839, -28.3178
3.86344, 5, 17.449, 15.7362, 23.6238, 36.3953, -29.3043, -28.2703
3.87148, 5, 17.4362, 15.7325, 23.6404, 36.342, -29.325, -28.2235
3.87994, 5, 17.4234, 15.7288, 23.6571, 36.2895, -29.3461, -28.1767
3.8883, 5, 17.4106, 15.725, 23.6738, 36.2356, -29.3668, -28.1295
3.89555, 5, 17.3978, 15.7212, 23.6902, 36.1828, -29.3873, -28.0823
3.90414, 5, 17.3849, 15.7175, 23.7068, 36.1299, -29.4076, -28.036
3.91135, 5, 17.3722, 15.7138, 23.7232, 36.0762, -29.4278, -27.9897
3.91942, 5, 17.3594, 15.7101, 23.7396, 36.0238, -29.4482, -27.9428
3.92845, 5, 17.3465, 15.7065, 23.7562, 35.9706, -29.4689, -27.896
3.93542, 5, 17.3337, 15.7028, 23.7729, 35.9173, -29.4899, -27.8499
3.94352, 5, 17.321, 15.699, 23.7895, 35.8652, -29.511, -27.8035
3.9524, 5, 17.3081, 15.6952, 23.806, 35.8119, -29.5316, -27.7566
3.95972, 5, 17.2953, 15.6914, 23.8226, 35.7594, -29.5522, -27.7099
3.9677, 5, 17.2824, 15.6875, 23.8389, 35.7075, -29.5727, -27.6639
3.9759, 5, 17.2695, 15.6837, 23.8552, 35.6544, -29.5932, -27.6178
3.98461, 5, 17.2567, 15.68, 23.8717, 35.6025, -29.614, -27.5713
3.99182, 5, 17.2439, 15.6764, 23.8882, 35.5502, -29.6352, -27.525
4.0004, 5, 17.2311, 15.6728, 23.9046, 35.4974, -29.6562, -27.4792
4.00872, 5, 17.2183, 15.6692, 23.9211, 35.4459, -29.6769, -27.4335
4.01588, 5, 17.2118, 15.6656, 23.9377, 35.3934, -29.6974, -27.3871
4.02436, 5, 17.1922, 15.6621, 23.9539, 35.3409, -29.7177, -27.3409
4.03279, 5, 17.1856, 15.6603, 23.962, 35.3152, -29.728, -27.2954
4.03931, 5, 17.1727, 15.6567, 23.9785, 35.263, -29.7486, -27.2728
4.04834, 5, 17.1533, 15.6515, 24.0033, 35.1846, -29.7804, -27.2042
4.05533, 5, 17.1468, 15.6498, 24.0114, 35.159, -29.7911, -27.1811
4.0633, 5, 17.134, 15.6464, 24.0277, 35.1069, -29.8122, -27.1355
4.07267, 5, 17.1146, 15.6412, 24.0522, 35.029, -29.8434, -27.0679
4.07932, 5, 17.1082, 15.6395, 24.0603, 35.0034, -29.8538, -27.0452
4.08736, 5, 17.0954, 15.6359, 24.0764, 34.9512, -29.8744, -26.9994
4.09679, 5, 17.0761, 15.6305, 24.1012, 34.8743, -29.9059, -26.9319
4.10557, 5, 17.0633, 15.6268, 24.1175, 34.8228, -29.9274, -26.8872
4.11135, 5, 17.057, 15.625, 24.1256, 34.7967, -29.9381, -26.8647
4.12134, 5, 17.0376, 15.6196, 24.15, 34.7204, -29.9698, -26.7967
4.12734, 5, 17.0311, 15.6178, 24.1582, 34.6947, -29.9801, -26.7743
4.13536, 5, 17.0182, 15.6144, 24.1742, 34.6428, -30.0008, -26.7298
4.14499, 5, 16.9988, 15.6093, 24.1983, 34.5668, -30.032, -26.6623
4.15376, 5, 16.9923, 15.6076, 24.2065, 34.515, -30.0532, -26.617
4.16032, 5, 16.9795, 15.6042, 24.2229, 34.4892, -30.064, -26.5946
4.16731, 5, 16.9666, 15.6009, 24.2389, 34.4388, -30.0857, -26.5502
4.1763, 5, 16.9536, 15.5976, 24.2551, 34.3873, -30.107, -26.5056
4.18336, 5, 16.9408, 15.5943, 24.2715, 34.3359, -30.1281, -26.4607
4.1913, 5, 16.9279, 15.591, 24.2875, 34.2856, -30.1491, -26.4157
4.19935, 5, 16.9149, 15.5877, 24.3035, 34.2343, -30.1701, -26.3715
4.20732, 5, 16.9019, 15.5844, 24.3198, 34.1832, -30.1914, -26.3273
4.21534, 5, 16.8888, 15.5811, 24.3361, 34.133, -30.2131, -26.2826
4.2234, 5, 16.8757, 15.5777, 24.352, 34.0817, -30.2348, -26.2378
4.2313, 5, 16.8627, 15.5744, 24.3681, 34.0313, -30.2561, -26.1938
4.2393, 5, 16.8497, 15.5709, 24.3842, 33.9814, -30.2773, -26.1497
4.2474, 5, 16.8367, 15.5674, 24.4, 33.9304, -30.2983, -26.1055
4.2553, 5, 16.8238, 15.5639, 24.4159, 33.8802, -30.3193, -26.0609
4.2633, 5, 16.8108, 15.5604, 24.4322, 33.8302, -30.3407, -26.017
4.27138, 5, 16.7978, 15.557, 24.4484, 33.7794, -30.3626, -25.9736
4.27941, 5, 16.785, 15.5538, 24.4643, 33.7298, -30.3844, -25.9297
4.28731, 5, 16.7722, 15.5506, 24.4803, 33.6797, -30.4059, -25.8854
4.2954, 5, 16.7593, 15.5475, 24.4962, 33.6289, -30.4273, -25.8417
4.3033, 5, 16.7464, 15.5443, 24.5119, 33.5793, -30.4484, -25.7984
4.3113, 5, 16.7334, 15.5412, 24.5277, 33.529, -30.4697, -25.7551
4.31939, 5, 16.7202, 15.5381, 24.5438, 33.4785, -30.4914, -25.7114
4.3273, 5, 16.7071, 15.535, 24.5598, 33.4293, -30.5132, -25.6676
4.33537, 5, 16.6941, 15.5319, 24.5757, 33.3792, -30.5348, -25.6245
4.34364, 5, 16.6809, 15.5289, 24.5917, 33.329, -30.5562, -25.5813
4.35134, 5, 16.6679, 15.5259, 24.6077, 33.28, -30.5775, -25.5376
4.35943, 5, 16.6549, 15.5228, 24.6233, 33.2299, -30.5987, -25.4938
4.36822, 5, 16.6418, 15.5198, 24.6392, 33.1802, -30.6202, -25.4508
4.3754, 5, 16.6288, 15.5166, 24.6553, 33.1315, -30.6422, -25.4079
4.38355, 5, 16.6159, 15.5135, 24.6712, 33.0817, -30.6643, -25.3646
4.39221, 5, 16.603, 15.5103, 24.6868, 33.0324, -30.6862, -25.321
4.39941, 5, 16.5901, 15.5072, 24.7027, 32.9838, -30.7078, -25.2781
4.40748, 5, 16.5771, 15.504, 24.7185, 32.9339, -30.7293, -25.2355
4.41622, 5, 16.5641, 15.5008, 24.734, 32.8849, -30.7508, -25.1928
4.4234, 5, 16.5511, 15.4977, 24.7498, 32.8364, -30.7727, -25.1496
4.4314, 5, 16.5382, 15.4947, 24.7659, 32.7866, -30.7949, -25.1068
4.44026, 5, 16.5253, 15.4917, 24.7818, 32.7377, -30.8171, -25.0644
4.44756, 5, 16.5124, 15.4888, 24.7974, 32.6892, -30.8389, -25.0222
4.45552, 5, 16.4994, 15.4859, 24.8132, 32.6394, -30.8605, -24.9794
4.4645, 5, 16.4864, 15.483, 24.8289, 32.5907, -30.8819, -24.9366
4.47176, 5, 16.4734, 15.4801, 24.8444, 32.5423, -30.9035, -24.8945
4.48039, 5, 16.4605, 15.4773, 24.86, 32.4927, -30.9254, -24.8526
4.48777, 5, 16.4474, 15.4745, 24.876, 32.4442, -30.9478, -24.8103
4.49591, 5, 16.4343, 15.4716, 24.8918, 32.3959, -30.9699, -24.7678
4.50445, 5, 16.4212, 15.4688, 24.9073, 32.3466, -30.9918, -24.7257
4.51184, 5, 16.4079, 15.4659, 24.9231, 32.2986, -31.0135, -24.6841
4.51994, 5, 16.3948, 15.4631, 24.9388, 32.2506, -31.0352, -24.6424
4.52847, 5, 16.3817, 15.4602, 24.9544, 32.2016, -31.057, -24.6001
4.53585, 5, 16.3751, 15.4588, 24.9621, 32.1774, -31.0681, -24.5789
4.54405, 5, 16.362, 15.4559, 24.9778, 32.1298, -31.0905, -24.5162
4.55132, 5, 16.3489, 15.4529, 24.9937, 32.081, -31.1127, -24.4953
4.55931, 5, 16.3357, 15.4499, 25.0093, 32.0326, -31.1346, -24.4534
4.56734, 5, 16.3226, 15.4469, 25.0248, 31.9853, -31.1563, -24.4111
4.57528, 5, 16.3096, 15.4439, 25.0404, 31.9367, -31.1778, -24.369
4.58545, 5, 16.29, 15.4393, 25.0636, 31.8646, -31.2108, -24.3065
4.59129, 5, 16.2835, 15.4378, 25.0713, 31.8409, -31.2221, -24.2857
4.59931, 5, 16.2704, 15.4349, 25.087, 31.7924, -31.2447, -24.2436
4.60873, 5, 16.2504, 15.4307, 25.1107, 31.7206, -31.2782, -24.1808
4.61529, 5, 16.2438, 15.4293, 25.1184, 31.6969, -31.2891, -24.16
4.62482, 5, 16.224, 15.4252, 25.1417, 31.6243, -31.322, -24.098
4.63284, 5, 16.2107, 15.4225, 25.1572, 31.5769, -31.3442, -24.0561
4.6393, 5, 16.2041, 15.4211, 25.1649, 31.5533, -31.3554, -24.0351
4.64885, 5, 16.1911, 15.4185, 25.1802, 31.4812, -31.3895, -23.9731
4.65685, 5, 16.1779, 15.4158, 25.1956, 31.4576, -31.4007, -23.9321
4.665, 5, 16.1648, 15.4132, 25.2113, 31.4109, -31.4229, -23.8908
4.67227, 5, 16.1518, 15.4106, 25.2269, 31.3632, -31.4449, -23.87
4.68027, 5, 16.1387, 15.408, 25.2422, 31.3156, -31.4668, -23.8287
4.68729, 5, 16.1257, 15.4055, 25.2578, 31.2691, -31.4888, -23.7879
4.69527, 5, 16.1126, 15.4029, 25.2733, 31.2215, -31.5115, -23.7474
4.70344, 5, 16.0994, 15.4004, 25.2885, 31.174, -31.5344, -23.7064
4.71129, 5, 16.0862, 15.3978, 25.3038, 31.1276, -31.557, -23.665
4.71939, 5, 16.0731, 15.3953, 25.3195, 31.0801, -31.5794, -23.6242
4.72737, 5, 16.06, 15.3926, 25.3349, 31.0326, -31.6016, -23.5838
4.7353, 5, 16.0469, 15.39, 25.3501, 30.9862, -31.6238, -23.5436
4.74341, 5, 16.0338, 15.3873, 25.3655, 30.9389, -31.6464, -23.5028
4.75127, 5, 16.0206, 15.3846, 25.3808, 30.8912, -31.6694, -23.4619
4.75929, 5, 16.0075, 15.3819, 25.3959, 30.845, -31.6923, -23.4215
4.76734, 5, 15.9944, 15.3792, 25.4111, 30.7981, -31.7148, -23.3813
4.77529, 5, 15.9813, 15.3765, 25.4267, 30.7507, -31.737, -23.3409
4.78335, 5, 15.9683, 15.3739, 25.4423, 30.7046, -31.7592, -23.3
4.79135, 5, 15.9551, 15.3714, 25.4574, 30.6578, -31.7816, -23.2594
4.79931, 5, 15.9417, 15.3689, 25.4727, 30.6106, -31.8044, -23.2193
4.80729, 5, 15.9285, 15.3665, 25.4881, 30.5648, -31.8276, -23.1794
4.81536, 5, 15.9154, 15.3641, 25.5031, 30.5187, -31.8504, -23.1389
4.82334, 5, 15.9021, 15.3617, 25.518, 30.4717, -31.873, -23.0983
4.83137, 5, 15.889, 15.3593, 25.5334, 30.4257, -31.8954, -23.0583
4.83927, 5, 15.876, 15.357, 25.5488, 30.3797, -31.9178, -23.0185
4.84727, 5, 15.8627, 15.3547, 25.564, 30.3329, -31.9406, -22.9788
4.85552, 5, 15.8496, 15.3523, 25.5791, 30.2872, -31.9638, -22.9385
4.86341, 5, 15.8365, 15.35, 25.5944, 30.2416, -31.9868, -22.8983
4.87142, 5, 15.8233, 15.3476, 25.6096, 30.1947, -32.0094, -22.8588
4.87971, 5, 15.8102, 15.3453, 25.6246, 30.1488, -32.0318, -22.8195
4.88742, 5, 15.797, 15.3431, 25.6398, 30.1033, -32.054, -22.78
4.89541, 5, 15.7836, 15.3408, 25.6552, 30.0566, -32.0766, -22.7401
4.90402, 5, 15.7703, 15.3384, 25.6703, 30.0106, -32.0997, -22.7006
4.91233, 5, 15.7571, 15.3361, 25.6853, 29.9654, -32.1229, -22.6616
4.91951, 5, 15.7437, 15.3338, 25.7004, 29.919, -32.1458, -22.6226
4.92814, 5, 15.7305, 15.3314, 25.7154, 29.8731, -32.1685, -22.5832
4.93533, 5, 15.7172, 15.329, 25.7303, 29.8281, -32.191, -22.5434
4.94374, 5, 15.7039, 15.3266, 25.7453, 29.7822, -32.2136, -22.5044
4.9523, 5, 15.6907, 15.3242, 25.7606, 29.7364, -32.2365, -22.4658
4.95952, 5, 15.6775, 15.3217, 25.7759, 29.6918, -32.2598, -22.4272
4.9677, 5, 15.6643, 15.3193, 25.7909, 29.6463, -32.2828, -22.3882
4.97654, 5, 15.6511, 15.3169, 25.8059, 29.6004, -32.3054, -22.3489
4.98375, 5, 15.6378, 15.3145, 25.8209, 29.5558, -32.3279, -22.3102
4.99223, 5, 15.6243, 15.3122, 25.8358, 29.5107, -32.3504, -22.2716
5.00068, 5, 15.611, 15.3099, 25.8505, 29.4649, -32.3733, -22.233
5.00784, 5, 15.5976, 15.3077, 25.8656, 29.4203, -32.3967, -22.1938
5.01639, 5, 15.5844, 15.3055, 25.8808, 29.3755, -32.4201, -22.1546
5.02471, 5, 15.5712, 15.3034, 25.8957, 29.3298, -32.4432, -22.1162
5.03182, 5, 15.5646, 15.3023, 25.9031, 29.3073, -32.4546, -22.078
5.04031, 5, 15.5446, 15.2992, 25.9256, 29.2405, -32.4889, -22.0394
5.04726, 5, 15.538, 15.2981, 25.9331, 29.2177, -32.5003, -22.0199
5.05532, 5, 15.5247, 15.2961, 25.948, 29.1721, -32.5236, -21.9809
5.0634, 5, 15.5115, 15.294, 25.9628, 29.1277, -32.5472, -21.9426
5.07128, 5, 15.4981, 15.292, 25.9779, 29.083, -32.5705, -21.9044
5.07931, 5, 15.4848, 15.29, 25.993, 29.0376, -32.5936, -21.8663
5.08889, 5, 15.4647, 15.287, 26.0151, 28.9712, -32.6277, -21.8083
5.09748, 5, 15.4513, 15.285, 26.0299, 28.9264, -32.6506, -21.7699
5.10338, 5, 15.4447, 15.284, 26.0374, 28.9038, -32.6622, -21.7509
5.11283, 5, 15.4246, 15.281, 26.0595, 28.8375, -32.6975, -21.6942
5.12164, 5, 15.4113, 15.279, 26.0742, 28.7935, -32.7209, -21.6561
5.12736, 5, 15.4047, 15.278, 26.0816, 28.771, -32.7325, -21.6368
5.13707, 5, 15.3846, 15.275, 26.1043, 28.7045, -32.767, -21.5797
5.14334, 5, 15.3779, 15.274, 26.1117, 28.6826, -32.7784, -21.561
5.15134, 5, 15.3647, 15.272, 26.1263, 28.6382, -32.8015, -21.5237
5.16097, 5, 15.3513, 15.2699, 26.1411, 28.5717, -32.837, -21.4669
5.16828, 5, 15.3379, 15.2678, 26.1559, 28.55, -32.8489, -21.4477
5.17533, 5, 15.3245, 15.2657, 26.1705, 28.506, -32.8723, -21.4097
5.1833, 5, 15.3109, 15.2637, 26.1851, 28.4613, -32.8953, -21.3725
5.19126, 5, 15.2974, 15.2616, 26.2, 28.4176, -32.9183, -21.3354
5.19934, 5, 15.284, 15.2595, 26.2149, 28.3738, -32.9413, -21.2982
5.20731, 5, 15.2705, 15.2574, 26.2295, 28.3292, -32.9648, -21.2604
5.21526, 5, 15.2571, 15.2553, 26.2441, 28.2853, -32.9886, -21.2229
5.22337, 5, 15.2437, 15.2532, 26.2589, 28.242, -33.0123, -21.1858
5.23128, 5, 15.2303, 15.2512, 26.2736, 28.1977, -33.0357, -21.1488
5.23935, 5, 15.217, 15.2492, 26.2881, 28.1535, -33.0589, -21.1115
5.24726, 5, 15.2037, 15.2473, 26.3028, 28.1104, -33.0821, -21.0739
5.25526, 5, 15.1903, 15.2454, 26.3176, 28.0667, -33.1056, -21.0363
5.26342, 5, 15.177, 15.2435, 26.3323, 28.0226, -33.1295, -20.9994
5.27126, 5, 15.1636, 15.2417, 26.3467, 27.9797, -33.1532, -20.9627
5.27925, 5, 15.15, 15.24, 26.3612, 27.9367, -33.1765, -20.9257
5.28763, 5, 15.1366, 15.2383, 26.3758, 27.8927, -33.1996, -20.8883
5.29525, 5, 15.1232, 15.2366, 26.3902, 27.8496, -33.2226, -20.8511
5.30335, 5, 15.1098, 15.2349, 26.4047, 27.807, -33.246, -20.8145
5.3121, 5, 15.0964, 15.2332, 26.4194, 27.7633, -33.2699, -20.778
5.31926, 5, 15.083, 15.2316, 26.4342, 27.7199, -33.2938, -20.7413
5.32726, 5, 15.0695, 15.2299, 26.4488, 27.6774, -33.3174, -20.7042
5.33609, 5, 15.0561, 15.2282, 26.4632, 27.6342, -33.3407, -20.6674
5.34427, 5, 15.0427, 15.2264, 26.4778, 27.5906, -33.364, -20.6311
5.35134, 5, 15.0292, 15.2247, 26.4923, 27.548, -33.3875, -20.5949
5.36011, 5, 15.0158, 15.2229, 26.5066, 27.5052, -33.4115, -20.5585
5.36735, 5, 15.0022, 15.2212, 26.5209, 27.4614, -33.4356, -20.5218
5.37545, 5, 14.9886, 15.2194, 26.5356, 27.4185, -33.4592, -20.4851
5.38422, 5, 14.9752, 15.2177, 26.5501, 27.3763, -33.4826, -20.4492
5.39141, 5, 14.9616, 15.216, 26.5645, 27.3331, -33.5059, -20.4133
5.39946, 5, 14.9482, 15.2143, 26.5788, 27.29, -33.5293, -20.3773
5.40817, 5, 14.9348, 15.2126, 26.5933, 27.2478, -33.5533, -20.3406
5.41526, 5, 14.9213, 15.211, 26.6078, 27.2051, -33.5775, -20.3041
5.42347, 5, 14.9078, 15.2093, 26.6221, 27.1619, -33.6014, -20.2681
5.43279, 5, 14.8944, 15.2077, 26.6365, 27.1198, -33.625, -20.2325
5.43937, 5, 14.8809, 15.206, 26.6511, 27.0779, -33.6485, -20.1969
5.44746, 5, 14.8675, 15.2043, 26.6654, 27.035, -33.672, -20.1608
5.45545, 5, 14.8539, 15.2026, 26.6796, 26.9926, -33.6961, -20.1245
5.46367, 5, 14.8402, 15.2008, 26.6939, 26.9509, -33.7204, -20.0889
5.4716, 5, 14.8266, 15.1991, 26.7082, 26.9084, -33.7444, -20.0533
5.47964, 5, 14.8131, 15.1973, 26.7224, 26.8659, -33.7681, -20.0175
5.4878, 5, 14.7995, 15.1956, 26.7366, 26.8244, -33.7916, -19.9813
5.49643, 5, 14.7861, 15.1938, 26.7511, 26.7825, -33.8151, -19.9449
5.50381, 5, 14.7726, 15.192, 26.7656, 26.7397, -33.8392, -19.9091
5.51236, 5, 14.7591, 15.1903, 26.7798, 26.6977, -33.8636, -19.8737
5.51982, 5, 14.7457, 15.1887, 26.794, 26.6561, -33.8879, -19.8382
5.52915, 5, 14.7323, 15.1871, 26.8083, 26.6136, -33.9118, -19.8025
5.53599, 5, 14.7188, 15.1856, 26.8225, 26.5713, -33.9355, -19.7662
5.54453, 5, 14.7054, 15.1841, 26.8366, 26.53, -33.9592, -19.7306
5.55125, 5, 14.6986, 15.1834, 26.8436, 26.5093, -33.9712, -19.713
5.55934, 5, 14.685, 15.182, 26.8578, 26.4669, -33.9955, -19.6778
5.56843, 5, 14.6646, 15.18, 26.8793, 26.4043, -34.0319, -19.6248
5.57526, 5, 14.6579, 15.1794, 26.8864, 26.3838, -34.0439, -19.607
5.58325, 5, 14.6444, 15.1781, 26.9005, 26.3422, -34.0676, -19.5713
5.59124, 5, 14.6309, 15.1768, 26.9147, 26.3001, -34.0911, -19.5363
5.60147, 5, 14.6107, 15.1749, 26.936, 26.2387, -34.1271, -19.4839
5.60728, 5, 14.6039, 15.1743, 26.9431, 26.2182, -34.1394, -19.4665
5.61526, 5, 14.5904, 15.173, 26.9571, 26.1763, -34.1639, -19.4314
5.62475, 5, 14.5703, 15.1711, 26.9785, 26.1145, -34.2001, -19.3784
5.63301, 5, 14.5568, 15.1698, 26.9927, 26.0736, -34.2239, -19.3438
5.64084, 5, 14.5433, 15.1685, 27.0067, 26.0319, -34.2478, -19.3095
5.65105, 5, 14.5365, 15.1673, 27.0207, 25.9907, -34.272, -19.2751
5.65689, 5, 14.5228, 15.1666, 27.0347, 25.9502, -34.2967, -19.2402
5.6648, 5, 14.5092, 15.1653, 27.0417, 25.9297, -34.309, -19.2225
5.67132, 5, 14.4955, 15.164, 27.0557, 25.8882, -34.3331, -19.1876
5.6803, 5, 14.4819, 15.1628, 27.0696, 25.8469, -34.357, -19.1532
5.68824, 5, 14.4683, 15.1615, 27.0838, 25.8065, -34.3808, -19.1191
5.69624, 5, 14.4546, 15.1602, 27.098, 25.7653, -34.4048, -19.0847
5.70324, 5, 14.4409, 15.159, 27.112, 25.7237, -34.4294, -19.0502
5.71124, 5, 14.4273, 15.1577, 27.1259, 25.683, -34.4541, -19.0153
5.71932, 5, 14.4137, 15.1566, 27.1399, 25.6426, -34.4785, -18.9812
5.72728, 5, 14.4, 15.1554, 27.1539, 25.6013, -34.5027, -18.9471
5.73527, 5, 14.3864, 15.1542, 27.1678, 25.5603, -34.5268, -18.913
5.74332, 5, 14.3726, 15.153, 27.1816, 25.5202, -34.5511, -18.8786
5.75125, 5, 14.3589, 15.1519, 27.1956, 25.4794, -34.5758, -18.8437
5.75932, 5, 14.3452, 15.1507, 27.2096, 25.4383, -34.6006, -18.8092
5.76724, 5, 14.3316, 15.1496, 27.2235, 25.3981, -34.6249, -18.7753
5.77528, 5, 14.318, 15.1485, 27.2373, 25.3583, -34.649, -18.7416
5.78331, 5, 14.3045, 15.1474, 27.2512, 25.3176, -34.6729, -18.7077
5.79125, 5, 14.2909, 15.1462, 27.2652, 25.2769, -34.6972, -18.6733
5.79924, 5, 14.2773, 15.145, 27.2791, 25.2371, -34.7221, -18.6389
5.80734, 5, 14.2638, 15.1439, 27.2929, 25.1969, -34.747, -18.6051
5.81524, 5, 14.2502, 15.1427, 27.3069, 25.1561, -34.7715, -18.5715
5.82324, 5, 14.2366, 15.1415, 27.3208, 25.1161, -34.7957, -18.538
5.83133, 5, 14.223, 15.1403, 27.3346, 25.0766, -34.8199, -18.5042
5.83924, 5, 14.2092, 15.1391, 27.3483, 25.0361, -34.8443, -18.4701
5.84725, 5, 14.1955, 15.1379, 27.362, 24.9956, -34.8693, -18.4363
5.85533, 5, 14.1819, 15.1367, 27.3759, 24.9559, -34.8941, -18.403
5.86329, 5, 14.1683, 15.1355, 27.3896, 24.9161, -34.9186, -18.3699
5.8714, 5, 14.1548, 15.1342, 27.4032, 24.8754, -34.9427, -18.3367
5.87934, 5, 14.1412, 15.1331, 27.4172, 24.8355, -34.9669, -18.3029
5.88741, 5, 14.1275, 15.1319, 27.4311, 24.7961, -34.9914, -18.2693
5.89545, 5, 14.114, 15.1307, 27.4449, 24.7561, -35.0165, -18.2362
5.90337, 5, 14.1005, 15.1296, 27.4586, 24.7156, -35.0414, -18.2036
5.91124, 5, 14.0869, 15.1286, 27.4723, 24.6761, -35.066, -18.1707
5.91938, 5, 14.0732, 15.1275, 27.486, 24.6368, -35.0904, -18.1376
5.92735, 5, 14.0595, 15.1266, 27.4997, 24.5967, -35.1148, -18.1041
5.93532, 5, 14.0457, 15.1256, 27.5132, 24.557, -35.1395, -18.0708
5.94347, 5, 14.0321, 15.1247, 27.527, 24.5181, -35.1646, -18.0381
5.95139, 5, 14.0183, 15.1238, 27.5408, 24.4789, -35.1896, -18.0056
5.95961, 5, 14.0046, 15.1229, 27.5545, 24.439, -35.2142, -17.9728
5.96767, 5, 13.9909, 15.1221, 27.568, 24.3998, -35.2385, -17.9398
5.9756, 5, 13.9771, 15.1213, 27.5816, 24.3611, -35.2628, -17.9066
5.98366, 5, 13.9635, 15.1205, 27.5953, 24.3216, -35.2875, -17.8739
5.99174, 5, 13.95, 15.1197, 27.609, 24.2819, -35.3127, -17.8415
6.00035, 5, 13.9364, 15.119, 27.6225, 24.2431, -35.3377, -17.8091
6.00826, 5, 13.9227, 15.1182, 27.6362, 24.2043, -35.3624, -17.7764
6.01585, 5, 13.909, 15.1175, 27.6499, 24.1647, -35.3869, -17.7431
6.02434, 5, 13.8951, 15.1168, 27.6635, 24.1253, -35.4114, -17.71
6.03192, 5, 13.8882, 15.1161, 27.6769, 24.0867, -35.4363, -17.6775
6.04047, 5, 13.8676, 15.1154, 27.6904, 24.0477, -35.4616, -17.6452
6.04723, 5, 13.8607, 15.115, 27.6972, 24.0277, -35.4742, -17.6291
6.05527, 5, 13.847, 15.1143, 27.7107, 23.9882, -35.499, -17.5967
6.06328, 5, 13.8333, 15.1136, 27.7241, 23.9496, -35.5235, -17.564
6.07236, 5, 13.8126, 15.1126, 27.7443, 23.8915, -35.5601, -17.5151
6.07927, 5, 13.8057, 15.1123, 27.7512, 23.8717, -35.5725, -17.499
6.08865, 5, 13.785, 15.1113, 27.7715, 23.8136, -35.6104, -17.4511
6.09522, 5, 13.7782, 15.1109, 27.7783, 23.7944, -35.623, -17.4351
6.10476, 5, 13.7575, 15.1099, 27.7983, 23.736, -35.6603, -17.3864
6.11276, 5, 13.7436, 15.1093, 27.8118, 23.697, -35.6849, -17.3539
6.12071, 5, 13.7298, 15.1086, 27.8252, 23.6591, -35.7096, -17.3218
6.1288, 5, 13.7161, 15.1079, 27.8385, 23.621, -35.7348, -17.2902
6.13685, 5, 13.7024, 15.1073, 27.8519, 23.582, -35.7601, -17.2585
6.14481, 5, 13.6888, 15.1067, 27.8654, 23.5435, -35.785, -17.2268
6.15307, 5, 13.6751, 15.106, 27.8788, 23.5056, -35.8096, -17.1944
6.15926, 5, 13.6682, 15.1057, 27.8855, 23.4866, -35.8219, -17.1782
6.16824, 5, 13.6544, 15.105, 27.8987, 23.4479, -35.8465, -17.1462
6.17522, 5, 13.6408, 15.1044, 27.912, 23.4094, -35.8716, -17.1146
6.1842, 5, 13.627, 15.1037, 27.9255, 23.3718, -35.8971, -17.0833
6.19222, 5, 13.6133, 15.1031, 27.9388, 23.3338, -35.9225, -17.0518
6.20029, 5, 13.5995, 15.1025, 27.952, 23.2951, -35.9475, -17.02
6.20724, 5, 13.5856, 15.1018, 27.9654, 23.2567, -35.9723, -16.988
6.21529, 5, 13.5717, 15.1012, 27.9788, 23.219, -35.9972, -16.9563
6.22322, 5, 13.558, 15.1006, 27.9921, 23.1808, -36.0225, -16.925
6.23126, 5, 13.5441, 15.1, 28.0053, 23.1421, -36.0481, -16.8939
6.23931, 5, 13.5304, 15.0994, 28.0184, 23.1042, -36.0733, -16.8628
6.24723, 5, 13.5166, 15.0989, 28.0316, 23.0668, -36.0982, -16.8313
6.25534, 5, 13.5028, 15.0983, 28.0448, 23.0287, -36.123, -16.7996
6.26322, 5, 13.4891, 15.0977, 28.058, 22.9902, -36.1478, -16.7683
6.27122, 5, 13.4754, 15.0972, 28.0711, 22.9527, -36.1732, -16.7374
6.27956, 5, 13.4616, 15.0967, 28.0845, 22.9154, -36.1988, -16.7065
6.28722, 5, 13.4477, 15.0962, 28.0979, 22.8774, -36.224, -16.6755
6.29525, 5, 13.4337, 15.0957, 28.1111, 22.8394, -36.249, -16.6439
6.304, 5, 13.4197, 15.0953, 28.1242, 22.8023, -36.2739, -16.6124
6.31229, 5, 13.4058, 15.0948, 28.1374, 22.7653, -36.299, -16.5812
6.31922, 5, 13.3919, 15.0944, 28.1506, 22.7274, -36.3245, -16.5504
6.32801, 5, 13.378, 15.094, 28.1637, 22.6896, -36.35, -16.5198
6.3363, 5, 13.3642, 15.0936, 28.1766, 22.6528, -36.3751, -16.4891
6.34328, 5, 13.3503, 15.0932, 28.1897, 22.6157, -36.3999, -16.458
6.35213, 5, 13.3365, 15.0928, 28.203, 22.5779, -36.4247, -16.4267
6.35924, 5, 13.3228, 15.0924, 28.2162, 22.5405, -36.4499, -16.3959
6.36727, 5, 13.309, 15.0921, 28.2292, 22.5038, -36.4757, -16.3653
6.37628, 5, 13.2953, 15.0917, 28.2422, 22.4668, -36.5013, -16.3349
6.38333, 5, 13.2814, 15.0914, 28.2554, 22.429, -36.5265, -16.3044
6.39146, 5, 13.2674, 15.091, 28.2685, 22.3917, -36.5516, -16.2734
6.40052, 5, 13.2535, 15.0907, 28.2815, 22.3551, -36.5766, -16.2424
6.40736, 5, 13.2397, 15.0905, 28.2945, 22.3179, -36.6019, -16.2119
6.4154, 5, 13.2258, 15.0902, 28.3076, 22.2801, -36.6277, -16.1817
6.42383, 5, 13.212, 15.0899, 28.3207, 22.243, -36.6532, -16.1517
6.43133, 5, 13.1981, 15.0896, 28.3337, 22.2065, -36.6782, -16.1214
6.43933, 5, 13.1842, 15.0894, 28.3465, 22.1695, -36.7031, -16.0908
6.44905, 5, 13.1703, 15.0891, 28.3595, 22.132, -36.7281, -16.0601
6.45623, 5, 13.1565, 15.0889, 28.3725, 22.0953, -36.7537, -16.0297
6.46351, 5, 13.1426, 15.0886, 28.3854, 22.0589, -36.7797, -15.9997
6.47311, 5, 13.1287, 15.0884, 28.3982, 22.022, -36.8052, -15.9699
6.48022, 5, 13.1146, 15.0882, 28.4112, 21.9847, -36.8305, -15.94
6.48769, 5, 13.1007, 15.088, 28.4242, 21.9484, -36.8557, -15.9097
6.49722, 5, 13.0868, 15.0878, 28.4372, 21.9124, -36.8811, -15.8793
6.50374, 5, 13.0729, 15.0876, 28.4501, 21.8759, -36.907, -15.8491
6.51241, 5, 13.059, 15.0874, 28.463, 21.8388, -36.933, -15.8193
6.52137, 5, 13.0451, 15.0873, 28.4759, 21.8026, -36.9585, -15.7897
6.52783, 5, 13.0311, 15.0871, 28.4887, 21.7665, -36.9838, -15.76
6.53639, 5, 13.0173, 15.087, 28.5015, 21.7298, -37.009, -15.7302
6.54321, 5, 13.0104, 15.0869, 28.5078, 21.7113, -37.0217, -15.7151
6.55126, 5, 12.9965, 15.0868, 28.5206, 21.675, -37.0474, -15.6849
6.56031, 5, 12.9757, 15.0866, 28.54, 21.6212, -37.0865, -15.6405
6.56724, 5, 12.9686, 15.0865, 28.5464, 21.6031, -37.0992, -15.6258
6.57542, 5, 12.9545, 15.0864, 28.5592, 21.5662, -37.1247, -15.5963
6.58321, 5, 12.9405, 15.0863, 28.5718, 21.5298, -37.1501, -15.5665
6.5941, 5, 12.9195, 15.0862, 28.5911, 21.4761, -37.1886, -15.5212
6.60054, 5, 12.9056, 15.0861, 28.6039, 21.4395, -37.2147, -15.491
6.60721, 5, 12.8987, 15.0861, 28.6103, 21.421, -37.2276, -15.4762
6.61821, 5, 12.8779, 15.086, 28.6293, 21.367, -37.2657, -15.432
6.62326, 5, 12.8709, 15.086, 28.6357, 21.3492, -37.2782, -15.4174
6.63278, 5, 12.8502, 15.0859, 28.6549, 21.295, -37.3161, -15.3734
6.64236, 5, 12.8364, 15.0859, 28.6676, 21.2584, -37.3421, -15.3436
6.64722, 5, 12.8294, 15.0859, 28.6739, 21.2404, -37.3552, -15.3287
6.65679, 5, 12.8156, 15.0859, 28.6928, 21.1872, -37.394, -15.2843
6.66551, 5, 12.8015, 15.0859, 28.6991, 21.1693, -37.4067, -15.2697
6.67121, 5, 12.7875, 15.0858, 28.7117, 21.1329, -37.4322, -15.2407
6.68021, 5, 12.7736, 15.0858, 28.7243, 21.0973, -37.4576, -15.2116
6.68822, 5, 12.7598, 15.0858, 28.7368, 21.0622, -37.4835, -15.1824
6.69521, 5, 12.7459, 15.0858, 28.7496, 21.0268, -37.5096, -15.1527
6.70323, 5, 12.732, 15.0858, 28.7624, 20.9907, -37.5353, -15.1232
6.71127, 5, 12.7181, 15.0859, 28.775, 20.9551, -37.5608, -15.0942
6.71922, 5, 12.7042, 15.0859, 28.7876, 20.9201, -37.5861, -15.0654
6.72721, 5, 12.6903, 15.0859, 28.8001, 20.8849, -37.6116, -15.0367
6.73529, 5, 12.6764, 15.0859, 28.8127, 20.8488, -37.6379, -15.0079
6.74322, 5, 12.6625, 15.0858, 28.8253, 20.8132, -37.6641, -14.9787
6.7512, 5, 12.6484, 15.0858, 28.8377, 20.7783, -37.6899, -14.9492
6.75931, 5, 12.6343, 15.0859, 28.8501, 20.7431, -37.7154, -14.9204
6.76721, 5, 12.6203, 15.0859, 28.8627, 20.7072, -37.7411, -14.8919
6.77527, 5, 12.6063, 15.0859, 28.8753, 20.6715, -37.7672, -14.8634
6.78324, 5, 12.5923, 15.0859, 28.8878, 20.6367, -37.7936, -14.8351
6.7912, 5, 12.5783, 15.0859, 28.9002, 20.6016, -37.8197, -14.8063
6.79929, 5, 12.5641, 15.0859, 28.9127, 20.5657, -37.8454, -14.7774
6.8072, 5, 12.5501, 15.086, 28.9252, 20.5301, -37.8709, -14.7485
6.81523, 5, 12.5361, 15.086, 28.9377, 20.4954, -37.8966, -14.72
6.82326, 5, 12.5221, 15.086, 28.95, 20.4607, -37.923, -14.6918
6.8312, 5, 12.508, 15.086, 28.9625, 20.4252, -37.9494, -14.6635
6.8392, 5, 12.4938, 15.0861, 28.975, 20.3898, -37.9755, -14.6351
6.84727, 5, 12.4796, 15.0861, 28.9874, 20.3551, -38.0013, -14.6065
6.85523, 5, 12.4655, 15.0861, 28.9998, 20.3204, -38.027, -14.5776
6.86323, 5, 12.4513, 15.0862, 29.0121, 20.285, -38.0531, -14.5492
6.87136, 5, 12.4372, 15.0863, 29.0244, 20.2497, -38.0796, -14.521
6.87929, 5, 12.4232, 15.0863, 29.0367, 20.2153, -38.1059, -14.493
6.88737, 5, 12.4091, 15.0864, 29.049, 20.1811, -38.1316, -14.4649
6.89537, 5, 12.3951, 15.0865, 29.0612, 20.1463, -38.1572, -14.4364
6.90334, 5, 12.3811, 15.0866, 29.0735, 20.1111, -38.183, -14.4075
6.91141, 5, 12.3671, 15.0867, 29.086, 20.0766, -38.2093, -14.3788
6.91921, 5, 12.3531, 15.0868, 29.0983, 20.0425, -38.2359, -14.3505
6.92729, 5, 12.339, 15.087, 29.1106, 20.0077, -38.262, -14.3226
6.93534, 5, 12.3248, 15.0871, 29.1228, 19.9727, -38.2879, -14.2949
6.94325, 5, 12.3107, 15.0873, 29.1351, 19.9385, -38.3136, -14.2671
6.95138, 5, 12.2966, 15.0875, 29.1473, 19.9046, -38.3397, -14.2388
6.95952, 5, 12.2826, 15.0877, 29.1595, 19.8701, -38.3662, -14.2104
6.96745, 5, 12.2686, 15.0878, 29.1717, 19.8351, -38.3925, -14.1823
6.97576, 5, 12.2545, 15.088, 29.1838, 19.8006, -38.4184, -14.1545
6.98371, 5, 12.2404, 15.0882, 29.196, 19.7666, -38.444, -14.1269
6.9923, 5, 12.2265, 15.0884, 29.2083, 19.7322, -38.4698, -14.0993
6.99974, 5, 12.2124, 15.0886, 29.2205, 19.6972, -38.496, -14.0716
7.00837, 5, 12.1983, 15.0888, 29.2325, 19.6628, -38.5226, -14.0435
7.01576, 5, 12.1841, 15.0891, 29.2446, 19.629, -38.5489, -14.0153
7.02431, 5, 12.1699, 15.0893, 29.2569, 19.5951, -38.575, -13.9878
7.03181, 5, 12.1628, 15.0895, 29.269, 19.5604, -38.6008, -13.9605
7.04027, 5, 12.1417, 15.0898, 29.281, 19.526, -38.6269, -13.9333
7.0478, 5, 12.1346, 15.0899, 29.287, 19.5091, -38.6402, -13.9198
7.05633, 5, 12.1134, 15.0903, 29.3053, 19.4587, -38.68, -13.8786
7.06319, 5, 12.1064, 15.0905, 29.3114, 19.4416, -38.6931, -13.8647
7.07245, 5, 12.0852, 15.091, 29.3295, 19.39, -38.732, -13.8231
7.07921, 5, 12.0781, 15.0912, 29.3355, 19.3732, -38.7449, -13.8095
7.08844, 5, 12.057, 15.0918, 29.3535, 19.3233, -38.784, -13.7691
7.09527, 5, 12.0499, 15.092, 29.3595, 19.3064, -38.7974, -13.7556
7.10465, 5, 12.0287, 15.0928, 29.3774, 19.2551, -38.8372, -13.7154
7.1112, 5, 12.0216, 15.093, 29.3834, 19.2382, -38.8503, -13.7018
7.12082, 5, 12.0002, 15.0938, 29.4012, 19.1883, -38.8892, -13.6607
7.12878, 5, 11.9859, 15.0944, 29.4134, 19.1548, -38.9154, -13.6335
7.13671, 5, 11.9717, 15.095, 29.4255, 19.1206, -38.942, -13.6066
7.14483, 5, 11.9576, 15.0956, 29.4376, 19.087, -38.9687, -13.5799
7.15279, 5, 11.9434, 15.0962, 29.4495, 19.0539, -38.9949, -13.5532
7.16077, 5, 11.9363, 15.0966, 29.4555, 19.0207, -39.0208, -13.5265
7.169, 5, 11.9221, 15.0973, 29.4675, 19.0037, -39.0467, -13.4995
7.17622, 5, 11.908, 15.0981, 29.4794, 18.9696, -39.0597, -13.4859
7.18418, 5, 11.8939, 15.0989, 29.4913, 18.9362, -39.0864, -13.4586
7.19223, 5, 11.8797, 15.0997, 29.5032, 18.9032, -39.1131, -13.432
7.2002, 5, 11.8653, 15.1006, 29.515, 18.8698, -39.1395, -13.4056
7.20818, 5, 11.851, 15.1014, 29.5269, 18.8357, -39.1657, -13.3791
7.21625, 5, 11.8367, 15.1023, 29.5389, 18.802, -39.1917, -13.3526
7.2232, 5, 11.8225, 15.1032, 29.5508, 18.769, -39.2181, -13.3257
7.23125, 5, 11.8084, 15.1041, 29.5626, 18.7361, -39.245, -13.2984
7.23921, 5, 11.7942, 15.1051, 29.5745, 18.7024, -39.2715, -13.2712
7.24723, 5, 11.78, 15.1061, 29.5864, 18.6688, -39.2976, -13.2445
7.25524, 5, 11.7659, 15.1072, 29.5982, 18.6359, -39.3237, -13.2182
7.26318, 5, 11.7518, 15.1082, 29.61, 18.6031, -39.3498, -13.1918
7.27132, 5, 11.7376, 15.1093, 29.6218, 18.5699, -39.3764, -13.1655
7.27918, 5, 11.7235, 15.1104, 29.6336, 18.5362, -39.4033, -13.139
7.28723, 5, 11.7092, 15.1115, 29.6454, 18.5034, -39.4299, -13.112
7.29641, 5, 11.6949, 15.1127, 29.6572, 18.471, -39.4562, -13.0853
7.30418, 5, 11.6807, 15.1139, 29.6689, 18.4385, -39.4824, -13.0589
7.31219, 5, 11.6664, 15.1151, 29.6805, 18.4051, -39.5089, -13.0327
7.31922, 5, 11.6522, 15.1163, 29.6923, 18.3721, -39.5359, -13.0067
7.32818, 5, 11.6379, 15.1174, 29.704, 18.3396, -39.5627, -12.9807
7.33526, 5, 11.6236, 15.1186, 29.7156, 18.3072, -39.589, -12.9543
7.34321, 5, 11.6094, 15.1197, 29.7272, 18.274, -39.6151, -12.9276
7.35118, 5, 11.5952, 15.1209, 29.7388, 18.2408, -39.6413, -12.9009
7.35925, 5, 11.581, 15.122, 29.7507, 18.2084, -39.6681, -12.8749
7.3674, 5, 11.5667, 15.1231, 29.7624, 18.1763, -39.6951, -12.8491
7.37528, 5, 11.5523, 15.1242, 29.7741, 18.1437, -39.7217, -12.8235
7.38335, 5, 11.5379, 15.1253, 29.7857, 18.1104, -39.7481, -12.798
7.39155, 5, 11.5236, 15.1264, 29.7972, 18.0777, -39.7744, -12.7721
7.39928, 5, 11.5093, 15.1276, 29.8089, 18.0454, -39.8011, -12.7456
7.40738, 5, 11.4951, 15.1288, 29.8204, 18.0131, -39.8282, -12.7193
7.41574, 5, 11.481, 15.13, 29.8319, 17.9799, -39.855, -12.6933
7.4232, 5, 11.4667, 15.1312, 29.8434, 17.9471, -39.8814, -12.6679
7.43128, 5, 11.4526, 15.1324, 29.8549, 17.9148, -39.9076, -12.6425
7.44139, 5, 11.4385, 15.1337, 29.8665, 17.8829, -39.934, -12.6172
7.44819, 5, 11.4243, 15.135, 29.8781, 17.8504, -39.961, -12.5916
7.45536, 5, 11.41, 15.1363, 29.8896, 17.8173, -39.9882, -12.5658
7.46417, 5, 11.3956, 15.1377, 29.901, 17.7849, -40.015, -12.5397
7.47218, 5, 11.3813, 15.139, 29.9125, 17.7531, -40.0415, -12.5141
7.4795, 5, 11.367, 15.1405, 29.9241, 17.721, -40.0679, -12.4888
7.48835, 5, 11.3528, 15.1419, 29.9356, 17.6884, -40.0947, -12.4635
7.49571, 5, 11.3386, 15.1434, 29.947, 17.656, -40.1219, -12.4385
7.50433, 5, 11.3243, 15.1449, 29.9584, 17.6244, -40.1488, -12.4132
7.51248, 5, 11.31, 15.1465, 29.9699, 17.593, -40.1753, -12.3877
7.51977, 5, 11.2958, 15.148, 29.9814, 17.5608, -40.2015, -12.362
7.52837, 5, 11.2816, 15.1495, 29.9928, 17.5283, -40.228, -12.3362
7.5365, 5, 11.2745, 15.1502, 30.0042, 17.4965, -40.2549, -12.3111
7.54382, 5, 11.2603, 15.1517, 30.0098, 17.4651, -40.2822, -12.2862
7.55225, 5, 11.2388, 15.154, 30.0268, 17.4335, -40.3089, -12.2613
7.55917, 5, 11.2316, 15.1547, 30.0325, 17.4174, -40.3222, -12.2489
7.56722, 5, 11.2174, 15.1561, 30.0438, 17.385, -40.3487, -12.2238
7.57633, 5, 11.1959, 15.1582, 30.0607, 17.3375, -40.3889, -12.1851
7.58318, 5, 11.1887, 15.159, 30.0663, 17.3218, -40.4026, -12.1722
7.59124, 5, 11.1745, 15.1604, 30.0778, 17.2903, -40.4299, -12.1466
7.6005, 5, 11.1529, 15.1625, 30.0949, 17.2418, -40.4698, -12.1093
7.60717, 5, 11.1458, 15.1632, 30.1006, 17.2259, -40.483, -12.0969
7.61524, 5, 11.1316, 15.1646, 30.1119, 17.1945, -40.5094, -12.0722
7.62471, 5, 11.1101, 15.1668, 30.1287, 17.1474, -40.5501, -12.035
7.6334, 5, 11.0958, 15.1683, 30.14, 17.115, -40.5773, -12.0099
7.63926, 5, 11.0886, 15.169, 30.1456, 17.0989, -40.5907, -11.9971
7.64879, 5, 11.067, 15.1713, 30.1624, 17.0516, -40.6307, -11.9593
7.65834, 5, 11.0527, 15.1728, 30.1734, 17.0205, -40.6573, -11.9347
7.66317, 5, 11.0455, 15.1736, 30.179, 17.0049, -40.6707, -11.9224
7.67117, 5, 11.0312, 15.1752, 30.1903, 16.973, -40.6981, -11.8977
7.68019, 5, 11.0169, 15.1767, 30.2015, 16.9412, -40.7253, -11.8733
7.68822, 5, 11.0025, 15.1783, 30.2128, 16.91, -40.752, -11.8486
7.69617, 5, 10.9882, 15.1799, 30.224, 16.8789, -40.7785, -11.8236
7.70324, 5, 10.9739, 15.1814, 30.235, 16.8475, -40.8051, -11.7985
7.71117, 5, 10.9596, 15.1829, 30.2462, 16.8155, -40.8323, -11.7735
7.71919, 5, 10.9454, 15.1844, 30.2574, 16.7842, -40.8597, -11.7491
7.72717, 5, 10.931, 15.1859, 30.2685, 16.7535, -40.8868, -11.725
7.73518, 5, 10.9166, 15.1874, 30.2796, 16.7229, -40.9137, -11.7009
7.74326, 5, 10.9022, 15.1889, 30.2906, 16.6915, -40.9402, -11.6768
7.75117, 5, 10.8879, 15.1905, 30.3018, 16.66, -40.9672, -11.6523
7.75919, 5, 10.8737, 15.192, 30.3129, 16.6291, -40.9946, -11.6273
7.76724, 5, 10.8595, 15.1935, 30.324, 16.5984, -41.0216, -11.6026
7.77519, 5, 10.8451, 15.1952, 30.335, 16.5676, -41.0483, -11.5781
7.78317, 5, 10.8308, 15.1968, 30.3459, 16.5361, -41.0749, -11.5539
7.79126, 5, 10.8164, 15.1985, 30.3569, 16.505, -41.1017, -11.5299
7.79918, 5, 10.8021, 15.2002, 30.3679, 16.4745, -41.1291, -11.506
7.80718, 5, 10.7878, 15.202, 30.3788, 16.4441, -41.1566, -11.4818
7.81527, 5, 10.7733, 15.2039, 30.3898, 16.4131, -41.1837, -11.4575
7.82319, 5, 10.7587, 15.2057, 30.4007, 16.3816, -41.2105, -11.433
7.83117, 5, 10.7442, 15.2076, 30.4118, 16.3506, -41.2373, -11.4086
7.83925, 5, 10.7297, 15.2095, 30.4229, 16.3201, -41.2647, -11.3848
7.84717, 5, 10.7152, 15.2114, 30.4339, 16.2896, -41.2923, -11.361
7.85523, 5, 10.7008, 15.2133, 30.4449, 16.2583, -41.3193, -11.3372
7.8632, 5, 10.6863, 15.2151, 30.4557, 16.2271, -41.3461, -11.3136
7.8712, 5, 10.672, 15.217, 30.4667, 16.1966, -41.3727, -11.2897
7.87933, 5, 10.6577, 15.2188, 30.4776, 16.1663, -41.3997, -11.2653
7.88727, 5, 10.6433, 15.2207, 30.4884, 16.1359, -41.4274, -11.241
7.89529, 5, 10.629, 15.2225, 30.4992, 16.1047, -41.4548, -11.2169
7.90335, 5, 10.6144, 15.2244, 30.5099, 16.0739, -41.4819, -11.1933
7.91129, 5, 10.5998, 15.2262, 30.5208, 16.0436, -41.5088, -11.1698
7.91925, 5, 10.5853, 15.2281, 30.5317, 16.0136, -41.5358, -11.1465
7.9273, 5, 10.5708, 15.23, 30.5426, 15.9831, -41.5634, -11.1228
7.9352, 5, 10.5564, 15.2319, 30.5535, 15.9522, -41.5909, -11.0991
7.94349, 5, 10.5419, 15.2338, 30.5642, 15.9219, -41.6179, -11.0748
7.95134, 5, 10.5273, 15.2358, 30.575, 15.8921, -41.6447, -11.0504
7.95941, 5, 10.5129, 15.2377, 30.5858, 15.8623, -41.6714, -11.0265
7.96746, 5, 10.4985, 15.2396, 30.5965, 15.8319, -41.6988, -11.0028
7.97568, 5, 10.4841, 15.2416, 30.6073, 15.8012, -41.7266, -10.9795
7.98351, 5, 10.4698, 15.2435, 30.618, 15.7711, -41.7539, -10.9563
7.99199, 5, 10.4553, 15.2454, 30.6287, 15.7415, -41.781, -10.9327
8.00029, 5, 10.4408, 15.2473, 30.6395, 15.7116, -41.8079, -10.9091
8.00765, 5, 10.4264, 15.2492, 30.6503, 15.6812, -41.8352, -10.8851
8.01583, 5, 10.412, 15.2511, 30.6611, 15.6507, -41.8629, -10.8613
8.02434, 5, 10.3977, 15.253, 30.6717, 15.6209, -41.8904, -10.8379
8.03175, 5, 10.3833, 15.2549, 30.6823, 15.5914, -41.9175, -10.8146
8.04027, 5, 10.3689, 15.2568, 30.693, 15.5616, -41.9443, -10.7915
8.04769, 5, 10.3617, 15.2578, 30.6982, 15.5464, -41.9578, -10.7799
8.05618, 5, 10.3401, 15.2608, 30.7141, 15.5008, -41.9992, -10.745
8.06607, 5, 10.3257, 15.263, 30.7246, 15.4711, -42.0269, -10.7213
8.07233, 5, 10.3112, 15.2651, 30.7352, 15.4416, -42.0543, -10.6975
8.07919, 5, 10.3039, 15.2661, 30.7405, 15.4267, -42.0679, -10.6857
8.08866, 5, 10.282, 15.2694, 30.7566, 15.381, -42.1086, -10.6506
8.09517, 5, 10.2748, 15.2705, 30.7619, 15.3659, -42.1224, -10.6392
8.10448, 5, 10.253, 15.2738, 30.7779, 15.3214, -42.1642, -10.6051
8.11116, 5, 10.2458, 15.2749, 30.7831, 15.3067, -42.1779, -10.5938
8.12059, 5, 10.2242, 15.2782, 30.7989, 15.2621, -42.2185, -10.5596
8.12863, 5, 10.2096, 15.2804, 30.8095, 15.2319, -42.2455, -10.5364
8.13516, 5, 10.2024, 15.2815, 30.8147, 15.2169, -42.2592, -10.5247
8.14317, 5, 10.188, 15.2836, 30.8252, 15.1875, -42.2868, -10.5011
8.15274, 5, 10.1665, 15.2869, 30.8408, 15.1435, -42.3286, -10.4665
8.16093, 5, 10.152, 15.2891, 30.8512, 15.1137, -42.3559, -10.4438
8.16875, 5, 10.1447, 15.2901, 30.8565, 15.0986, -42.383, -10.4214
8.17615, 5, 10.13, 15.2923, 30.867, 15.0689, -42.3967, -10.4102
8.18502, 5, 10.1155, 15.2944, 30.8775, 15.0397, -42.4243, -10.3878
8.19112, 5, 10.1009, 15.2966, 30.888, 15.0109, -42.4523, -10.365
8.20015, 5, 10.0864, 15.2987, 30.8983, 14.9817, -42.4798, -10.3419
8.2082, 5, 10.0719, 15.3009, 30.9087, 14.9519, -42.507, -10.3188
8.21616, 5, 10.0574, 15.3031, 30.9192, 14.9223, -42.5341, -10.296
8.22416, 5, 10.0429, 15.3052, 30.9295, 14.8932, -42.5613, -10.2735
8.23219, 5, 10.0285, 15.3074, 30.94, 14.8643, -42.5892, -10.2512
8.23923, 5, 10.014, 15.3096, 30.9503, 14.835, -42.617, -10.229
8.24717, 5, 9.99956, 15.3117, 30.9607, 14.8052, -42.6444, -10.2067
8.25518, 5, 9.98491, 15.314, 30.9711, 14.7758, -42.6716, -10.1842
8.26323, 5, 9.97028, 15.3162, 30.9815, 14.7469, -42.6988, -10.1614
8.27115, 5, 9.9557, 15.3183, 30.9918, 14.7182, -42.7266, -10.1385
8.27916, 5, 9.94115, 15.3206, 31.0021, 14.689, -42.7544, -10.1158
8.28723, 5, 9.92672, 15.3229, 31.0123, 14.6592, -42.7817, -10.0933
8.29521, 5, 9.91217, 15.3253, 31.0226, 14.63, -42.8088, -10.071
8.30316, 5, 9.89756, 15.3277, 31.0328, 14.6011, -42.8359, -10.0491
8.31124, 5, 9.88313, 15.3302, 31.0429, 14.5723, -42.8636, -10.027
8.31917, 5, 9.86861, 15.3326, 31.0531, 14.543, -42.8916, -10.0047
8.32718, 5, 9.85416, 15.3351, 31.0633, 14.5134, -42.9192, -9.98215
8.33524, 5, 9.83971, 15.3375, 31.0735, 14.4843, -42.9466, -9.95925
8.34315, 5, 9.82509, 15.34, 31.0839, 14.4556, -42.9739, -9.93641
8.35122, 5, 9.81048, 15.3425, 31.0942, 14.4271, -43.0015, -9.91396
8.35934, 5, 9.79596, 15.345, 31.1044, 14.398, -43.0296, -9.89183
8.36715, 5, 9.78137, 15.3475, 31.1146, 14.3685, -43.0574, -9.86991
8.37552, 5, 9.76691, 15.3501, 31.1247, 14.3395, -43.0848, -9.84811
8.38403, 5, 9.75235, 15.3526, 31.1349, 14.3109, -43.112, -9.82634
8.39214, 5, 9.73777, 15.3551, 31.145, 14.2825, -43.1393, -9.80406
8.39959, 5, 9.72328, 15.3577, 31.155, 14.2536, -43.1673, -9.78166
8.40804, 5, 9.70876, 15.3601, 31.1651, 14.2244, -43.1953, -9.75926
8.41616, 5, 9.69424, 15.3626, 31.1751, 14.1958, -43.2229, -9.73719
8.42387, 5, 9.67957, 15.365, 31.1851, 14.1676, -43.2503, -9.71528
8.43224, 5, 9.6648, 15.3675, 31.1953, 14.1395, -43.2777, -9.69366
8.43918, 5, 9.65016, 15.3699, 31.2054, 14.1109, -43.3056, -9.67214
8.44798, 5, 9.63552, 15.3724, 31.2155, 14.0818, -43.3338, -9.65047
8.45623, 5, 9.62091, 15.3748, 31.2255, 14.0534, -43.3614, -9.6286
8.4633, 5, 9.60637, 15.3774, 31.2355, 14.0253, -43.3887, -9.60648
8.47217, 5, 9.59178, 15.3799, 31.2455, 13.9972, -43.4159, -9.58415
8.48028, 5, 9.57726, 15.3825, 31.2556, 13.9687, -43.4437, -9.562
8.48758, 5, 9.56279, 15.3852, 31.2655, 13.9397, -43.472, -9.54025
8.49647, 5, 9.54827, 15.3879, 31.2755, 13.9112, -43.4999, -9.51884
8.50362, 5, 9.53375, 15.3906, 31.2854, 13.883, -43.5274, -9.49745
8.51173, 5, 9.5191, 15.3934, 31.2953, 13.8551, -43.5548, -9.4764
8.52057, 5, 9.50436, 15.3961, 31.3053, 13.8267, -43.5825, -9.45519
8.52771, 5, 9.48975, 15.3988, 31.3153, 13.7978, -43.6106, -9.43373
8.53576, 5, 9.47513, 15.4014, 31.3253, 13.7693, -43.6385, -9.41193
8.54474, 5, 9.46056, 15.4041, 31.3352, 13.7413, -43.6659, -9.38996
8.55168, 5, 9.45329, 15.4054, 31.3401, 13.7274, -43.6795, -9.37902
8.55919, 5, 9.43867, 15.4081, 31.3499, 13.6994, -43.7068, -9.35748
8.56902, 5, 9.41676, 15.4123, 31.3647, 13.6561, -43.7486, -9.3258
8.57714, 5, 9.40218, 15.415, 31.3744, 13.6276, -43.7767, -9.30482
8.5832, 5, 9.39489, 15.4164, 31.3793, 13.6136, -43.7906, -9.29436
8.59312, 5, 9.37299, 15.4205, 31.394, 13.572, -43.8318, -9.26284
8.59914, 5, 9.36563, 15.4219, 31.3989, 13.5581, -43.8455, -9.25211
8.60718, 5, 9.35079, 15.4246, 31.4088, 13.5298, -43.8732, -9.23057
8.61742, 5, 9.32877, 15.4285, 31.4237, 13.4871, -43.9157, -9.19827
8.62319, 5, 9.32143, 15.4298, 31.4286, 13.4732, -43.9296, -9.18764
8.6327, 5, 9.29945, 15.4338, 31.4434, 13.4316, -43.9708, -9.15601
8.64153, 5, 9.28485, 15.4365, 31.453, 13.4037, -43.9981, -9.1353
8.64723, 5, 9.2775, 15.4378, 31.4579, 13.3895, -44.0119, -9.12494
8.65677, 5, 9.25552, 15.442, 31.4725, 13.347, -44.0543, -9.09375
8.66555, 5, 9.24823, 15.4434, 31.4822, 13.3194, -44.0823, -9.07272
8.67121, 5, 9.23357, 15.4463, 31.487, 13.3057, -44.0962, -9.06207
8.68072, 5, 9.21895, 15.4493, 31.4967, 13.2786, -44.1237, -9.04073
8.68815, 5, 9.20414, 15.4523, 31.5063, 13.2509, -44.1512, -9.01923
8.69521, 5, 9.18927, 15.4553, 31.516, 13.2227, -44.1793, -8.99793
8.70314, 5, 9.17448, 15.4583, 31.5257, 13.1948, -44.2077, -8.97704
8.71114, 5, 9.15978, 15.4613, 31.5354, 13.1674, -44.2355, -8.95626
8.7192, 5, 9.14509, 15.4643, 31.5452, 13.1401, -44.2629, -8.93567
8.72715, 5, 9.13043, 15.4673, 31.5549, 13.1125, -44.2903, -8.91507
8.73517, 5, 9.11575, 15.4703, 31.5644, 13.0844, -44.3182, -8.89425
8.74315, 5, 9.10118, 15.4734, 31.5741, 13.0566, -44.3466, -8.87315
8.75116, 5, 9.08656, 15.4765, 31.5837, 13.0294, -44.3747, -8.85168
8.7592, 5, 9.07196, 15.4796, 31.5932, 13.0023, -44.4024, -8.83027
8.76719, 5, 9.05734, 15.4826, 31.6028, 12.975, -44.43, -8.80919
8.77514, 5, 9.04263, 15.4856, 31.6124, 12.947, -44.4578, -8.78844
8.78321, 5, 9.02789, 15.4886, 31.6219, 12.9191, -44.4861, -8.76793
8.79114, 5, 9.01324, 15.4916, 31.6315, 12.8916, -44.5142, -8.74754
8.79916, 5, 8.99864, 15.4945, 31.6412, 12.8644, -44.5418, -8.72716
8.8072, 5, 8.98408, 15.4974, 31.6507, 12.8371, -44.5693, -8.70666
8.81515, 5, 8.9694, 15.5004, 31.6603, 12.8092, -44.597, -8.68583
8.82316, 5, 8.95471, 15.5035, 31.6698, 12.7814, -44.6253, -8.66456
8.83122, 5, 8.94008, 15.5065, 31.6792, 12.754, -44.6537, -8.64351
8.83914, 5, 8.92542, 15.5097, 31.6886, 12.727, -44.6815, -8.62284
8.84714, 5, 8.9108, 15.5128, 31.698, 12.7001, -44.7092, -8.6024
8.8552, 5, 8.89607, 15.516, 31.7073, 12.6726, -44.737, -8.58222
8.86313, 5, 8.88118, 15.5193, 31.7167, 12.6448, -44.7654, -8.56213
8.87124, 5, 8.86643, 15.5225, 31.7261, 12.6175, -44.7938, -8.54198
8.87926, 5, 8.85167, 15.5257, 31.7355, 12.5906, -44.8217, -8.52155
8.88722, 5, 8.8369, 15.5288, 31.745, 12.5638, -44.8493, -8.50087
8.89529, 5, 8.82221, 15.532, 31.7545, 12.5367, -44.8769, -8.48007
8.90324, 5, 8.80737, 15.5351, 31.764, 12.5091, -44.9052, -8.45921
8.91125, 5, 8.79258, 15.5383, 31.7735, 12.4819, -44.9338, -8.43871
8.9194, 5, 8.77788, 15.5415, 31.7829, 12.4552, -44.962, -8.4185
8.92714, 5, 8.76316, 15.5448, 31.7922, 12.4287, -44.9899, -8.39846
8.93514, 5, 8.74842, 15.548, 31.8015, 12.4021, -45.0177, -8.37857
8.94323, 5, 8.73356, 15.5511, 31.8108, 12.3748, -45.0461, -8.35891
8.95116, 5, 8.71865, 15.5542, 31.82, 12.3475, -45.0748, -8.33897
8.95963, 5, 8.7038, 15.5573, 31.8293, 12.3207, -45.103, -8.31877
8.96742, 5, 8.68899, 15.5604, 31.8385, 12.2942, -45.1308, -8.29827
8.97536, 5, 8.67424, 15.5635, 31.8478, 12.2677, -45.1585, -8.27778
8.98358, 5, 8.65951, 15.5667, 31.8571, 12.2408, -45.1867, -8.25753
8.9915, 5, 8.64472, 15.57, 31.8664, 12.2135, -45.2155, -8.23745
8.99969, 5, 8.63005, 15.5733, 31.8757, 12.1866, -45.2439, -8.21771
9.00822, 5, 8.61536, 15.5767, 31.885, 12.1601, -45.2719, -8.19808
9.01568, 5, 8.60063, 15.5802, 31.8942, 12.1338, -45.2998, -8.17859
9.02425, 5, 8.58587, 15.5836, 31.9034, 12.1072, -45.3278, -8.15889
9.03183, 5, 8.57099, 15.587, 31.9126, 12.0801, -45.3564, -8.139
9.04036, 5, 8.55614, 15.5905, 31.9218, 12.0531, -45.3848, -8.11864
9.04768, 5, 8.54876, 15.5922, 31.9263, 12.0397, -45.4126, -8.09828
9.05631, 5, 8.52665, 15.5974, 31.9401, 12.0001, -45.4403, -8.07819
9.06312, 5, 8.51931, 15.5992, 31.9447, 11.987, -45.4542, -8.06829
9.07219, 5, 8.49722, 15.6045, 31.9583, 11.9466, -45.4968, -8.03901
9.07917, 5, 8.48984, 15.6062, 31.9629, 11.933, -45.5111, -8.02928
9.08834, 5, 8.46784, 15.6114, 31.9767, 11.8928, -45.5536, -8.00036
9.09513, 5, 8.4605, 15.6131, 31.9813, 11.8795, -45.5675, -7.9907
9.10478, 5, 8.43851, 15.6182, 31.995, 11.8403, -45.6094, -7.96141
9.11245, 5, 8.42373, 15.6216, 32.004, 11.8138, -45.638, -7.9416
9.11917, 5, 8.4163, 15.6233, 32.0085, 11.8003, -45.6524, -7.93155
9.12872, 5, 8.39407, 15.6284, 32.022, 11.7602, -45.6946, -7.90141
9.13666, 5, 8.37923, 15.6319, 32.031, 11.7339, -45.7225, -7.88163
9.14465, 5, 8.36441, 15.6354, 32.0399, 11.7078, -45.7503, -7.86211
9.15294, 5, 8.34964, 15.6391, 32.0489, 11.6816, -45.7787, -7.84274
9.16072, 5, 8.33485, 15.6428, 32.0579, 11.6549, -45.8075, -7.82349
9.1687, 5, 8.32742, 15.6446, 32.0668, 11.6283, -45.8357, -7.80432
9.17688, 5, 8.31265, 15.6482, 32.0713, 11.6022, -45.8638, -7.785
9.18416, 5, 8.2979, 15.6518, 32.0804, 11.5892, -45.8777, -7.77527
9.1921, 5, 8.28317, 15.6554, 32.0895, 11.5635, -45.9058, -7.75546
9.20017, 5, 8.26835, 15.659, 32.0985, 11.5377, -45.9345, -7.73544
9.20712, 5, 8.25342, 15.6627, 32.1075, 11.5112, -45.9631, -7.71546
9.21612, 5, 8.23859, 15.6664, 32.1164, 11.4847, -45.9911, -7.69573
9.22412, 5, 8.22381, 15.6701, 32.1253, 11.4587, -46.019, -7.67629
9.23213, 5, 8.20906, 15.6737, 32.1342, 11.4328, -46.0469, -7.65717
9.2402, 5, 8.19436, 15.6772, 32.143, 11.4071, -46.0756, -7.63815
9.24811, 5, 8.17953, 15.6807, 32.1518, 11.3809, -46.1043, -7.61917
9.25614, 5, 8.1648, 15.6843, 32.1606, 11.3543, -46.1325, -7.60015
9.26418, 5, 8.15004, 15.6878, 32.1694, 11.3281, -46.1604, -7.58083
9.27221, 5, 8.13524, 15.6914, 32.1781, 11.3024, -46.1884, -7.56128
9.28012, 5, 8.12046, 15.695, 32.1869, 11.2768, -46.2169, -7.54162
9.28818, 5, 8.10553, 15.6988, 32.1957, 11.2511, -46.2456, -7.52222
9.29613, 5, 8.09053, 15.7026, 32.2045, 11.2248, -46.2737, -7.5031
9.30412, 5, 8.0756, 15.7064, 32.2134, 11.1984, -46.3016, -7.48423
9.31219, 5, 8.06078, 15.7102, 32.2222, 11.1723, -46.3294, -7.46542
9.31913, 5, 8.04604, 15.714, 32.2309, 11.1466, -46.3578, -7.44679
9.32722, 5, 8.03131, 15.7178, 32.2396, 11.121, -46.3866, -7.42806
9.33513, 5, 8.01648, 15.7216, 32.2483, 11.095, -46.4151, -7.40909
9.34316, 5, 8.00178, 15.7255, 32.2569, 11.0686, -46.4432, -7.38994
9.35115, 5, 7.98706, 15.7294, 32.2656, 11.0425, -46.4712, -7.37072
9.35912, 5, 7.97229, 15.7333, 32.2744, 11.0169, -46.4996, -7.35146
9.36736, 5, 7.9575, 15.7371, 32.283, 10.9915, -46.5285, -7.3322
9.37536, 5, 7.94253, 15.7409, 32.2916, 10.966, -46.5569, -7.31336
9.38319, 5, 7.92765, 15.7446, 32.3003, 10.94, -46.585, -7.29485
9.39147, 5, 7.91278, 15.7483, 32.309, 10.9137, -46.6129, -7.27619
9.40001, 5, 7.89792, 15.752, 32.3177, 10.8879, -46.6412, -7.25783
9.40814, 5, 7.88314, 15.7558, 32.3264, 10.8624, -46.67, -7.23939
9.41564, 5, 7.8682, 15.7597, 32.335, 10.8371, -46.6986, -7.22087
9.42412, 5, 7.8533, 15.7636, 32.3434, 10.8117, -46.7268, -7.2019
9.43112, 5, 7.83851, 15.7676, 32.3518, 10.7857, -46.7549, -7.18289
9.43988, 5, 7.82373, 15.7716, 32.3603, 10.7599, -46.7831, -7.16383
9.44818, 5, 7.80897, 15.7755, 32.3688, 10.7347, -46.8119, -7.14508
9.45516, 5, 7.79401, 15.7794, 32.3773, 10.7096, -46.8406, -7.12638
9.46405, 5, 7.77894, 15.7834, 32.3859, 10.6848, -46.8686, -7.10798
9.47221, 5, 7.76397, 15.7875, 32.3943, 10.6592, -46.8965, -7.08967
9.47935, 5, 7.749, 15.7915, 32.4028, 10.6334, -46.9246, -7.07144
9.48837, 5, 7.73409, 15.7955, 32.4113, 10.6079, -46.9534, -7.05314
9.4955, 5, 7.71921, 15.7994, 32.4199, 10.5828, -46.9822, -7.03473
9.50365, 5, 7.70428, 15.8032, 32.4284, 10.5579, -47.0105, -7.01598
9.5124, 5, 7.68944, 15.8071, 32.4371, 10.5329, -47.0387, -6.99704
9.51962, 5, 7.6746, 15.811, 32.4455, 10.5074, -47.0668, -6.97816
9.52768, 5, 7.65975, 15.815, 32.4539, 10.4816, -47.0956, -6.95961
9.53661, 5, 7.64488, 15.819, 32.4622, 10.4563, -47.1243, -6.94132
9.54372, 5, 7.6374, 15.8232, 32.4706, 10.4312, -47.1525, -6.92316
9.55217, 5, 7.61501, 15.8274, 32.4789, 10.4064, -47.1804, -6.90515
9.55911, 5, 7.60761, 15.8295, 32.483, 10.3939, -47.1944, -6.89615
9.5671, 5, 7.59284, 15.8336, 32.4913, 10.3685, -47.2226, -6.87816
9.57521, 5, 7.5781, 15.8378, 32.4997, 10.3427, -47.2515, -6.86009
9.58501, 5, 7.55586, 15.8441, 32.512, 10.3048, -47.2945, -6.83251
9.59315, 5, 7.54094, 15.8484, 32.5203, 10.28, -47.3227, -6.81383
9.59915, 5, 7.53353, 15.8505, 32.5245, 10.2676, -47.3366, -6.80445
9.60921, 5, 7.51122, 15.8569, 32.5371, 10.2299, -47.3795, -6.77664
9.61517, 5, 7.50377, 15.859, 32.5413, 10.2171, -47.394, -6.76753
9.6231, 5, 7.48882, 15.8632, 32.5497, 10.1914, -47.4228, -6.74948
9.63338, 5, 7.46619, 15.8694, 32.5621, 10.1538, -47.4651, -6.72256
9.6392, 5, 7.45869, 15.8715, 32.5662, 10.1414, -47.4791, -6.71359
9.64866, 5, 7.43617, 15.8777, 32.5785, 10.1045, -47.5218, -6.6867
9.6575, 5, 7.42127, 15.8819, 32.5867, 10.0793, -47.5509, -6.66874
9.66319, 5, 7.41387, 15.8841, 32.5908, 10.0666, -47.5654, -6.65968
9.67274, 5, 7.39145, 15.8906, 32.6031, 10.0289, -47.608, -6.63199
9.68152, 5, 7.38403, 15.8927, 32.6073, 10.0165, -47.6221, -6.62268
9.68717, 5, 7.36924, 15.897, 32.6154, 9.9919, -47.6505, -6.60422
9.6951, 5, 7.3544, 15.9012, 32.6235, 9.96735, -47.6794, -6.58597
9.70411, 5, 7.33953, 15.9055, 32.6317, 9.94239, -47.7085, -6.56781
9.71117, 5, 7.32451, 15.9098, 32.6399, 9.91707, -47.7369, -6.54988
9.71911, 5, 7.3094, 15.9141, 32.6481, 9.89205, -47.7651, -6.53224
9.7271, 5, 7.29441, 15.9185, 32.6564, 9.86763, -47.7934, -6.51439
9.73615, 5, 7.27942, 15.9228, 32.6645, 9.84331, -47.8223, -6.49664
9.7431, 5, 7.2645, 15.927, 32.6725, 9.81918, -47.8514, -6.47877
9.75116, 5, 7.24962, 15.9312, 32.6804, 9.79438, -47.88, -6.46087
9.75912, 5, 7.23465, 15.9355, 32.6885, 9.76935, -47.9084, -6.4426
9.7671, 5, 7.21972, 15.9398, 32.6965, 9.74458, -47.9367, -6.42447
9.77608, 5, 7.20487, 15.9442, 32.7045, 9.72016, -47.9655, -6.40654
9.7831, 5, 7.19005, 15.9487, 32.7126, 9.69597, -47.9946, -6.38894
9.79109, 5, 7.17516, 15.9531, 32.7206, 9.67158, -48.023, -6.37146
9.80011, 5, 7.16013, 15.9575, 32.7285, 9.64676, -48.0512, -6.3539
9.80816, 5, 7.14514, 15.962, 32.7364, 9.62186, -48.0795, -6.33648
9.81609, 5, 7.13022, 15.9664, 32.7445, 9.59725, -48.1083, -6.31899
9.82318, 5, 7.11533, 15.9709, 32.7526, 9.57309, -48.1374, -6.30138
9.83112, 5, 7.10052, 15.9755, 32.7607, 9.54905, -48.1661, -6.28343
9.8391, 5, 7.08561, 15.9801, 32.7688, 9.52488, -48.1944, -6.26541
9.84716, 5, 7.07069, 15.9846, 32.7769, 9.50004, -48.2228, -6.24731
9.85511, 5, 7.05587, 15.9891, 32.7846, 9.47514, -48.2516, -6.22942
9.86314, 5, 7.04102, 15.9936, 32.7925, 9.45056, -48.2809, -6.21178
9.87113, 5, 7.02618, 15.9981, 32.8004, 9.42629, -48.3095, -6.1944
9.87913, 5, 7.01122, 16.0026, 32.8083, 9.40218, -48.3379, -6.17733
9.88724, 5, 6.99616, 16.0071, 32.8161, 9.37783, -48.3661, -6.16013
9.8952, 5, 6.98123, 16.0118, 32.824, 9.35299, -48.3948, -6.14306
9.90322, 5, 6.96622, 16.0164, 32.8317, 9.32823, -48.4241, -6.12587
9.91127, 5, 6.95126, 16.0209, 32.8394, 9.30389, -48.4529, -6.10865
9.9192, 5, 6.93631, 16.0254, 32.8471, 9.27987, -48.4815, -6.09105
9.92737, 5, 6.92124, 16.0301, 32.855, 9.25605, -48.5099, -6.07331
9.93524, 5, 6.90627, 16.0347, 32.8629, 9.23182, -48.5387, -6.0556
9.94312, 5, 6.89129, 16.0394, 32.8708, 9.20724, -48.568, -6.03804
9.95117, 5, 6.87632, 16.044, 32.8787, 9.1827, -48.5967, -6.02076
9.95923, 5, 6.86128, 16.0486, 32.8865, 9.15853, -48.625, -6.00356
9.96723, 5, 6.84611, 16.0531, 32.8941, 9.13468, -48.6533, -5.9866
9.97565, 5, 6.83098, 16.0577, 32.9018, 9.11095, -48.6821, -5.96964
9.98343, 5, 6.81593, 16.0624, 32.9095, 9.08698, -48.7115, -5.95267
9.99145, 5, 6.8009, 16.067, 32.9172, 9.06255, -48.7404, -5.93568
9.99964, 5, 6.78595, 16.0718, 32.9249, 9.03817, -48.769, -5.91847
10.0082, 5, 6.77099, 16.0765, 32.9327, 9.01438, -48.7975, -5.90118
10.0156, 5, 6.75605, 16.0812, 32.9403, 8.9908, -48.8262, -5.88352
10.024, 5, 6.74118, 16.0859, 32.9479, 8.96743, -48.8555, -5.86603
10.0323, 5, 6.72631, 16.0906, 32.9554, 8.94369, -48.8844, -5.84872
10.0397, 5, 6.7114, 16.0954, 32.9631, 8.91945, -48.9129, -5.83186
10.0482, 5, 6.69636, 16.1003, 32.9709, 8.8952, -48.9411, -5.81524
10.0558, 5, 6.68881, 16.1027, 32.9786, 8.87139, -48.9699, -5.79844
10.0641, 5, 6.66632, 16.1099, 32.9864, 8.84783, -48.9992, -5.78172
10.0712, 5, 6.65883, 16.1123, 32.9903, 8.83612, -49.0138, -5.77339
10.0803, 5, 6.63646, 16.1194, 33.0016, 8.80072, -49.0569, -5.7482
10.0871, 5, 6.62903, 16.1218, 33.0053, 8.78871, -49.0712, -5.73977
10.0963, 5, 6.60657, 16.129, 33.0164, 8.75251, -49.1143, -5.714
10.1031, 5, 6.5991, 16.1315, 33.0202, 8.74059, -49.1289, -5.70535
10.1132, 5, 6.5768, 16.1388, 33.0314, 8.7053, -49.1726, -5.67934
10.1192, 5, 6.56934, 16.1412, 33.0351, 8.69371, -49.1869, -5.67067
10.1286, 5, 6.54689, 16.1484, 33.0464, 8.65848, -49.2295, -5.64528
10.1351, 5, 6.53934, 16.1508, 33.0501, 8.6465, -49.2437, -5.6369
10.1432, 5, 6.52421, 16.1556, 33.0575, 8.6224, -49.2727, -5.62028
10.1527, 5, 6.50171, 16.163, 33.0685, 8.5866, -49.3165, -5.59533
10.1615, 5, 6.48665, 16.1678, 33.0761, 8.56317, -49.3452, -5.57881
10.1672, 5, 6.4792, 16.1702, 33.0799, 8.55154, -49.3595, -5.57052
10.1767, 5, 6.46423, 16.1775, 33.0912, 8.51629, -49.4025, -5.54543
10.1841, 5, 6.4492, 16.1799, 33.095, 8.50434, -49.4171, -5.53696
10.1911, 5, 6.43425, 16.1849, 33.1026, 8.48013, -49.4464, -5.51972
10.2002, 5, 6.41929, 16.1899, 33.1101, 8.45616, -49.4751, -5.50254
10.2081, 5, 6.40433, 16.195, 33.1173, 8.43268, -49.5036, -5.4856
10.2151, 5, 6.3893, 16.2001, 33.1246, 8.40945, -49.5319, -5.46886
10.2231, 5, 6.37412, 16.2051, 33.132, 8.38625, -49.5609, -5.45232
10.2321, 5, 6.35897, 16.2101, 33.1393, 8.36272, -49.5902, -5.43568
10.2391, 5, 6.34392, 16.2151, 33.1466, 8.3388, -49.6191, -5.41929
10.2471, 5, 6.3289, 16.2203, 33.1539, 8.31507, -49.6476, -5.40297
10.2551, 5, 6.31385, 16.2254, 33.1611, 8.29175, -49.6761, -5.38663
10.2631, 5, 6.29876, 16.2305, 33.1683, 8.26861, -49.705, -5.37032
10.2711, 5, 6.28369, 16.2356, 33.1754, 8.24558, -49.7342, -5.35377
10.2801, 5, 6.26871, 16.2406, 33.1826, 8.22218, -49.763, -5.33706
10.2871, 5, 6.25368, 16.2457, 33.19, 8.19849, -49.7915, -5.32019
10.2951, 5, 6.23865, 16.2508, 33.1974, 8.17487, -49.8199, -5.30336
10.3042, 5, 6.22342, 16.256, 33.2047, 8.15174, -49.8488, -5.28693
10.3111, 5, 6.20822, 16.2613, 33.212, 8.12888, -49.8782, -5.27087
10.3191, 5, 6.19313, 16.2664, 33.2193, 8.10622, -49.9072, -5.2549
10.3281, 5, 6.178, 16.2715, 33.2264, 8.08334, -49.9359, -5.23895
10.3361, 5, 6.16299, 16.2766, 33.2335, 8.05993, -49.9644, -5.22294
10.3431, 5, 6.14798, 16.2818, 33.2406, 8.03643, -49.9934, -5.20689
10.3511, 5, 6.13291, 16.287, 33.2478, 8.01318, -50.0228, -5.19075
10.3591, 5, 6.11791, 16.2921, 33.2549, 7.9903, -50.0518, -5.1745
10.3672, 5, 6.10289, 16.2972, 33.2621, 7.96756, -50.0803, -5.15781
10.3751, 5, 6.08788, 16.3023, 33.2693, 7.94467, -50.1088, -5.14114
10.3832, 5, 6.07281, 16.3075, 33.2764, 7.92127, -50.1376, -5.12453
10.392, 5, 6.05761, 16.3127, 33.2833, 7.89773, -50.167, -5.10796
10.4001, 5, 6.04253, 16.318, 33.2904, 7.87455, -50.1961, -5.09188
10.4072, 5, 6.02742, 16.3234, 33.2975, 7.85168, -50.2248, -5.07604
10.416, 5, 6.01235, 16.3287, 33.3047, 7.82908, -50.2534, -5.06032
10.4242, 5, 5.99732, 16.3339, 33.3118, 7.8064, -50.2824, -5.04466
10.4312, 5, 5.98219, 16.3392, 33.319, 7.78335, -50.3118, -5.02892
10.44, 5, 5.96707, 16.3445, 33.3261, 7.75994, -50.3409, -5.01329
10.4481, 5, 5.95199, 16.3499, 33.333, 7.73671, -50.3695, -4.99728
10.4551, 5, 5.93689, 16.3553, 33.3398, 7.71371, -50.398, -4.98129
10.464, 5, 5.92178, 16.3605, 33.3467, 7.69098, -50.4268, -4.96511
10.4721, 5, 5.90645, 16.3659, 33.3537, 7.66837, -50.4563, -4.94861
10.4794, 5, 5.89118, 16.3712, 33.3606, 7.64534, -50.4855, -4.93247
10.4882, 5, 5.876, 16.3766, 33.3675, 7.62195, -50.5144, -4.9165
10.4954, 5, 5.86081, 16.3821, 33.3745, 7.59873, -50.543, -4.90066
10.5036, 5, 5.84571, 16.3876, 33.3814, 7.57587, -50.572, -4.8852
10.5129, 5, 5.83057, 16.3929, 33.3882, 7.55332, -50.6014, -4.86949
10.5202, 5, 5.81549, 16.3983, 33.395, 7.53096, -50.6305, -4.85414
10.5277, 5, 5.80047, 16.4037, 33.4018, 7.50829, -50.6591, -4.83857
10.537, 5, 5.78545, 16.4092, 33.4088, 7.48524, -50.6875, -4.823
10.5442, 5, 5.77039, 16.4146, 33.4158, 7.46197, -50.7164, -4.80729
10.5518, 5, 5.76282, 16.4199, 33.4227, 7.43913, -50.7459, -4.79131
10.561, 5, 5.73994, 16.4252, 33.4298, 7.41652, -50.7751, -4.77529
10.5681, 5, 5.7248, 16.4306, 33.4367, 7.39426, -50.8038, -4.75915
10.5751, 5, 5.71721, 16.4333, 33.4402, 7.38307, -50.8182, -4.75107
10.5851, 5, 5.69454, 16.4416, 33.4502, 7.34909, -50.8614, -4.72744
10.5922, 5, 5.67945, 16.4472, 33.457, 7.32606, -50.8911, -4.71192
10.5991, 5, 5.67186, 16.45, 33.4603, 7.31461, -50.9058, -4.70432
10.6092, 5, 5.64924, 16.4583, 33.4705, 7.28098, -50.949, -4.68152
10.6151, 5, 5.64171, 16.461, 33.4738, 7.26991, -50.9633, -4.6739
10.6245, 5, 5.61905, 16.4694, 33.4839, 7.23693, -51.0064, -4.65117
10.6311, 5, 5.61148, 16.4723, 33.4872, 7.22584, -51.0212, -4.64356
10.6412, 5, 5.58858, 16.4806, 33.4972, 7.19173, -51.0654, -4.62017
10.6471, 5, 5.58094, 16.4833, 33.5005, 7.18031, -51.0799, -4.61229
10.6566, 5, 5.55812, 16.4916, 33.5103, 7.14648, -51.1231, -4.58839
10.6632, 5, 5.55053, 16.4944, 33.5136, 7.13538, -51.1375, -4.58039
10.6727, 5, 5.52779, 16.5028, 33.5238, 7.10243, -51.1816, -4.55656
10.6807, 5, 5.52021, 16.5057, 33.5271, 7.08034, -51.2109, -4.54086
10.6881, 5, 5.50497, 16.5114, 33.5339, 7.06911, -51.2254, -4.53324
10.6967, 5, 5.48979, 16.517, 33.5406, 7.04631, -51.2541, -4.51796
10.7041, 5, 5.47463, 16.5225, 33.5473, 7.02359, -51.2826, -4.50277
10.7111, 5, 5.45948, 16.5281, 33.5539, 7.00127, -51.3119, -4.48779
10.7191, 5, 5.4443, 16.5338, 33.5604, 6.97914, -51.3416, -4.47244
10.7271, 5, 5.42895, 16.5394, 33.5668, 6.95724, -51.3707, -4.45726
10.7361, 5, 5.41375, 16.5449, 33.5734, 6.9351, -51.3995, -4.44176
10.7441, 5, 5.39857, 16.5505, 33.58, 6.91256, -51.4283, -4.42625
10.7521, 5, 5.38345, 16.5561, 33.5865, 6.88974, -51.4575, -4.41068
10.7615, 5, 5.36079, 16.5648, 33.5963, 6.85612, -51.5014, -4.3868
10.7671, 5, 5.3532, 16.5678, 33.5996, 6.84508, -51.5159, -4.37901
10.7751, 5, 5.33813, 16.5736, 33.6061, 6.82318, -51.5446, -4.36356
10.7831, 5, 5.32311, 16.5794, 33.6124, 6.80119, -51.5732, -4.34834
10.7911, 5, 5.30806, 16.5851, 33.6188, 6.77885, -51.6025, -4.33325
10.8001, 5, 5.29298, 16.591, 33.6252, 6.75612, -51.6321, -4.31815
10.8081, 5, 5.27772, 16.5969, 33.6318, 6.73342, -51.6613, -4.3031
10.8161, 5, 5.26249, 16.6028, 33.6383, 6.71123, -51.6902, -4.28821
10.8241, 5, 5.24735, 16.6086, 33.6448, 6.6894, -51.719, -4.27315
10.8321, 5, 5.23224, 16.6144, 33.6513, 6.66778, -51.7484, -4.258
10.8391, 5, 5.21723, 16.6202, 33.6578, 6.64584, -51.7781, -4.24267
10.8481, 5, 5.20211, 16.6262, 33.6642, 6.62354, -51.8071, -4.22713
10.8551, 5, 5.18695, 16.6321, 33.6705, 6.60109, -51.8359, -4.21172
10.8641, 5, 5.17187, 16.6381, 33.6767, 6.57887, -51.8646, -4.19624
10.8721, 5, 5.15683, 16.6439, 33.6829, 6.55699, -51.894, -4.181
10.8791, 5, 5.14178, 16.6498, 33.6893, 6.53538, -51.9237, -4.16604
10.8881, 5, 5.12659, 16.6558, 33.6955, 6.51366, -51.9529, -4.1512
10.8952, 5, 5.11133, 16.6616, 33.7017, 6.49157, -51.9819, -4.13661
10.9032, 5, 5.0962, 16.6674, 33.708, 6.46916, -52.0108, -4.12199
10.9116, 5, 5.08101, 16.6732, 33.7143, 6.44687, -52.0403, -4.10723
10.9192, 5, 5.06586, 16.679, 33.7204, 6.42508, -52.07, -4.09266
10.9272, 5, 5.05066, 16.685, 33.7265, 6.40353, -52.099, -4.07789
10.9357, 5, 5.03542, 16.6911, 33.7326, 6.38226, -52.1278, -4.06299
10.9441, 5, 5.02026, 16.6972, 33.7389, 6.36079, -52.1565, -4.04775
10.9511, 5, 5.00508, 16.7032, 33.7453, 6.33883, -52.1859, -4.03239
10.9599, 5, 4.98995, 16.7092, 33.7516, 6.31668, -52.2155, -4.01704
10.9681, 5, 4.97471, 16.7153, 33.7579, 6.29475, -52.2445, -4.002
10.9752, 5, 4.95935, 16.7214, 33.7643, 6.27317, -52.2735, -3.98705
10.9842, 5, 4.94408, 16.7274, 33.7705, 6.25167, -52.3023, -3.97247
10.9915, 5, 4.92881, 16.7334, 33.7767, 6.23034, -52.3317, -3.9581
10.9995, 5, 4.91356, 16.7394, 33.7828, 6.20864, -52.3613, -3.94362
11.0083, 5, 4.89836, 16.7456, 33.7888, 6.18658, -52.3902, -3.92946
11.0156, 5, 4.88311, 16.7518, 33.7949, 6.16456, -52.4189, -3.91498
11.0242, 5, 4.86797, 16.758, 33.801, 6.14289, -52.4477, -3.90052
11.0324, 5, 4.85285, 16.7641, 33.8071, 6.12159, -52.4771, -3.88595
11.0399, 5, 4.83771, 16.7702, 33.8131, 6.10041, -52.5068, -3.87121
11.0482, 5, 4.82256, 16.7763, 33.8191, 6.07906, -52.536, -3.85633
11.0565, 5, 4.81492, 16.7794, 33.8222, 6.06824, -52.5649, -3.84143
11.0631, 5, 4.79965, 16.7854, 33.8281, 6.04631, -52.5793, -3.83396
11.0721, 5, 4.77696, 16.7944, 33.837, 6.01333, -52.6233, -3.81186
11.0791, 5, 4.76941, 16.7974, 33.8399, 6.00251, -52.6383, -3.8046
11.0871, 5, 4.75437, 16.8036, 33.8459, 5.98097, -52.6676, -3.79016
11.0962, 5, 4.73169, 16.8129, 33.8549, 5.94901, -52.7109, -3.76882
11.1031, 5, 4.7241, 16.8161, 33.858, 5.93833, -52.7253, -3.76168
11.1111, 5, 4.70899, 16.8223, 33.864, 5.91663, -52.7545, -3.74742
11.1204, 5, 4.6862, 16.8315, 33.8731, 5.88364, -52.7991, -3.72619
11.127, 5, 4.67858, 16.8347, 33.8761, 5.87272, -52.8138, -3.71911
11.1351, 5, 4.6633, 16.841, 33.8821, 5.85122, -52.8429, -3.70467
11.1447, 5, 4.64027, 16.8503, 33.8908, 5.81945, -52.8864, -3.6828
11.1534, 5, 4.62499, 16.8564, 33.8966, 5.79842, -52.9161, -3.66799
11.1591, 5, 4.61736, 16.8595, 33.8995, 5.78782, -52.931, -3.66062
11.1687, 5, 4.59457, 16.869, 33.9084, 5.75531, -52.975, -3.6386
11.1775, 5, 4.58704, 16.8722, 33.9144, 5.73358, -53.0038, -3.62401
11.1831, 5, 4.57186, 16.8786, 33.9173, 5.72283, -53.0182, -3.61686
11.1926, 5, 4.55675, 16.885, 33.9231, 5.70153, -53.0475, -3.60273
11.2, 5, 4.54176, 16.8913, 33.929, 5.68053, -53.0772, -3.58872
11.2071, 5, 4.52673, 16.8976, 33.9349, 5.65957, -53.1067, -3.57489
11.2151, 5, 4.51163, 16.9039, 33.9406, 5.63853, -53.1357, -3.56115
11.223, 5, 4.49637, 16.9101, 33.9463, 5.61705, -53.1646, -3.54723
11.2321, 5, 4.48107, 16.9163, 33.952, 5.59544, -53.1938, -3.53337
11.2401, 5, 4.46579, 16.9225, 33.9577, 5.57413, -53.2235, -3.51928
11.248, 5, 4.45051, 16.9289, 33.9635, 5.55327, -53.2528, -3.50502
11.2551, 5, 4.43529, 16.9354, 33.9693, 5.53253, -53.2817, -3.49053
11.2631, 5, 4.42, 16.9419, 33.9751, 5.51192, -53.3104, -3.4759
11.2711, 5, 4.40466, 16.9484, 33.9809, 5.49097, -53.3395, -3.46118
11.279, 5, 4.38945, 16.9548, 33.9867, 5.46955, -53.3693, -3.44676
11.287, 5, 4.37425, 16.9614, 33.9925, 5.44808, -53.3987, -3.43248
11.296, 5, 4.35908, 16.968, 33.9982, 5.42688, -53.4278, -3.41838
11.3031, 5, 4.34378, 16.9745, 34.0037, 5.40596, -53.4567, -3.40447
11.3111, 5, 4.32846, 16.9809, 34.0092, 5.38528, -53.4861, -3.39063
11.3201, 5, 4.31325, 16.9874, 34.0148, 5.3646, -53.5159, -3.37694
11.329, 5, 4.29804, 16.9939, 34.0204, 5.34356, -53.5453, -3.36326
11.336, 5, 4.28296, 17.0006, 34.026, 5.32219, -53.5742, -3.34929
11.3441, 5, 4.26786, 17.0072, 34.0315, 5.30078, -53.603, -3.33524
11.351, 5, 4.25265, 17.0137, 34.0371, 5.2797, -53.6322, -3.32111
11.3592, 5, 4.23751, 17.0202, 34.0427, 5.25898, -53.662, -3.30667
11.367, 5, 4.22237, 17.0268, 34.0482, 5.23849, -53.6915, -3.29225
11.3751, 5, 4.20722, 17.0332, 34.0537, 5.21789, -53.7205, -3.27784
11.3841, 5, 4.192, 17.0396, 34.0591, 5.19691, -53.7495, -3.2634
11.3911, 5, 4.17662, 17.046, 34.0646, 5.17554, -53.7788, -3.24926
11.3991, 5, 4.16137, 17.0525, 34.0701, 5.15428, -53.8087, -3.23539
11.4079, 5, 4.1461, 17.0591, 34.0758, 5.13326, -53.838, -3.22169
11.4161, 5, 4.13086, 17.0658, 34.0815, 5.11255, -53.867, -3.20811
11.4241, 5, 4.11568, 17.0724, 34.0871, 5.09201, -53.8958, -3.19447
11.4319, 5, 4.10039, 17.079, 34.0927, 5.07131, -53.9252, -3.18082
11.4401, 5, 4.08516, 17.0857, 34.0983, 5.05023, -53.9551, -3.16724
11.4471, 5, 4.06998, 17.0925, 34.1038, 5.02887, -53.9845, -3.15356
11.456, 5, 4.05473, 17.0991, 34.1093, 5.00764, -54.0137, -3.13971
11.4641, 5, 4.03946, 17.1056, 34.1146, 4.98679, -54.0427, -3.1258
11.4712, 5, 4.02404, 17.1122, 34.1199, 4.96622, -54.0721, -3.11161
11.4801, 5, 4.00864, 17.1191, 34.1252, 4.94582, -54.1018, -3.09757
11.4873, 5, 3.99333, 17.1259, 34.1306, 4.92526, -54.1311, -3.08355
11.4955, 5, 3.97803, 17.1327, 34.136, 4.90441, -54.16, -3.06966
11.5034, 5, 3.96277, 17.1394, 34.1413, 4.88331, -54.1887, -3.05586
11.5115, 5, 3.94749, 17.1462, 34.1465, 4.86238, -54.218, -3.04234
11.5196, 5, 3.93231, 17.1529, 34.1518, 4.84172, -54.2478, -3.02895
11.5291, 5, 3.91718, 17.1596, 34.1571, 4.82128, -54.2771, -3.01577
11.5362, 5, 3.90201, 17.1662, 34.1624, 4.80103, -54.3062, -3.00266
11.5437, 5, 3.88681, 17.1728, 34.1676, 4.78058, -54.3351, -2.98939
11.553, 5, 3.87145, 17.1796, 34.1727, 4.75979, -54.3645, -2.97612
11.56, 5, 3.85608, 17.1866, 34.1779, 4.73875, -54.3944, -2.96261
11.5677, 5, 3.84844, 17.19, 34.1805, 4.72828, -54.4091, -2.94893
11.577, 5, 3.82555, 17.2003, 34.1886, 4.69755, -54.4526, -2.93529
11.5841, 5, 3.81039, 17.2072, 34.1938, 4.67734, -54.4814, -2.92137
11.5911, 5, 3.80278, 17.2107, 34.1965, 4.66731, -54.496, -2.91429
11.601, 5, 3.77983, 17.221, 34.2044, 4.63732, -54.5407, -2.89338
11.6083, 5, 3.76465, 17.2277, 34.2097, 4.61675, -54.57, -2.8797
11.615, 5, 3.75705, 17.2311, 34.2123, 4.60638, -54.5846, -2.87301
11.6253, 5, 3.73419, 17.2413, 34.2201, 4.57528, -54.628, -2.85302
11.6311, 5, 3.72656, 17.2448, 34.2226, 4.56501, -54.6427, -2.84649
11.6406, 5, 3.70347, 17.2553, 34.2302, 4.53467, -54.6874, -2.82679
11.6485, 5, 3.68822, 17.2622, 34.2353, 4.51459, -54.7166, -2.81381
11.6552, 5, 3.68058, 17.2656, 34.2378, 4.50455, -54.7311, -2.80736
11.6647, 5, 3.6577, 17.276, 34.2456, 4.47382, -54.7743, -2.78774
11.6726, 5, 3.64246, 17.2827, 34.2507, 4.45294, -54.8037, -2.77441
11.6791, 5, 3.63477, 17.2861, 34.2532, 4.44253, -54.8187, -2.76769
11.6887, 5, 3.61944, 17.2929, 34.2608, 4.412, -54.8629, -2.74738
11.6966, 5, 3.60421, 17.2997, 34.2633, 4.40194, -54.8775, -2.7406
11.7041, 5, 3.589, 17.3067, 34.2683, 4.38197, -54.9065, -2.72696
11.7121, 5, 3.5738, 17.3138, 34.2733, 4.36207, -54.9356, -2.71353
11.72, 5, 3.55843, 17.3208, 34.2782, 4.34189, -54.9654, -2.70005
11.7271, 5, 3.54298, 17.3278, 34.2831, 4.32132, -54.9949, -2.68674
11.736, 5, 3.52767, 17.335, 34.288, 4.30058, -55.024, -2.67379
11.7441, 5, 3.51237, 17.3421, 34.293, 4.28013, -55.0528, -2.66093
11.751, 5, 3.49718, 17.349, 34.2981, 4.25981, -55.082, -2.64805
11.759, 5, 3.48193, 17.3559, 34.3031, 4.23979, -55.1119, -2.63516
11.768, 5, 3.46669, 17.363, 34.3081, 4.21983, -55.1417, -2.62219
11.7761, 5, 3.45151, 17.3702, 34.3131, 4.19963, -55.1709, -2.60924
11.7841, 5, 3.43637, 17.3774, 34.3181, 4.17907, -55.2, -2.59629
11.7921, 5, 3.42114, 17.3845, 34.3231, 4.1584, -55.2293, -2.58309
11.8016, 5, 3.40582, 17.3952, 34.3305, 4.12787, -55.2741, -2.56299
11.808, 5, 3.39046, 17.3988, 34.3329, 4.11786, -55.2888, -2.55621
11.816, 5, 3.37519, 17.4059, 34.3376, 4.09801, -55.3179, -2.54261
11.8241, 5, 3.35996, 17.4128, 34.3423, 4.07826, -55.3468, -2.52925
11.832, 5, 3.34476, 17.4198, 34.3471, 4.05833, -55.3761, -2.51599
11.84, 5, 3.32954, 17.427, 34.3518, 4.03802, -55.406, -2.50285
11.8481, 5, 3.31423, 17.4343, 34.3566, 4.01752, -55.4356, -2.48988
11.8562, 5, 3.29901, 17.4415, 34.3613, 3.99719, -55.4649, -2.47721
11.8631, 5, 3.28379, 17.4487, 34.3659, 3.97708, -55.494, -2.46443
11.871, 5, 3.26862, 17.456, 34.3707, 3.95724, -55.5235, -2.45203
11.88, 5, 3.25331, 17.4633, 34.3754, 3.93754, -55.5535, -2.43949
11.8881, 5, 3.23787, 17.4704, 34.3801, 3.91783, -55.5829, -2.42683
11.8951, 5, 3.22255, 17.4775, 34.3847, 3.89771, -55.612, -2.41405
11.9036, 5, 3.20719, 17.4847, 34.3893, 3.87741, -55.6409, -2.40122
11.9121, 5, 3.19185, 17.4921, 34.3939, 3.85716, -55.6704, -2.38833
11.92, 5, 3.17658, 17.4995, 34.3985, 3.83743, -55.7003, -2.37518
11.9276, 5, 3.16118, 17.5067, 34.4032, 3.81784, -55.7299, -2.362
11.9361, 5, 3.14586, 17.514, 34.408, 3.79845, -55.7591, -2.34866
11.9441, 5, 3.13059, 17.5213, 34.4128, 3.77899, -55.7883, -2.33547
11.9518, 5, 3.11531, 17.5285, 34.4175, 3.75919, -55.8178, -2.32241
11.9601, 5, 3.09996, 17.5356, 34.4223, 3.73905, -55.8477, -2.30967
11.968, 5, 3.08446, 17.5427, 34.4271, 3.71887, -55.8772, -2.29691
11.976, 5, 3.06899, 17.55, 34.4318, 3.69904, -55.9062, -2.28429
11.9841, 5, 3.05359, 17.5574, 34.4364, 3.67942, -55.9352, -2.27171
11.9914, 5, 3.0382, 17.5648, 34.4409, 3.65999, -55.9647, -2.25917
12.0002, 5, 3.02288, 17.5721, 34.4455, 3.64064, -55.9948, -2.24674
