hehonglu123/ABB_Primitive_Study/realrobot/movel_30_ori/curve_exe_v500_z20.csv
timestamp, cmd_num, J1, J2, J3, J4, J5, J6
0.000366, -1, -18.7716, 34.1326, 27.9418, -19.9681, -90.5853, -2.05552
0.003285, -1, -18.7716, 34.1326, 27.9418, -19.9681, -90.5853, -2.05555
0.008166, -1, -18.7716, 34.1326, 27.9418, -19.9681, -90.5854, -2.05554
0.031738, -1, -18.7716, 34.1326, 27.9418, -19.968, -90.5853, -2.05556
0.033542, -1, -18.7716, 34.1326, 27.9418, -19.968, -90.5853, -2.05557
0.035037, -1, -18.7716, 34.1326, 27.9418, -19.968, -90.5853, -2.05557
0.038828, -1, -18.7716, 34.1326, 27.9417, -19.968, -90.5853, -2.05556
0.047884, -1, -18.7715, 34.1326, 27.9418, -19.968, -90.5853, -2.05559
0.056899, -1, -18.771, 34.1325, 27.9418, -19.968, -90.5854, -2.05558
0.063941, -1, -18.7687, 34.1318, 27.9418, -19.968, -90.5854, -2.05558
0.071891, -1, -18.7635, 34.1298, 27.9419, -19.9676, -90.5849, -2.05562
0.080895, -1, -18.7546, 34.1256, 27.9422, -19.9659, -90.5827, -2.05575
0.087946, -1, -18.741, 34.1188, 27.9424, -19.9591, -90.5761, -2.05678
0.095883, -1, -18.7202, 34.1081, 27.9424, -19.9445, -90.5611, -2.06195
0.103894, -1, -18.6901, 34.0927, 27.9421, -19.9181, -90.534, -2.07368
0.112006, -1, -18.6494, 34.072, 27.9407, -19.8746, -90.4884, -2.09367
0.119875, -1, -18.5965, 34.0451, 27.9375, -19.8086, -90.4197, -2.12413
0.127892, -1, -18.53, 34.0113, 27.9319, -19.7167, -90.3231, -2.16773
0.135987, -1, -18.4496, 33.9705, 27.9232, -19.5946, -90.1948, -2.22628
0.143884, -1, -18.3552, 33.9229, 27.911, -19.4409, -90.0326, -2.29925
0.1519, -1, -18.2472, 33.8686, 27.8954, -19.2557, -89.8369, -2.38816
0.15995, -1, -18.1253, 33.8074, 27.8769, -19.0414, -89.6103, -2.49017
0.167878, -1, -17.99, 33.7397, 27.8556, -18.8022, -89.3566, -2.60448
0.175886, -1, -17.8428, 33.6662, 27.8326, -18.5431, -89.0812, -2.72837
0.183945, -1, -17.6851, 33.5873, 27.8085, -18.2692, -88.79, -2.85927
0.19189, -1, -17.5178, 33.5036, 27.7839, -17.9853, -88.4883, -2.99534
0.19994, -1, -17.3426, 33.4161, 27.759, -17.6954, -88.1798, -3.13453
0.20795, -1, -17.1617, 33.3258, 27.7338, -17.4015, -87.8674, -3.27571
0.215881, -1, -16.9769, 33.2336, 27.7086, -17.1053, -87.5525, -3.41793
0.224002, -1, -16.7897, 33.1406, 27.6836, -16.808, -87.2361, -3.56063
0.231892, -1, -16.6008, 33.047, 27.6585, -16.5094, -86.9185, -3.70368
0.239902, -1, -16.4109, 32.9532, 27.6334, -16.2102, -86.5999, -3.84689
0.248867, -1, -16.2208, 32.8593, 27.6083, -15.9102, -86.2806, -3.99048
0.255972, -1, -16.0309, 32.7656, 27.5833, -15.6092, -85.9607, -4.13424
0.263976, -1, -15.8413, 32.6718, 27.5582, -15.308, -85.6403, -4.27833
0.272783, -1, -15.6525, 32.5781, 27.5331, -15.0064, -85.3192, -4.42297
0.280032, -1, -15.4638, 32.4844, 27.5078, -14.7043, -84.9979, -4.56774
0.287538, -1, -15.2756, 32.3903, 27.4826, -14.4019, -84.6762, -4.71244
0.296752, -1, -15.0879, 32.296, 27.4573, -14.0992, -84.354, -4.85735
0.303948, -1, -14.9001, 32.2014, 27.4321, -13.7958, -84.0316, -5.0023
0.310939, -1, -14.806, 32.1539, 27.4194, -13.6442, -83.8704, -5.0748
0.321226, -1, -14.5225, 32.0111, 27.381, -13.1891, -83.3859, -5.29276
0.326961, -1, -14.4275, 31.9635, 27.3682, -13.0373, -83.2243, -5.36545
0.336137, -1, -14.1409, 31.8202, 27.3299, -12.5817, -82.7392, -5.58401
0.342932, -1, -14.0449, 31.7724, 27.3171, -12.4297, -82.5774, -5.6569
0.352336, -1, -13.7564, 31.6291, 27.2786, -11.9732, -82.0915, -5.87522
0.358883, -1, -13.6599, 31.5813, 27.2658, -11.821, -81.9294, -5.94806
0.368322, -1, -13.3695, 31.4381, 27.2273, -11.3644, -81.4434, -6.16649
0.374927, -1, -13.2726, 31.3904, 27.2145, -11.2122, -81.2814, -6.23932
0.38449, -1, -12.9827, 31.2476, 27.1761, -10.7557, -80.7954, -6.45792
0.392451, -1, -12.7902, 31.1525, 27.1506, -10.4512, -80.4719, -6.60362
0.39888, -1, -12.6942, 31.105, 27.1379, -10.299, -80.3102, -6.67654
0.408483, -1, -12.5026, 30.9623, 27.0996, -9.84276, -79.8249, -6.89523
0.416413, -1, -12.3121, 30.9147, 27.0868, -9.69069, -79.5015, -7.04079
0.42454, -1, -12.1224, 30.8196, 27.0612, -9.38666, -79.3397, -7.18633
0.431875, -1, -11.9334, 30.7243, 27.0356, -9.08301, -79.0163, -7.25898
0.439867, -1, -11.7446, 30.629, 27.0101, -8.77942, -78.6931, -7.40426
0.449097, -1, -11.4611, 30.4862, 26.9719, -8.32444, -78.2087, -7.62207
0.454881, -1, -11.3665, 30.4386, 26.9591, -8.17319, -78.0477, -7.69465
0.463858, -1, -11.1769, 30.3437, 26.9336, -7.87088, -77.726, -7.83959
0.471924, -1, -10.987, 30.249, 26.9082, -7.56891, -77.4045, -7.98414
0.479863, -1, -10.7965, 30.1545, 26.8828, -7.2676, -77.0838, -8.12841
0.486886, -1, -10.6059, 30.0602, 26.8575, -6.9664, -76.7636, -8.27223
0.495867, -1, -10.4151, 29.966, 26.8322, -6.66577, -76.4438, -8.41586
0.503861, -1, -10.2244, 29.8721, 26.807, -6.36604, -76.1244, -8.55931
0.510925, -1, -10.0342, 29.7784, 26.7818, -6.0665, -75.8055, -8.70246
0.519869, -1, -9.84476, 29.6849, 26.7568, -5.7678, -75.4873, -8.84573
0.527864, -1, -9.65624, 29.5916, 26.7316, -5.46954, -75.17, -8.98854
0.534874, -1, -9.46853, 29.4983, 26.7066, -5.17174, -74.8533, -9.13087
0.543864, -1, -9.28183, 29.4053, 26.6816, -4.87477, -74.5374, -9.2728
0.554302, -1, -9.0962, 29.3123, 26.6567, -4.57874, -74.2224, -9.41442
0.558875, -1, -8.9114, 29.2195, 26.6318, -4.28319, -73.9079, -9.55564
0.567862, -1, -8.72734, 29.1267, 26.6069, -3.98875, -73.5945, -9.69677
0.575892, -1, -8.54381, 29.0344, 26.5822, -3.69501, -73.2817, -9.8373
0.583931, -1, -8.36045, 28.9424, 26.5576, -3.40186, -72.97, -9.97765
0.591882, -1, -8.17736, 28.8506, 26.533, -3.10991, -72.6592, -10.1177
0.599861, -1, -7.9943, 28.7592, 26.5084, -2.8189, -72.3492, -10.2569
0.607874, -1, -7.8112, 28.6683, 26.4839, -2.52862, -72.0402, -10.3957
0.615912, -1, -7.62825, 28.5776, 26.4596, -2.23943, -71.7321, -10.5342
0.623928, -1, -7.44557, 28.4872, 26.4355, -1.95087, -71.4249, -10.6718
0.631864, -1, -7.26318, 28.3971, 26.4113, -1.66324, -71.1189, -10.8093
0.639922, -1, -7.08125, 28.3074, 26.3872, -1.37668, -70.8138, -10.9464
0.64794, -1, -6.90026, 28.218, 26.3632, -1.09126, -70.5099, -11.083
0.655863, -1, -6.72032, 28.1288, 26.3393, -0.806822, -70.2072, -11.2195
0.663865, -1, -6.54135, 28.0399, 26.3156, -0.523502, -69.9058, -11.3552
0.671926, -1, -6.36351, 27.9513, 26.2917, -0.241106, -69.6056, -11.4903
0.679861, -1, -6.187, 27.863, 26.268, 0.0404363, -69.3062, -11.625
0.687876, -1, -6.01134, 27.775, 26.2444, 0.320748, -69.0079, -11.7591
0.695931, -1, -5.83672, 27.6872, 26.221, 0.599838, -68.7107, -11.8927
0.703903, -1, -5.66297, 27.5998, 26.1975, 0.87801, -68.4145, -12.026
0.71186, -1, -5.48965, 27.5128, 26.1741, 1.15499, -68.1193, -12.1588
0.719933, -1, -5.31677, 27.4263, 26.1508, 1.43071, -67.8255, -12.291
0.727872, -1, -5.14407, 27.34, 26.1277, 1.70571, -67.533, -12.4226
0.735864, -1, -4.97175, 27.2542, 26.1048, 1.97943, -67.2419, -12.5535
0.743984, -1, -4.79969, 27.1688, 26.0818, 2.25175, -66.9519, -12.6837
0.751926, -1, -4.62815, 27.0837, 26.0589, 2.52308, -66.6634, -12.8134
0.759955, -1, -4.4571, 26.9991, 26.0362, 2.79303, -66.3761, -12.9425
0.768013, -1, -4.28642, 26.9146, 26.0135, 3.06171, -66.0899, -13.071
0.775956, -1, -4.11624, 26.8307, 25.991, 3.32956, -65.805, -13.199
0.783464, -1, -3.94706, 26.747, 25.9686, 3.59615, -65.5212, -13.3268
0.791967, -1, -3.77911, 26.6637, 25.9461, 3.86139, -65.2386, -13.454
0.799861, -1, -3.6124, 26.5807, 25.924, 4.12571, -64.9572, -13.5802
0.807951, -1, -3.44675, 26.498, 25.9017, 4.38876, -64.6772, -13.7061
0.814863, -1, -3.36441, 26.4568, 25.8907, 4.51969, -64.5377, -13.7686
0.823964, -1, -3.11874, 26.3337, 25.8576, 4.91127, -64.121, -13.9558
0.830865, -1, -3.03741, 26.2928, 25.8466, 5.04128, -63.9827, -14.018
0.840101, -1, -2.79497, 26.1708, 25.8139, 5.42946, -63.5698, -14.2038
0.846958, -1, -2.71454, 26.1303, 25.8031, 5.55821, -63.4328, -14.2653
0.85623, -1, -2.47399, 26.0096, 25.7708, 5.94252, -63.0238, -14.4494
0.862865, -1, -2.39389, 25.9695, 25.7601, 6.07005, -62.888, -14.5106
0.872337, -1, -2.15416, 25.85, 25.7279, 6.45068, -62.4826, -14.6928
0.878881, -1, -2.0745, 25.8104, 25.7173, 6.57704, -62.3481, -14.7534
0.888415, -1, -1.83612, 25.6921, 25.6855, 6.95467, -61.9463, -14.9338
0.896546, -1, -1.67785, 25.6136, 25.6646, 7.20484, -61.6797, -15.0532
0.904475, -1, -1.51984, 25.5355, 25.6436, 7.45374, -61.4146, -15.1724
0.912471, -1, -1.44098, 25.4577, 25.6227, 7.70167, -61.1503, -15.291
0.920412, -1, -1.28373, 25.4189, 25.6123, 7.82518, -60.8873, -15.4091
0.92846, -1, -1.12725, 25.3416, 25.5917, 8.07131, -60.7562, -15.5268
0.935852, -1, -0.971705, 25.2646, 25.5711, 8.31645, -60.4952, -15.5856
0.943849, -1, -0.817449, 25.188, 25.5506, 8.56071, -60.2355, -15.7025
0.951948, -1, -0.664404, 25.1117, 25.5302, 8.80372, -59.9768, -15.8186
0.959876, -1, -0.512327, 25.0357, 25.5096, 9.04549, -59.7195, -15.9345
0.967855, -1, -0.361422, 24.9601, 25.4894, 9.28614, -59.4638, -16.0496
0.975888, -1, -0.211605, 24.885, 25.4693, 9.52584, -59.2092, -16.1644
0.983856, -1, -0.0627784, 24.8101, 25.4493, 9.76426, -58.9555, -16.2786
0.991845, -1, 0.0852092, 24.7356, 25.4295, 10.0015, -58.7029, -16.3923
0.999261, -1, 0.232609, 24.6614, 25.4096, 10.238, -58.4513, -16.5056
1.00686, -1, 0.379801, 24.5876, 25.3897, 10.4733, -58.2007, -16.6185
1.01585, -1, 0.526934, 24.5141, 25.37, 10.7074, -57.9511, -16.7307
1.02366, -1, 0.673917, 24.4408, 25.3504, 10.9405, -57.7025, -16.8425
1.03188, -1, 0.820566, 24.3679, 25.3309, 11.1725, -57.455, -16.9535
1.03995, -1, 0.966816, 24.2953, 25.3115, 11.4035, -57.2089, -17.0642
1.04765, -1, 1.11242, 24.2231, 25.2921, 11.6334, -56.9639, -17.1742
1.05588, -1, 1.25753, 24.1512, 25.2728, 11.8623, -56.7204, -17.2835
1.0665, -1, 1.47439, 24.0439, 25.2441, 12.2042, -56.357, -17.4468
1.07188, -1, 1.54643, 24.0083, 25.2345, 12.3176, -56.2365, -17.5008
1.07989, -1, 1.69001, 23.9374, 25.2156, 12.5432, -55.9962, -17.6089
1.08784, -1, 1.8327, 23.8668, 25.1968, 12.7681, -55.757, -17.7165
1.09588, -1, 1.97423, 23.7966, 25.1779, 12.9922, -55.5189, -17.8238
1.10387, -1, 2.11479, 23.7267, 25.1592, 13.2148, -55.2817, -17.9306
1.11195, -1, 2.25448, 23.6571, 25.1406, 13.4366, -55.0456, -18.0365
1.1203, -1, 2.39314, 23.5877, 25.122, 13.6576, -54.8103, -18.1424
1.12693, -1, 2.53095, 23.5187, 25.1036, 13.8776, -54.5759, -18.2474
1.13587, -1, 2.66781, 23.4499, 25.0853, 14.0967, -54.3424, -18.3523
1.14489, -1, 2.80366, 23.3815, 25.0669, 14.3146, -54.1101, -18.4565
1.15185, -1, 2.93885, 23.3133, 25.0487, 14.5318, -53.879, -18.5604
1.15992, -1, 3.07367, 23.2453, 25.0305, 14.7481, -53.6488, -18.664
1.16864, -1, 3.20853, 23.1777, 25.0123, 14.9631, -53.4197, -18.7668
1.17584, -1, 3.34337, 23.1104, 24.9944, 15.1776, -53.1915, -18.8698
1.18391, -1, 3.47795, 23.0434, 24.9766, 15.3911, -52.9642, -18.972
1.19264, -1, 3.61229, 22.9766, 24.9586, 15.604, -52.7381, -19.0738
1.19985, -1, 3.74628, 22.9103, 24.9409, 15.8157, -52.5128, -19.1749
1.20806, -1, 3.87983, 22.8441, 24.9232, 16.0265, -52.2885, -19.2759
1.21664, -1, 4.01306, 22.7783, 24.9055, 16.2364, -52.0651, -19.3761
1.22385, -1, 4.14581, 22.7127, 24.888, 16.4454, -51.8425, -19.4762
1.2319, -1, 4.27806, 22.6474, 24.8706, 16.6536, -51.6209, -19.5757
1.24058, -1, 4.40975, 22.5824, 24.8531, 16.8608, -51.3999, -19.6748
1.24795, -1, 4.5407, 22.5176, 24.8358, 17.0674, -51.18, -19.7737
1.25593, -1, 4.67098, 22.4529, 24.8186, 17.2733, -50.961, -19.8721
1.26473, -1, 4.80047, 22.3885, 24.8013, 17.4782, -50.7425, -19.9704
1.27204, -1, 4.92921, 22.3243, 24.7841, 17.6823, -50.5251, -20.0682
1.27995, -1, 5.05713, 22.2603, 24.7672, 17.8854, -50.3087, -20.1657
1.28871, -1, 5.1843, 22.1966, 24.7502, 18.0881, -50.0929, -20.2624
1.29603, -1, 5.31064, 22.1331, 24.7331, 18.2898, -49.8782, -20.3591
1.30384, -1, 5.43605, 22.0699, 24.7163, 18.4908, -49.6643, -20.455
1.31188, -1, 5.5607, 22.007, 24.6994, 18.691, -49.4512, -20.5509
1.32016, -1, 5.68484, 21.9444, 24.6825, 18.8905, -49.2392, -20.6461
1.32684, -1, 5.74679, 21.9132, 24.6742, 18.9901, -49.1333, -20.6938
1.33684, -1, 5.93247, 21.8201, 24.6494, 19.2872, -48.8175, -20.8357
1.34413, -1, 6.05617, 21.7582, 24.6328, 19.4842, -48.608, -20.9303
1.3509, -1, 6.11797, 21.7273, 24.6245, 19.5826, -48.5035, -20.9772
1.36104, -1, 6.30313, 21.6351, 24.5999, 19.8763, -48.1909, -21.1183
1.3684, -1, 6.42634, 21.5738, 24.5834, 20.0712, -47.9835, -21.2116
1.37638, -1, 6.54938, 21.5127, 24.567, 20.2652, -47.7769, -21.3049
1.38437, -1, 6.67197, 21.452, 24.5509, 20.4585, -47.5707, -21.397
1.39089, -1, 6.73315, 21.4216, 24.5428, 20.5551, -47.468, -21.4435
1.40046, -1, 6.91609, 21.3311, 24.5185, 20.8434, -47.1607, -21.581
1.40845, -1, 7.0374, 21.2711, 24.5023, 21.0347, -46.9568, -21.6728
1.41667, -1, 7.15812, 21.2113, 24.4863, 21.2252, -46.7537, -21.7635
1.42437, -1, 7.21824, 21.1815, 24.4783, 21.3203, -46.6525, -21.8092
1.43185, -1, 7.33803, 21.1221, 24.4624, 21.5099, -46.4505, -21.8998
1.43988, -1, 7.45721, 21.063, 24.4467, 21.6989, -46.2495, -21.9902
1.44789, -1, 7.57589, 21.004, 24.431, 21.887, -46.049, -22.0803
1.45589, -1, 7.6941, 20.9451, 24.4152, 22.0745, -45.8496, -22.17
1.4639, -1, 7.81185, 20.8865, 24.3994, 22.2615, -45.6507, -22.2596
1.47184, -1, 7.9291, 20.828, 24.3838, 22.4481, -45.4527, -22.3488
1.47983, -1, 8.04566, 20.7696, 24.3681, 22.6338, -45.2555, -22.4376
1.48789, -1, 8.16163, 20.7114, 24.3525, 22.8186, -45.059, -22.5258
1.49583, -1, 8.27713, 20.6534, 24.3371, 23.003, -44.863, -22.6142
1.50383, -1, 8.39234, 20.5956, 24.3218, 23.1867, -44.6675, -22.7016
1.51354, -1, 8.56441, 20.5095, 24.2987, 23.4611, -44.3752, -22.8328
1.51988, -1, 8.62151, 20.4809, 24.291, 23.5522, -44.2782, -22.8762
1.52786, -1, 8.73527, 20.4238, 24.2758, 23.7339, -44.0845, -22.9634
1.53589, -1, 8.8488, 20.367, 24.2606, 23.915, -43.8913, -23.0498
1.54388, -1, 8.96206, 20.3104, 24.2454, 24.0957, -43.6988, -23.1365
1.55183, -1, 9.0751, 20.2539, 24.2304, 24.2758, -43.5073, -23.2224
1.55982, -1, 9.18823, 20.1976, 24.2155, 24.4552, -43.3163, -23.3087
1.56883, -1, 9.30128, 20.1415, 24.2005, 24.634, -43.1259, -23.3942
1.5759, -1, 9.41411, 20.0856, 24.1854, 24.8121, -42.9361, -23.4799
1.58384, -1, 9.52659, 20.0297, 24.1704, 24.99, -42.747, -23.5648
1.59183, -1, 9.63861, 19.974, 24.1555, 25.1671, -42.5584, -23.6495
1.5999, -1, 9.75014, 19.9185, 24.1407, 25.3435, -42.3705, -23.7342
1.60785, -1, 9.86145, 19.8631, 24.1258, 25.5195, -42.1831, -23.8181
1.61583, -1, 9.97244, 19.808, 24.1113, 25.695, -41.9963, -23.9021
1.6239, -1, 10.083, 19.7531, 24.0967, 25.8702, -41.8104, -23.9853
1.63182, -1, 10.1933, 19.6984, 24.0821, 26.0447, -41.6249, -24.0689
1.63982, -1, 10.3031, 19.6438, 24.0674, 26.2186, -41.4398, -24.1517
1.64796, -1, 10.4124, 19.5895, 24.0528, 26.3919, -41.2553, -24.2349
1.65583, -1, 10.5212, 19.5353, 24.0383, 26.5646, -41.0714, -24.3173
1.66389, -1, 10.6296, 19.4813, 24.0238, 26.7371, -40.8879, -24.4001
1.67183, -1, 10.7377, 19.4275, 24.0095, 26.9087, -40.7052, -24.4824
1.67983, -1, 10.8454, 19.3737, 23.9953, 27.0799, -40.5227, -24.5645
1.68795, -1, 10.9527, 19.3201, 23.981, 27.2505, -40.3409, -24.6466
1.69584, -1, 11.0596, 19.2666, 23.9667, 27.4207, -40.1596, -24.7276
1.70383, -1, 11.1661, 19.2133, 23.9523, 27.5905, -39.9789, -24.8093
1.71195, -1, 11.2723, 19.1601, 23.9381, 27.7597, -39.7988, -24.8898
1.71984, -1, 11.3781, 19.1071, 23.9239, 27.9284, -39.6192, -24.9707
1.72785, -1, 11.4835, 19.0543, 23.9098, 28.0965, -39.4401, -25.0511
1.73589, -1, 11.5885, 19.0018, 23.8958, 28.2641, -39.2616, -25.1313
1.74383, -1, 11.6934, 18.9493, 23.8819, 28.4315, -39.0835, -25.2115
1.75186, -1, 11.7982, 18.8971, 23.8679, 28.5983, -38.9061, -25.2913
1.75996, -1, 11.9027, 18.8451, 23.8539, 28.7646, -38.7292, -25.3713
1.76814, -1, 12.0071, 18.793, 23.8399, 28.9303, -38.5524, -25.4505
1.77543, -1, 12.1113, 18.7411, 23.826, 29.0956, -38.3766, -25.5303
1.78425, -1, 12.2154, 18.6894, 23.8122, 29.2607, -38.2013, -25.6091
1.79145, -1, 12.3192, 18.6377, 23.7984, 29.4253, -38.0265, -25.6881
1.8, -1, 12.4227, 18.5863, 23.7847, 29.5893, -37.8523, -25.7669
1.80845, -1, 12.5261, 18.5348, 23.7712, 29.7528, -37.6783, -25.8448
1.81585, -1, 12.6292, 18.4836, 23.7575, 29.9159, -37.5048, -25.9233
1.82392, -1, 12.732, 18.4325, 23.7437, 30.0786, -37.3316, -26.0006
1.83081, -1, 12.7833, 18.407, 23.7368, 30.1598, -37.2453, -26.0394
1.8389, -1, 12.8855, 18.3562, 23.7232, 30.3218, -37.0727, -26.1172
1.8481, -1, 13.0382, 18.2803, 23.7029, 30.5639, -36.8147, -26.2324
1.85482, -1, 13.0889, 18.2551, 23.6961, 30.6443, -36.7289, -26.2712
1.86289, -1, 13.19, 18.2048, 23.6826, 30.8049, -36.5579, -26.3477
1.87227, -1, 13.3411, 18.1295, 23.6627, 31.0453, -36.3021, -26.4626
1.87882, -1, 13.3913, 18.1045, 23.6561, 31.1252, -36.217, -26.5008
1.88688, -1, 13.4915, 18.0545, 23.6428, 31.2846, -36.0472, -26.5767
1.8964, -1, 13.6416, 17.9796, 23.6227, 31.5229, -35.7935, -26.6914
1.90529, -1, 13.7413, 17.9299, 23.6094, 31.681, -35.6249, -26.7669
1.91089, -1, 13.7911, 17.905, 23.6028, 31.7601, -35.5408, -26.805
1.92048, -1, 13.9402, 17.8305, 23.5829, 31.9967, -35.2892, -26.9179
1.92923, -1, 13.9898, 17.8057, 23.5762, 32.0753, -35.2055, -26.9934
1.93489, -1, 14.0889, 17.7563, 23.5631, 32.2323, -35.0383, -27.031
1.94492, -1, 14.237, 17.6826, 23.5436, 32.4668, -34.7889, -27.1427
1.95181, -1, 14.2861, 17.6581, 23.537, 32.5449, -34.7058, -27.1803
1.95889, -1, 14.3841, 17.6092, 23.5239, 32.7009, -34.5403, -27.2547
1.96788, -1, 14.4818, 17.5605, 23.5108, 32.8566, -34.375, -27.3285
1.97581, -1, 14.5791, 17.512, 23.4978, 33.0117, -34.2099, -27.4032
1.98289, -1, 14.6761, 17.4635, 23.4849, 33.1663, -34.0453, -27.4768
1.99182, -1, 14.7727, 17.4153, 23.472, 33.3206, -33.8808, -27.5509
1.99981, -1, 14.8692, 17.3671, 23.459, 33.4745, -33.7172, -27.6245
2.00681, -1, 14.9655, 17.3188, 23.4463, 33.6282, -33.5536, -27.6979
2.01581, -1, 15.0616, 17.2707, 23.4336, 33.7813, -33.3904, -27.7718
2.02381, -1, 15.1576, 17.2226, 23.4208, 33.9342, -33.2274, -27.8448
2.03081, -1, 15.2535, 17.1747, 23.4078, 34.0864, -33.0652, -27.9181
2.03984, -1, 15.3494, 17.1268, 23.395, 34.2384, -32.9032, -27.991
2.04689, -1, 15.4452, 17.079, 23.3822, 34.3902, -32.7419, -28.0632
2.05588, -1, 15.5409, 17.0314, 23.3694, 34.5417, -32.5808, -28.136
2.06487, -1, 15.6364, 16.984, 23.3566, 34.6927, -32.4201, -28.2079
2.07089, -1, 15.7317, 16.9367, 23.344, 34.8434, -32.2598, -28.2802
2.07987, -1, 15.8268, 16.8896, 23.3315, 34.9935, -32.0997, -28.3521
2.08787, -1, 15.9216, 16.8427, 23.319, 35.1434, -31.9402, -28.4232
2.09582, -1, 16.0163, 16.7959, 23.3064, 35.2932, -31.7809, -28.4952
2.10387, -1, 16.1105, 16.7492, 23.2938, 35.4426, -31.622, -28.5665
2.11181, -1, 16.2043, 16.7027, 23.2813, 35.5915, -31.4635, -28.6377
2.11981, -1, 16.2979, 16.6561, 23.2689, 35.7401, -31.3055, -28.7091
2.12789, -1, 16.3913, 16.6096, 23.2564, 35.8884, -31.1476, -28.7796
2.13581, -1, 16.4843, 16.5631, 23.2439, 36.0363, -30.99, -28.851
2.14382, -1, 16.5771, 16.5166, 23.2314, 36.1842, -30.8329, -28.9218
2.15188, -1, 16.6697, 16.4702, 23.2192, 36.3318, -30.6758, -28.9922
2.15981, -1, 16.7621, 16.4239, 23.2067, 36.4788, -30.5194, -29.0631
2.16781, -1, 16.8544, 16.3776, 23.1944, 36.6255, -30.3631, -29.1329
2.17587, -1, 16.9466, 16.3316, 23.1819, 36.7718, -30.2075, -29.203
2.18382, -1, 17.0385, 16.2857, 23.1696, 36.9179, -30.0517, -29.2729
2.19181, -1, 17.1302, 16.24, 23.1574, 37.0638, -29.8966, -29.3422
2.19987, -1, 17.2204, 16.1949, 23.145, 37.2091, -29.7415, -29.4121
2.20781, -1, 17.3071, 16.1514, 23.1324, 37.3538, -29.5877, -29.4811
2.21589, -1, 17.389, 16.1104, 23.1198, 37.4962, -29.4358, -29.5489
2.22389, -1, 17.4655, 16.0723, 23.1074, 37.6341, -29.2888, -29.6154
2.23181, -1, 17.5364, 16.0374, 23.0953, 37.764, -29.15, -29.6775
2.23981, -1, 17.6004, 16.0064, 23.0841, 37.8825, -29.0235, -29.7345
2.24788, -1, 17.6568, 15.9789, 23.0742, 37.9857, -28.9128, -29.7846
2.25595, -1, 17.7068, 15.9542, 23.0665, 38.0703, -28.8219, -29.8258
2.2639, -1, 17.7508, 15.9315, 23.0613, 38.1363, -28.7508, -29.8577
2.27196, -1, 17.7887, 15.9119, 23.0581, 38.183, -28.6999, -29.8804
2.27993, -1, 17.8196, 15.8962, 23.0564, 38.2143, -28.6657, -29.8957
2.28793, -1, 17.8441, 15.8842, 23.0556, 38.2339, -28.6443, -29.905
2.29596, -1, 17.8628, 15.8755, 23.0552, 38.245, -28.6321, -29.9102
2.30388, -1, 17.875, 15.8698, 23.0551, 38.2507, -28.6257, -29.9128
2.31218, -1, 17.8814, 15.8668, 23.055, 38.2535, -28.6226, -29.914
2.31884, 2, 17.8831, 15.866, 23.055, 38.2542, -28.6218, -29.9144
2.32784, 2, 17.8853, 15.8647, 23.0549, 38.2554, -28.6205, -29.9149
2.33629, 2, 17.8849, 15.8645, 23.0549, 38.2557, -28.6202, -29.915
2.34281, 2, 17.8846, 15.8644, 23.0549, 38.2557, -28.6201, -29.9151
2.35199, 2, 17.8834, 15.8643, 23.055, 38.2558, -28.62, -29.9151
2.35884, 2, 17.8832, 15.8643, 23.055, 38.2559, -28.6199, -29.9151
2.36817, 2, 17.8829, 15.8641, 23.0549, 38.2558, -28.6199, -29.9152
2.37482, 2, 17.8829, 15.8641, 23.0549, 38.2558, -28.6199, -29.9152
2.38471, 2, 17.883, 15.8638, 23.0549, 38.2558, -28.62, -29.9152
2.39234, 2, 17.8832, 15.8634, 23.0549, 38.2559, -28.62, -29.9152
2.40034, 2, 17.8837, 15.8631, 23.0549, 38.2559, -28.62, -29.9152
2.40854, 2, 17.8841, 15.8628, 23.0549, 38.2559, -28.62, -29.9152
2.41639, 2, 17.8848, 15.8627, 23.0549, 38.2559, -28.62, -29.9152
2.42444, 2, 17.8857, 15.8626, 23.0549, 38.2559, -28.62, -29.9152
2.43258, 2, 17.8861, 15.8625, 23.0549, 38.2559, -28.62, -29.9152
2.43982, 2, 17.8868, 15.8625, 23.0549, 38.2559, -28.6201, -29.9151
2.44869, 2, 17.8872, 15.8626, 23.0549, 38.2559, -28.6201, -29.9152
2.45581, 2, 17.8875, 15.8626, 23.0549, 38.2559, -28.6201, -29.9152
2.46384, 2, 17.8876, 15.8626, 23.0549, 38.256, -28.6201, -29.9152
2.4718, 2, 17.8877, 15.8626, 23.0549, 38.2559, -28.6201, -29.9152
2.47982, 2, 17.8877, 15.8626, 23.0549, 38.2559, -28.6201, -29.9152
2.48782, 2, 17.8877, 15.8626, 23.0549, 38.2559, -28.6202, -29.9151
2.49579, 2, 17.8877, 15.8625, 23.0549, 38.2559, -28.6201, -29.9152
2.50382, 2, 17.8876, 15.8625, 23.0549, 38.2559, -28.6202, -29.9152
2.51182, 2, 17.8874, 15.8624, 23.0549, 38.2558, -28.6202, -29.9152
2.51979, 2, 17.8872, 15.8623, 23.0549, 38.2559, -28.6202, -29.9152
2.52782, 2, 17.887, 15.8622, 23.0549, 38.2559, -28.6202, -29.9152
2.53583, 2, 17.887, 15.8622, 23.0549, 38.2559, -28.6203, -29.9152
2.5438, 2, 17.887, 15.8622, 23.0549, 38.2559, -28.6203, -29.9152
2.55186, 2, 17.887, 15.8622, 23.0549, 38.2559, -28.6203, -29.9152
2.56081, 2, 17.887, 15.8623, 23.0549, 38.2559, -28.6203, -29.9152
2.56779, 2, 17.887, 15.8623, 23.0549, 38.2559, -28.6203, -29.9152
2.57582, 2, 17.887, 15.8623, 23.0549, 38.2559, -28.6203, -29.9152
2.58384, 2, 17.8869, 15.8623, 23.0549, 38.2559, -28.6204, -29.9151
2.59184, 2, 17.8869, 15.8623, 23.0549, 38.2559, -28.6204, -29.9151
2.59982, 2, 17.887, 15.8623, 23.0549, 38.2558, -28.6204, -29.9151
2.60783, 2, 17.887, 15.8623, 23.0549, 38.2558, -28.6204, -29.9151
2.61578, 2, 17.887, 15.8623, 23.0549, 38.2559, -28.6205, -29.9151
2.62383, 2, 17.887, 15.8623, 23.0549, 38.2559, -28.6205, -29.9152
2.63182, 2, 17.8869, 15.8622, 23.0549, 38.2559, -28.6205, -29.9152
2.63979, 2, 17.8869, 15.8622, 23.0549, 38.2559, -28.6205, -29.9152
2.64783, 2, 17.8869, 15.8622, 23.0549, 38.2559, -28.6205, -29.9151
2.65583, 2, 17.8869, 15.8622, 23.0549, 38.2559, -28.6205, -29.9152
2.66381, 2, 17.8868, 15.8623, 23.0549, 38.2559, -28.6205, -29.9151
2.67181, 2, 17.8868, 15.8623, 23.0549, 38.2558, -28.6205, -29.9151
2.67983, 2, 17.8868, 15.8623, 23.0549, 38.2558, -28.6206, -29.9152
2.68778, 2, 17.8868, 15.8623, 23.0549, 38.2559, -28.6206, -29.9151
2.69582, 2, 17.8868, 15.8623, 23.0549, 38.2558, -28.6206, -29.9151
2.70384, 2, 17.8868, 15.8623, 23.0549, 38.2558, -28.6206, -29.9152
2.71179, 2, 17.8868, 15.8623, 23.0549, 38.2559, -28.6206, -29.9152
2.71987, 2, 17.8867, 15.8623, 23.0549, 38.2559, -28.6207, -29.9151
2.72783, 2, 17.8868, 15.8623, 23.0549, 38.2558, -28.6207, -29.9151
2.73579, 2, 17.8868, 15.8623, 23.0549, 38.2557, -28.6207, -29.9152
2.74383, 2, 17.8867, 15.8623, 23.0549, 38.2558, -28.6207, -29.9151
2.75185, 2, 17.8867, 15.8623, 23.0549, 38.2557, -28.6207, -29.9151
2.75988, 2, 17.8867, 15.8623, 23.0549, 38.2558, -28.6207, -29.9151
2.76791, 2, 17.8866, 15.8623, 23.0549, 38.2558, -28.6207, -29.9151
2.77592, 2, 17.8866, 15.8623, 23.0549, 38.2557, -28.6208, -29.9151
2.78399, 2, 17.8866, 15.8624, 23.0549, 38.2557, -28.6208, -29.9151
2.79193, 2, 17.8866, 15.8624, 23.0549, 38.2557, -28.6208, -29.9151
2.79994, 2, 17.8866, 15.8624, 23.0549, 38.2557, -28.6208, -29.915
2.80779, 2, 17.8865, 15.8624, 23.0549, 38.2557, -28.6208, -29.9151
2.81582, 2, 17.8864, 15.8623, 23.0549, 38.2557, -28.6208, -29.9151
2.82387, 2, 17.8864, 15.8623, 23.0549, 38.2557, -28.6208, -29.9151
2.83182, 2, 17.8864, 15.8623, 23.0549, 38.2557, -28.6208, -29.9151
2.83996, 2, 17.8863, 15.8623, 23.0549, 38.2557, -28.6208, -29.915
2.848, 2, 17.8863, 15.8623, 23.0549, 38.2557, -28.6208, -29.9151
2.85481, 2, 17.8863, 15.8623, 23.0549, 38.2557, -28.6208, -29.9151
2.86419, 2, 17.8862, 15.8624, 23.0549, 38.2557, -28.6208, -29.9151
2.87078, 2, 17.8862, 15.8624, 23.0549, 38.2557, -28.6209, -29.9151
2.8802, 2, 17.8861, 15.8624, 23.0549, 38.2557, -28.6209, -29.9151
2.88681, 2, 17.8861, 15.8624, 23.055, 38.2557, -28.6209, -29.9151
2.89633, 2, 17.886, 15.8624, 23.0549, 38.2556, -28.6209, -29.915
2.90433, 2, 17.886, 15.8624, 23.0549, 38.2557, -28.6209, -29.915
2.91245, 2, 17.8859, 15.8624, 23.0549, 38.2557, -28.6209, -29.915
2.9204, 2, 17.8859, 15.8624, 23.0549, 38.2557, -28.621, -29.915
2.92841, 2, 17.8859, 15.8624, 23.0549, 38.2557, -28.621, -29.915
2.93639, 2, 17.8858, 15.8624, 23.0549, 38.2557, -28.621, -29.915
2.94381, 2, 17.8857, 15.8624, 23.0549, 38.2556, -28.621, -29.9151
2.95178, 2, 17.8857, 15.8624, 23.0549, 38.2556, -28.621, -29.915
2.9598, 2, 17.8856, 15.8624, 23.0549, 38.2556, -28.621, -29.915
2.96781, 2, 17.8856, 15.8624, 23.0549, 38.2556, -28.6211, -29.915
2.97579, 2, 17.8855, 15.8624, 23.0549, 38.2556, -28.6211, -29.915
2.98381, 2, 17.8855, 15.8624, 23.0549, 38.2556, -28.6211, -29.915
2.99181, 2, 17.8854, 15.8624, 23.0549, 38.2556, -28.6211, -29.915
2.99977, 2, 17.8854, 15.8624, 23.0549, 38.2555, -28.6211, -29.915
3.0078, 2, 17.8853, 15.8624, 23.0549, 38.2555, -28.6211, -29.915
3.0158, 2, 17.8853, 15.8624, 23.0549, 38.2555, -28.6211, -29.915
3.02379, 2, 17.8853, 15.8625, 23.0549, 38.2555, -28.6212, -29.915
3.0318, 2, 17.8852, 15.8625, 23.0549, 38.2555, -28.6212, -29.915
3.03984, 2, 17.8851, 15.8625, 23.0549, 38.2555, -28.6212, -29.915
3.04778, 2, 17.8851, 15.8624, 23.0549, 38.2555, -28.6212, -29.915
3.05584, 2, 17.885, 15.8624, 23.0549, 38.2555, -28.6212, -29.915
3.0648, 2, 17.885, 15.8624, 23.055, 38.2554, -28.6212, -29.915
3.07177, 2, 17.8849, 15.8624, 23.055, 38.2554, -28.6212, -29.915
3.0798, 2, 17.8849, 15.8624, 23.055, 38.2554, -28.6212, -29.915
3.0878, 2, 17.8848, 15.8624, 23.055, 38.2554, -28.6212, -29.915
3.09582, 2, 17.8848, 15.8625, 23.055, 38.2554, -28.6212, -29.9149
3.10382, 2, 17.8847, 15.8625, 23.055, 38.2554, -28.6212, -29.9149
3.11181, 2, 17.8847, 15.8625, 23.0549, 38.2554, -28.6212, -29.915
3.11977, 2, 17.8846, 15.8625, 23.0549, 38.2554, -28.6212, -29.915
3.12781, 2, 17.8846, 15.8625, 23.0549, 38.2553, -28.6212, -29.915
3.13581, 2, 17.8845, 15.8625, 23.0549, 38.2552, -28.6212, -29.9149
3.14378, 2, 17.8844, 15.8625, 23.0549, 38.2552, -28.6213, -29.915
3.15181, 2, 17.8844, 15.8625, 23.0549, 38.2553, -28.6213, -29.915
3.15982, 2, 17.8843, 15.8625, 23.055, 38.2553, -28.6213, -29.9149
3.16777, 2, 17.8843, 15.8625, 23.055, 38.2553, -28.6213, -29.9149
3.1758, 2, 17.8842, 15.8625, 23.055, 38.2552, -28.6213, -29.9149
3.18382, 2, 17.8842, 15.8625, 23.055, 38.2552, -28.6213, -29.9149
3.19177, 2, 17.8842, 15.8625, 23.055, 38.2552, -28.6213, -29.915
3.1998, 2, 17.8841, 15.8625, 23.055, 38.2552, -28.6213, -29.915
3.20782, 2, 17.8841, 15.8625, 23.055, 38.2552, -28.6213, -29.915
3.21576, 2, 17.884, 15.8625, 23.055, 38.2551, -28.6213, -29.9149
3.22386, 2, 17.8839, 15.8625, 23.0549, 38.2551, -28.6213, -29.9149
3.23182, 2, 17.8839, 15.8625, 23.0549, 38.2551, -28.6213, -29.9149
3.23977, 2, 17.8839, 15.8625, 23.0549, 38.2551, -28.6213, -29.9149
3.24782, 2, 17.8839, 15.8625, 23.055, 38.255, -28.6214, -29.9149
3.25585, 2, 17.8839, 15.8625, 23.055, 38.2551, -28.6214, -29.915
3.26389, 2, 17.8838, 15.8625, 23.055, 38.255, -28.6214, -29.9149
3.2719, 2, 17.8838, 15.8625, 23.0549, 38.255, -28.6214, -29.9149
3.2799, 2, 17.8838, 15.8625, 23.055, 38.255, -28.6214, -29.915
3.28788, 2, 17.8838, 15.8625, 23.055, 38.255, -28.6214, -29.915
3.29591, 2, 17.8837, 15.8625, 23.055, 38.2549, -28.6214, -29.9149
3.30394, 2, 17.8837, 15.8625, 23.055, 38.2549, -28.6214, -29.9149
3.31177, 2, 17.8837, 15.8626, 23.055, 38.2549, -28.6214, -29.9149
3.32012, 2, 17.8837, 15.8626, 23.055, 38.2549, -28.6214, -29.9149
3.3308, 2, 17.8837, 15.8626, 23.055, 38.2549, -28.6214, -29.9149
3.33584, 2, 17.8836, 15.8626, 23.055, 38.2549, -28.6214, -29.9149
3.34391, 2, 17.8836, 15.8626, 23.055, 38.2549, -28.6214, -29.9149
3.35235, 2, 17.8836, 15.8626, 23.055, 38.2549, -28.6215, -29.9149
3.36005, 2, 17.8836, 15.8626, 23.055, 38.2549, -28.6215, -29.9149
3.36685, 2, 17.8836, 15.8626, 23.055, 38.2548, -28.6215, -29.9149
3.37667, 2, 17.8836, 15.8626, 23.055, 38.2548, -28.6215, -29.9149
3.38421, 2, 17.8836, 15.8626, 23.055, 38.2548, -28.6215, -29.9149
3.39079, 2, 17.8836, 15.8626, 23.055, 38.2548, -28.6215, -29.9149
3.40082, 4, 17.8836, 15.8626, 23.055, 38.2547, -28.6215, -29.9149
3.40831, 4, 17.8836, 15.8626, 23.055, 38.2547, -28.6215, -29.9148
3.41634, 4, 17.8836, 15.8626, 23.055, 38.2547, -28.6215, -29.9149
3.42455, 4, 17.8835, 15.8626, 23.055, 38.2547, -28.6215, -29.9148
3.43239, 4, 17.8835, 15.8626, 23.055, 38.2547, -28.6215, -29.9148
3.43978, 4, 17.8835, 15.8626, 23.055, 38.2547, -28.6215, -29.9148
3.4478, 4, 17.8835, 15.8626, 23.055, 38.2547, -28.6215, -29.9149
3.45576, 4, 17.8835, 15.8626, 23.055, 38.2547, -28.6215, -29.9149
3.46465, 4, 17.8835, 15.8626, 23.055, 38.2547, -28.6215, -29.9148
3.47178, 4, 17.8835, 15.8626, 23.055, 38.2547, -28.6215, -29.9148
3.47976, 4, 17.8835, 15.8627, 23.055, 38.2546, -28.6215, -29.9148
3.48778, 4, 17.8835, 15.8627, 23.055, 38.2547, -28.6215, -29.9148
3.49579, 4, 17.8834, 15.8627, 23.055, 38.2547, -28.6215, -29.9148
3.50392, 4, 17.8834, 15.8627, 23.055, 38.2546, -28.6215, -29.9147
3.52905, 4, 17.8834, 15.8627, 23.055, 38.2545, -28.6215, -29.9147
3.53043, 4, 17.8833, 15.8627, 23.055, 38.2545, -28.6215, -29.9147
3.5317, 4, 17.8833, 15.8627, 23.055, 38.2545, -28.6215, -29.9147
3.53472, 4, 17.8834, 15.8627, 23.055, 38.2545, -28.6215, -29.9147
3.54377, 4, 17.8833, 15.8627, 23.055, 38.2545, -28.6215, -29.9147
3.55355, 4, 17.8826, 15.8627, 23.055, 38.2545, -28.6215, -29.9147
3.5598, 4, 17.8817, 15.8627, 23.0551, 38.2543, -28.6215, -29.9146
3.56941, 4, 17.8774, 15.8627, 23.0555, 38.2529, -28.6218, -29.914
3.57576, 4, 17.8691, 15.8624, 23.0574, 38.2458, -28.6235, -29.9101
3.58276, 4, 17.8559, 15.8615, 23.0627, 38.2273, -28.6293, -29.8961
3.59176, 4, 17.8356, 15.859, 23.0745, 38.1886, -28.6425, -29.8635
3.59981, 5, 17.8057, 15.8542, 23.0968, 38.1163, -28.6672, -29.8018
3.60786, 5, 17.7654, 15.846, 23.1337, 37.9966, -28.7086, -29.6981
3.61575, 5, 17.7151, 15.8336, 23.1889, 37.8161, -28.773, -29.5412
3.62384, 5, 17.655, 15.8165, 23.265, 37.567, -28.863, -29.324
3.63176, 5, 17.585, 15.7949, 23.3623, 37.2485, -28.9807, -29.0454
3.63976, 5, 17.5047, 15.7691, 23.4793, 36.8664, -29.1236, -28.7099
3.64784, 5, 17.4153, 15.74, 23.6128, 36.4324, -29.289, -28.3283
3.65576, 5, 17.3175, 15.7085, 23.7583, 35.9606, -29.4718, -27.9133
3.66377, 5, 17.2106, 15.6758, 23.9114, 35.4667, -29.6668, -27.4788
3.67183, 5, 17.095, 15.6425, 24.0688, 34.9626, -29.8698, -27.0355
3.67976, 5, 16.9723, 15.6093, 24.2279, 34.4562, -30.0777, -26.5908
3.68782, 5, 16.845, 15.5766, 24.3866, 33.9517, -30.2891, -26.1487
3.69576, 5, 16.7154, 15.5448, 24.5444, 33.4519, -30.5031, -25.7115
3.70376, 5, 16.5842, 15.5139, 24.702, 32.9569, -30.7193, -25.2793
3.71182, 5, 16.4523, 15.484, 24.8591, 32.467, -30.9374, -24.8528
3.71976, 5, 16.3202, 15.4552, 25.0149, 31.9829, -31.1572, -24.4316
3.72781, 5, 16.1883, 15.4276, 25.1693, 31.5044, -31.3789, -24.0154
3.73583, 5, 16.0565, 15.4013, 25.323, 31.0312, -31.6024, -23.6054
3.74375, 5, 15.9248, 15.3761, 25.4762, 30.5631, -31.8279, -23.2008
3.75182, 5, 15.7931, 15.3521, 25.6281, 30.101, -32.0549, -22.8015
3.7598, 5, 15.6615, 15.3292, 25.7785, 29.644, -32.2835, -22.4075
3.76789, 5, 15.53, 15.3073, 25.928, 29.1923, -32.5137, -22.0187
3.77591, 5, 15.3984, 15.2866, 26.0768, 28.7458, -32.7455, -21.6354
3.78385, 5, 15.2664, 15.267, 26.2245, 28.3044, -32.9789, -21.2577
3.79186, 5, 15.1338, 15.2481, 26.3708, 27.8684, -33.2136, -20.8851
3.79994, 5, 15.0003, 15.2304, 26.516, 27.437, -33.4497, -20.5176
3.80782, 5, 14.8656, 15.2138, 26.6601, 27.0103, -33.6874, -20.1552
3.81576, 5, 14.7303, 15.1979, 26.8033, 26.589, -33.9265, -19.7973
3.82385, 5, 14.5944, 15.1832, 26.9453, 26.1724, -34.1669, -19.4444
3.83178, 5, 14.4574, 15.1697, 27.0861, 25.7605, -34.4088, -19.0966
3.83986, 5, 14.3201, 15.1573, 27.2258, 25.3534, -34.6521, -18.7534
3.84795, 5, 14.1824, 15.1461, 27.3646, 24.9508, -34.8969, -18.4148
3.85601, 5, 14.0444, 15.1358, 27.5024, 24.553, -35.1429, -18.081
3.86275, 5, 13.9753, 15.1311, 27.5708, 24.3557, -35.2664, -17.9158
3.87212, 5, 13.7678, 15.1189, 27.7743, 23.77, -35.6388, -17.4266
3.8788, 5, 13.6986, 15.1155, 27.8415, 23.577, -35.7635, -17.2659
3.88831, 5, 13.4916, 15.1068, 28.0416, 23.0044, -36.1395, -16.7906
3.89633, 5, 13.3536, 15.1023, 28.1737, 22.6279, -36.3914, -16.479
3.90427, 5, 13.2159, 15.099, 28.3046, 22.2554, -36.6445, -16.1718
3.91237, 5, 13.0783, 15.0968, 28.4342, 21.8873, -36.8987, -15.8691
3.92041, 5, 12.9404, 15.0957, 28.5626, 21.523, -37.1542, -15.5698
3.92834, 5, 12.8713, 15.0954, 28.6901, 21.1626, -37.4107, -15.2745
3.93647, 5, 12.6631, 15.0958, 28.8164, 20.8063, -37.6684, -14.9835
3.94375, 5, 12.5934, 15.0964, 28.8792, 20.6295, -37.7976, -14.8394
3.95174, 5, 12.4533, 15.0984, 29.0038, 20.2784, -38.057, -14.5541
3.95979, 5, 12.3125, 15.1016, 29.1271, 19.9313, -38.3175, -14.2723
3.9679, 5, 12.1711, 15.1059, 29.2492, 19.5878, -38.5789, -13.9942
3.97573, 5, 12.029, 15.1114, 29.3701, 19.248, -38.8414, -13.7199
3.98381, 5, 11.8864, 15.118, 29.4899, 18.9117, -39.1047, -13.4493
3.99175, 5, 11.7435, 15.1255, 29.6087, 18.579, -39.3689, -13.1819
3.99974, 5, 11.6001, 15.1341, 29.7261, 18.2498, -39.6338, -12.9183
4.0078, 5, 11.4565, 15.1442, 29.8423, 17.9237, -39.8998, -12.6583
4.01577, 5, 11.3129, 15.1555, 29.9574, 17.6014, -40.1667, -12.4019
4.02374, 5, 11.1691, 15.1678, 30.0713, 17.2821, -40.4346, -12.1487
4.03075, 5, 11.0253, 15.1812, 30.184, 16.9659, -40.703, -11.899
4.03978, 5, 10.8815, 15.1958, 30.2958, 16.653, -40.9726, -11.6527
4.0479, 5, 10.7376, 15.2119, 30.4062, 16.3432, -41.2429, -11.4099
4.05575, 5, 10.5937, 15.2291, 30.5153, 16.0366, -41.5139, -11.1699
4.0638, 5, 10.45, 15.2473, 30.6232, 15.7332, -41.7861, -10.9329
4.07274, 5, 10.3065, 15.2669, 30.7299, 15.4326, -42.0591, -10.6989
4.07974, 5, 10.1627, 15.2876, 30.8355, 15.1351, -42.3327, -10.4682
4.08837, 5, 10.0187, 15.3094, 30.9402, 14.8406, -42.6072, -10.2407
4.09575, 5, 9.87427, 15.3325, 31.0435, 14.5488, -42.8823, -10.0159
4.10379, 5, 9.72922, 15.3567, 31.1455, 14.2601, -43.1582, -9.79394
4.11389, 5, 9.51048, 15.395, 31.296, 13.832, -43.5734, -9.46617
4.11974, 5, 9.43733, 15.4083, 31.3456, 13.6905, -43.7121, -9.35845
4.1278, 5, 9.29047, 15.4357, 31.4439, 13.4096, -43.9899, -9.1451
4.13575, 5, 9.14313, 15.4643, 31.5412, 13.1315, -44.2683, -8.93435
4.1428, 5, 8.99536, 15.4941, 31.6375, 12.8558, -44.5473, -8.72596
4.15174, 5, 8.84724, 15.525, 31.7323, 12.5829, -44.8268, -8.52038
4.15975, 5, 8.69894, 15.5569, 31.8257, 12.3124, -45.1074, -8.31723
4.16781, 5, 8.5507, 15.59, 31.9177, 12.0442, -45.3887, -8.11707
4.17575, 5, 8.40232, 15.6243, 32.0087, 11.7786, -45.6706, -7.91937
4.31367, 5, 5.86241, 16.3789, 33.3688, 7.60253, -50.5339, -4.90949
4.31561, 5, 5.78657, 16.4059, 33.4033, 7.48868, -50.6787, -4.83015
4.31695, 5, 5.78657, 16.4059, 33.4033, 7.48868, -50.6787, -4.83015
4.31821, 5, 5.78657, 16.4059, 33.4033, 7.48868, -50.6787, -4.83015
4.32034, 5, 5.71072, 16.4332, 33.4375, 7.37533, -50.8236, -4.75137
4.32164, 5, 5.71072, 16.4332, 33.4375, 7.37533, -50.8236, -4.75137
4.32336, 5, 5.71072, 16.4332, 33.4375, 7.37533, -50.8236, -4.67307
4.32754, 5, 5.63484, 16.4886, 33.505, 7.15001, -51.1138, -4.59519
4.32894, 5, 5.55889, 16.4886, 33.505, 7.15001, -51.1138, -4.59519
4.33021, 5, 5.55889, 16.4886, 33.505, 7.15001, -51.1138, -4.59519
4.33366, 5, 5.48288, 16.5167, 33.5383, 7.03799, -51.259, -4.51779
4.33564, 5, 5.48288, 16.5167, 33.5383, 6.92626, -51.4044, -4.44075
4.33707, 5, 5.40682, 16.545, 33.5712, 6.92626, -51.4044, -4.44075
4.33825, 5, 5.40682, 16.545, 33.5712, 6.92626, -51.4044, -4.44075
4.34026, 5, 5.33078, 16.5736, 33.6039, 6.81504, -51.5497, -4.36412
4.34253, 5, 5.33078, 16.5736, 33.6039, 6.81504, -51.5497, -4.36412
4.34463, 5, 5.25476, 16.6025, 33.6362, 6.70435, -51.6952, -4.28793
4.34583, 5, 5.25476, 16.6025, 33.6362, 6.70435, -51.6952, -4.28793
4.34775, 5, 5.25476, 16.6317, 33.6682, 6.59405, -51.8407, -4.21231
4.34911, 5, 5.17868, 16.6317, 33.6682, 6.59405, -51.8407, -4.21231
4.35029, 5, 5.17868, 16.6317, 33.6682, 6.59405, -51.8407, -4.21231
4.35243, 5, 5.10252, 16.6612, 33.6998, 6.48413, -51.9863, -4.13716
4.36077, 5, 4.95024, 16.7209, 33.7622, 6.26558, -52.2779, -3.98802
4.36824, 5, 4.79818, 16.7817, 33.8232, 6.04882, -52.5696, -3.84075
4.37603, 5, 4.6462, 16.8437, 33.8829, 5.83346, -52.8618, -3.69553
4.38273, 5, 4.57023, 16.8751, 33.9123, 5.72658, -53.008, -3.62361
4.39225, 5, 4.34257, 16.9709, 33.9987, 5.40834, -53.4468, -3.41028
4.40026, 5, 4.19111, 17.0362, 34.0548, 5.19826, -53.7395, -3.27002
4.4083, 5, 4.03954, 17.1026, 34.1097, 4.98956, -54.0325, -3.13131
4.41649, 5, 3.88799, 17.17, 34.1632, 4.78264, -54.3254, -2.99441
4.42437, 5, 3.73628, 17.2383, 34.2154, 4.57731, -54.6185, -2.85904
4.43238, 5, 3.66025, 17.2728, 34.2663, 4.37344, -54.9119, -2.72522
4.4404, 5, 3.50793, 17.3426, 34.2913, 4.27207, -55.2053, -2.59312
4.4483, 5, 3.35526, 17.4134, 34.3403, 4.07029, -55.3521, -2.52777
4.45573, 5, 3.20204, 17.4852, 34.388, 3.87025, -55.6458, -2.39814
4.46373, 5, 3.04849, 17.558, 34.4345, 3.67159, -55.9399, -2.26971
4.47178, 5, 2.89483, 17.6319, 34.4795, 3.47431, -56.2342, -2.14272
4.47973, 5, 2.74098, 17.7068, 34.5233, 3.27836, -56.5286, -2.01707
4.48773, 5, 2.58684, 17.7828, 34.5659, 3.08373, -56.8231, -1.89297
4.49578, 5, 2.4327, 17.8598, 34.6072, 2.89063, -57.1175, -1.77013
4.50373, 5, 2.27858, 17.9379, 34.6473, 2.69887, -57.4118, -1.64891
4.51174, 5, 2.12441, 18.0169, 34.686, 2.50827, -57.7059, -1.52927
4.51977, 5, 1.97037, 18.097, 34.7234, 2.319, -58.0001, -1.41076
4.52772, 5, 1.81649, 18.178, 34.7596, 2.1312, -58.2945, -1.29406
4.53573, 5, 1.66262, 18.2599, 34.7943, 1.94472, -58.5889, -1.17847
4.54379, 5, 1.50908, 18.3424, 34.8277, 1.75948, -58.8832, -1.06435
4.55174, 5, 1.35589, 18.4258, 34.8598, 1.575, -59.1775, -0.952797
4.55972, 5, 1.20291, 18.5098, 34.8905, 1.3917, -59.471, -0.843668
4.56973, 5, 0.973845, 18.6367, 34.9339, 1.11831, -59.9088, -0.687464
4.57573, 5, 0.897467, 18.6793, 34.9477, 1.02742, -60.054, -0.63781
4.58379, 5, 0.744586, 18.7648, 34.9742, 0.84611, -60.3426, -0.542496
4.59174, 5, 0.591356, 18.8507, 34.9991, 0.664791, -60.6289, -0.453226
4.59974, 5, 0.437806, 18.937, 35.0225, 0.483963, -60.9125, -0.370199
4.60873, 6, 0.283783, 19.0236, 35.0446, 0.303295, -61.1935, -0.293452
4.61572, 6, 0.129195, 19.1102, 35.0652, 0.122631, -61.472, -0.224141
4.62373, 6, -0.0257017, 19.197, 35.0846, -0.0581973, -61.7478, -0.160437
4.6318, 6, -0.180983, 19.2838, 35.1026, -0.23918, -62.0208, -0.103529
4.63972, 6, -0.336391, 19.3706, 35.119, -0.420348, -62.2913, -0.0537109
4.64774, 6, -0.491999, 19.4574, 35.1341, -0.601592, -62.5592, -0.00986177
4.6558, 6, -0.647837, 19.5443, 35.1479, -0.783065, -62.8242, 0.0282072
4.66372, 6, -0.803644, 19.6315, 35.1602, -0.96505, -63.0869, 0.0602876
4.67174, 6, -0.959379, 19.7188, 35.171, -1.14706, -63.3474, 0.0865956
4.67985, 6, -1.11519, 19.8064, 35.1805, -1.32903, -63.606, 0.108095
4.68772, 6, -1.27102, 19.8944, 35.1891, -1.51097, -63.863, 0.125084
4.69622, 6, -1.42653, 19.9828, 35.1964, -1.69272, -64.1187, 0.139193
4.70362, 6, -1.58192, 20.0717, 35.2024, -1.87446, -64.3737, 0.150949
4.71174, 6, -1.73697, 20.1611, 35.2073, -2.05558, -64.6283, 0.161159
4.72051, 6, -1.89158, 20.2512, 35.211, -2.23617, -64.8822, 0.170362
4.72772, 6, -2.04612, 20.342, 35.2135, -2.41627, -65.136, 0.178557
4.73576, 6, -2.2006, 20.4337, 35.2148, -2.59599, -65.3897, 0.186065
4.74464, 6, -2.35525, 20.5261, 35.2152, -2.77532, -65.6432, 0.192887
4.75182, 6, -2.51029, 20.6193, 35.2145, -2.95388, -65.8964, 0.198855
4.75974, 6, -2.66565, 20.7133, 35.2126, -3.13196, -66.1495, 0.204134
4.76855, 6, -2.82132, 20.8081, 35.2095, -3.30935, -66.4025, 0.208626
4.77601, 6, -2.97761, 20.9035, 35.2053, -3.48654, -66.6554, 0.212366
4.78381, 6, -3.13428, 20.9995, 35.1998, -3.66329, -66.9081, 0.215426
4.79262, 6, -3.29105, 21.0964, 35.193, -3.83959, -67.1605, 0.217792
4.80013, 6, -3.44812, 21.1941, 35.185, -4.01525, -67.4127, 0.219462
4.80749, 6, -3.60522, 21.2924, 35.1756, -4.19042, -67.6646, 0.220522
4.81662, 6, -3.76218, 21.3915, 35.1652, -4.36524, -67.9163, 0.221024
4.82435, 6, -3.91912, 21.4912, 35.1536, -4.53961, -68.1674, 0.221203
4.83176, 6, -4.076, 21.5915, 35.1406, -4.7134, -68.4183, 0.22116
4.84069, 6, -4.23283, 21.6923, 35.1264, -4.88668, -68.669, 0.220994
4.84861, 6, -4.38953, 21.794, 35.1111, -5.0594, -68.9197, 0.220358
4.85587, 6, -4.54593, 21.8964, 35.0946, -5.23182, -69.1699, 0.218742
4.86481, 6, -4.70163, 21.9996, 35.0768, -5.40389, -69.4199, 0.216057
4.87303, 6, -4.8569, 22.1035, 35.0576, -5.5754, -69.6698, 0.212473
4.8801, 6, -5.01189, 22.2081, 35.0373, -5.74645, -69.9194, 0.207912
4.88677, 6, -5.08926, 22.2607, 35.0266, -5.83173, -70.0441, 0.205302
4.89786, 6, -5.32118, 22.4193, 34.993, -6.08732, -70.4176, 0.196398
4.90429, 6, -5.47594, 22.526, 34.9691, -6.25724, -70.6661, 0.189551
4.91227, 6, -5.63088, 22.6336, 34.9438, -6.42653, -70.9142, 0.182006
4.92027, 6, -5.78624, 22.7418, 34.9174, -6.59541, -71.1618, 0.173777
4.92903, 6, -5.94204, 22.8506, 34.8898, -6.76389, -71.4091, 0.164926
4.93643, 6, -6.0982, 22.96, 34.8609, -6.93212, -71.656, 0.155581
4.94272, 6, -6.17644, 23.0149, 34.846, -7.01611, -71.7794, 0.15071
4.95338, 6, -6.41142, 23.1804, 34.7994, -7.26737, -72.1489, 0.135395
4.95975, 6, -6.48969, 23.2358, 34.7833, -7.35093, -72.2718, 0.12998
4.96771, 6, -6.64623, 23.3472, 34.7501, -7.51765, -72.5174, 0.118861
4.97571, 6, -6.80288, 23.4595, 34.7156, -7.684, -72.7628, 0.107135
4.98278, 6, -6.95944, 23.5724, 34.68, -7.85026, -73.0076, 0.0947426
4.99171, 6, -7.11578, 23.6857, 34.6432, -8.01602, -73.2522, 0.0816725
4.99971, 6, -7.27184, 23.7997, 34.6051, -8.18134, -73.4961, 0.0679075
5.00681, 6, -7.42761, 23.9142, 34.5657, -8.34622, -73.7397, 0.053291
5.01571, 6, -7.58299, 24.0295, 34.5252, -8.51057, -73.9829, 0.0379272
5.02371, 6, -7.73788, 24.1455, 34.4833, -8.67487, -74.2256, 0.0220486
5.0307, 6, -7.89216, 24.2622, 34.4403, -8.83889, -74.4679, 0.00566485
5.03974, 6, -8.0459, 24.3795, 34.3961, -9.0023, -74.7097, -0.0110601
5.04773, 6, -8.19925, 24.4974, 34.3506, -9.16545, -74.9511, -0.0280668
5.0547, 6, -8.35235, 24.6156, 34.3041, -9.32818, -75.1919, -0.0453492
5.06371, 6, -8.50554, 24.7344, 34.2561, -9.49065, -75.4323, -0.0630187
5.07272, 6, -8.65897, 24.8539, 34.207, -9.65292, -75.672, -0.0810897
5.0787, 6, -8.81274, 24.9741, 34.1566, -9.81468, -75.9112, -0.0996016
5.08772, 6, -8.96673, 25.0947, 34.1051, -9.97596, -76.1499, -0.118914
5.09571, 6, -9.12117, 25.2159, 34.0523, -10.137, -76.3881, -0.138861
5.10377, 6, -9.27586, 25.3377, 33.9983, -10.2976, -76.6257, -0.159489
5.11175, 6, -9.43047, 25.4599, 33.943, -10.4581, -76.8631, -0.180511
5.1197, 6, -9.58524, 25.583, 33.8864, -10.6183, -77.1, -0.201765
5.12771, 6, -9.73992, 25.7066, 33.8285, -10.7781, -77.3364, -0.222945
5.1357, 6, -9.89447, 25.8308, 33.7696, -10.9375, -77.5722, -0.244326
5.14377, 6, -10.049, 25.9553, 33.7094, -11.0965, -77.8074, -0.266144
5.15171, 6, -10.2031, 26.0802, 33.648, -11.2554, -78.042, -0.288401
5.1597, 6, -10.3569, 26.2056, 33.5854, -11.414, -78.276, -0.311256
5.16778, 6, -10.5103, 26.3315, 33.5215, -11.5722, -78.5093, -0.334836
5.1757, 6, -10.6634, 26.458, 33.4563, -11.73, -78.742, -0.359062
5.18371, 6, -10.8159, 26.5849, 33.39, -11.8873, -78.9739, -0.383273
5.19177, 6, -10.9677, 26.7124, 33.3224, -12.0444, -79.2053, -0.407586
5.1997, 6, -11.1187, 26.8403, 33.2535, -12.2014, -79.4363, -0.431928
5.20771, 6, -11.2691, 26.9687, 33.1834, -12.3579, -79.6666, -0.456546
5.21577, 6, -11.4192, 27.0978, 33.1121, -12.514, -79.8965, -0.481891
5.2237, 6, -11.5694, 27.2275, 33.0395, -12.6698, -80.126, -0.507791
5.23171, 6, -11.7197, 27.3577, 32.9659, -12.8252, -80.3548, -0.534234
5.23982, 6, -11.8703, 27.4884, 32.8911, -12.9805, -80.5831, -0.560805
5.24781, 6, -12.0213, 27.6193, 32.8151, -13.1354, -80.8108, -0.587222
5.2557, 6, -12.1724, 27.7508, 32.7377, -13.2901, -81.0377, -0.613879
5.26379, 6, -12.3238, 27.8828, 32.659, -13.4442, -81.2639, -0.640823
5.27176, 6, -12.4753, 28.0151, 32.5791, -13.5979, -81.4894, -0.66828
5.2799, 6, -12.6267, 28.1479, 32.4979, -13.7514, -81.7142, -0.696387
5.28786, 6, -12.7779, 28.2809, 32.4155, -13.9048, -81.9384, -0.724976
5.29594, 6, -12.929, 28.4142, 32.3321, -14.0577, -82.1616, -0.753655
5.30381, 6, -13.0798, 28.5482, 32.2474, -14.2106, -82.3843, -0.782199
5.31181, 6, -13.2303, 28.6827, 32.1615, -14.3628, -82.6064, -0.810925
5.31987, 6, -13.3804, 28.8176, 32.0744, -14.515, -82.8278, -0.839975
5.32775, 6, -13.53, 28.9529, 31.9859, -14.6668, -83.0486, -0.869532
5.336, 6, -13.6792, 29.0885, 31.8962, -14.8185, -83.2685, -0.899777
5.3438, 6, -13.8281, 29.2245, 31.8052, -14.9697, -83.4879, -0.930243
5.35178, 6, -13.9761, 29.3613, 31.7131, -15.1206, -83.7068, -0.960382
5.35995, 6, -14.1231, 29.4983, 31.6198, -15.2711, -83.9248, -0.990472
5.36803, 6, -14.2696, 29.6359, 31.5254, -15.4212, -84.1422, -1.02094
5.3747, 6, -14.3426, 29.7047, 31.4778, -15.4962, -84.2506, -1.03639
5.38449, 6, -14.5614, 29.9117, 31.333, -15.7209, -84.5748, -1.08358
5.39209, 6, -14.7072, 30.0505, 31.2348, -15.8701, -84.79, -1.11525
5.39874, 6, -14.7802, 30.12, 31.1851, -15.9446, -84.8973, -1.13098
5.40859, 6, -14.9993, 30.3291, 31.0344, -16.1675, -85.2181, -1.17796
5.41625, 6, -15.1457, 30.4689, 30.9326, -16.3158, -85.4311, -1.20961
5.42425, 6, -15.2923, 30.6089, 30.8297, -16.4639, -85.6432, -1.24179
5.43253, 6, -15.439, 30.7493, 30.7256, -16.6117, -85.8547, -1.27438
5.44031, 6, -15.5125, 30.8198, 30.6731, -16.6855, -86.0654, -1.30674
5.44921, 6, -15.6592, 30.9609, 30.5132, -16.906, -86.2753, -1.33884
5.45574, 6, -15.8057, 31.1023, 30.4592, -16.9793, -86.38, -1.35493
5.46369, 6, -15.9517, 31.2438, 30.3506, -17.1258, -86.5887, -1.38721
5.47169, 6, -16.0975, 31.3855, 30.241, -17.2721, -86.7968, -1.41983
5.47974, 6, -16.2431, 31.5279, 30.1302, -17.4182, -87.0041, -1.453
5.4878, 6, -16.3883, 31.6708, 30.0182, -17.564, -87.2108, -1.48627
5.4957, 6, -16.533, 31.814, 29.9047, -17.7094, -87.4166, -1.51922
5.50371, 6, -16.6774, 31.9573, 29.7898, -17.8543, -87.6219, -1.55202
5.51169, 6, -16.821, 32.1007, 29.6738, -17.9991, -87.8264, -1.58511
5.51973, 6, -16.9637, 32.2446, 29.5568, -18.1435, -88.0302, -1.61882
5.52774, 6, -17.1057, 32.3893, 29.4387, -18.288, -88.2331, -1.65272
5.5357, 6, -17.2466, 32.5342, 29.3194, -18.4318, -88.4353, -1.68617
5.54374, 6, -17.3861, 32.6789, 29.1988, -18.5752, -88.6366, -1.7193
5.55168, 6, -17.5243, 32.823, 29.0773, -18.718, -88.8369, -1.75257
5.55969, 6, -17.6608, 32.9664, 28.9553, -18.86, -89.0359, -1.7863
5.56786, 6, -17.7936, 33.1072, 28.8337, -19.0009, -89.2327, -1.82028
5.57574, 6, -17.9205, 33.2433, 28.7138, -19.14, -89.4263, -1.85375
5.58368, 6, -18.0404, 33.3723, 28.5976, -19.2746, -89.614, -1.88596
5.59175, 6, -18.1526, 33.4931, 28.4868, -19.4023, -89.7921, -1.91642
5.59969, 6, -18.2567, 33.6048, 28.3834, -19.5199, -89.9567, -1.94456
5.60774, 6, -18.3516, 33.7062, 28.2898, -19.625, -90.1036, -1.97023
5.61582, 6, -18.4366, 33.796, 28.2078, -19.7152, -90.2296, -1.9926
5.62368, 6, -18.5115, 33.8739, 28.1386, -19.7887, -90.3335, -2.01118
5.63177, 6, -18.5767, 33.9403, 28.0825, -19.847, -90.4146, -2.02599
5.63976, 6, -18.6315, 33.9949, 28.0385, -19.8898, -90.4757, -2.0368
5.64774, 6, -18.6752, 34.0376, 28.0058, -19.9199, -90.5184, -2.04429
5.65569, 6, -18.7079, 34.0692, 27.9827, -19.94, -90.5468, -2.04939
5.66375, 6, -18.7318, 34.0916, 27.967, -19.9528, -90.5647, -2.05236
5.67169, 6, -18.7487, 34.1072, 27.9567, -19.9603, -90.575, -2.05401
5.67969, 6, -18.7596, 34.1175, 27.9505, -19.9644, -90.5805, -2.05495
5.68781, 7, -18.7663, 34.1232, 27.9469, -19.9664, -90.5833, -2.05543
5.6957, 7, -18.7695, 34.1258, 27.9448, -19.9674, -90.5846, -2.05573
5.70369, 7, -18.7703, 34.1271, 27.9435, -19.9679, -90.5853, -2.05582
5.71175, 7, -18.7701, 34.1276, 27.9426, -19.9682, -90.5857, -2.05587
5.71968, 7, -18.7697, 34.128, 27.9421, -19.9684, -90.5858, -2.05581
5.72774, 7, -18.7694, 34.1284, 27.9419, -19.9685, -90.5859, -2.05584
5.73576, 7, -18.7693, 34.1291, 27.9418, -19.9685, -90.586, -2.05586
5.74374, 7, -18.7696, 34.13, 27.9417, -19.9685, -90.586, -2.05588
5.75169, 7, -18.7701, 34.1311, 27.9417, -19.9685, -90.586, -2.05591
5.75976, 7, -18.7709, 34.1323, 27.9416, -19.9685, -90.586, -2.05592
5.76779, 7, -18.7717, 34.1335, 27.9416, -19.9685, -90.586, -2.05597
5.77576, 7, -18.7728, 34.1345, 27.9416, -19.9685, -90.586, -2.05595
5.78387, 7, -18.7739, 34.135, 27.9416, -19.9685, -90.586, -2.05593
5.79178, 7, -18.7751, 34.1353, 27.9416, -19.9685, -90.586, -2.05592
5.79979, 7, -18.7763, 34.1354, 27.9416, -19.9685, -90.586, -2.05586
