hehonglu123/ABB_Primitive_Study/realrobot/movel_30_ori/curve_exe_v1000_z20.csv
timestamp, cmd_num, J1, J2, J3, J4, J5, J6
0.000482, -1, -18.7721, 34.1325, 27.942, -19.968, -90.5848, -2.05536
0.002341, -1, -18.7721, 34.1325, 27.942, -19.968, -90.5848, -2.05536
0.008401, -1, -18.7721, 34.1325, 27.942, -19.968, -90.5848, -2.05544
0.030898, -1, -18.7721, 34.1325, 27.942, -19.968, -90.5848, -2.05548
0.032977, -1, -18.7721, 34.1325, 27.942, -19.968, -90.5848, -2.05547
0.03419, -1, -18.7721, 34.1325, 27.942, -19.968, -90.5848, -2.05547
0.039064, -1, -18.7721, 34.1325, 27.942, -19.968, -90.5848, -2.05545
0.049179, -1, -18.772, 34.1325, 27.942, -19.968, -90.5849, -2.05544
0.055111, -1, -18.7719, 34.1324, 27.942, -19.968, -90.5849, -2.05547
0.064549, -1, -18.7692, 34.1316, 27.9421, -19.9679, -90.5848, -2.05549
0.071049, -1, -18.767, 34.1308, 27.9422, -19.9678, -90.5847, -2.0555
0.07912, -1, -18.7598, 34.1278, 27.9424, -19.9668, -90.5835, -2.05558
0.088644, -1, -18.7411, 34.1186, 27.9428, -19.9583, -90.5752, -2.05684
0.096653, -1, -18.7202, 34.1079, 27.9428, -19.9434, -90.5601, -2.06197
0.104636, -1, -18.7063, 34.1008, 27.9428, -19.9167, -90.5328, -2.07361
0.112705, -1, -18.6708, 34.0829, 27.942, -19.8974, -90.4871, -2.09354
0.120883, -1, -18.6241, 34.0593, 27.9398, -19.8429, -90.4558, -2.10734
0.128056, -1, -18.5643, 34.0291, 27.9355, -19.7645, -90.374, -2.14398
0.136088, -1, -18.4907, 33.9918, 27.9284, -19.6577, -90.2617, -2.19514
0.144054, -1, -18.403, 33.9477, 27.918, -19.52, -90.1167, -2.26076
0.152073, -1, -18.3017, 33.8968, 27.904, -19.3504, -89.9376, -2.3415
0.16017, -1, -18.1866, 33.8391, 27.8869, -19.1503, -89.726, -2.43746
0.168049, -1, -18.0578, 33.7746, 27.8669, -18.9229, -89.4853, -2.54554
0.176055, -1, -17.9164, 33.7039, 27.8447, -18.6731, -89.22, -2.66508
0.184141, -1, -17.7637, 33.6277, 27.821, -18.4061, -88.936, -2.79272
0.192081, -1, -17.601, 33.5462, 27.7966, -18.1266, -88.639, -2.9265
0.200118, -1, -17.4294, 33.4604, 27.7719, -17.8394, -88.3335, -3.06428
0.208103, -1, -17.2511, 33.3714, 27.7468, -17.5474, -88.0228, -3.20449
0.216103, -1, -17.0682, 33.28, 27.7217, -17.2522, -87.7091, -3.34621
0.224047, -1, -16.8821, 33.1874, 27.6966, -16.9554, -87.3934, -3.48883
0.23211, -1, -16.6939, 33.094, 27.6715, -16.6575, -87.0764, -3.6317
0.241717, -1, -16.5045, 33.0003, 27.6465, -16.3587, -86.599, -3.84645
0.24804, -1, -16.3145, 32.9065, 27.6214, -16.0593, -86.4395, -3.91813
0.256143, -1, -16.1246, 32.8127, 27.5964, -15.7589, -86.1198, -4.06195
0.263056, -1, -15.9347, 32.719, 27.5714, -15.4577, -85.7997, -4.20568
0.272047, -1, -15.7456, 32.6253, 27.5463, -15.1564, -85.4789, -4.35011
0.28017, -1, -15.5569, 32.5316, 27.5211, -14.8546, -85.1578, -4.4946
0.28709, -1, -15.3684, 32.4376, 27.4958, -14.5524, -84.8364, -4.63927
0.296104, -1, -15.1806, 32.3435, 27.4706, -14.25, -84.5144, -4.78411
0.303049, -1, -14.9929, 32.249, 27.4454, -13.9469, -84.1921, -4.92914
0.312045, -1, -14.805, 32.1541, 27.42, -13.6437, -83.8697, -5.07415
0.320432, -1, -14.6163, 32.0589, 27.3944, -13.3404, -83.547, -5.21948
0.327138, -1, -14.4265, 31.9636, 27.3689, -13.0368, -83.2238, -5.36494
0.335454, -1, -14.2357, 31.8682, 27.3433, -12.7332, -82.9005, -5.51062
0.343148, -1, -14.0439, 31.7726, 27.3178, -12.4294, -82.577, -5.65646
0.352039, -1, -13.8516, 31.677, 27.2921, -12.125, -82.2531, -5.80197
0.360182, -1, -13.6589, 31.5815, 27.2665, -11.8207, -81.929, -5.94761
0.367052, -1, -13.4655, 31.4861, 27.2409, -11.5165, -81.605, -6.09324
0.376051, -1, -13.2717, 31.3906, 27.2153, -11.212, -81.281, -6.2388
0.383978, -1, -13.0782, 31.2954, 27.1897, -10.9078, -80.9569, -6.38454
0.393515, -1, -12.8855, 31.2002, 27.1641, -10.6034, -80.6333, -6.53016
0.399521, -1, -12.6934, 31.1052, 27.1386, -10.2988, -80.3098, -6.67589
0.408025, -1, -12.5018, 31.01, 27.1131, -9.99468, -79.9864, -6.8218
0.416054, -1, -12.3114, 30.9149, 27.0875, -9.69064, -79.663, -6.96734
0.424057, -1, -12.1216, 30.8198, 27.0619, -9.38659, -79.3395, -7.11289
0.432108, -1, -11.9327, 30.7245, 27.0363, -9.08298, -79.0161, -7.25839
0.440134, -1, -11.7439, 30.6292, 27.0108, -8.77936, -78.6928, -7.40375
0.448191, -1, -11.555, 30.5339, 26.9854, -8.47593, -78.3698, -7.54896
0.455628, -1, -11.3658, 30.4388, 26.9597, -8.17324, -78.0475, -7.6942
0.464131, -1, -11.1762, 30.3439, 26.9342, -7.87092, -77.7258, -7.83919
0.472213, -1, -10.9864, 30.2492, 26.9088, -7.569, -77.4044, -7.98379
0.479624, -1, -10.8913, 30.2019, 26.8835, -7.26772, -77.0837, -8.12811
0.488045, -1, -10.6055, 30.0604, 26.8581, -6.96651, -76.7635, -8.27207
0.496303, -1, -10.4147, 29.9663, 26.8327, -6.66597, -76.4437, -8.41569
0.503033, -1, -10.3193, 29.9192, 26.8202, -6.51604, -76.284, -8.48753
0.512096, -1, -10.0339, 29.7786, 26.7824, -6.06676, -75.8054, -8.70247
0.520395, -1, -9.84446, 29.685, 26.7574, -5.76799, -75.4872, -8.84568
0.527033, -1, -9.75007, 29.6383, 26.7448, -5.61887, -75.3284, -8.91715
0.53635, -1, -9.46829, 29.4984, 26.7072, -5.17192, -74.8532, -9.13069
0.543067, -1, -9.37485, 29.4519, 26.6946, -5.02335, -74.6952, -9.20178
0.551075, -1, -9.18871, 29.3588, 26.6696, -4.72692, -74.3798, -9.34357
0.683855, -1, -6.18714, 27.863, 26.268, 0.0400401, -69.3064, -11.6249
0.685804, -1, -6.09917, 27.819, 26.2562, 0.180321, -69.1571, -11.6921
0.687089, -1, -6.09917, 27.819, 26.2562, 0.180321, -69.1571, -11.6921
0.688284, -1, -6.09917, 27.819, 26.2562, 0.180321, -69.1571, -11.6921
0.690487, -1, -6.01143, 27.7751, 26.2444, 0.320327, -69.0081, -11.7591
0.691682, -1, -6.01143, 27.7751, 26.2444, 0.320327, -69.0081, -11.7591
0.694281, -1, -5.92397, 27.7311, 26.2326, 0.459994, -68.8594, -11.826
0.697877, -1, -5.83679, 27.6873, 26.221, 0.599397, -68.7109, -11.8927
0.69921, -1, -5.83679, 27.6873, 26.221, 0.599397, -68.7109, -11.8927
0.700484, -1, -5.83679, 27.6873, 26.221, 0.599397, -68.7109, -11.8927
0.702488, -1, -5.74981, 27.6435, 26.2092, 0.738612, -68.5627, -11.9594
0.703793, -1, -5.74981, 27.6435, 26.2092, 0.738612, -68.5627, -11.9594
0.706664, -1, -5.66298, 27.5998, 26.1975, 0.877582, -68.4147, -12.026
0.707916, -1, -5.66298, 27.5998, 26.1975, 0.877582, -68.4147, -12.026
0.709816, -1, -5.57627, 27.5563, 26.1858, 1.01622, -68.2669, -12.0924
0.7145, -1, -5.48965, 27.5129, 26.1741, 1.15457, -68.1195, -12.1587
0.715788, -1, -5.48965, 27.5129, 26.1741, 1.15457, -68.1195, -12.1587
0.718495, -1, -5.40316, 27.4695, 26.1624, 1.29256, -67.9724, -12.2249
0.719825, -1, -5.40316, 27.4695, 26.1624, 1.29256, -67.9724, -12.2249
0.721768, -1, -5.31677, 27.4263, 26.1508, 1.43029, -67.8257, -12.2909
0.723255, -1, -5.31677, 27.4263, 26.1508, 1.43029, -67.8257, -12.2909
0.727118, -1, -5.23041, 27.3832, 26.1392, 1.56787, -67.6793, -12.3569
0.735023, -1, -5.05786, 27.2971, 26.1161, 1.8423, -67.3875, -12.488
0.744046, -1, -4.8857, 27.2115, 26.0933, 2.11523, -67.097, -12.6186
0.752028, -1, -4.71389, 27.1264, 26.0703, 2.387, -66.8078, -12.7486
0.760107, -1, -4.54269, 27.0415, 26.0475, 2.65772, -66.5198, -12.8779
0.768031, -1, -4.3718, 26.9569, 26.0248, 2.92693, -66.2331, -13.0068
0.776026, -1, -4.20136, 26.8727, 26.0022, 3.19513, -65.9476, -13.1351
0.784045, -1, -4.03181, 26.7889, 25.9798, 3.46247, -65.6632, -13.2629
0.791112, -1, -3.86322, 26.7054, 25.9573, 3.72839, -65.38, -13.3905
0.800089, -1, -3.69597, 26.6223, 25.9351, 3.99312, -65.098, -13.5171
0.807028, -1, -3.52982, 26.5394, 25.9129, 4.2569, -64.8172, -13.6433
0.816029, -1, -3.36479, 26.4569, 25.8907, 4.5192, -64.5379, -13.7686
0.824089, -1, -3.20073, 26.3747, 25.8687, 4.78037, -64.2599, -13.8935
0.831129, -1, -3.03775, 26.293, 25.8467, 5.04068, -63.9829, -14.0178
0.839478, -1, -2.87584, 26.2115, 25.8248, 5.29987, -63.7074, -14.1417
0.847131, -1, -2.71478, 26.1304, 25.8032, 5.5576, -63.4331, -14.265
0.855157, -1, -2.55434, 26.0498, 25.7817, 5.81424, -63.16, -14.3878
0.863634, -1, -2.39408, 25.9696, 25.7602, 6.06958, -62.8882, -14.5102
0.872087, -1, -2.23422, 25.8899, 25.7387, 6.32363, -62.6177, -14.6318
0.880034, -1, -2.07472, 25.8104, 25.7174, 6.57653, -62.3483, -14.7529
0.887934, -1, -1.91566, 25.7315, 25.6962, 6.82853, -62.0803, -14.8731
0.896092, -1, -1.75708, 25.6529, 25.6752, 7.07931, -61.8132, -14.9929
0.904024, -1, -1.59908, 25.5746, 25.6543, 7.32879, -61.5474, -15.1122
0.912105, -1, -1.44129, 25.4966, 25.6333, 7.57724, -61.2826, -15.231
0.920035, -1, -1.284, 25.419, 25.6125, 7.82466, -61.0189, -15.3494
0.927459, -1, -1.12757, 25.3417, 25.5919, 8.07082, -60.7566, -15.4671
0.93628, -1, -0.972095, 25.2648, 25.5713, 8.31584, -60.4956, -15.5849
0.943461, -1, -0.817892, 25.1881, 25.5508, 8.56019, -60.2359, -15.7017
0.951685, -1, -0.664889, 25.1118, 25.5304, 8.80316, -59.9772, -15.8178
0.960288, -1, -0.512764, 25.0358, 25.5099, 9.04492, -59.7199, -15.9337
0.967575, -1, -0.361858, 24.9603, 25.4896, 9.28556, -59.4642, -16.0487
0.97614, -1, -0.212054, 24.8851, 25.4695, 9.52532, -59.2095, -16.1635
0.984436, -1, -0.13756, 24.8477, 25.4595, 9.76367, -58.9559, -16.2778
0.991585, -1, 0.0107876, 24.773, 25.4397, 9.88244, -58.8294, -16.3916
1.00004, -1, 0.232148, 24.6615, 25.4098, 10.2374, -58.4516, -16.505
1.00706, -1, 0.30576, 24.6246, 25.3998, 10.3552, -58.3262, -16.5614
1.01614, -1, 0.526502, 24.5142, 25.3703, 10.7069, -57.9514, -16.7302
1.02303, -1, 0.600051, 24.4776, 25.3604, 10.8235, -57.827, -16.7862
1.03221, -1, 0.820167, 24.3681, 25.3312, 11.1719, -57.4554, -16.953
1.03902, -1, 0.893366, 24.3317, 25.3215, 11.2876, -57.3322, -17.0086
1.04836, -1, 1.11196, 24.2232, 25.2923, 11.6328, -56.9643, -17.1735
1.05507, -1, 1.1846, 24.1872, 25.2827, 11.7474, -56.8424, -17.2284
1.06448, -1, 1.40177, 24.0797, 25.2539, 12.0899, -56.4781, -17.392
1.07104, -1, 1.47399, 24.0441, 25.2443, 12.2036, -56.3573, -17.4463
1.08056, -1, 1.68955, 23.9376, 25.2159, 12.5426, -55.9966, -17.6085
1.08863, -1, 1.83224, 23.8671, 25.1971, 12.7676, -55.7575, -17.7162
1.09665, -1, 1.97374, 23.7969, 25.1782, 12.9916, -55.5193, -17.8235
1.1046, -1, 2.04413, 23.7269, 25.1595, 13.2142, -55.2822, -17.9303
1.11264, -1, 2.1843, 23.6921, 25.1409, 13.436, -55.046, -18.0363
1.12002, -1, 2.32349, 23.6227, 25.1315, 13.5465, -54.9282, -18.0893
1.12806, -1, 2.46172, 23.5534, 25.1131, 13.7671, -54.6935, -18.1947
1.13602, -1, 2.59902, 23.4845, 25.0948, 13.9866, -54.4596, -18.2997
1.14402, -1, 2.73532, 23.4159, 25.0764, 14.2052, -54.2265, -18.4042
1.15206, -1, 2.87079, 23.3476, 25.0581, 14.4227, -53.9949, -18.5085
1.16001, -1, 3.0058, 23.2795, 25.0399, 14.6395, -53.7642, -18.6121
1.16802, -1, 3.14065, 23.2116, 25.0216, 14.8552, -53.5346, -18.7155
1.17604, -1, 3.27552, 23.1441, 25.0036, 15.0699, -53.306, -18.8183
1.18401, -1, 3.41024, 23.077, 24.9858, 15.2838, -53.0782, -18.921
1.19202, -1, 3.54475, 23.0101, 24.9679, 15.4971, -52.8515, -19.0231
1.2001, -1, 3.67892, 22.9435, 24.95, 15.7094, -52.6258, -19.1244
1.20801, -1, 3.81272, 22.8772, 24.9324, 15.9205, -52.401, -19.2256
1.21603, -1, 3.94601, 22.8112, 24.9146, 16.1309, -52.1772, -19.326
1.22411, -1, 4.07898, 22.7455, 24.897, 16.3405, -51.9542, -19.4263
1.23201, -1, 4.21151, 22.6801, 24.8796, 16.5491, -51.732, -19.5258
1.24002, -1, 4.34352, 22.6149, 24.8621, 16.7567, -51.5107, -19.6254
1.24807, -1, 4.47479, 22.55, 24.8447, 16.9636, -51.2903, -19.7242
1.25602, -1, 4.60536, 22.4852, 24.8274, 17.1698, -51.0707, -19.8232
1.26501, -1, 4.73526, 22.4207, 24.8102, 17.3752, -50.8521, -19.9211
1.27208, -1, 4.86435, 22.3564, 24.7929, 17.5797, -50.6342, -20.0194
1.28001, -1, 4.99271, 22.2923, 24.7759, 17.7834, -50.4173, -20.117
1.28785, -1, 5.12028, 22.2285, 24.759, 17.9863, -50.2012, -20.2141
1.29609, -1, 5.24708, 22.1649, 24.7418, 18.1885, -49.986, -20.3107
1.30401, -1, 5.37307, 22.1016, 24.7249, 18.3898, -49.7716, -20.4071
1.31123, -1, 5.49806, 22.0385, 24.7081, 18.5903, -49.5581, -20.5029
1.31905, -1, 5.62247, 21.9758, 24.6912, 18.7901, -49.3456, -20.5983
1.3271, -1, 5.74644, 21.9133, 24.6744, 18.9894, -49.1338, -20.6935
1.3362, -1, 5.87024, 21.8511, 24.6579, 19.1878, -48.923, -20.7882
1.34311, -1, 5.99394, 21.7892, 24.6413, 19.3851, -48.7132, -20.8829
1.35201, -1, 6.11759, 21.7274, 24.6247, 19.582, -48.504, -20.9771
1.36092, -1, 6.24102, 21.6658, 24.6083, 19.778, -48.2955, -21.0712
1.36804, -1, 6.36424, 21.6045, 24.5919, 19.9732, -48.0877, -21.1648
1.37508, -1, 6.48733, 21.5434, 24.5754, 20.1676, -47.8805, -21.2582
1.3845, -1, 6.61013, 21.4824, 24.5591, 20.3612, -47.6743, -21.3507
1.39108, -1, 6.73255, 21.4218, 24.543, 20.5543, -47.4685, -21.4434
1.39921, -1, 6.85463, 21.3613, 24.5268, 20.7469, -47.2634, -21.5351
1.40911, -1, 6.97628, 21.3012, 24.5106, 20.9385, -47.0592, -21.6268
1.41556, -1, 7.0973, 21.2413, 24.4945, 21.1295, -46.8557, -21.7181
1.42329, -1, 7.21771, 21.1817, 24.4785, 21.3196, -46.653, -21.809
1.43214, -1, 7.33749, 21.1223, 24.4626, 21.5093, -46.4511, -21.8996
1.44004, -1, 7.45674, 21.0631, 24.4469, 21.6983, -46.2501, -21.9899
1.44746, -1, 7.57537, 21.0041, 24.4312, 21.8864, -46.0497, -22.08
1.45634, -1, 7.69362, 20.9453, 24.4155, 22.074, -45.8501, -22.1698
1.46397, -1, 7.81139, 20.8867, 24.3997, 22.261, -45.6513, -22.2595
1.47219, -1, 7.92859, 20.8282, 24.384, 22.4475, -45.4532, -22.3487
1.48035, -1, 7.98696, 20.7698, 24.3683, 22.6332, -45.256, -22.4376
1.48769, -1, 8.10327, 20.7117, 24.3527, 22.8181, -45.0595, -22.5257
1.49618, -1, 8.27671, 20.6537, 24.3373, 23.0024, -44.8635, -22.6141
1.503, -1, 8.33432, 20.6248, 24.3297, 23.0943, -44.7657, -22.6579
1.51105, -1, 8.44933, 20.5671, 24.3144, 23.2778, -44.5705, -22.7455
1.5201, -1, 8.62098, 20.4811, 24.2912, 23.5515, -44.2788, -22.8762
1.52702, -1, 8.67791, 20.4525, 24.2836, 23.6424, -44.1819, -22.9198
1.53504, -1, 8.7915, 20.3955, 24.2684, 23.8238, -43.9884, -23.0065
1.54432, -1, 8.96148, 20.3105, 24.2456, 24.0951, -43.6993, -23.1363
1.55099, -1, 9.01801, 20.2822, 24.238, 24.1853, -43.6035, -23.1793
1.56084, -1, 9.18759, 20.1977, 24.2157, 24.4547, -43.3168, -23.3084
1.56843, -1, 9.30066, 20.1415, 24.2006, 24.6334, -43.1264, -23.394
1.57504, -1, 9.35715, 20.1135, 24.1931, 24.7225, -43.0315, -23.4367
1.58301, -1, 9.46983, 20.0577, 24.178, 24.9004, -42.842, -23.5222
1.59257, -1, 9.63802, 19.9741, 24.1557, 25.1665, -42.5589, -23.6489
1.60139, -1, 9.74961, 19.9186, 24.1409, 25.3429, -42.3711, -23.7335
1.607, -1, 9.80531, 19.8909, 24.1334, 25.431, -42.2773, -23.7753
1.61654, -1, 9.91648, 19.8356, 24.1188, 25.6068, -42.0901, -23.9014
1.624, -1, 10.0273, 19.7806, 24.1043, 25.7821, -41.9039, -23.9428
1.63099, -1, 10.1377, 19.7258, 24.0897, 25.957, -41.7181, -24.0264
1.63999, -1, 10.2478, 19.6712, 24.0749, 26.1312, -41.5329, -24.1096
1.648, -1, 10.3574, 19.6167, 24.0603, 26.3047, -41.3481, -24.1926
1.656, -1, 10.4664, 19.5625, 24.0458, 26.4777, -41.1638, -24.2757
1.664, -1, 10.575, 19.5083, 24.0313, 26.6503, -40.9802, -24.3578
1.67204, -1, 10.6833, 19.4544, 24.0168, 26.8224, -40.797, -24.4407
1.67901, -1, 10.7913, 19.4006, 24.0026, 26.9938, -40.6144, -24.5227
1.68799, -1, 10.8987, 19.347, 23.9884, 27.1646, -40.4323, -24.6051
1.69604, -1, 11.0058, 19.2934, 23.9741, 27.335, -40.2507, -24.6865
1.70299, -1, 11.1125, 19.24, 23.9597, 27.505, -40.0699, -24.7679
1.71199, -1, 11.2189, 19.1868, 23.9455, 27.6746, -39.8894, -24.8491
1.72005, -1, 11.3248, 19.1337, 23.9313, 27.8435, -39.7096, -24.9297
1.72699, -1, 11.4303, 19.0808, 23.9171, 28.0119, -39.5303, -25.0105
1.73599, -1, 11.5355, 19.0282, 23.903, 28.1798, -39.3514, -25.0905
1.74413, -1, 11.6404, 18.9757, 23.8892, 28.3472, -39.1732, -25.1712
1.75099, -1, 11.7452, 18.9233, 23.8753, 28.5143, -38.9953, -25.251
1.75999, -1, 11.8499, 18.8712, 23.8613, 28.6809, -38.8182, -25.3309
1.76807, -1, 11.9543, 18.8192, 23.8472, 28.8469, -38.6413, -25.4105
1.77609, -1, 12.0587, 18.7672, 23.8333, 29.0123, -38.4649, -25.4899
1.78299, -1, 12.1629, 18.7153, 23.8195, 29.1775, -38.2895, -25.5695
1.79199, -1, 12.2668, 18.6636, 23.8056, 29.3425, -38.1145, -25.6482
1.79999, -1, 12.3705, 18.6121, 23.7919, 29.5068, -37.9399, -25.7275
1.80806, -1, 12.4741, 18.5606, 23.7783, 29.6705, -37.7659, -25.8054
1.81599, -1, 12.5773, 18.5093, 23.7647, 29.8337, -37.5922, -25.8838
1.82401, -1, 12.6802, 18.4582, 23.751, 29.9966, -37.4188, -25.9617
1.83205, -1, 12.7829, 18.4071, 23.7373, 30.1592, -37.2459, -26.0391
1.84002, -1, 12.8851, 18.3563, 23.7237, 30.3212, -37.0734, -26.1168
1.84715, -1, 12.987, 18.3058, 23.7101, 30.4828, -36.9014, -26.1933
1.85512, -1, 13.0885, 18.2553, 23.6966, 30.6437, -36.7295, -26.2707
1.86309, -1, 13.1896, 18.2051, 23.6831, 30.8043, -36.5586, -26.3472
1.87202, -1, 13.2905, 18.1549, 23.6698, 30.9647, -36.3878, -26.4237
1.88006, -1, 13.391, 18.1049, 23.6565, 31.1246, -36.2177, -26.5003
1.88703, -1, 13.4912, 18.0548, 23.6432, 31.284, -36.0479, -26.5762
1.89511, -1, 13.5912, 18.0048, 23.6298, 31.443, -35.8785, -26.6529
1.90318, -1, 13.691, 17.955, 23.6164, 31.6013, -35.7097, -26.7286
1.91119, -1, 13.7906, 17.9053, 23.6032, 31.7595, -35.5413, -26.8044
1.91925, -1, 13.8901, 17.8556, 23.5899, 31.9174, -35.3736, -26.8801
1.92727, -1, 13.9893, 17.8061, 23.5766, 32.0747, -35.2061, -26.9551
1.93548, -1, 14.0884, 17.7567, 23.5634, 32.2317, -35.0389, -27.0306
1.94409, -1, 14.1872, 17.7075, 23.5504, 32.3883, -34.8726, -27.105
1.95207, -1, 14.2856, 17.6585, 23.5373, 32.5444, -34.7065, -27.1799
1.95968, -1, 14.3836, 17.6096, 23.5242, 32.7003, -34.541, -27.2543
1.96815, -1, 14.4813, 17.5609, 23.5111, 32.856, -34.3757, -27.3282
1.97554, -1, 14.5787, 17.5124, 23.4981, 33.0111, -34.2105, -27.4028
1.9841, -1, 14.6756, 17.4639, 23.4852, 33.1657, -34.046, -27.4765
1.99216, -1, 14.7723, 17.4156, 23.4722, 33.32, -33.8815, -27.5506
1.99899, -1, 14.8205, 17.3915, 23.4657, 33.397, -33.7996, -27.5877
2.00801, -1, 14.9651, 17.3192, 23.4466, 33.6276, -33.5542, -27.6977
2.01498, -1, 15.0132, 17.2951, 23.4402, 33.7043, -33.4726, -27.7348
2.02404, -1, 15.1572, 17.2229, 23.421, 33.9335, -33.228, -27.8446
2.03108, -1, 15.2051, 17.1989, 23.4146, 34.0098, -33.1469, -27.8811
2.04025, -1, 15.3489, 17.1271, 23.3952, 34.2378, -32.9039, -27.9909
2.04704, -1, 15.3968, 17.1032, 23.3888, 34.3137, -32.8232, -28.027
2.05632, -1, 15.5404, 17.0316, 23.3696, 34.5411, -32.5815, -28.136
2.06298, -1, 15.5882, 17.0079, 23.3632, 34.6166, -32.501, -28.1721
2.07247, -1, 15.7313, 16.937, 23.3442, 34.8428, -32.2604, -28.2801
2.08047, -1, 15.8264, 16.8898, 23.3317, 34.993, -32.1003, -28.3521
2.08857, -1, 15.9212, 16.843, 23.3192, 35.1428, -31.9408, -28.4231
2.09661, -1, 16.0158, 16.7961, 23.3067, 35.2926, -31.7816, -28.4952
2.10455, -1, 16.11, 16.7494, 23.294, 35.442, -31.6225, -28.5664
2.11259, -1, 16.2039, 16.7029, 23.2815, 35.5909, -31.4642, -28.6378
2.12054, -1, 16.2507, 16.6795, 23.2753, 35.6652, -31.3852, -28.6736
2.12798, -1, 16.3442, 16.633, 23.2629, 35.8136, -31.227, -28.7445
2.13604, -1, 16.4374, 16.5865, 23.2503, 35.9617, -31.0694, -28.8154
2.14398, -1, 16.5304, 16.54, 23.2379, 36.1097, -30.9121, -28.8867
2.15199, -1, 16.623, 16.4936, 23.2256, 36.2574, -30.755, -28.9569
2.16003, -1, 16.7154, 16.4472, 23.2132, 36.4048, -30.5982, -29.0277
2.16798, -1, 16.8078, 16.4009, 23.2008, 36.5516, -30.4419, -29.0981
2.17594, -1, 16.9, 16.3548, 23.1884, 36.6981, -30.286, -29.1678
2.18402, -1, 16.992, 16.3088, 23.176, 36.8442, -30.1303, -29.2382
2.19199, -1, 17.0839, 16.263, 23.1637, 36.9902, -29.9748, -29.3076
2.19997, -1, 17.1751, 16.2176, 23.1514, 37.1359, -29.8195, -29.3772
2.20806, -1, 17.2637, 16.1731, 23.139, 37.281, -29.6651, -29.4468
2.21598, -1, 17.3484, 16.1308, 23.1264, 37.4248, -29.512, -29.515
2.22305, -1, 17.4276, 16.0912, 23.1138, 37.5652, -29.3622, -29.5825
2.23209, -1, 17.5013, 16.0546, 23.1015, 37.6996, -29.2187, -29.6471
2.23997, -1, 17.569, 16.0215, 23.0897, 37.8243, -29.0856, -29.7067
2.24797, -1, 17.6291, 15.9923, 23.0792, 37.9358, -28.9664, -29.7605
2.25703, -1, 17.6823, 15.9664, 23.0703, 38.03, -28.8651, -29.8064
2.26397, -1, 17.7294, 15.9427, 23.0638, 38.1054, -28.7842, -29.8429
2.272, -1, 17.7704, 15.9214, 23.0596, 38.1617, -28.7231, -29.8701
2.28004, -1, 17.8049, 15.9036, 23.0572, 38.2, -28.6812, -29.8888
2.28797, -1, 17.8324, 15.8898, 23.056, 38.2252, -28.6537, -29.9009
2.29594, -1, 17.8541, 15.8795, 23.0555, 38.2401, -28.6373, -29.9079
2.30404, -1, 17.8695, 15.8724, 23.0552, 38.2483, -28.6284, -29.9117
2.31198, -1, 17.8787, 15.8682, 23.0551, 38.2524, -28.6239, -29.9135
2.31994, 2, 17.8831, 15.8661, 23.055, 38.2543, -28.6218, -29.9144
2.32803, 2, 17.885, 15.8651, 23.055, 38.2551, -28.6208, -29.9148
2.33597, 2, 17.8851, 15.8646, 23.055, 38.2555, -28.6204, -29.915
2.34406, 2, 17.8844, 15.8644, 23.055, 38.2557, -28.6201, -29.9151
2.35205, 2, 17.8837, 15.8643, 23.055, 38.2558, -28.62, -29.9151
2.36001, 2, 17.8832, 15.8643, 23.055, 38.2559, -28.62, -29.9151
2.36797, 2, 17.8829, 15.8642, 23.055, 38.2559, -28.62, -29.9151
2.37607, 2, 17.8828, 15.8641, 23.055, 38.2559, -28.62, -29.9152
2.38397, 2, 17.8829, 15.8639, 23.055, 38.256, -28.62, -29.9152
2.39198, 2, 17.883, 15.8636, 23.055, 38.2559, -28.62, -29.9152
2.40008, 2, 17.8834, 15.8633, 23.055, 38.2559, -28.62, -29.9152
2.40798, 2, 17.8838, 15.863, 23.055, 38.2559, -28.62, -29.9152
2.41597, 2, 17.8844, 15.8628, 23.055, 38.2559, -28.62, -29.9152
2.42404, 2, 17.8853, 15.8626, 23.055, 38.2559, -28.62, -29.9152
2.43198, 2, 17.8861, 15.8626, 23.055, 38.2559, -28.6201, -29.9152
2.43999, 2, 17.8867, 15.8626, 23.055, 38.256, -28.62, -29.9152
2.44806, 2, 17.8872, 15.8626, 23.055, 38.256, -28.62, -29.9152
2.45606, 2, 17.8874, 15.8626, 23.055, 38.256, -28.6201, -29.9152
2.46362, 2, 17.8876, 15.8626, 23.055, 38.256, -28.6201, -29.9152
2.47214, 2, 17.8876, 15.8626, 23.055, 38.256, -28.6202, -29.9152
2.47978, 2, 17.8877, 15.8626, 23.055, 38.256, -28.6201, -29.9152
2.48808, 2, 17.8877, 15.8626, 23.055, 38.2559, -28.6202, -29.9152
2.49615, 2, 17.8876, 15.8626, 23.055, 38.256, -28.6202, -29.9152
2.50297, 2, 17.8876, 15.8625, 23.055, 38.256, -28.6202, -29.9152
2.51201, 2, 17.8873, 15.8624, 23.055, 38.256, -28.6202, -29.9152
2.52007, 2, 17.8871, 15.8623, 23.055, 38.2559, -28.6202, -29.9151
2.52697, 2, 17.887, 15.8623, 23.055, 38.2559, -28.6202, -29.9151
2.53614, 2, 17.8869, 15.8622, 23.055, 38.2559, -28.6202, -29.9151
2.54296, 2, 17.8869, 15.8622, 23.055, 38.2559, -28.6202, -29.9151
2.55254, 2, 17.8869, 15.8623, 23.055, 38.2559, -28.6203, -29.9152
2.56028, 2, 17.8869, 15.8623, 23.055, 38.2559, -28.6203, -29.9152
2.56697, 2, 17.8869, 15.8623, 23.055, 38.2559, -28.6203, -29.9152
2.57684, 2, 17.8868, 15.8623, 23.055, 38.2559, -28.6203, -29.9151
2.58447, 2, 17.8868, 15.8623, 23.055, 38.2559, -28.6204, -29.9151
2.59257, 2, 17.8869, 15.8623, 23.055, 38.2559, -28.6204, -29.9151
2.60075, 2, 17.8869, 15.8623, 23.055, 38.2559, -28.6204, -29.9151
2.60855, 2, 17.8869, 15.8623, 23.055, 38.2559, -28.6204, -29.9151
2.61658, 2, 17.8869, 15.8623, 23.055, 38.2559, -28.6205, -29.9151
2.6249, 2, 17.8869, 15.8623, 23.055, 38.2559, -28.6205, -29.9152
2.63197, 2, 17.8868, 15.8622, 23.055, 38.2559, -28.6205, -29.9152
2.64001, 2, 17.8868, 15.8622, 23.055, 38.2559, -28.6205, -29.9152
2.64796, 2, 17.8868, 15.8622, 23.055, 38.2559, -28.6205, -29.9152
2.65596, 2, 17.8868, 15.8623, 23.055, 38.2559, -28.6205, -29.9152
2.66401, 2, 17.8867, 15.8623, 23.055, 38.2559, -28.6205, -29.9152
2.67197, 2, 17.8867, 15.8623, 23.055, 38.2559, -28.6205, -29.9152
2.67996, 2, 17.8867, 15.8624, 23.055, 38.2559, -28.6205, -29.9151
2.688, 2, 17.8867, 15.8624, 23.055, 38.2559, -28.6205, -29.9152
2.69597, 2, 17.8867, 15.8624, 23.055, 38.2559, -28.6206, -29.9151
2.70395, 2, 17.8867, 15.8624, 23.055, 38.2559, -28.6206, -29.9151
2.71095, 2, 17.8867, 15.8624, 23.055, 38.2559, -28.6207, -29.915
2.71996, 2, 17.8867, 15.8624, 23.055, 38.2558, -28.6207, -29.9151
2.72796, 2, 17.8866, 15.8624, 23.055, 38.2558, -28.6206, -29.9151
2.73495, 2, 17.8866, 15.8623, 23.055, 38.2558, -28.6207, -29.9151
2.74396, 2, 17.8866, 15.8623, 23.055, 38.2559, -28.6207, -29.915
2.75295, 2, 17.8866, 15.8623, 23.055, 38.2559, -28.6207, -29.915
2.76002, 2, 17.8866, 15.8623, 23.055, 38.2559, -28.6207, -29.9151
2.76795, 2, 17.8865, 15.8623, 23.055, 38.2559, -28.6208, -29.9151
2.77597, 2, 17.8865, 15.8624, 23.055, 38.2558, -28.6208, -29.9151
2.78402, 2, 17.8865, 15.8624, 23.055, 38.2559, -28.6208, -29.9151
2.79197, 2, 17.8865, 15.8624, 23.055, 38.2559, -28.6208, -29.915
2.79996, 2, 17.8865, 15.8624, 23.055, 38.2558, -28.6208, -29.9151
2.80802, 2, 17.8864, 15.8624, 23.055, 38.2558, -28.6208, -29.9151
2.81596, 2, 17.8864, 15.8624, 23.055, 38.2558, -28.6208, -29.9151
2.82396, 2, 17.8864, 15.8624, 23.055, 38.2558, -28.6208, -29.9151
2.83203, 2, 17.8863, 15.8624, 23.055, 38.2557, -28.6209, -29.9151
2.83996, 2, 17.8863, 15.8624, 23.055, 38.2557, -28.6208, -29.9151
2.84795, 2, 17.8862, 15.8624, 23.055, 38.2557, -28.6208, -29.9151
2.85602, 2, 17.8862, 15.8624, 23.055, 38.2557, -28.6209, -29.9151
2.86399, 2, 17.8862, 15.8624, 23.055, 38.2557, -28.6209, -29.9151
2.87197, 2, 17.8861, 15.8624, 23.055, 38.2557, -28.6209, -29.9151
2.88005, 2, 17.8861, 15.8624, 23.055, 38.2557, -28.6209, -29.9151
2.88796, 2, 17.8861, 15.8624, 23.055, 38.2557, -28.6209, -29.915
2.89596, 2, 17.886, 15.8624, 23.055, 38.2557, -28.6209, -29.915
2.90405, 2, 17.886, 15.8624, 23.055, 38.2557, -28.6209, -29.915
2.91197, 2, 17.8859, 15.8624, 23.055, 38.2557, -28.621, -29.915
2.91996, 2, 17.8858, 15.8624, 23.055, 38.2557, -28.621, -29.915
2.92803, 2, 17.8858, 15.8624, 23.055, 38.2557, -28.621, -29.915
2.93597, 2, 17.8857, 15.8624, 23.055, 38.2557, -28.6209, -29.915
2.94398, 2, 17.8857, 15.8624, 23.055, 38.2556, -28.621, -29.915
2.95208, 2, 17.8856, 15.8624, 23.055, 38.2556, -28.621, -29.915
2.96004, 2, 17.8856, 15.8624, 23.055, 38.2557, -28.621, -29.915
2.96759, 2, 17.8855, 15.8624, 23.055, 38.2556, -28.621, -29.915
2.97611, 2, 17.8855, 15.8624, 23.055, 38.2556, -28.6211, -29.9151
2.98374, 2, 17.8854, 15.8624, 23.055, 38.2556, -28.6211, -29.915
2.99207, 2, 17.8854, 15.8624, 23.055, 38.2556, -28.6211, -29.915
3.00012, 2, 17.8854, 15.8624, 23.055, 38.2555, -28.6211, -29.915
3.00796, 2, 17.8853, 15.8625, 23.055, 38.2555, -28.6211, -29.915
3.015, 2, 17.8853, 15.8625, 23.055, 38.2555, -28.6211, -29.915
3.02404, 2, 17.8852, 15.8625, 23.055, 38.2554, -28.6211, -29.915
3.03094, 2, 17.8852, 15.8625, 23.055, 38.2555, -28.6211, -29.915
3.04009, 2, 17.8851, 15.8625, 23.055, 38.2555, -28.6211, -29.915
3.04695, 2, 17.8851, 15.8625, 23.055, 38.2555, -28.6211, -29.915
3.05661, 2, 17.885, 15.8625, 23.055, 38.2554, -28.6212, -29.915
3.06429, 2, 17.8849, 15.8625, 23.055, 38.2554, -28.6212, -29.915
3.07094, 2, 17.8849, 15.8625, 23.055, 38.2554, -28.6212, -29.915
3.08078, 2, 17.8848, 15.8625, 23.055, 38.2554, -28.6212, -29.915
3.08846, 2, 17.8848, 15.8625, 23.055, 38.2554, -28.6212, -29.915
3.09656, 2, 17.8847, 15.8625, 23.055, 38.2554, -28.6212, -29.915
3.10478, 2, 17.8847, 15.8625, 23.055, 38.2554, -28.6212, -29.915
3.11255, 2, 17.8846, 15.8625, 23.055, 38.2554, -28.6212, -29.915
3.12058, 2, 17.8846, 15.8625, 23.055, 38.2553, -28.6212, -29.915
3.12881, 2, 17.8845, 15.8625, 23.055, 38.2553, -28.6212, -29.9149
3.13595, 2, 17.8845, 15.8625, 23.055, 38.2553, -28.6212, -29.9149
3.14399, 2, 17.8845, 15.8625, 23.055, 38.2553, -28.6212, -29.9149
3.15288, 2, 17.8844, 15.8625, 23.055, 38.2553, -28.6212, -29.9149
3.15994, 2, 17.8843, 15.8625, 23.055, 38.2553, -28.6212, -29.9149
3.16799, 2, 17.8843, 15.8625, 23.055, 38.2552, -28.6212, -29.9149
3.17601, 2, 17.8842, 15.8625, 23.055, 38.2552, -28.6212, -29.9149
3.18305, 2, 17.8842, 15.8625, 23.055, 38.2552, -28.6212, -29.9149
3.19094, 2, 17.8842, 15.8625, 23.055, 38.2552, -28.6212, -29.915
3.19994, 2, 17.8841, 15.8625, 23.055, 38.2552, -28.6212, -29.915
3.20794, 2, 17.8841, 15.8625, 23.055, 38.2552, -28.6212, -29.915
3.21494, 2, 17.8841, 15.8625, 23.055, 38.2552, -28.6212, -29.9149
3.22394, 2, 17.884, 15.8625, 23.055, 38.2552, -28.6213, -29.9149
3.23194, 2, 17.884, 15.8625, 23.055, 38.2551, -28.6213, -29.9149
3.23894, 2, 17.8839, 15.8625, 23.055, 38.2551, -28.6213, -29.9149
3.24794, 2, 17.8839, 15.8625, 23.055, 38.2551, -28.6214, -29.9149
3.25595, 2, 17.8839, 15.8625, 23.055, 38.2551, -28.6213, -29.9149
3.26494, 2, 17.8838, 15.8625, 23.055, 38.2551, -28.6213, -29.9149
3.27195, 2, 17.8838, 15.8625, 23.055, 38.2551, -28.6213, -29.9149
3.27995, 2, 17.8838, 15.8625, 23.055, 38.255, -28.6213, -29.9149
3.288, 2, 17.8838, 15.8625, 23.055, 38.2551, -28.6214, -29.9149
3.29594, 2, 17.8837, 15.8625, 23.055, 38.255, -28.6214, -29.9149
3.30393, 2, 17.8837, 15.8626, 23.055, 38.2549, -28.6214, -29.9149
3.31201, 2, 17.8837, 15.8626, 23.055, 38.2549, -28.6214, -29.9149
3.32008, 2, 17.8837, 15.8626, 23.055, 38.2549, -28.6213, -29.9149
3.32801, 2, 17.8837, 15.8626, 23.055, 38.2549, -28.6214, -29.9149
3.33593, 2, 17.8837, 15.8626, 23.055, 38.2549, -28.6214, -29.9149
3.34393, 2, 17.8836, 15.8626, 23.055, 38.2549, -28.6214, -29.9149
3.35203, 2, 17.8836, 15.8626, 23.055, 38.2549, -28.6214, -29.9149
3.36002, 2, 17.8836, 15.8626, 23.055, 38.2548, -28.6213, -29.9149
3.36793, 2, 17.8836, 15.8626, 23.055, 38.2548, -28.6214, -29.9149
3.376, 2, 17.8836, 15.8626, 23.055, 38.2548, -28.6214, -29.9149
3.38397, 2, 17.8836, 15.8626, 23.055, 38.2548, -28.6214, -29.9149
3.39194, 2, 17.8836, 15.8626, 23.055, 38.2548, -28.6214, -29.9149
3.40001, 2, 17.8836, 15.8626, 23.055, 38.2547, -28.6214, -29.9149
3.40798, 4, 17.8836, 15.8626, 23.055, 38.2547, -28.6214, -29.9149
3.41594, 4, 17.8836, 15.8626, 23.055, 38.2547, -28.6214, -29.9149
3.42401, 4, 17.8835, 15.8626, 23.055, 38.2547, -28.6214, -29.9149
3.43194, 4, 17.8835, 15.8626, 23.055, 38.2547, -28.6215, -29.9149
3.43994, 4, 17.8835, 15.8626, 23.055, 38.2547, -28.6215, -29.9148
3.44805, 4, 17.8835, 15.8626, 23.055, 38.2547, -28.6215, -29.9148
3.456, 4, 17.8835, 15.8626, 23.055, 38.2546, -28.6215, -29.9149
3.46402, 4, 17.8835, 15.8627, 23.055, 38.2546, -28.6215, -29.9149
3.4722, 4, 17.8835, 15.8626, 23.055, 38.2546, -28.6215, -29.9148
3.47951, 4, 17.8835, 15.8626, 23.055, 38.2546, -28.6215, -29.9148
3.48804, 4, 17.8834, 15.8626, 23.055, 38.2546, -28.6215, -29.9148
3.49613, 4, 17.8834, 15.8627, 23.055, 38.2546, -28.6215, -29.9149
3.50371, 4, 17.8834, 15.8627, 23.055, 38.2546, -28.6215, -29.9149
3.53286, 4, 17.8834, 15.8627, 23.055, 38.2545, -28.6215, -29.9149
3.53491, 4, 17.8834, 15.8627, 23.055, 38.2545, -28.6215, -29.9149
3.53747, 4, 17.8834, 15.8627, 23.055, 38.2545, -28.6215, -29.9148
3.53992, 4, 17.8834, 15.8627, 23.055, 38.2545, -28.6215, -29.9148
3.54495, 4, 17.8834, 15.8627, 23.055, 38.2544, -28.6214, -29.9148
3.55091, 4, 17.8833, 15.8627, 23.055, 38.2545, -28.6214, -29.9148
3.5603, 4, 17.8817, 15.8627, 23.0551, 38.2543, -28.6214, -29.9147
3.56694, 4, 17.88, 15.8627, 23.0553, 38.2539, -28.6215, -29.9145
3.57497, 4, 17.8738, 15.8626, 23.0563, 38.2504, -28.6223, -29.9128
3.58449, 4, 17.8559, 15.8615, 23.0627, 38.2273, -28.6292, -29.8963
3.59346, 4, 17.8355, 15.859, 23.0746, 38.1885, -28.6424, -29.8637
3.59895, 5, 17.8217, 15.8569, 23.0843, 38.1574, -28.653, -29.8373
3.60854, 5, 17.7624, 15.8458, 23.1344, 37.9949, -28.709, -29.6972
3.6172, 5, 17.7358, 15.8331, 23.1917, 37.8093, -28.7753, -29.5361
3.62301, 5, 17.6708, 15.8248, 23.2292, 37.6876, -28.8191, -29.4303
3.63248, 5, 17.5885, 15.8039, 23.3245, 37.379, -28.9323, -29.1615
3.63992, 5, 17.4875, 15.7772, 23.4489, 36.9764, -29.0831, -28.8098
3.64794, 5, 17.3667, 15.7444, 23.6038, 36.4754, -29.2749, -28.3717
3.65793, 5, 17.1473, 15.6846, 23.8919, 35.5457, -29.642, -27.5588
3.66392, 5, 17.0642, 15.6622, 24.0019, 35.1928, -29.7852, -27.2497
3.67197, 5, 16.8841, 15.6145, 24.2413, 34.4312, -30.1011, -26.5832
3.68002, 5, 16.6868, 15.564, 24.5009, 33.6072, -30.4529, -25.8655
3.68692, 5, 16.4739, 15.5124, 24.7766, 32.7399, -30.8353, -25.1126
3.69592, 5, 16.2477, 15.4609, 25.0635, 31.847, -31.2427, -24.3367
3.70392, 5, 16.0104, 15.4108, 25.3562, 30.9426, -31.6704, -23.5531
3.71357, 5, 15.6358, 15.3409, 25.7991, 29.5868, -32.3389, -22.3853
3.71995, 5, 15.5066, 15.3192, 25.9462, 29.1403, -32.567, -22.0012
3.72801, 5, 15.243, 15.279, 26.2387, 28.2605, -33.0295, -21.2468
3.73592, 5, 14.9751, 15.2431, 26.5272, 27.3981, -33.499, -20.5103
3.74397, 5, 14.7045, 15.2115, 26.8122, 26.5516, -33.9752, -19.7909
3.75092, 5, 14.4319, 15.1843, 27.0931, 25.7241, -34.4573, -19.0915
3.75992, 5, 14.158, 15.1616, 27.3694, 24.9164, -34.9453, -18.4104
3.76892, 5, 13.8835, 15.1435, 27.6417, 24.1263, -35.4388, -17.7465
3.77598, 5, 13.6087, 15.1297, 27.9092, 23.3511, -35.9369, -17.1013
3.78393, 5, 13.3341, 15.1205, 28.1728, 22.5935, -36.4394, -16.4736
3.79199, 5, 13.0595, 15.1157, 28.4318, 21.8534, -36.947, -15.8627
3.79992, 5, 12.7841, 15.1148, 28.6862, 21.1294, -37.4593, -15.2674
3.80795, 5, 12.507, 15.1178, 28.9366, 20.4197, -37.976, -14.6887
3.81599, 5, 12.2286, 15.1253, 29.182, 19.7243, -38.4974, -14.1248
3.82392, 5, 11.9495, 15.1374, 29.423, 19.0446, -39.0226, -13.5754
3.83192, 5, 11.6694, 15.154, 29.6598, 18.3788, -39.5508, -13.0405
3.83999, 5, 11.3875, 15.175, 29.8911, 17.7269, -40.0832, -12.52
3.84793, 5, 11.1029, 15.2006, 30.118, 17.0881, -40.619, -12.0134
3.85599, 5, 10.8151, 15.2307, 30.3406, 16.4616, -41.1584, -11.5204
3.86392, 5, 10.5243, 15.2652, 30.5579, 15.8486, -41.7011, -11.0395
3.87192, 5, 10.2324, 15.3043, 30.771, 15.2471, -42.2475, -10.571
3.87999, 5, 9.94056, 15.3481, 30.9798, 14.6576, -42.7968, -10.1152
3.88797, 5, 9.64895, 15.3965, 31.1832, 14.0802, -43.3485, -9.67077
3.89592, 5, 9.35763, 15.4494, 31.3818, 13.5126, -43.9028, -9.23776
3.90399, 5, 9.06591, 15.5069, 31.5764, 12.9558, -44.4597, -8.81541
3.91197, 5, 8.77272, 15.5689, 31.7657, 12.4101, -45.0195, -8.4038
3.91992, 5, 8.47842, 15.6355, 31.9497, 11.8736, -45.5823, -8.003
3.92799, 5, 8.18266, 15.7064, 32.1294, 11.3471, -46.1475, -7.61194
3.93593, 5, 7.88475, 15.7817, 32.3045, 10.8304, -46.714, -7.23101
3.94399, 5, 7.58477, 15.8614, 32.474, 10.3224, -47.2818, -6.8596
3.95204, 5, 7.28422, 15.9456, 32.6387, 9.82299, -47.8521, -6.49686
3.95937, 5, 6.98356, 16.0343, 32.799, 9.33246, -48.425, -6.14312
3.96749, 5, 6.68324, 16.1275, 32.9544, 8.85036, -49.0003, -5.79854
3.97609, 5, 6.3831, 16.225, 33.1043, 8.37639, -49.577, -5.46215
3.98408, 5, 6.08264, 16.327, 33.2493, 7.91042, -50.154, -5.13392
3.99152, 5, 5.78142, 16.4335, 33.3895, 7.45219, -50.7326, -4.81367
4.0001, 5, 5.47982, 16.5442, 33.5246, 7.00142, -51.313, -4.50102
4.00794, 5, 5.17695, 16.6596, 33.6546, 6.5574, -51.8951, -4.19567
4.01497, 5, 5.02481, 16.7191, 33.7177, 6.33818, -52.1865, -4.04585
4.02292, 5, 4.71939, 16.8412, 33.8399, 5.90504, -52.7703, -3.75172
4.0309, 5, 4.41279, 16.9675, 33.9571, 5.47836, -53.3554, -3.46469
4.04002, 5, 3.95254, 17.1645, 34.1232, 4.85059, -54.2332, -3.04666
4.04877, 5, 3.64684, 17.3008, 34.2277, 4.43992, -54.8192, -2.77608
4.05617, 5, 3.3416, 17.4415, 34.3271, 4.03549, -55.4063, -2.51203
4.06298, 5, 3.1889, 17.5135, 34.3749, 3.8355, -55.7003, -2.38216
4.07091, 5, 2.8835, 17.6606, 34.4664, 3.43971, -56.2892, -2.12685
4.08049, 5, 2.4254, 17.8878, 34.5938, 2.85601, -57.1723, -1.75483
4.08839, 5, 2.11896, 18.0433, 34.672, 2.47384, -57.7596, -1.51492
4.09649, 5, 1.81116, 18.2025, 34.7452, 2.09659, -58.3467, -1.28285
4.10456, 5, 1.50159, 18.3647, 34.813, 1.72361, -58.9325, -1.06021
4.11249, 5, 1.19113, 18.5293, 34.8753, 1.35423, -59.5154, -0.850374
4.12053, 5, 0.881335, 18.6958, 34.9322, 0.987679, -60.0934, -0.656318
4.12861, 6, 0.72694, 18.8643, 34.9833, 0.623188, -60.6631, -0.481547
4.13591, 6, 0.418665, 18.9494, 35.0067, 0.441458, -60.9448, -0.402104
4.14393, 6, 0.110563, 19.1211, 35.0494, 0.0783432, -61.5018, -0.26123
4.15196, 6, -0.197695, 19.2941, 35.0866, -0.284802, -62.0498, -0.143402
4.15992, 6, -0.506547, 19.4679, 35.1183, -0.647959, -62.5882, -0.049009
4.17386, 6, -0.971513, 19.8202, 35.1658, -1.37373, -63.6415, 0.081489
4.17594, 6, -1.12702, 19.8202, 35.1658, -1.37373, -63.6415, 0.081489
4.18396, 6, -1.43949, 19.9991, 35.1816, -1.73609, -64.1584, 0.122921
4.19192, 6, -1.7533, 20.1788, 35.1927, -2.09726, -64.6711, 0.153063
4.19993, 6, -2.06676, 20.3601, 35.1988, -2.45719, -65.1811, 0.175533
4.20796, 6, -2.37916, 20.5439, 35.2002, -2.81543, -65.6893, 0.192438
4.21591, 6, -2.69064, 20.7304, 35.1969, -3.17168, -66.1963, 0.205142
4.22395, 6, -3.00135, 20.9189, 35.1889, -3.52617, -66.7028, 0.214185
4.23198, 6, -3.31205, 21.1101, 35.1759, -3.87895, -67.2078, 0.220147
4.23992, 6, -3.62312, 21.3052, 35.1583, -4.22983, -67.7115, 0.223149
4.24795, 6, -3.93455, 21.5042, 35.1358, -4.57869, -68.214, 0.224099
4.25492, 6, -4.2475, 21.7059, 35.1085, -4.92545, -68.7157, 0.222568
4.26391, 6, -4.56215, 21.9101, 35.0763, -5.27057, -69.2166, 0.217788
4.2729, 6, -4.87691, 22.1174, 35.0393, -5.61384, -69.7162, 0.210067
4.2789, 6, -5.19064, 22.3271, 34.9974, -5.95547, -70.2151, 0.199628
4.28792, 6, -5.50306, 22.5386, 34.9506, -6.29534, -70.7123, 0.186429
4.29591, 6, -5.8141, 22.7532, 34.899, -6.63341, -71.2075, 0.170778
4.30396, 6, -6.12484, 22.971, 34.8424, -6.97002, -71.7016, 0.152894
4.31191, 6, -6.43548, 23.1909, 34.7811, -7.30524, -72.1942, 0.132887
4.31993, 6, -6.7458, 23.4131, 34.7147, -7.63881, -72.6853, 0.110638
4.32791, 6, -7.05645, 23.6383, 34.6434, -7.97085, -73.1749, 0.0858621
4.33591, 6, -7.36842, 23.8658, 34.5671, -8.30117, -73.6628, 0.0584627
4.34398, 6, -7.68104, 24.0953, 34.4859, -8.63029, -74.1489, 0.0284758
4.35191, 6, -7.99362, 24.3282, 34.3997, -8.95793, -74.633, -0.00356967
4.35995, 6, -8.30487, 24.5637, 34.3087, -9.28395, -75.1153, -0.0371247
4.36797, 6, -8.6138, 24.8008, 34.2129, -9.60875, -75.5954, -0.0724503
4.37591, 6, -8.92103, 25.0405, 34.1123, -9.932, -76.0736, -0.10999
4.38308, 6, -9.22768, 25.2825, 34.0065, -10.254, -76.5498, -0.149727
4.392, 6, -9.53361, 25.5265, 33.8957, -10.5749, -77.0244, -0.191092
4.39992, 6, -9.83923, 25.7736, 33.7799, -10.8944, -77.4968, -0.233544
4.40791, 6, -10.1455, 26.0233, 33.6592, -11.2125, -77.9667, -0.277671
4.41602, 6, -10.4529, 26.2743, 33.5338, -11.5292, -78.4341, -0.323965
4.42391, 6, -10.7608, 26.5275, 33.4035, -11.8444, -78.899, -0.371967
4.43191, 6, -11.0683, 26.7823, 33.2681, -12.1587, -79.3617, -0.420542
4.43999, 6, -11.3735, 27.0387, 33.1277, -12.4715, -79.8223, -0.47067
4.44802, 6, -11.6763, 27.2977, 32.9827, -12.783, -80.2809, -0.522772
4.45596, 6, -11.9779, 27.5585, 32.8329, -13.0933, -80.737, -0.575672
4.46406, 6, -12.2785, 27.8207, 32.6782, -13.4021, -81.1903, -0.629567
4.4721, 6, -12.5784, 28.0852, 32.5185, -13.7098, -81.6406, -0.685109
4.47953, 6, -12.878, 28.3511, 32.3544, -14.0164, -82.0885, -0.742062
4.48807, 6, -13.1774, 28.619, 32.1858, -14.3217, -82.5334, -0.799344
4.49618, 6, -13.4772, 28.8892, 32.0119, -14.6258, -82.9761, -0.858066
4.50352, 6, -13.6274, 29.0247, 31.8322, -14.9285, -83.416, -0.918232
4.51286, 6, -14.0773, 29.4333, 31.6481, -15.23, -83.8533, -0.9786
4.51995, 6, -14.3742, 29.7077, 31.4598, -15.5303, -84.2875, -1.0402
4.52694, 6, -14.5215, 29.8452, 31.3636, -15.68, -84.5037, -1.07161
4.53605, 6, -14.9603, 30.2611, 31.0668, -16.127, -85.1474, -1.16597
4.54289, 6, -15.1058, 30.4008, 30.9658, -16.2754, -85.3605, -1.19778
4.55212, 6, -15.5401, 30.8212, 30.6557, -16.7188, -85.9953, -1.29484
4.55889, 6, -15.6838, 30.9617, 30.5495, -16.8659, -86.2054, -1.32701
4.56822, 6, -16.1064, 31.3794, 30.2268, -17.3043, -86.8298, -1.42467
4.57489, 6, -16.2438, 31.5167, 30.1184, -17.4491, -87.0354, -1.45756
4.5845, 6, -16.6449, 31.9201, 29.7922, -17.8753, -87.64, -1.55432
4.59243, 6, -16.9006, 32.178, 29.5778, -18.1488, -88.0271, -1.6178
4.6005, 6, -17.1425, 32.4248, 29.3692, -18.41, -88.3955, -1.67837
4.60885, 6, -17.369, 32.6583, 29.1685, -18.6545, -88.7401, -1.73532
4.61676, 6, -17.5803, 32.8764, 28.9798, -18.8798, -89.057, -1.78877
4.62465, 6, -17.7749, 33.0786, 28.8059, -19.0831, -89.3424, -1.83774
4.63254, 6, -17.8652, 33.1731, 28.7247, -19.1759, -89.5947, -1.88101
4.64079, 6, -18.1067, 33.4263, 28.5067, -19.4189, -89.8136, -1.91841
4.64798, 6, -18.1771, 33.5, 28.4434, -19.4881, -89.9105, -1.93509
4.65593, 6, -18.3028, 33.6315, 28.3311, -19.6089, -90.0802, -1.96475
4.66481, 6, -18.4088, 33.7426, 28.2368, -19.7079, -90.2187, -1.98936
4.67194, 6, -18.4964, 33.8339, 28.1599, -19.7859, -90.3291, -2.00929
4.67989, 6, -18.5679, 33.9079, 28.0991, -19.8462, -90.4133, -2.02469
4.68789, 6, -18.6251, 33.9666, 28.0522, -19.8902, -90.4758, -2.03588
4.69595, 6, -18.67, 34.0121, 28.0174, -19.9208, -90.5192, -2.04367
4.70389, 6, -18.7033, 34.0458, 27.9928, -19.9411, -90.5481, -2.04877
4.71186, 6, -18.7279, 34.0704, 27.9758, -19.9539, -90.5661, -2.05197
4.71994, 6, -18.7459, 34.0882, 27.9645, -19.9613, -90.5763, -2.05379
4.72789, 6, -18.7582, 34.1007, 27.9572, -19.9652, -90.5818, -2.05472
4.7359, 6, -18.766, 34.1093, 27.9529, -19.9672, -90.5844, -2.05525
4.74396, 7, -18.7704, 34.1148, 27.9501, -19.9681, -90.5856, -2.05551
4.75194, 7, -18.7728, 34.1183, 27.9483, -19.9685, -90.5862, -2.05561
4.75989, 7, -18.7738, 34.1208, 27.947, -19.9687, -90.5865, -2.05566
4.76806, 7, -18.7742, 34.1229, 27.9461, -19.9688, -90.5866, -2.0556
4.7759, 7, -18.7745, 34.1245, 27.9454, -19.9689, -90.5866, -2.05562
4.78389, 7, -18.7746, 34.1259, 27.9449, -19.9689, -90.5867, -2.05566
4.792, 7, -18.7746, 34.1271, 27.9445, -19.9689, -90.5867, -2.05565
4.79989, 7, -18.7747, 34.1281, 27.9441, -19.9689, -90.5866, -2.05563
4.80789, 7, -18.7747, 34.1289, 27.9439, -19.9689, -90.5867, -2.05559
4.81596, 7, -18.7747, 34.1295, 27.9436, -19.9689, -90.5867, -2.0556
4.82389, 7, -18.7746, 34.13, 27.9435, -19.9689, -90.5867, -2.05564
4.83191, 7, -18.7745, 34.1304, 27.9434, -19.9688, -90.5867, -2.05567
4.83995, 7, -18.7743, 34.1307, 27.9433, -19.9688, -90.5866, -2.05559
4.84789, 7, -18.7742, 34.1309, 27.9433, -19.9688, -90.5866, -2.05561
4.8559, 7, -18.7741, 34.131, 27.9432, -19.9688, -90.5866, -2.05557
