hehonglu123/ABB_Primitive_Study/realrobot/movel_30_ori/curve_exe_v1000_fine.csv
timestamp, cmd_num, J1, J2, J3, J4, J5, J6
0.000359, -1, -18.771, 34.1316, 27.943, -19.9673, -90.5847, -2.05532
0.003332, -1, -18.771, 34.1316, 27.943, -19.9673, -90.5847, -2.05533
0.007929, -1, -18.7711, 34.1316, 27.943, -19.9673, -90.5846, -2.05533
0.03181, -1, -18.7711, 34.1316, 27.943, -19.9673, -90.5847, -2.05533
0.033805, -1, -18.7711, 34.1316, 27.943, -19.9673, -90.5847, -2.05535
0.035157, -1, -18.7711, 34.1316, 27.943, -19.9673, -90.5847, -2.05535
0.039878, -1, -18.7711, 34.1316, 27.943, -19.9673, -90.5846, -2.05536
0.048876, -1, -18.771, 34.1316, 27.943, -19.9673, -90.5846, -2.05528
0.055843, -1, -18.7705, 34.1315, 27.943, -19.9673, -90.5846, -2.05527
0.063893, -1, -18.7682, 34.131, 27.943, -19.9673, -90.5846, -2.05528
0.071853, -1, -18.7629, 34.1292, 27.9431, -19.967, -90.5841, -2.0554
0.079852, -1, -18.7539, 34.1254, 27.9432, -19.9647, -90.5817, -2.0555
0.087891, -1, -18.7403, 34.1188, 27.9433, -19.9576, -90.5748, -2.05645
0.095829, -1, -18.7194, 34.1083, 27.9433, -19.9427, -90.5597, -2.06123
0.103846, -1, -18.6891, 34.0931, 27.9428, -19.9161, -90.5323, -2.07267
0.111906, -1, -18.6483, 34.0727, 27.9413, -19.8725, -90.4866, -2.09246
0.119825, -1, -18.5953, 34.046, 27.9379, -19.8063, -90.4179, -2.12284
0.127839, -1, -18.5288, 34.0126, 27.9321, -19.7143, -90.3212, -2.16624
0.136057, -1, -18.4482, 33.9721, 27.9233, -19.5921, -90.1929, -2.2248
0.143831, -1, -18.3537, 33.9248, 27.9109, -19.4384, -90.0308, -2.29751
0.151899, -1, -18.2456, 33.8707, 27.8951, -19.2533, -89.8351, -2.38634
0.159926, -1, -18.1237, 33.8097, 27.8765, -19.039, -89.6085, -2.48833
0.167827, -1, -17.9884, 33.7421, 27.8551, -18.7997, -89.3547, -2.60252
0.175836, -1, -17.8412, 33.6686, 27.8319, -18.5406, -89.0794, -2.72636
0.183916, -1, -17.6834, 33.5897, 27.8078, -18.2667, -88.7882, -2.85734
0.19184, -1, -17.5161, 33.506, 27.783, -17.9829, -88.4866, -2.99335
0.20004, -1, -17.3408, 33.4184, 27.758, -17.693, -88.1781, -3.13253
0.207826, -1, -17.1599, 33.3281, 27.7328, -17.3991, -87.8656, -3.27379
0.215829, -1, -16.9752, 33.2359, 27.7076, -17.103, -87.5508, -3.41602
0.224634, -1, -16.788, 33.1429, 27.6825, -16.8057, -87.2344, -3.5588
0.231854, -1, -16.5991, 33.0494, 27.6574, -16.5072, -86.9169, -3.70188
0.239881, -1, -16.4093, 32.9556, 27.6323, -16.2081, -86.5983, -3.8452
0.24871, -1, -16.2193, 32.8618, 27.6071, -15.9083, -86.2791, -3.98877
0.255924, -1, -16.0293, 32.7681, 27.5821, -15.6074, -85.9591, -4.13272
0.26393, -1, -15.8398, 32.6744, 27.557, -15.3062, -85.6388, -4.27678
0.272731, -1, -15.6509, 32.5808, 27.5319, -15.0047, -85.3177, -4.42137
0.279926, -1, -15.4623, 32.487, 27.5066, -14.7026, -84.9965, -4.56608
0.287907, -1, -15.2741, 32.3929, 27.4814, -14.4003, -84.6748, -4.7108
0.296695, -1, -15.0864, 32.2986, 27.4562, -14.0976, -84.3526, -4.85579
0.303887, -1, -14.8986, 32.2038, 27.4309, -13.7943, -84.0303, -5.00091
0.311893, -1, -14.7104, 32.1087, 27.4053, -13.4911, -83.7078, -5.1462
0.321358, -1, -14.5211, 32.0134, 27.3797, -13.1877, -83.3848, -5.29171
0.328052, -1, -14.3308, 31.9179, 27.3542, -12.884, -83.0616, -5.43725
0.334822, -1, -14.2352, 31.8701, 27.3414, -12.7322, -82.8998, -5.51022
0.344099, -1, -13.9474, 31.7266, 27.3031, -12.2762, -82.4143, -5.72897
0.350865, -1, -13.8512, 31.6788, 27.2902, -12.1241, -82.2524, -5.8017
0.36035, -1, -13.5618, 31.5356, 27.2518, -11.6675, -81.7662, -6.02018
0.368291, -1, -13.368, 31.4401, 27.2262, -11.3631, -81.4423, -6.1657
0.374864, -1, -13.2711, 31.3924, 27.2135, -11.2109, -81.2804, -6.23856
0.384422, -1, -12.9812, 31.2496, 27.1751, -10.7545, -80.7943, -6.45732
0.392424, -1, -12.7889, 31.1544, 27.1497, -10.45, -80.4709, -6.60307
0.398816, -1, -12.6928, 31.1069, 27.137, -10.2978, -80.3091, -6.67604
0.408401, -1, -12.5013, 31.0117, 27.1115, -9.99365, -79.824, -6.89479
0.415815, -1, -12.3108, 30.9165, 27.0859, -9.68952, -79.6622, -6.96758
0.423871, -1, -12.121, 30.8213, 27.0603, -9.38553, -79.3387, -7.11311
0.431821, -1, -11.932, 30.726, 27.0348, -9.08182, -79.0153, -7.25851
0.438874, -1, -11.7433, 30.6305, 27.0093, -8.77822, -78.6919, -7.40384
0.447866, -1, -11.5544, 30.5352, 26.9839, -8.47499, -78.369, -7.54904
0.455818, -1, -11.3651, 30.44, 26.9583, -8.17218, -78.0467, -7.6943
0.462852, -1, -11.1755, 30.345, 26.9328, -7.86981, -77.725, -7.83925
0.471908, -1, -10.9856, 30.2502, 26.9074, -7.56789, -77.4036, -7.98377
0.479808, -1, -10.7953, 30.1557, 26.8821, -7.26661, -77.0828, -8.12816
0.486824, -1, -10.6047, 30.0614, 26.8568, -6.96542, -76.7627, -8.27209
0.495843, -1, -10.4139, 29.9673, 26.8315, -6.66489, -76.4428, -8.41578
0.503817, -1, -10.2231, 29.8733, 26.8064, -6.36511, -76.1234, -8.55925
0.51081, -1, -10.033, 29.7796, 26.7813, -6.06566, -75.8045, -8.70241
0.519818, -1, -9.84359, 29.686, 26.7563, -5.76686, -75.4863, -8.84577
0.527812, -1, -9.65505, 29.5926, 26.7312, -5.46864, -75.169, -8.98849
0.537354, -1, -9.46737, 29.4993, 26.7062, -5.17077, -74.8523, -9.20184
0.542809, -1, -9.28069, 29.4062, 26.6812, -4.87391, -74.5364, -9.27272
0.551824, -1, -9.09508, 29.3132, 26.6563, -4.57785, -74.2214, -9.41439
0.559894, -1, -8.91025, 29.2204, 26.6314, -4.28227, -73.9069, -9.55562
0.567812, -1, -8.72622, 29.1276, 26.6066, -3.98783, -73.5934, -9.69674
0.575914, -1, -8.54268, 29.0352, 26.5818, -3.69409, -73.2807, -9.83727
0.583875, -1, -8.35936, 28.9431, 26.5572, -3.40097, -72.9689, -9.97776
0.59183, -1, -8.1763, 28.8513, 26.5326, -3.10907, -72.6583, -10.1177
0.599808, -1, -7.99323, 28.7599, 26.5079, -2.81793, -72.3482, -10.2569
0.607817, -1, -7.81021, 28.6689, 26.4835, -2.52769, -72.0392, -10.3957
0.615811, -1, -7.62728, 28.5782, 26.4592, -2.23851, -71.7311, -10.5341
0.623876, -1, -7.44462, 28.4878, 26.4351, -1.94994, -71.4239, -10.6719
0.631813, -1, -7.26217, 28.3977, 26.4109, -1.66233, -71.1178, -10.8095
0.639901, -1, -7.08037, 28.308, 26.3868, -1.37586, -70.8129, -10.9465
0.647888, -1, -6.89937, 28.2185, 26.3628, -1.0903, -70.5089, -11.0832
0.655811, -1, -6.7194, 28.1293, 26.3389, -0.805911, -70.2062, -11.2196
0.663843, -1, -6.54041, 28.0404, 26.3151, -0.522574, -69.9049, -11.3552
0.671882, -1, -6.36255, 27.9517, 26.2912, -0.240207, -69.6046, -11.4904
0.679805, -1, -6.18607, 27.8634, 26.2675, 0.0412766, -69.3053, -11.6249
0.687821, -1, -6.01047, 27.7753, 26.2439, 0.32161, -69.0069, -11.7591
0.695876, -1, -5.8358, 27.6875, 26.2205, 0.600718, -68.7098, -11.8928
0.703825, -1, -5.66199, 27.6, 26.197, 0.878932, -68.4135, -12.026
0.711813, -1, -5.48869, 27.5131, 26.1736, 1.15589, -68.1184, -12.1588
0.719882, -1, -5.3158, 27.4264, 26.1503, 1.43167, -67.8245, -12.2911
0.727835, -1, -5.14316, 27.3402, 26.1272, 1.70656, -67.532, -12.4226
0.735834, -1, -4.97083, 27.2544, 26.1043, 1.98028, -67.2409, -12.5536
0.74406, -1, -4.79879, 27.169, 26.0813, 2.25258, -66.9509, -12.6838
0.751474, -1, -4.62728, 27.0839, 26.0584, 2.52391, -66.6624, -12.8134
0.759906, -1, -4.45625, 26.9992, 26.0358, 2.79385, -66.3751, -12.9427
0.767997, -1, -4.28559, 26.9148, 26.0131, 3.06242, -66.089, -13.0712
0.775915, -1, -4.11538, 26.8308, 25.9906, 3.33035, -65.804, -13.1992
0.783996, -1, -3.94622, 26.7472, 25.9682, 3.59698, -65.5203, -13.327
0.791814, -1, -3.77832, 26.6638, 25.9458, 3.86226, -65.2376, -13.4541
0.800082, -1, -3.61156, 26.5808, 25.9236, 4.12656, -64.9562, -13.5804
0.807956, -1, -3.44596, 26.4981, 25.9014, 4.3896, -64.6763, -13.7063
0.81588, -1, -3.28146, 26.4158, 25.8793, 4.65134, -64.3975, -13.8316
0.823976, -1, -3.11793, 26.3337, 25.8573, 4.91208, -64.12, -13.9561
0.832112, -1, -2.95556, 26.2521, 25.8354, 5.17182, -63.8438, -14.0803
0.838805, -1, -2.87473, 26.2114, 25.8245, 5.30127, -63.7062, -14.1421
0.848275, -1, -2.63341, 26.0899, 25.7921, 5.68751, -63.2952, -14.3268
0.854803, -1, -2.55324, 26.0497, 25.7814, 5.81563, -63.1588, -14.3882
0.864277, -1, -2.31307, 25.9295, 25.7492, 6.19819, -62.7515, -14.5717
0.872379, -1, -2.15333, 25.8499, 25.7278, 6.45156, -62.4817, -14.6929
0.880395, -1, -1.99403, 25.7707, 25.7065, 6.7041, -62.2128, -14.8139
0.888579, -1, -1.83518, 25.692, 25.6854, 6.95557, -61.9452, -14.934
0.896595, -1, -1.67699, 25.6136, 25.6645, 7.20568, -61.6788, -15.0534
0.904528, -1, -1.51904, 25.5354, 25.6436, 7.45462, -61.4135, -15.1725
0.912413, -1, -1.44019, 25.4965, 25.6331, 7.57867, -61.1494, -15.2911
0.919796, -1, -1.2829, 25.4189, 25.6123, 7.82611, -61.0177, -15.3503
0.927859, -1, -1.12644, 25.3416, 25.5917, 8.07221, -60.7553, -15.4679
0.935798, -1, -0.970931, 25.2645, 25.5711, 8.31725, -60.4943, -15.5856
0.943797, -1, -0.816702, 25.1878, 25.5507, 8.56162, -60.2345, -15.7025
0.95185, -1, -0.663643, 25.1115, 25.5302, 8.80461, -59.9759, -15.8187
0.959857, -1, -0.511653, 25.0355, 25.5097, 9.04635, -59.7186, -15.9345
0.967812, -1, -0.360686, 24.96, 25.4895, 9.28707, -59.4628, -16.0497
0.975948, -1, -0.210862, 24.8848, 25.4694, 9.52672, -59.2082, -16.1644
0.9838, -1, -0.0620366, 24.8099, 25.4495, 9.76518, -58.9545, -16.2787
0.991795, -1, 0.0859767, 24.7354, 25.4296, 10.0024, -58.7019, -16.3925
0.999838, -1, 0.233374, 24.6612, 25.4097, 10.2388, -58.4503, -16.5058
1.00784, -1, 0.380576, 24.5874, 25.3898, 10.4742, -58.1997, -16.6187
1.01589, -1, 0.527698, 24.5139, 25.3702, 10.7082, -57.9501, -16.731
1.02382, -1, 0.674592, 24.4407, 25.3505, 10.9412, -57.7016, -16.8428
1.03186, -1, 0.821245, 24.3678, 25.3311, 11.1734, -57.4541, -16.9538
1.03979, -1, 0.967491, 24.2952, 25.3117, 11.4043, -57.2079, -17.0644
1.04987, -1, 1.18567, 24.1869, 25.2826, 11.7488, -56.841, -17.2291
1.05586, -1, 1.2582, 24.151, 25.273, 11.8632, -56.7193, -17.2836
1.06383, -1, 1.4029, 24.0794, 25.2538, 12.0913, -56.4767, -17.3925
1.07181, -1, 1.54702, 24.0082, 25.2347, 12.3184, -56.2356, -17.5009
1.07989, -1, 1.69064, 23.9372, 25.2158, 12.5441, -55.9952, -17.609
1.08779, -1, 1.83335, 23.8667, 25.197, 12.769, -55.7561, -17.7166
1.09581, -1, 1.97486, 23.7965, 25.1781, 12.993, -55.518, -17.824
1.10388, -1, 2.11546, 23.7265, 25.1594, 13.2157, -55.2808, -17.9307
1.11179, -1, 2.25516, 23.6569, 25.1408, 13.4374, -55.0447, -18.0366
1.12025, -1, 2.39384, 23.5876, 25.1222, 13.6584, -54.8094, -18.1426
1.12689, -1, 2.53164, 23.5185, 25.1038, 13.8785, -54.5751, -18.2475
1.13579, -1, 2.6684, 23.4497, 25.0855, 14.0976, -54.3416, -18.3523
1.14472, -1, 2.80417, 23.3812, 25.0671, 14.3155, -54.1093, -18.4565
1.15179, -1, 2.93939, 23.3131, 25.0489, 14.5327, -53.8781, -18.5603
1.1598, -1, 3.07427, 23.2451, 25.0307, 14.7491, -53.6479, -18.6639
1.16864, -1, 3.20904, 23.1774, 25.0125, 14.964, -53.4188, -18.7668
1.17579, -1, 3.34392, 23.11, 24.9946, 15.1785, -53.1906, -18.8698
1.18381, -1, 3.47852, 23.043, 24.9767, 15.392, -52.9633, -18.972
1.19258, -1, 3.61286, 22.9762, 24.9588, 15.6048, -52.7372, -19.0739
1.1998, -1, 3.74689, 22.9098, 24.9411, 15.8166, -52.5118, -19.175
1.20779, -1, 3.88039, 22.8436, 24.9234, 16.0273, -52.2876, -19.2761
1.21658, -1, 4.01353, 22.7778, 24.9056, 16.2372, -52.0643, -19.3763
1.22379, -1, 4.14632, 22.7122, 24.8881, 16.4463, -51.8416, -19.4763
1.23179, -1, 4.27862, 22.6469, 24.8707, 16.6544, -51.6199, -19.5758
1.24063, -1, 4.41032, 22.5818, 24.8532, 16.8617, -51.399, -19.675
1.24786, -1, 4.54125, 22.5169, 24.8359, 17.0683, -51.179, -19.774
1.2559, -1, 4.67152, 22.4523, 24.8187, 17.2741, -50.96, -19.8724
1.26466, -1, 4.80101, 22.3879, 24.8014, 17.479, -50.7416, -19.9706
1.2719, -1, 4.92971, 22.3237, 24.7843, 17.6831, -50.5243, -20.0684
1.2799, -1, 5.05773, 22.2597, 24.7674, 17.8863, -50.3078, -20.166
1.28871, -1, 5.18495, 22.196, 24.7504, 18.0889, -50.0921, -20.2626
1.29583, -1, 5.31136, 22.1326, 24.7333, 18.2907, -49.8773, -20.3593
1.3038, -1, 5.43678, 22.0694, 24.7165, 18.4916, -49.6633, -20.4553
1.31195, -1, 5.56141, 22.0065, 24.6996, 18.6918, -49.4503, -20.551
1.31983, -1, 5.68555, 21.9438, 24.6827, 18.8913, -49.2382, -20.6462
1.32791, -1, 5.80938, 21.8815, 24.6661, 19.0902, -49.0268, -20.7414
1.3369, -1, 5.93312, 21.8195, 24.6497, 19.288, -48.8166, -20.8359
1.34403, -1, 6.05682, 21.7576, 24.6331, 19.4851, -48.6071, -20.9306
1.35079, -1, 6.11862, 21.7267, 24.6248, 19.5834, -48.5026, -20.9774
1.3602, -1, 6.30377, 21.6346, 24.6002, 19.8772, -48.19, -21.1185
1.36685, -1, 6.36537, 21.6039, 24.592, 19.9747, -48.0863, -21.1652
1.37635, -1, 6.54992, 21.5123, 24.5674, 20.266, -47.776, -21.3051
1.38434, -1, 6.6725, 21.4515, 24.5512, 20.4593, -47.5699, -21.3973
1.39085, -1, 6.73368, 21.4212, 24.5432, 20.5559, -47.4671, -21.4438
1.40038, -1, 6.9166, 21.3307, 24.5189, 20.8443, -47.1598, -21.5813
1.4084, -1, 6.97735, 21.3006, 24.5027, 21.0355, -46.9559, -21.6731
1.41641, -1, 7.09837, 21.2407, 24.4947, 21.226, -46.7528, -21.7638
1.42378, -1, 7.21876, 21.1811, 24.4787, 21.3211, -46.6515, -21.8095
1.4318, -1, 7.33857, 21.1217, 24.4628, 21.5108, -46.4496, -21.9001
1.43983, -1, 7.45778, 21.0626, 24.447, 21.6997, -46.2486, -21.9903
1.44778, -1, 7.57641, 21.0036, 24.4314, 21.8878, -46.0481, -22.0805
1.45578, -1, 7.69464, 20.9448, 24.4156, 22.0754, -45.8486, -22.1702
1.46384, -1, 7.81234, 20.8862, 24.3999, 22.2624, -45.6498, -22.2599
1.4718, -1, 7.92956, 20.8277, 24.3842, 22.4489, -45.4517, -22.3491
1.47983, -1, 8.04614, 20.7693, 24.3685, 22.6346, -45.2546, -22.4379
1.48784, -1, 8.16211, 20.7112, 24.3529, 22.8195, -45.0581, -22.5262
1.49578, -1, 8.2776, 20.6532, 24.3375, 23.0039, -44.8622, -22.6146
1.50382, -1, 8.39281, 20.5953, 24.3222, 23.1875, -44.6666, -22.7021
1.51183, -1, 8.50764, 20.5378, 24.3068, 23.3706, -44.4717, -22.7898
1.51978, -1, 8.62198, 20.4805, 24.2914, 23.553, -44.2774, -22.8767
1.52779, -1, 8.73574, 20.4234, 24.2761, 23.7346, -44.0836, -22.9639
1.53584, -1, 8.84931, 20.3666, 24.2609, 23.9158, -43.8904, -23.0502
1.54378, -1, 8.96261, 20.31, 24.2457, 24.0966, -43.6979, -23.1369
1.55279, -1, 9.07569, 20.2535, 24.2307, 24.2767, -43.5063, -23.2227
1.55977, -1, 9.18877, 20.1972, 24.2158, 24.4561, -43.3154, -23.309
1.56779, -1, 9.30181, 20.1411, 24.2008, 24.6348, -43.125, -23.3946
1.57585, -1, 9.41465, 20.0852, 24.1857, 24.8129, -42.9352, -23.4802
1.58387, -1, 9.5271, 20.0293, 24.1707, 24.9908, -42.7461, -23.5651
1.59177, -1, 9.6391, 19.9736, 24.1558, 25.1679, -42.5574, -23.6498
1.59984, -1, 9.75066, 19.9181, 24.141, 25.3444, -42.3696, -23.7344
1.60777, -1, 9.86195, 19.8627, 24.1261, 25.5204, -42.1822, -23.8184
1.61577, -1, 9.97296, 19.8076, 24.1116, 25.6958, -41.9955, -23.9024
1.62386, -1, 10.0836, 19.7527, 24.097, 25.8711, -41.8096, -23.9857
1.63179, -1, 10.1937, 19.698, 24.0823, 26.0456, -41.624, -24.0694
1.63977, -1, 10.3036, 19.6434, 24.0675, 26.2194, -41.439, -24.1522
1.64791, -1, 10.4129, 19.5892, 24.053, 26.3926, -41.2545, -24.2354
1.65578, -1, 10.5217, 19.535, 24.0385, 26.5655, -41.0705, -24.3178
1.66384, -1, 10.6302, 19.4809, 24.024, 26.7379, -40.8871, -24.4004
1.67183, -1, 10.7383, 19.4271, 24.0096, 26.9095, -40.7043, -24.4827
1.67978, -1, 10.846, 19.3734, 23.9954, 27.0807, -40.5218, -24.5646
1.68784, -1, 10.9533, 19.3198, 23.9812, 27.2512, -40.34, -24.6466
1.69578, -1, 11.0602, 19.2663, 23.9668, 27.4215, -40.1588, -24.7276
1.70379, -1, 11.1667, 19.213, 23.9524, 27.5913, -39.9781, -24.8093
1.71184, -1, 11.2729, 19.1598, 23.9382, 27.7605, -39.798, -24.89
1.72002, -1, 11.3787, 19.1068, 23.924, 27.9291, -39.6184, -24.9709
1.72778, -1, 11.484, 19.054, 23.9098, 28.0973, -39.4393, -25.0513
1.73584, -1, 11.589, 19.0015, 23.8958, 28.2649, -39.2608, -25.1317
1.74392, -1, 11.6938, 18.949, 23.8819, 28.4323, -39.0827, -25.2119
1.75186, -1, 11.7986, 18.8968, 23.868, 28.5991, -38.9053, -25.2917
1.75994, -1, 11.9032, 18.8447, 23.8539, 28.7653, -38.7283, -25.3717
1.76838, -1, 12.0075, 18.7927, 23.8399, 28.931, -38.5516, -25.4508
1.77594, -1, 12.1118, 18.7408, 23.826, 29.0964, -38.3757, -25.5307
1.78431, -1, 12.2159, 18.6891, 23.8122, 29.2614, -38.2004, -25.6096
1.79183, -1, 12.3197, 18.6375, 23.7984, 29.4261, -38.0257, -25.6886
1.79999, -1, 12.4233, 18.586, 23.7847, 29.5901, -37.8514, -25.7673
1.80843, -1, 12.5267, 18.5346, 23.7712, 29.7536, -37.6775, -25.8452
1.81611, -1, 12.6298, 18.4834, 23.7575, 29.9166, -37.504, -25.9237
1.82395, -1, 12.7326, 18.4323, 23.7438, 30.0794, -37.3307, -26.0009
1.83275, -1, 12.835, 18.3813, 23.7301, 30.2417, -37.1581, -26.0787
1.84006, -1, 12.9371, 18.3307, 23.7165, 30.4034, -36.9859, -26.1557
1.84677, -1, 12.9879, 18.3054, 23.7097, 30.4841, -36.8999, -26.194
1.85698, -1, 13.1401, 18.2297, 23.6894, 30.7254, -36.6426, -26.31
1.86441, -1, 13.2411, 18.1795, 23.676, 30.8859, -36.4717, -26.3862
1.8723, -1, 13.3417, 18.1293, 23.6628, 31.0461, -36.3013, -26.463
1.88111, -1, 13.4421, 18.0794, 23.6495, 31.2057, -36.1313, -26.5391
1.88681, -1, 13.4921, 18.0544, 23.6428, 31.2854, -36.0464, -26.577
1.89636, -1, 13.6422, 17.9795, 23.6227, 31.5237, -35.7927, -26.6916
1.90523, -1, 13.7419, 17.9297, 23.6095, 31.6818, -35.624, -26.7672
1.91084, -1, 13.7916, 17.9048, 23.6028, 31.7609, -35.5399, -26.8052
1.92042, -1, 13.8911, 17.8551, 23.5829, 31.9976, -35.2884, -26.9181
1.92776, -1, 13.9904, 17.8055, 23.5762, 32.0762, -35.2047, -26.9556
1.93482, -1, 14.0895, 17.7562, 23.5631, 32.2332, -35.0375, -27.031
1.94387, -1, 14.1882, 17.707, 23.5501, 32.3897, -34.8712, -27.1054
1.95176, -1, 14.2866, 17.6579, 23.537, 32.5458, -34.7051, -27.1803
1.95882, -1, 14.3846, 17.6091, 23.5238, 32.7017, -34.5396, -27.2547
1.96783, -1, 14.4823, 17.5604, 23.5107, 32.8574, -34.3743, -27.3285
1.97577, -1, 14.5797, 17.5119, 23.4978, 33.0125, -34.2091, -27.403
1.98285, -1, 14.6766, 17.4634, 23.4848, 33.1671, -34.0445, -27.4768
1.99176, -1, 14.7733, 17.4152, 23.4719, 33.3214, -33.88, -27.5508
1.99976, -1, 14.8698, 17.367, 23.4589, 33.4753, -33.7163, -27.6245
2.00784, -1, 14.9661, 17.3187, 23.4462, 33.629, -33.5527, -27.6979
2.01576, -1, 15.0623, 17.2705, 23.4335, 33.7822, -33.3895, -27.7719
2.02381, -1, 15.1582, 17.2224, 23.4206, 33.9349, -33.2266, -27.8448
2.03078, -1, 15.2541, 17.1744, 23.4077, 34.0872, -33.0644, -27.9182
2.03976, -1, 15.3499, 17.1266, 23.3948, 34.2392, -32.9024, -27.9911
2.04875, -1, 15.4456, 17.0788, 23.382, 34.3909, -32.7411, -28.0633
2.05582, -1, 15.5414, 17.0311, 23.3693, 34.5425, -32.58, -28.1361
2.06481, -1, 15.6369, 16.9838, 23.3565, 34.6934, -32.4193, -28.2081
2.07091, -1, 15.7322, 16.9365, 23.3438, 34.8442, -32.2589, -28.2804
2.07981, -1, 15.8273, 16.8893, 23.3314, 34.9943, -32.0988, -28.3524
2.08775, -1, 15.9221, 16.8425, 23.3189, 35.1442, -31.9393, -28.4235
2.09576, -1, 16.0167, 16.7956, 23.3063, 35.294, -31.7801, -28.4956
2.10388, -1, 16.1109, 16.749, 23.2937, 35.4434, -31.6212, -28.5668
2.11178, -1, 16.2047, 16.7024, 23.2812, 35.5923, -31.4627, -28.6381
2.11976, -1, 16.2983, 16.6558, 23.2688, 35.7409, -31.3047, -28.7095
2.12782, -1, 16.3917, 16.6094, 23.2563, 35.8891, -31.1468, -28.78
2.13577, -1, 16.4847, 16.5628, 23.2438, 36.0371, -30.9893, -28.8515
2.14382, -1, 16.5775, 16.5163, 23.2314, 36.185, -30.8321, -28.9222
2.15189, -1, 16.6701, 16.4699, 23.2191, 36.3325, -30.6751, -28.9925
2.15976, -1, 16.7625, 16.4236, 23.2067, 36.4796, -30.5186, -29.0633
2.16775, -1, 16.8548, 16.3773, 23.1944, 36.6262, -30.3623, -29.1331
2.17585, -1, 16.9469, 16.3313, 23.1819, 36.7726, -30.2067, -29.2033
2.18384, -1, 17.0389, 16.2854, 23.1696, 36.9187, -30.051, -29.2733
2.19177, -1, 17.1305, 16.2397, 23.1574, 37.0646, -29.8957, -29.3426
2.19982, -1, 17.2207, 16.1946, 23.145, 37.2099, -29.7407, -29.4125
2.20775, -1, 17.3075, 16.1512, 23.1325, 37.3545, -29.5869, -29.4814
2.21576, -1, 17.3894, 16.1102, 23.1199, 37.4968, -29.435, -29.5493
2.22387, -1, 17.4658, 16.0721, 23.1074, 37.6347, -29.2881, -29.6158
2.23177, -1, 17.5367, 16.0372, 23.0953, 37.7646, -29.1492, -29.6779
2.23975, -1, 17.6006, 16.0062, 23.0841, 37.883, -29.0229, -29.7348
2.24786, -1, 17.657, 15.9787, 23.0743, 37.9862, -28.9122, -29.7849
2.25584, -1, 17.707, 15.9541, 23.0666, 38.0706, -28.8215, -29.826
2.26389, -1, 17.751, 15.9314, 23.0614, 38.1365, -28.7504, -29.8578
2.27194, -1, 17.7888, 15.9118, 23.0582, 38.1831, -28.6997, -29.8806
2.27986, -1, 17.8196, 15.8961, 23.0565, 38.2144, -28.6656, -29.8958
2.28808, -1, 17.844, 15.8841, 23.0557, 38.2338, -28.6443, -29.905
2.29532, -1, 17.8541, 15.8794, 23.0555, 38.2402, -28.6373, -29.9102
2.3039, -1, 17.8749, 15.8699, 23.0552, 38.2507, -28.6257, -29.9128
2.31203, 2, 17.8814, 15.8669, 23.0551, 38.2535, -28.6226, -29.914
2.31989, 2, 17.8843, 15.8655, 23.055, 38.2547, -28.6212, -29.9146
2.45515, 2, 17.8873, 15.8626, 23.055, 38.2559, -28.62, -29.9153
2.45698, 2, 17.8874, 15.8626, 23.055, 38.2559, -28.6201, -29.9153
2.4584, 2, 17.8874, 15.8626, 23.055, 38.2559, -28.6201, -29.9153
2.45958, 2, 17.8874, 15.8626, 23.055, 38.2559, -28.6201, -29.9153
2.46161, 2, 17.8875, 15.8626, 23.055, 38.2559, -28.6201, -29.9153
2.4628, 2, 17.8875, 15.8626, 23.055, 38.2559, -28.6201, -29.9153
2.46472, 2, 17.8875, 15.8626, 23.055, 38.2559, -28.6201, -29.9153
2.46781, 2, 17.8875, 15.8626, 23.055, 38.2559, -28.6201, -29.9153
2.47, 2, 17.8876, 15.8626, 23.055, 38.2559, -28.6201, -29.9152
2.47118, 2, 17.8876, 15.8626, 23.055, 38.2559, -28.6201, -29.9152
2.47342, 2, 17.8876, 15.8626, 23.055, 38.2559, -28.6201, -29.9152
2.47473, 2, 17.8876, 15.8626, 23.055, 38.2559, -28.6201, -29.9152
2.47601, 2, 17.8876, 15.8626, 23.055, 38.2559, -28.6201, -29.9152
2.47803, 2, 17.8876, 15.8626, 23.055, 38.2559, -28.6202, -29.9152
2.4793, 2, 17.8876, 15.8626, 23.055, 38.2559, -28.6202, -29.9152
2.48312, 2, 17.8876, 15.8626, 23.055, 38.2559, -28.6202, -29.9152
2.48506, 2, 17.8876, 15.8626, 23.055, 38.2559, -28.6202, -29.9152
2.48645, 2, 17.8876, 15.8626, 23.055, 38.2559, -28.6202, -29.9152
2.48786, 2, 17.8876, 15.8626, 23.055, 38.2559, -28.6202, -29.9152
2.48986, 2, 17.8876, 15.8626, 23.055, 38.2559, -28.6202, -29.9152
2.49118, 2, 17.8876, 15.8626, 23.055, 38.2559, -28.6202, -29.9152
2.49477, 2, 17.8876, 15.8626, 23.055, 38.2559, -28.6202, -29.9152
2.50382, 2, 17.8875, 15.8625, 23.055, 38.2559, -28.6202, -29.9152
2.51184, 2, 17.8872, 15.8625, 23.055, 38.2559, -28.6203, -29.9152
2.51974, 2, 17.887, 15.8624, 23.055, 38.2559, -28.6202, -29.9152
2.52774, 2, 17.8869, 15.8623, 23.055, 38.2559, -28.6202, -29.9152
2.53474, 2, 17.8868, 15.8623, 23.055, 38.2559, -28.6202, -29.9152
2.5438, 2, 17.8868, 15.8623, 23.055, 38.2559, -28.6202, -29.9152
2.55176, 2, 17.8868, 15.8623, 23.055, 38.2559, -28.6203, -29.9153
2.55981, 2, 17.8868, 15.8623, 23.055, 38.2559, -28.6203, -29.9153
2.56774, 2, 17.8868, 15.8624, 23.055, 38.2559, -28.6203, -29.9152
2.5758, 2, 17.8868, 15.8624, 23.055, 38.2559, -28.6203, -29.9152
2.58387, 2, 17.8868, 15.8624, 23.0551, 38.2559, -28.6204, -29.9152
2.59175, 2, 17.8868, 15.8624, 23.0551, 38.2559, -28.6204, -29.9152
2.59974, 2, 17.8868, 15.8624, 23.055, 38.2559, -28.6204, -29.9152
2.6078, 2, 17.8868, 15.8623, 23.055, 38.2559, -28.6204, -29.9152
2.61574, 2, 17.8868, 15.8623, 23.055, 38.2559, -28.6204, -29.9152
2.62379, 2, 17.8868, 15.8623, 23.055, 38.2559, -28.6205, -29.9152
2.63182, 2, 17.8868, 15.8623, 23.055, 38.2558, -28.6205, -29.9152
2.63976, 2, 17.8867, 15.8623, 23.055, 38.2559, -28.6205, -29.9152
2.64774, 2, 17.8867, 15.8623, 23.055, 38.2558, -28.6205, -29.9152
2.65585, 2, 17.8867, 15.8623, 23.055, 38.2558, -28.6205, -29.9152
2.66379, 2, 17.8866, 15.8624, 23.0551, 38.2559, -28.6204, -29.9153
2.67176, 2, 17.8866, 15.8624, 23.0551, 38.2559, -28.6205, -29.9152
2.67984, 2, 17.8866, 15.8624, 23.055, 38.2558, -28.6205, -29.9152
2.68774, 2, 17.8866, 15.8624, 23.055, 38.2559, -28.6205, -29.9152
2.69574, 2, 17.8866, 15.8624, 23.055, 38.2559, -28.6206, -29.9151
2.70387, 2, 17.8866, 15.8624, 23.055, 38.2558, -28.6206, -29.9151
2.71175, 2, 17.8866, 15.8624, 23.055, 38.2558, -28.6206, -29.9151
2.71973, 2, 17.8866, 15.8624, 23.055, 38.2558, -28.6206, -29.9151
2.7278, 2, 17.8865, 15.8624, 23.0551, 38.2558, -28.6206, -29.9151
2.73574, 2, 17.8865, 15.8624, 23.0551, 38.2558, -28.6206, -29.9151
2.7438, 2, 17.8865, 15.8624, 23.0551, 38.2558, -28.6206, -29.9152
2.75189, 2, 17.8865, 15.8624, 23.0551, 38.2558, -28.6207, -29.9151
2.75983, 2, 17.8865, 15.8624, 23.0551, 38.2558, -28.6207, -29.9152
2.76784, 2, 17.8865, 15.8624, 23.0551, 38.2558, -28.6207, -29.9152
2.77589, 2, 17.8865, 15.8624, 23.0551, 38.2557, -28.6207, -29.9151
2.7839, 2, 17.8865, 15.8624, 23.0551, 38.2557, -28.6208, -29.9151
2.79185, 2, 17.8864, 15.8624, 23.055, 38.2557, -28.6208, -29.9151
2.79991, 2, 17.8864, 15.8624, 23.055, 38.2558, -28.6208, -29.9151
2.80776, 2, 17.8863, 15.8624, 23.055, 38.2557, -28.6208, -29.9151
2.81577, 2, 17.8863, 15.8624, 23.055, 38.2557, -28.6208, -29.9151
2.82395, 2, 17.8863, 15.8624, 23.055, 38.2557, -28.6208, -29.9151
2.83201, 2, 17.8863, 15.8624, 23.0551, 38.2557, -28.6208, -29.9151
2.83878, 2, 17.8862, 15.8624, 23.0551, 38.2557, -28.6208, -29.9151
2.84804, 2, 17.8862, 15.8624, 23.0551, 38.2557, -28.6209, -29.9151
2.85473, 2, 17.8862, 15.8624, 23.0551, 38.2557, -28.6208, -29.9151
2.86419, 2, 17.8861, 15.8624, 23.0551, 38.2557, -28.6209, -29.9151
2.87074, 2, 17.8861, 15.8624, 23.0551, 38.2557, -28.6209, -29.9151
2.88061, 2, 17.886, 15.8624, 23.055, 38.2557, -28.6209, -29.9151
2.88832, 2, 17.886, 15.8624, 23.0551, 38.2556, -28.6209, -29.915
2.8963, 2, 17.8859, 15.8624, 23.0551, 38.2556, -28.6209, -29.9151
2.90438, 2, 17.8859, 15.8624, 23.055, 38.2557, -28.6209, -29.915
2.91237, 2, 17.8858, 15.8625, 23.0551, 38.2556, -28.6209, -29.915
2.92035, 2, 17.8858, 15.8625, 23.055, 38.2556, -28.621, -29.9151
2.92773, 2, 17.8858, 15.8625, 23.0551, 38.2557, -28.621, -29.9151
2.93573, 2, 17.8857, 15.8625, 23.0551, 38.2557, -28.621, -29.9151
2.94387, 2, 17.8857, 15.8625, 23.0551, 38.2557, -28.621, -29.9151
2.95174, 2, 17.8857, 15.8625, 23.0551, 38.2556, -28.621, -29.915
2.95973, 2, 17.8856, 15.8625, 23.0551, 38.2556, -28.621, -29.915
2.96777, 2, 17.8855, 15.8625, 23.0551, 38.2556, -28.621, -29.915
2.97574, 2, 17.8855, 15.8624, 23.0551, 38.2556, -28.6211, -29.915
2.98379, 2, 17.8854, 15.8624, 23.055, 38.2556, -28.6211, -29.915
2.99183, 2, 17.8854, 15.8625, 23.0551, 38.2556, -28.621, -29.915
2.99972, 2, 17.8853, 15.8625, 23.055, 38.2556, -28.621, -29.915
3.00773, 2, 17.8853, 15.8625, 23.0551, 38.2555, -28.6211, -29.9151
3.0158, 2, 17.8852, 15.8625, 23.0551, 38.2555, -28.6211, -29.9151
3.02378, 2, 17.8852, 15.8625, 23.0551, 38.2555, -28.6211, -29.9151
3.03174, 2, 17.8851, 15.8625, 23.0551, 38.2554, -28.6211, -29.9151
3.03979, 2, 17.8851, 15.8625, 23.0551, 38.2555, -28.6212, -29.9151
3.04771, 2, 17.885, 15.8625, 23.0551, 38.2555, -28.6212, -29.9151
3.05674, 2, 17.885, 15.8625, 23.0551, 38.2555, -28.6212, -29.915
3.06384, 2, 17.8849, 15.8625, 23.0551, 38.2554, -28.6212, -29.915
3.07279, 2, 17.8848, 15.8625, 23.0551, 38.2554, -28.6212, -29.915
3.07973, 2, 17.8848, 15.8625, 23.0551, 38.2554, -28.6212, -29.915
3.08779, 2, 17.8848, 15.8625, 23.0551, 38.2554, -28.6211, -29.915
3.09572, 2, 17.8847, 15.8625, 23.0551, 38.2554, -28.6212, -29.915
3.1038, 2, 17.8846, 15.8625, 23.0551, 38.2554, -28.6212, -29.915
3.1118, 2, 17.8846, 15.8625, 23.0551, 38.2553, -28.6212, -29.915
3.11971, 2, 17.8846, 15.8625, 23.0551, 38.2554, -28.6212, -29.915
3.12772, 2, 17.8845, 15.8625, 23.0551, 38.2554, -28.6212, -29.9149
3.1358, 2, 17.8845, 15.8625, 23.0551, 38.2554, -28.6212, -29.915
3.1438, 2, 17.8844, 15.8625, 23.0551, 38.2554, -28.6212, -29.915
3.15174, 2, 17.8844, 15.8625, 23.0551, 38.2553, -28.6212, -29.915
3.15983, 2, 17.8843, 15.8625, 23.0551, 38.2553, -28.6212, -29.9149
3.16773, 2, 17.8843, 15.8625, 23.0551, 38.2552, -28.6212, -29.915
3.17572, 2, 17.8843, 15.8625, 23.0551, 38.2553, -28.6212, -29.915
3.1839, 2, 17.8842, 15.8625, 23.0551, 38.2553, -28.6212, -29.915
3.19173, 2, 17.8841, 15.8625, 23.0551, 38.2552, -28.6212, -29.915
3.19972, 2, 17.8841, 15.8625, 23.0551, 38.2552, -28.6212, -29.915
3.20778, 2, 17.8841, 15.8626, 23.0551, 38.2552, -28.6212, -29.9149
3.21572, 2, 17.884, 15.8626, 23.0551, 38.2552, -28.6212, -29.9149
3.22379, 2, 17.884, 15.8626, 23.0551, 38.2552, -28.6213, -29.9149
3.2318, 2, 17.8839, 15.8626, 23.0551, 38.2552, -28.6213, -29.9149
3.23972, 2, 17.8839, 15.8626, 23.0551, 38.2551, -28.6213, -29.9149
3.24775, 2, 17.8839, 15.8626, 23.0551, 38.2551, -28.6213, -29.9149
3.25583, 2, 17.8839, 15.8626, 23.0551, 38.2551, -28.6213, -29.9149
3.26386, 2, 17.8838, 15.8626, 23.0551, 38.2551, -28.6213, -29.9149
3.27185, 2, 17.8838, 15.8626, 23.0551, 38.2551, -28.6214, -29.9149
3.27988, 2, 17.8838, 15.8626, 23.0551, 38.2551, -28.6214, -29.9149
3.28783, 2, 17.8838, 15.8626, 23.0551, 38.255, -28.6214, -29.9149
3.29583, 2, 17.8838, 15.8626, 23.0551, 38.255, -28.6214, -29.9149
3.30395, 2, 17.8838, 15.8626, 23.0551, 38.255, -28.6214, -29.915
3.31207, 2, 17.8838, 15.8626, 23.0551, 38.255, -28.6214, -29.915
3.31995, 2, 17.8838, 15.8626, 23.0551, 38.255, -28.6214, -29.9149
3.32786, 2, 17.8837, 15.8626, 23.0551, 38.255, -28.6214, -29.9149
3.33583, 2, 17.8837, 15.8626, 23.0551, 38.255, -28.6214, -29.9149
3.34404, 2, 17.8837, 15.8626, 23.0551, 38.2549, -28.6214, -29.9149
3.35072, 2, 17.8837, 15.8626, 23.0551, 38.2549, -28.6214, -29.9149
3.36003, 2, 17.8837, 15.8626, 23.0551, 38.2549, -28.6214, -29.9149
3.36672, 2, 17.8837, 15.8626, 23.0551, 38.2549, -28.6214, -29.9149
3.37662, 2, 17.8837, 15.8626, 23.0551, 38.2548, -28.6215, -29.9149
3.38431, 2, 17.8837, 15.8626, 23.0551, 38.2548, -28.6215, -29.9149
3.39233, 2, 17.8837, 15.8626, 23.0551, 38.2548, -28.6215, -29.9149
3.4006, 4, 17.8836, 15.8626, 23.0551, 38.2548, -28.6215, -29.9148
3.40827, 4, 17.8837, 15.8626, 23.0551, 38.2548, -28.6214, -29.9149
3.41633, 4, 17.8836, 15.8626, 23.0551, 38.2548, -28.6214, -29.9149
3.42437, 4, 17.8836, 15.8626, 23.0551, 38.2547, -28.6214, -29.9148
3.43172, 4, 17.8836, 15.8627, 23.0551, 38.2548, -28.6214, -29.9148
3.44059, 4, 17.8836, 15.8626, 23.0551, 38.2548, -28.6215, -29.9149
3.44774, 4, 17.8836, 15.8626, 23.0551, 38.2547, -28.6215, -29.9149
3.45571, 4, 17.8835, 15.8626, 23.0551, 38.2547, -28.6214, -29.9149
3.46382, 4, 17.8835, 15.8626, 23.0551, 38.2547, -28.6214, -29.9149
3.47173, 4, 17.8835, 15.8627, 23.0551, 38.2547, -28.6214, -29.9149
3.47972, 4, 17.8835, 15.8627, 23.0551, 38.2546, -28.6214, -29.9148
3.48775, 4, 17.8836, 15.8627, 23.0551, 38.2547, -28.6214, -29.9148
3.49575, 4, 17.8835, 15.8627, 23.0551, 38.2547, -28.6215, -29.9148
3.50391, 4, 17.8835, 15.8627, 23.0551, 38.2546, -28.6215, -29.9148
3.53078, 4, 17.8834, 15.8627, 23.0551, 38.2546, -28.6215, -29.9147
3.53204, 4, 17.8834, 15.8627, 23.0551, 38.2546, -28.6215, -29.9147
3.53417, 4, 17.8834, 15.8627, 23.0551, 38.2546, -28.6215, -29.9147
3.53545, 4, 17.8834, 15.8627, 23.0551, 38.2546, -28.6215, -29.9147
3.54377, 4, 17.8834, 15.8627, 23.0551, 38.2546, -28.6215, -29.9147
3.55071, 4, 17.8832, 15.8627, 23.0551, 38.2546, -28.6215, -29.9147
3.5597, 4, 17.8817, 15.8627, 23.0552, 38.2544, -28.6215, -29.9146
3.56871, 4, 17.8775, 15.8627, 23.0557, 38.2529, -28.6218, -29.914
3.57576, 4, 17.8692, 15.8624, 23.0576, 38.2458, -28.6236, -29.9101
3.58376, 4, 17.8559, 15.8615, 23.0629, 38.2273, -28.6292, -29.8961
3.59172, 4, 17.8356, 15.859, 23.0749, 38.1886, -28.6425, -29.8634
3.59977, 5, 17.8052, 15.8542, 23.0973, 38.116, -28.6671, -29.8015
3.60771, 5, 17.7624, 15.8459, 23.1348, 37.995, -28.709, -29.6967
3.61571, 5, 17.7053, 15.8332, 23.192, 37.8094, -28.7752, -29.5358
3.62382, 5, 17.6319, 15.8152, 23.2737, 37.5447, -28.871, -29.3057
3.63172, 5, 17.5404, 15.7915, 23.3833, 37.1899, -29.0028, -28.9964
3.63971, 5, 17.4296, 15.7617, 23.5229, 36.7383, -29.1736, -28.6015
3.64778, 5, 17.2986, 15.7259, 23.693, 36.1883, -29.3866, -28.1208
3.65571, 5, 17.1472, 15.6847, 23.8922, 35.5456, -29.642, -27.5586
3.66387, 5, 16.9763, 15.639, 24.119, 34.8208, -29.9384, -26.924
3.67172, 5, 16.7873, 15.5897, 24.3693, 34.0255, -30.2728, -26.2294
3.6797, 5, 16.5819, 15.5384, 24.6374, 33.1777, -30.6407, -25.4927
3.6878, 5, 16.3621, 15.4867, 24.9194, 32.2954, -31.0361, -24.7267
3.6957, 5, 16.1301, 15.4356, 25.2097, 31.3955, -31.4544, -23.9449
3.70377, 5, 15.8876, 15.3867, 25.5044, 30.4889, -31.8902, -23.1624
3.71177, 5, 15.6355, 15.3408, 25.7996, 29.5867, -32.3391, -22.3853
3.7197, 5, 15.3751, 15.2985, 26.0933, 28.6979, -32.7974, -21.6217
3.72771, 5, 15.109, 15.2605, 26.384, 27.8271, -33.2636, -20.8764
3.73577, 5, 14.8397, 15.2267, 26.6706, 26.9726, -33.7363, -20.1484
3.74376, 5, 14.5679, 15.1973, 26.9537, 26.1355, -34.2156, -19.4386
3.75225, 5, 14.2944, 15.1723, 27.2322, 25.3176, -34.7006, -18.7488
3.75915, 5, 14.0202, 15.1521, 27.5066, 24.5194, -35.1913, -18.0762
3.76731, 5, 13.7455, 15.1362, 27.7765, 23.7365, -35.6874, -17.4215
3.77616, 5, 13.4708, 15.1246, 28.0419, 22.9699, -36.1876, -16.7855
3.78327, 5, 13.1963, 15.1177, 28.3034, 22.2213, -36.6926, -16.166
3.79182, 5, 12.9215, 15.1149, 28.56, 21.4893, -37.2026, -15.5629
3.80061, 5, 12.6453, 15.1158, 28.8124, 20.773, -37.7171, -14.9758
3.80771, 5, 12.3674, 15.121, 29.0604, 20.07, -38.2363, -14.4047
3.81575, 5, 12.0886, 15.1307, 29.3034, 19.3827, -38.7596, -13.8482
3.82472, 5, 11.809, 15.145, 29.5424, 18.7101, -39.2863, -13.3059
3.83179, 5, 11.5281, 15.1639, 29.7764, 18.0511, -39.8165, -12.7783
3.83982, 5, 11.245, 15.1871, 30.0054, 17.4061, -40.3506, -12.2649
3.84889, 5, 10.9589, 15.2149, 30.2303, 16.7731, -40.8883, -11.765
3.85597, 5, 10.6693, 15.2472, 30.4503, 16.1534, -41.4293, -11.2783
3.86269, 5, 10.5237, 15.2651, 30.5583, 15.8485, -41.7011, -11.0393
3.87301, 5, 10.0859, 15.3255, 30.8764, 14.9507, -42.5218, -10.3415
3.88013, 5, 9.79411, 15.3717, 31.0825, 14.3676, -43.0723, -9.8915
3.88669, 5, 9.64841, 15.3964, 31.1835, 14.0803, -43.3484, -9.67076
3.89722, 5, 9.21129, 15.4776, 31.48, 13.2326, -44.1809, -9.02512
3.90276, 5, 9.06525, 15.5069, 31.5767, 12.9557, -44.4598, -8.8153
3.91229, 5, 8.62507, 15.6016, 31.8586, 12.1405, -45.3006, -8.20203
3.92128, 5, 8.4778, 15.6355, 32.0403, 11.609, -45.8648, -7.80621
3.92833, 5, 8.18211, 15.7064, 32.1296, 11.3472, -46.4306, -7.42023
3.93626, 5, 7.88425, 15.7816, 32.3047, 10.8305, -46.714, -7.23096
3.94375, 5, 7.58432, 15.8612, 32.4743, 10.3224, -47.2818, -6.85957
3.95171, 5, 7.28379, 15.9454, 32.6389, 9.82296, -47.8522, -6.49682
3.95971, 5, 6.98315, 16.0341, 32.7992, 9.33251, -48.4251, -6.14309
3.9677, 5, 6.68291, 16.1272, 32.9545, 8.85038, -49.0003, -5.79846
3.9747, 5, 6.383, 16.2248, 33.1044, 8.37638, -49.577, -5.46209
3.9838, 5, 6.08254, 16.3269, 33.2495, 7.91037, -50.1541, -5.13387
3.99169, 5, 5.78133, 16.4333, 33.3897, 7.45229, -50.7325, -4.81358
3.9987, 5, 5.47967, 16.544, 33.5249, 7.00131, -51.313, -4.50082
4.00769, 5, 5.17687, 16.6594, 33.6549, 6.55743, -51.8949, -4.19552
4.01569, 5, 4.87231, 16.7794, 33.7797, 6.12068, -52.4779, -3.89763
4.02384, 5, 4.56619, 16.9036, 33.8994, 5.69071, -53.0627, -3.60696
4.03169, 5, 4.25922, 17.0319, 34.0141, 5.26729, -53.6477, -3.32331
4.03969, 5, 3.95245, 17.1642, 34.1235, 4.85041, -54.2329, -3.04623
4.04776, 5, 3.64687, 17.3004, 34.2281, 4.43971, -54.8189, -2.77555
4.05569, 5, 3.34322, 17.4405, 34.3276, 4.03535, -55.406, -2.5117
4.06469, 5, 3.0427, 17.5832, 34.4219, 3.63732, -55.9935, -2.25369
4.07175, 5, 2.74738, 17.7271, 34.5109, 3.24614, -56.5796, -2.00247
4.07969, 5, 2.45852, 17.8714, 34.5945, 2.86385, -57.1596, -1.75918
4.08769, 5, 2.17674, 18.0147, 34.6723, 2.49358, -57.7288, -1.52537
4.09575, 5, 1.90487, 18.1553, 34.7439, 2.13883, -58.2823, -1.30321
4.10377, 5, 1.64558, 18.2914, 34.8089, 1.80372, -58.8124, -1.09433
4.1117, 5, 1.40101, 18.4215, 34.8667, 1.49242, -59.311, -0.901587
4.11975, 5, 1.17394, 18.5441, 34.9169, 1.20887, -59.7708, -0.727128
4.12769, 5, 0.967657, 18.6573, 34.9593, 0.956202, -60.1841, -0.57271
4.13568, 5, 0.783356, 18.7599, 34.9944, 0.736428, -60.5467, -0.439099
4.14381, 5, 0.621509, 18.8514, 35.0225, 0.550359, -60.8561, -0.326162
4.15171, 5, 0.482381, 18.9308, 35.0445, 0.397478, -61.1124, -0.23399
4.15969, 5, 0.366143, 18.9976, 35.061, 0.275599, -61.318, -0.160139
4.1678, 5, 0.271332, 19.0527, 35.0731, 0.182059, -61.4769, -0.103626
4.17568, 5, 0.195667, 19.0971, 35.0813, 0.113226, -61.5948, -0.0621555
4.18377, 5, 0.137117, 19.1316, 35.0864, 0.0652696, -61.6784, -0.0329954
4.19184, 5, 0.0933354, 19.1573, 35.0894, 0.0329036, -61.7339, -0.0136405
4.19968, 5, 0.0614251, 19.1761, 35.091, 0.0123638, -61.7695, -0.00171677
4.20784, 5, 0.0382277, 19.1894, 35.0918, 0.000248973, -61.7904, 0.00511563
4.22977, 5, 0.00671894, 19.2056, 35.0924, -0.0102213, -61.8092, 0.0105017
4.23187, 5, 0.00385223, 19.2071, 35.0924, -0.0108409, -61.8103, 0.0107565
4.23306, 5, 0.00385223, 19.2071, 35.0924, -0.0108409, -61.8103, 0.0107565
4.23976, 5, -3.94686E-05, 19.2093, 35.0925, -0.0115508, -61.8116, 0.0110717
4.2477, 5, -0.00248769, 19.2109, 35.0925, -0.0118793, -61.8122, 0.0111723
4.25572, 5, -0.00555079, 19.2127, 35.0925, -0.0120215, -61.8125, 0.0111782
4.2639, 5, -0.0113888, 19.2156, 35.0925, -0.0122628, -61.8131, 0.0112172
4.27178, 5, -0.0213727, 19.2207, 35.0925, -0.013698, -61.8153, 0.0112246
4.28015, 6, -0.0367422, 19.2293, 35.0924, -0.0187073, -61.8222, 0.0112424
4.28725, 6, -0.0598053, 19.2433, 35.0924, -0.0300284, -61.8372, 0.0113565
4.2958, 6, -0.0933744, 19.2636, 35.0926, -0.0511868, -61.865, 0.0119871
4.30442, 6, -0.140223, 19.2911, 35.0934, -0.0862546, -61.912, 0.0144894
4.31169, 6, -0.202441, 19.3261, 35.0958, -0.14169, -61.9861, 0.019133
4.31973, 6, -0.282487, 19.37, 35.1003, -0.221326, -62.0929, 0.0260208
4.32854, 6, -0.383143, 19.4247, 35.1068, -0.329198, -62.2391, 0.0355196
4.33578, 6, -0.506723, 19.4919, 35.1156, -0.468712, -62.4285, 0.047473
4.34385, 6, -0.653542, 19.5723, 35.1265, -0.64142, -62.6643, 0.0617701
4.35449, 6, -0.823262, 19.6661, 35.139, -0.848013, -62.9472, 0.0778974
4.36005, 6, -1.01554, 19.7736, 35.1525, -1.087, -63.2763, 0.0951098
4.36668, 6, -1.11987, 19.8325, 35.1593, -1.21764, -63.4569, 0.104037
4.3768, 6, -1.46282, 20.0276, 35.1783, -1.64888, -64.0555, 0.130937
4.38425, 6, -1.71367, 20.171, 35.189, -1.96343, -64.4943, 0.148119
4.3922, 6, -1.97931, 20.3244, 35.1966, -2.2932, -64.9567, 0.164013
4.40102, 6, -2.25801, 20.4885, 35.2003, -2.63373, -65.4364, 0.178215
4.40667, 6, -2.40171, 20.5742, 35.2006, -2.8065, -65.6807, 0.184584
4.41624, 6, -2.84575, 20.8426, 35.1945, -3.32993, -66.4243, 0.200036
4.42524, 6, -3.1495, 21.0282, 35.1843, -3.68065, -66.9253, 0.206956
4.43233, 6, -3.30315, 21.123, 35.1774, -4.03099, -67.4272, 0.211238
4.43967, 6, -3.61285, 21.3164, 35.1599, -4.20585, -67.6782, 0.212445
4.44768, 6, -3.92421, 21.514, 35.1375, -4.5543, -68.18, 0.213641
4.45572, 6, -4.23671, 21.714, 35.1102, -4.90098, -68.6808, 0.21333
4.46374, 6, -4.55005, 21.9169, 35.078, -5.24625, -69.1816, 0.209922
4.47167, 6, -4.86263, 22.123, 35.0409, -5.58973, -69.6814, 0.203356
4.47968, 6, -5.1738, 22.3315, 34.999, -5.9315, -70.1803, 0.193974
4.48773, 6, -5.48357, 22.5419, 34.9522, -6.2716, -70.6776, 0.181713
4.49573, 6, -5.79219, 22.755, 34.9007, -6.60983, -71.1729, 0.166914
4.5038, 6, -6.10078, 22.9715, 34.8442, -6.94678, -71.6672, 0.149774
4.51167, 6, -6.40956, 23.1904, 34.7828, -7.28218, -72.16, 0.130259
4.51972, 6, -6.71795, 23.4118, 34.7166, -7.61604, -72.6515, 0.108503
4.52772, 6, -7.02652, 23.6365, 34.6454, -7.94826, -73.1414, 0.0841113
4.53567, 6, -7.33629, 23.8635, 34.5693, -8.27883, -73.6294, 0.0570979
4.54268, 6, -7.64723, 24.0927, 34.4882, -8.60809, -74.1158, 0.0275002
4.55169, 6, -7.95862, 24.3252, 34.4023, -8.93588, -74.6002, -0.00423047
4.55967, 6, -8.26927, 24.5602, 34.3115, -9.26212, -75.0828, -0.0375528
4.56774, 6, -8.57798, 24.7969, 34.2159, -9.58718, -75.5634, -0.0726433
4.57667, 6, -8.88508, 25.0362, 34.1154, -9.91056, -76.042, -0.109987
4.58379, 6, -9.19144, 25.2777, 34.01, -10.2327, -76.5183, -0.149631
4.59167, 6, -9.49699, 25.5212, 33.8995, -10.5539, -76.9932, -0.190945
4.59969, 6, -9.80229, 25.7677, 33.7839, -10.8736, -77.4659, -0.233212
4.60774, 6, -10.1085, 26.0169, 33.6635, -11.1919, -77.9361, -0.27709
4.61567, 6, -10.4159, 26.2674, 33.5383, -11.5087, -78.4038, -0.323159
4.62372, 6, -10.724, 26.5199, 33.4082, -11.8243, -78.869, -0.370996
4.63174, 6, -11.0317, 26.7742, 33.2732, -12.1386, -79.3319, -0.419607
4.63967, 6, -11.3373, 27.03, 33.1331, -12.4517, -79.7928, -0.469713
4.64767, 6, -11.6404, 27.2887, 32.9882, -12.7632, -80.2516, -0.521739
4.65578, 6, -11.942, 27.5492, 32.8387, -13.0737, -80.7081, -0.574453
4.66372, 6, -12.2426, 27.8111, 32.6842, -13.3826, -81.1616, -0.628119
4.67171, 6, -12.5426, 28.0752, 32.5248, -13.6906, -81.6123, -0.683561
4.67975, 6, -12.8424, 28.3409, 32.3608, -13.9974, -82.0603, -0.740372
4.68767, 6, -13.142, 28.6086, 32.1924, -14.3028, -82.5055, -0.797493
4.69571, 6, -13.442, 28.8786, 32.0186, -14.6069, -82.9485, -0.856208
4.70379, 6, -13.7425, 29.1495, 31.8393, -14.9098, -83.3885, -0.916264
4.71167, 6, -14.0423, 29.422, 31.6554, -15.2114, -83.8261, -0.97646
4.71967, 6, -14.3398, 29.6962, 31.4673, -15.5117, -84.2607, -1.03791
4.72774, 6, -14.6344, 29.9713, 31.2738, -15.8109, -84.6925, -1.1007
4.73568, 6, -14.9267, 30.2489, 31.075, -16.1086, -85.1211, -1.16347
4.74375, 6, -15.2158, 30.5274, 30.8725, -16.4053, -85.5466, -1.22739
4.75175, 6, -15.5014, 30.8055, 30.6659, -16.7003, -85.9689, -1.29207
4.75971, 6, -15.783, 31.0822, 30.4549, -16.9929, -86.3867, -1.35605
4.76776, 6, -16.0596, 31.3559, 30.2419, -17.2822, -86.7985, -1.42072
4.77583, 6, -16.3308, 31.6264, 30.028, -17.5665, -87.2026, -1.48517
4.78382, 6, -16.5953, 31.8915, 29.8141, -17.8438, -87.5959, -1.54799
4.79177, 6, -16.8504, 32.1472, 29.6034, -18.1119, -87.9756, -1.61001
4.79985, 6, -17.0933, 32.3926, 29.3981, -18.3684, -88.3375, -1.66958
4.80773, 6, -17.3219, 32.6259, 29.1996, -18.61, -88.678, -1.72554
4.81595, 6, -17.5344, 32.8441, 29.0117, -18.8345, -88.9938, -1.77859
4.82395, 6, -17.7292, 33.0458, 28.8373, -19.0395, -89.2815, -1.82794
4.83172, 6, -17.9054, 33.2303, 28.6774, -19.2232, -89.5392, -1.87222
4.83992, 6, -18.0631, 33.3958, 28.5338, -19.3842, -89.765, -1.91074
4.84788, 6, -18.2021, 33.5412, 28.4079, -19.5221, -89.9584, -1.94406
4.85591, 6, -18.3221, 33.6666, 28.3004, -19.6373, -90.1199, -1.97239
4.8644, 6, -18.4235, 33.772, 28.2109, -19.7307, -90.251, -1.99571
4.87208, 6, -18.5073, 33.8585, 28.1387, -19.8036, -90.3544, -2.01439
4.87872, 6, -18.5434, 33.8953, 28.1085, -19.8338, -90.3963, -2.02198
4.88825, 6, -18.6307, 33.9833, 28.0386, -19.8996, -90.4896, -2.03871
4.89631, 6, -18.6731, 34.0255, 28.007, -19.9272, -90.5285, -2.04576
4.90425, 6, -18.7044, 34.0564, 27.9849, -19.9454, -90.554, -2.0502
4.91301, 6, -18.7277, 34.0788, 27.9698, -19.9564, -90.5695, -2.05285
4.92026, 6, -18.7448, 34.0947, 27.96, -19.9626, -90.5781, -2.05436
4.92825, 6, -18.7513, 34.1007, 27.9566, -19.9658, -90.5826, -2.05518
4.93685, 7, -18.7637, 34.1131, 27.9503, -19.9674, -90.5847, -2.05559
4.94443, 7, -18.7661, 34.1156, 27.9491, -19.9678, -90.5857, -2.05572
4.95167, 7, -18.7692, 34.119, 27.9472, -19.9683, -90.586, -2.05577
4.95965, 7, -18.7707, 34.1214, 27.946, -19.9686, -90.5863, -2.05584
4.9677, 7, -18.7714, 34.1232, 27.9451, -19.9687, -90.5865, -2.05585
4.97568, 7, -18.7718, 34.1247, 27.9444, -19.9688, -90.5865, -2.05592
4.98371, 7, -18.7721, 34.1261, 27.944, -19.9688, -90.5865, -2.05591
4.9917, 7, -18.7724, 34.1273, 27.9437, -19.9688, -90.5866, -2.05591
4.99972, 7, -18.7726, 34.1283, 27.9435, -19.9688, -90.5866, -2.0559
5.00771, 7, -18.7729, 34.1292, 27.9433, -19.9688, -90.5866, -2.05592
5.0157, 7, -18.7731, 34.1299, 27.9431, -19.9688, -90.5866, -2.05589
5.02372, 7, -18.7734, 34.1305, 27.943, -19.9688, -90.5866, -2.05592
5.03168, 7, -18.7738, 34.131, 27.9429, -19.9688, -90.5866, -2.05589
5.03966, 7, -18.7742, 34.1314, 27.9428, -19.9688, -90.5866, -2.05586
5.04665, 7, -18.7745, 34.1316, 27.9427, -19.9688, -90.5866, -2.05585
5.05566, 7, -18.7748, 34.1318, 27.9425, -19.9688, -90.5866, -2.05589
