hehonglu123/ABB_Primitive_Study/realrobot/movel_30_ori/curve_exe_v300_z10.csv
timestamp, cmd_num, J1, J2, J3, J4, J5, J6
0.000479, -1, -18.7715, 34.1325, 27.9418, -19.968, -90.5852, -2.05554
0.002321, -1, -18.7715, 34.1325, 27.9418, -19.968, -90.5852, -2.05554
0.00844, -1, -18.7715, 34.1325, 27.9418, -19.968, -90.5852, -2.05553
0.0332, -1, -18.7715, 34.1325, 27.9418, -19.9681, -90.5853, -2.05557
0.03443, -1, -18.7715, 34.1325, 27.9418, -19.9681, -90.5853, -2.05557
0.036677, -1, -18.7715, 34.1325, 27.9418, -19.9681, -90.5853, -2.05558
0.04043, -1, -18.7715, 34.1325, 27.9418, -19.968, -90.5853, -2.05556
0.047126, -1, -18.7714, 34.1325, 27.9418, -19.968, -90.5853, -2.05555
0.056537, -1, -18.7701, 34.1322, 27.9419, -19.968, -90.5853, -2.05556
0.06312, -1, -18.7687, 34.1317, 27.9419, -19.968, -90.5852, -2.05553
0.072623, -1, -18.7595, 34.1278, 27.9422, -19.9671, -90.584, -2.05566
0.080725, -1, -18.7484, 34.1224, 27.9424, -19.9633, -90.58, -2.05604
0.089472, -1, -18.7316, 34.1138, 27.9425, -19.9529, -90.5697, -2.05886
0.095196, -1, -18.7201, 34.1079, 27.9425, -19.9444, -90.561, -2.06231
0.104816, -1, -18.671, 34.0827, 27.9417, -19.8988, -90.5138, -2.08306
0.113509, -1, -18.6492, 34.0717, 27.9408, -19.8445, -90.457, -2.10816
0.119195, -1, -18.5962, 34.0448, 27.9376, -19.8085, -90.4196, -2.12482
0.128175, -1, -18.5297, 34.0111, 27.932, -19.7166, -90.323, -2.16848
0.136194, -1, -18.4492, 33.9703, 27.9234, -19.5944, -90.1947, -2.22717
0.143193, -1, -18.3547, 33.9228, 27.9111, -19.4408, -90.0325, -2.29999
0.151145, -1, -18.2467, 33.8685, 27.8955, -19.2556, -89.8368, -2.38901
0.159122, -1, -18.1248, 33.8074, 27.877, -19.0412, -89.6102, -2.49093
0.167245, -1, -17.9896, 33.7397, 27.8557, -18.802, -89.3564, -2.60534
0.175121, -1, -17.8424, 33.6661, 27.8327, -18.5429, -89.0811, -2.72926
0.183243, -1, -17.6846, 33.5872, 27.8086, -18.2691, -88.7899, -2.8602
0.19113, -1, -17.5173, 33.5035, 27.784, -17.9851, -88.4882, -2.9962
0.199131, -1, -17.3421, 33.4159, 27.7591, -17.6952, -88.1797, -3.13531
0.207201, -1, -17.1612, 33.3256, 27.7339, -17.4012, -87.8673, -3.27656
0.215122, -1, -16.9765, 33.2334, 27.7088, -17.1051, -87.5523, -3.4188
0.22313, -1, -16.7893, 33.1403, 27.6837, -16.8078, -87.2359, -3.56146
0.231208, -1, -16.6004, 33.0467, 27.6587, -16.5093, -86.9183, -3.70443
0.23912, -1, -16.4105, 32.953, 27.6335, -16.2101, -86.5997, -3.8476
0.247129, -1, -16.2205, 32.8591, 27.6084, -15.9101, -86.2804, -3.99111
0.255197, -1, -16.0305, 32.7654, 27.5834, -15.6091, -85.9605, -4.13497
0.263116, -1, -15.8409, 32.6717, 27.5584, -15.3079, -85.6401, -4.27891
0.271147, -1, -15.6521, 32.5781, 27.5332, -15.0064, -85.3191, -4.42346
0.279201, -1, -15.4634, 32.4843, 27.5079, -14.7042, -84.9978, -4.56815
0.287126, -1, -15.2753, 32.3902, 27.4827, -14.4018, -84.676, -4.71278
0.295259, -1, -15.0875, 32.2959, 27.4574, -14.0991, -84.3538, -4.85765
0.303119, -1, -14.8998, 32.2012, 27.4321, -13.7958, -84.0315, -5.00259
0.311125, -1, -14.7116, 32.1062, 27.4066, -13.4924, -83.7088, -5.14759
0.320355, -1, -14.5223, 32.0109, 27.381, -13.189, -83.3858, -5.29288
0.327227, -1, -14.332, 31.9155, 27.3554, -12.8853, -83.0626, -5.43834
0.335319, -1, -14.1406, 31.82, 27.3298, -12.5816, -82.739, -5.58403
0.343228, -1, -13.9486, 31.7243, 27.3042, -12.2775, -82.4153, -5.72976
0.352131, -1, -13.7561, 31.6288, 27.2785, -11.973, -82.0914, -5.87534
0.3593, -1, -13.563, 31.5333, 27.2529, -11.6688, -81.7673, -6.02097
0.367245, -1, -13.3692, 31.4379, 27.2272, -11.3644, -81.4434, -6.16636
0.376176, -1, -13.1755, 31.3426, 27.2017, -11.06, -81.1193, -6.31207
0.383226, -1, -12.9824, 31.2474, 27.176, -10.7556, -80.7953, -6.45781
0.39116, -1, -12.79, 31.1523, 27.1505, -10.4511, -80.4717, -6.60351
0.400149, -1, -12.598, 31.0573, 27.125, -10.1468, -80.1484, -6.74944
0.407322, -1, -12.4071, 30.9622, 27.0995, -9.84266, -79.8248, -6.89521
0.41533, -1, -12.2169, 30.867, 27.0738, -9.53854, -79.5014, -7.04067
0.423857, -1, -12.0276, 30.7717, 27.0481, -9.23471, -79.1779, -7.18617
0.432257, -1, -11.8388, 30.6764, 27.0226, -8.93106, -78.8545, -7.33158
0.439496, -1, -11.65, 30.5811, 26.9971, -8.62757, -78.5313, -7.47684
0.44769, -1, -11.4609, 30.4859, 26.9716, -8.32443, -78.2086, -7.62202
0.456587, -1, -11.2714, 30.3909, 26.9459, -8.02188, -77.8867, -7.76726
0.463654, -1, -11.0816, 30.296, 26.9205, -7.71966, -77.565, -7.91207
0.472231, -1, -10.8916, 30.2014, 26.8951, -7.41814, -77.244, -8.05644
0.480516, -1, -10.701, 30.1071, 26.8698, -7.11691, -76.9236, -8.20046
0.487829, -1, -10.6057, 30.06, 26.8444, -6.81591, -76.6035, -8.34427
0.496281, -1, -10.3194, 29.9189, 26.8192, -6.51579, -76.2839, -8.48785
0.503134, -1, -10.2241, 29.8719, 26.8066, -6.366, -76.1243, -8.55943
0.511107, -1, -10.034, 29.7782, 26.7814, -6.06647, -75.8053, -8.70258
0.520517, -1, -9.75013, 29.638, 26.7438, -5.61859, -75.3284, -8.91736
0.527123, -1, -9.65598, 29.5913, 26.7312, -5.46948, -75.1698, -8.98873
0.535107, -1, -9.46826, 29.4981, 26.7061, -5.17158, -74.8531, -9.131
0.545155, -1, -9.18869, 29.3584, 26.6687, -4.72662, -74.3797, -9.34385
0.551103, -1, -9.09602, 29.312, 26.6562, -4.5786, -74.2222, -9.41459
0.560467, -1, -8.81912, 29.1728, 26.6188, -4.13576, -73.7509, -9.62651
0.567117, -1, -8.72719, 29.1264, 26.6064, -3.98866, -73.5943, -9.697
0.575102, -1, -8.54362, 29.0341, 26.5817, -3.69487, -73.2815, -9.83748
0.58318, -1, -8.36025, 28.9421, 26.557, -3.40173, -72.9697, -9.97793
0.592712, -1, -8.08563, 28.8046, 26.52, -2.96416, -72.504, -10.1875
0.601504, -1, -7.90249, 28.7134, 26.4955, -2.67338, -72.1944, -10.3267
0.607185, -1, -7.8109, 28.668, 26.4833, -2.52837, -72.04, -10.396
0.617285, -1, -7.53663, 28.5321, 26.4469, -2.09492, -71.5782, -10.6032
0.623113, -1, -7.44532, 28.4869, 26.4348, -1.95071, -71.4247, -10.6721
0.632109, -1, -7.26295, 28.3968, 26.4106, -1.66304, -71.1186, -10.8097
0.640221, -1, -7.08117, 28.3071, 26.3865, -1.37656, -70.8137, -10.9467
0.648124, -1, -6.9001, 28.2176, 26.3625, -1.09105, -70.5097, -11.0835
0.655177, -1, -6.72013, 28.1285, 26.3387, -0.806612, -70.2069, -11.2197
0.663111, -1, -6.54114, 28.0396, 26.3149, -0.523326, -69.9056, -11.3553
0.671138, -1, -6.36329, 27.951, 26.291, -0.24096, -69.6054, -11.4905
0.679211, -1, -6.18678, 27.8626, 26.2673, 0.0405576, -69.306, -11.6251
0.687164, -1, -6.01115, 27.7747, 26.2437, 0.320941, -69.0077, -11.7593
0.695133, -1, -5.83652, 27.6869, 26.2203, 0.60002, -68.7105, -11.893
0.703098, -1, -5.66275, 27.5995, 26.1969, 0.878165, -68.4143, -12.0261
0.712111, -1, -5.48945, 27.5125, 26.1734, 1.15518, -68.1191, -12.1589
0.720176, -1, -5.31653, 27.426, 26.1502, 1.43092, -67.8253, -12.2911
0.728107, -1, -5.14386, 27.3398, 26.127, 1.70582, -67.5329, -12.4226
0.738605, -1, -4.8854, 27.2112, 26.0927, 2.1159, -67.0964, -12.6187
0.743109, -1, -4.79939, 27.1685, 26.0812, 2.25189, -66.9516, -12.6837
0.751097, -1, -4.62788, 27.0835, 26.0583, 2.52323, -66.6632, -12.8134
0.760113, -1, -4.45681, 26.9988, 26.0356, 2.79312, -66.3758, -12.9426
0.768174, -1, -4.28604, 26.9144, 26.0129, 3.0618, -66.0897, -13.0712
0.775105, -1, -4.11591, 26.8304, 25.9904, 3.32961, -65.8047, -13.1991
0.783179, -1, -3.94677, 26.7468, 25.968, 3.59625, -65.521, -13.3271
0.791102, -1, -3.77883, 26.6635, 25.9456, 3.86155, -65.2384, -13.4542
0.799136, -1, -3.61216, 26.5805, 25.9234, 4.12585, -64.9569, -13.5804
0.807158, -1, -3.44655, 26.4978, 25.9012, 4.38885, -64.677, -13.7062
0.815116, -1, -3.28197, 26.4155, 25.8791, 4.6506, -64.3982, -13.8313
0.823211, -1, -3.11848, 26.3335, 25.8571, 4.91135, -64.1208, -13.9558
0.831202, -1, -2.95614, 26.2519, 25.8352, 5.17117, -63.8446, -14.08
0.83924, -1, -2.79471, 26.1706, 25.8135, 5.42966, -63.5695, -14.2036
0.847341, -1, -2.634, 26.0897, 25.7919, 5.68682, -63.2959, -14.3265
0.855262, -1, -2.4737, 26.0094, 25.7705, 5.94279, -63.0234, -14.4493
0.863235, -1, -2.31356, 25.9294, 25.749, 6.19751, -62.7522, -14.5713
0.871294, -1, -2.15384, 25.8498, 25.7276, 6.45092, -62.4824, -14.6925
0.879105, -1, -1.99454, 25.7706, 25.7063, 6.70341, -62.2136, -14.8134
0.887141, -1, -1.83568, 25.6919, 25.6852, 6.95489, -61.946, -14.9334
0.895204, -1, -1.67746, 25.6134, 25.6643, 7.20504, -61.6795, -15.0528
0.903211, -1, -1.51952, 25.5353, 25.6434, 7.45387, -61.4142, -15.172
0.911377, -1, -1.36197, 25.4575, 25.6225, 7.70181, -61.1501, -15.2906
0.919306, -1, -1.20509, 25.3801, 25.6019, 7.94859, -60.887, -15.4086
0.92755, -1, -1.0491, 25.303, 25.5813, 8.19417, -60.6254, -15.5264
0.93547, -1, -0.894212, 25.2262, 25.5608, 8.43888, -60.365, -15.6435
0.943484, -1, -0.740596, 25.1497, 25.5404, 8.6826, -60.1058, -15.76
0.951656, -1, -0.588058, 25.0735, 25.5199, 8.92487, -59.8479, -15.8762
0.960297, -1, -0.43654, 24.9978, 25.4996, 9.16615, -59.5912, -15.9915
0.967638, -1, -0.286105, 24.9223, 25.4795, 9.40637, -59.3361, -16.1067
0.976201, -1, -0.136819, 24.8473, 25.4594, 9.64541, -59.082, -16.2212
0.9837, -1, 0.0115831, 24.7726, 25.4396, 9.88315, -58.8288, -16.3353
0.992691, -1, 0.159206, 24.6982, 25.4197, 10.12, -58.5767, -16.449
1.00029, -1, 0.306449, 24.6242, 25.3997, 10.3561, -58.3257, -16.562
1.00714, -1, 0.380031, 24.5873, 25.3898, 10.4735, -58.2005, -16.6185
1.01689, -1, 0.60069, 24.4772, 25.3604, 10.8243, -57.8264, -16.7868
1.02422, -1, 0.747473, 24.4042, 25.3408, 11.0568, -57.5784, -16.8981
1.0311, -1, 0.82079, 24.3678, 25.3312, 11.1728, -57.4548, -16.9537
1.04101, -1, 1.03987, 24.259, 25.3021, 11.5187, -57.086, -17.1192
1.04842, -1, 1.1852, 24.187, 25.2827, 11.7482, -56.8417, -17.2291
1.05509, -1, 1.2577, 24.1511, 25.2731, 11.8626, -56.72, -17.2837
1.06525, -1, 1.47465, 24.0438, 25.2444, 12.2044, -56.3567, -17.4469
1.07109, -1, 1.5467, 24.0083, 25.2349, 12.3177, -56.2363, -17.501
1.08057, -1, 1.76175, 23.9021, 25.2065, 12.656, -55.8762, -17.6631
1.08935, -1, 1.90386, 23.8316, 25.1877, 12.8805, -55.6376, -17.7707
1.09509, -1, 1.97447, 23.7965, 25.1783, 12.9924, -55.5187, -17.8243
1.10465, -1, 2.18504, 23.6918, 25.1503, 13.326, -55.1633, -17.9841
1.11349, -1, 2.32423, 23.6223, 25.1316, 13.5474, -54.9275, -18.09
1.1191, -1, 2.39346, 23.5877, 25.1223, 13.6578, -54.8101, -18.1429
1.1287, -1, 2.53126, 23.5186, 25.104, 13.8779, -54.5757, -18.3004
1.13615, -1, 2.6681, 23.4498, 25.0856, 14.0969, -54.3421, -18.3526
1.1431, -1, 2.80394, 23.3814, 25.0673, 14.3149, -54.1099, -18.4568
1.1521, -1, 2.9391, 23.3132, 25.0491, 14.532, -53.8788, -18.5607
1.16014, -1, 3.07388, 23.2453, 25.0309, 14.7483, -53.6486, -18.6643
1.16712, -1, 3.20875, 23.1776, 25.0127, 14.9635, -53.4194, -18.7672
1.1752, -1, 3.3436, 23.1102, 24.9948, 15.1778, -53.1913, -18.8702
1.18308, -1, 3.47821, 23.0433, 24.9769, 15.3913, -52.964, -18.9725
1.19116, -1, 3.61252, 22.9765, 24.959, 15.6043, -52.7379, -19.0743
1.19918, -1, 3.74655, 22.9101, 24.9413, 15.8159, -52.5124, -19.1753
1.20709, -1, 3.8801, 22.8439, 24.9236, 16.0267, -52.2882, -19.2763
1.21511, -1, 4.01327, 22.7781, 24.9058, 16.2367, -52.0648, -19.3765
1.22409, -1, 4.14603, 22.7125, 24.8884, 16.4457, -51.8422, -19.4765
1.23216, -1, 4.27833, 22.6472, 24.871, 16.6538, -51.6205, -19.5759
1.23909, -1, 4.41002, 22.5821, 24.8535, 16.861, -51.3995, -19.6751
1.2481, -1, 4.54092, 22.5173, 24.8362, 17.0676, -51.1797, -19.774
1.25616, -1, 4.67119, 22.4526, 24.819, 17.2735, -50.9606, -19.8723
1.2641, -1, 4.8007, 22.3882, 24.8017, 17.4784, -50.7422, -19.9706
1.27116, -1, 4.92946, 22.3239, 24.7846, 17.6825, -50.5249, -20.0683
1.27908, -1, 5.05741, 22.26, 24.7677, 17.8856, -50.3085, -20.1658
1.28713, -1, 5.18454, 22.1963, 24.7506, 18.0883, -50.0927, -20.2624
1.29512, -1, 5.31088, 22.1329, 24.7336, 18.29, -49.878, -20.3592
1.30308, -1, 5.43633, 22.0697, 24.7167, 18.491, -49.664, -20.4551
1.31112, -1, 5.56096, 22.0068, 24.6999, 18.6912, -49.4509, -20.5509
1.31914, -1, 5.68508, 21.9442, 24.683, 18.8907, -49.2389, -20.6461
1.32716, -1, 5.8089, 21.8819, 24.6664, 19.0896, -49.0275, -20.7413
1.33553, -1, 5.93262, 21.8199, 24.6499, 19.2874, -48.8173, -20.8357
1.34322, -1, 6.05633, 21.7579, 24.6333, 19.4845, -48.6078, -20.9304
1.3512, -1, 6.17992, 21.6963, 24.6168, 19.6809, -48.399, -21.0243
1.36004, -1, 6.30335, 21.6348, 24.6004, 19.8765, -48.1906, -21.1183
1.36823, -1, 6.42656, 21.5736, 24.5839, 20.0714, -47.9832, -21.2116
1.37508, -1, 6.5496, 21.5125, 24.5675, 20.2653, -47.7766, -21.3048
1.38395, -1, 6.67214, 21.4518, 24.5514, 20.4587, -47.5705, -21.3971
1.39216, -1, 6.79449, 21.3912, 24.5352, 20.6517, -47.3651, -21.4897
1.39911, -1, 6.91637, 21.3309, 24.519, 20.8437, -47.1604, -21.5812
1.40851, -1, 7.03766, 21.271, 24.5029, 21.0349, -46.9565, -21.6729
1.41529, -1, 7.15835, 21.2113, 24.4868, 21.2255, -46.7535, -21.7637
1.42335, -1, 7.27848, 21.1517, 24.4709, 21.4154, -46.5511, -21.8549
1.43139, -1, 7.39795, 21.0925, 24.455, 21.6048, -46.3497, -21.945
1.43958, -1, 7.51684, 21.0335, 24.4394, 21.7933, -46.1489, -22.0355
1.44754, -1, 7.63531, 20.9745, 24.4237, 21.9812, -45.9489, -22.1252
1.45561, -1, 7.75329, 20.9158, 24.4079, 22.1684, -45.7498, -22.2151
1.46366, -1, 7.87074, 20.8572, 24.3922, 22.3551, -45.5512, -22.3043
1.47221, -1, 7.98764, 20.7988, 24.3766, 22.5414, -45.3537, -22.3935
1.47966, -1, 8.10389, 20.7405, 24.3609, 22.7266, -45.1569, -22.4816
1.48795, -1, 8.16182, 20.6824, 24.3454, 22.9112, -44.9607, -22.5702
1.49573, -1, 8.27735, 20.6534, 24.3301, 23.0952, -44.7649, -22.6578
1.50497, -1, 8.45, 20.5668, 24.3148, 23.2787, -44.5697, -22.7455
1.51215, -1, 8.56458, 20.5095, 24.2993, 23.4613, -44.3749, -22.8326
1.51912, -1, 8.62172, 20.4808, 24.2916, 23.5524, -44.278, -22.8759
1.52905, -1, 8.79222, 20.3953, 24.2688, 23.8247, -43.9877, -23.0064
1.53644, -1, 8.90563, 20.3386, 24.2536, 24.0057, -43.7947, -23.0929
1.54313, -1, 8.96227, 20.3103, 24.246, 24.096, -43.6986, -23.1363
1.55401, -1, 9.13195, 20.2257, 24.2235, 24.3659, -43.4114, -23.2653
1.56041, -1, 9.24501, 20.1695, 24.2086, 24.545, -43.2207, -23.3514
1.56707, -1, 9.30153, 20.1414, 24.201, 24.6342, -43.1256, -23.3941
1.57656, -1, 9.47066, 20.0575, 24.1784, 24.9014, -42.8412, -23.5224
1.58312, -1, 9.52681, 20.0296, 24.1709, 24.9902, -42.7467, -23.5647
1.59265, -1, 9.69462, 19.9461, 24.1487, 25.2556, -42.4641, -23.6919
1.60065, -1, 9.80609, 19.8906, 24.1338, 25.4319, -42.2765, -23.7759
1.60713, -1, 9.86167, 19.863, 24.1264, 25.5198, -42.1828, -23.8179
1.61672, -1, 10.028, 19.7804, 24.1046, 25.7829, -41.9031, -23.9434
1.62472, -1, 10.0833, 19.753, 24.09, 25.9578, -41.7173, -24.027
1.63109, -1, 10.1935, 19.6983, 24.0826, 26.045, -41.6246, -24.0688
1.64111, -1, 10.3581, 19.6165, 24.0606, 26.3055, -41.3472, -24.1931
1.64707, -1, 10.4127, 19.5894, 24.0534, 26.3921, -41.255, -24.2348
1.65613, -1, 10.5214, 19.5353, 24.0389, 26.5649, -41.0712, -24.3172
1.66413, -1, 10.6299, 19.4812, 24.0244, 26.7373, -40.8876, -24.3999
1.67208, -1, 10.738, 19.4274, 24.01, 26.9089, -40.7049, -24.4823
1.68022, -1, 10.8457, 19.3737, 23.9958, 27.0801, -40.5224, -24.5642
1.68707, -1, 10.9529, 19.32, 23.9816, 27.2507, -40.3406, -24.6465
1.69611, -1, 11.0598, 19.2665, 23.9672, 27.4209, -40.1594, -24.7274
1.70413, -1, 11.1663, 19.2133, 23.9528, 27.5908, -39.9786, -24.8091
1.71207, -1, 11.2725, 19.1601, 23.9387, 27.7601, -39.7986, -24.8898
1.72008, -1, 11.3783, 19.107, 23.9245, 27.9287, -39.619, -24.9707
1.72983, -1, 11.5361, 19.028, 23.9032, 28.1806, -39.3506, -25.091
1.73607, -1, 11.5886, 19.0017, 23.8963, 28.2643, -39.2614, -25.1313
1.74408, -1, 11.6936, 18.9492, 23.8824, 28.4317, -39.0832, -25.2115
1.75306, -1, 11.7983, 18.897, 23.8684, 28.5985, -38.9058, -25.2912
1.76007, -1, 11.9029, 18.8449, 23.8544, 28.7648, -38.7288, -25.3712
1.76714, -1, 12.0073, 18.7929, 23.8404, 28.9305, -38.5521, -25.4505
1.77507, -1, 12.1115, 18.741, 23.8265, 29.0958, -38.3763, -25.5303
1.78409, -1, 12.2156, 18.6893, 23.8127, 29.2609, -38.201, -25.6091
1.79107, -1, 12.3195, 18.6377, 23.7988, 29.4256, -38.0262, -25.6882
1.79908, -1, 12.423, 18.5862, 23.7851, 29.5896, -37.852, -25.767
1.80809, -1, 12.5264, 18.5347, 23.7716, 29.7531, -37.6781, -25.8449
1.81613, -1, 12.6295, 18.4835, 23.7579, 29.9162, -37.5046, -25.9235
1.82309, -1, 12.7323, 18.4324, 23.7441, 30.0789, -37.3313, -26.0008
1.83208, -1, 12.8348, 18.3815, 23.7304, 30.2412, -37.1587, -26.0788
1.84014, -1, 12.9368, 18.3308, 23.7168, 30.4029, -36.9865, -26.1558
1.84717, -1, 13.0385, 18.2802, 23.7032, 30.5642, -36.8145, -26.2327
1.85552, -1, 13.1398, 18.2298, 23.6897, 30.7249, -36.6432, -26.3099
1.8632, -1, 13.2408, 18.1796, 23.6762, 30.8854, -36.4721, -26.3862
1.87121, -1, 13.3414, 18.1295, 23.663, 31.0456, -36.3018, -26.4632
1.87977, -1, 13.4418, 18.0795, 23.6497, 31.2052, -36.1318, -26.5393
1.88813, -1, 13.5419, 18.0295, 23.6363, 31.3645, -35.9622, -26.6154
1.8951, -1, 13.6419, 17.9796, 23.6229, 31.5231, -35.7932, -26.6918
1.90394, -1, 13.7415, 17.9299, 23.6096, 31.6813, -35.6245, -26.7673
1.91217, -1, 13.8411, 17.8802, 23.5963, 31.8394, -35.4565, -26.8433
1.91926, -1, 13.9404, 17.8305, 23.583, 31.997, -35.2889, -26.9183
1.92815, -1, 14.0396, 17.7811, 23.5697, 32.1542, -35.1215, -26.9937
1.93538, -1, 14.1386, 17.7318, 23.5567, 32.3109, -34.9548, -27.0686
1.94347, -1, 14.2372, 17.6826, 23.5436, 32.4672, -34.7886, -27.1431
1.9523, -1, 14.3354, 17.6336, 23.5305, 32.6233, -34.6227, -27.218
1.95955, -1, 14.4332, 17.5849, 23.5173, 32.7791, -34.4574, -27.2918
1.96771, -1, 14.5307, 17.5362, 23.5042, 32.9345, -34.2922, -27.3662
1.97652, -1, 14.6278, 17.4877, 23.4913, 33.0893, -34.1273, -27.4404
1.98362, -1, 14.7246, 17.4394, 23.4784, 33.2438, -33.9628, -27.514
1.99219, -1, 14.8211, 17.3912, 23.4654, 33.3979, -33.7987, -27.5881
2.00039, -1, 14.8693, 17.3671, 23.4589, 33.4748, -33.6351, -27.6615
2.00706, -1, 14.9656, 17.3188, 23.4462, 33.6284, -33.5533, -27.6983
2.01609, -1, 15.1098, 17.2467, 23.427, 33.858, -33.3085, -27.8087
2.02305, -1, 15.1578, 17.2227, 23.4206, 33.9344, -33.2272, -27.8451
2.03107, -1, 15.2536, 17.1747, 23.4077, 34.0866, -33.0649, -27.9184
2.04095, -1, 15.3974, 17.1029, 23.3885, 34.3146, -32.8223, -28.0274
2.0483, -1, 15.4931, 17.0552, 23.3756, 34.4663, -32.661, -28.1
2.05517, -1, 15.541, 17.0314, 23.3692, 34.542, -32.5805, -28.1364
2.06517, -1, 15.6843, 16.9604, 23.3501, 34.7683, -32.3396, -28.2443
2.07105, -1, 15.732, 16.9367, 23.3438, 34.8436, -32.2595, -28.2806
2.08056, -1, 15.8745, 16.8661, 23.3251, 35.0688, -32.0196, -28.388
2.0893, -1, 15.9692, 16.8193, 23.3126, 35.2185, -31.8603, -28.4594
2.09507, -1, 16.0165, 16.7959, 23.3063, 35.2934, -31.7807, -28.4955
2.1046, -1, 16.1577, 16.7259, 23.2874, 35.5174, -31.5424, -28.6022
2.11321, -1, 16.2514, 16.6793, 23.2749, 35.6661, -31.3843, -28.6738
2.11906, -1, 16.2982, 16.656, 23.2687, 35.7404, -31.3052, -28.7094
2.12857, -1, 16.3915, 16.6096, 23.2563, 35.8886, -31.1473, -28.78
2.13608, -1, 16.4845, 16.563, 23.2438, 36.0366, -30.9898, -28.8513
2.14412, -1, 16.5773, 16.5165, 23.2314, 36.1845, -30.8326, -28.9221
2.15206, -1, 16.6698, 16.4702, 23.2191, 36.332, -30.6756, -28.9923
2.16007, -1, 16.7622, 16.4239, 23.2067, 36.4791, -30.5191, -29.0633
2.16811, -1, 16.8545, 16.3776, 23.1943, 36.6258, -30.3628, -29.1331
2.17606, -1, 16.9467, 16.3316, 23.1819, 36.7721, -30.2073, -29.2031
2.18406, -1, 17.0386, 16.2857, 23.1697, 36.9182, -30.0515, -29.2732
2.19105, -1, 17.1303, 16.24, 23.1574, 37.064, -29.8963, -29.3424
2.19907, -1, 17.2205, 16.1949, 23.145, 37.2094, -29.7413, -29.4123
2.20713, -1, 17.3073, 16.1514, 23.1325, 37.3541, -29.5874, -29.4812
2.21506, -1, 17.3892, 16.1104, 23.1199, 37.4964, -29.4356, -29.549
2.22305, -1, 17.4657, 16.0723, 23.1075, 37.6343, -29.2885, -29.6156
2.23206, -1, 17.5366, 16.0374, 23.0954, 37.7642, -29.1498, -29.6777
2.24012, -1, 17.6005, 16.0063, 23.0842, 37.8827, -29.0234, -29.7346
2.24809, -1, 17.6569, 15.9789, 23.0743, 37.986, -28.9126, -29.7848
2.25606, -1, 17.7069, 15.9542, 23.0666, 38.0705, -28.8218, -29.8258
2.26414, -1, 17.7509, 15.9315, 23.0614, 38.1365, -28.7507, -29.8578
2.27205, -1, 17.7887, 15.9119, 23.0582, 38.1831, -28.6999, -29.8805
2.28006, -1, 17.8195, 15.8961, 23.0564, 38.2143, -28.6656, -29.8957
2.28808, -1, 17.844, 15.8841, 23.0557, 38.2339, -28.6443, -29.9049
2.29605, -1, 17.8627, 15.8754, 23.0553, 38.245, -28.6319, -29.9101
2.30408, -1, 17.8748, 15.8698, 23.0552, 38.2507, -28.6257, -29.9127
2.31211, 2, 17.8813, 15.8669, 23.0551, 38.2535, -28.6226, -29.9141
2.32006, 2, 17.8842, 15.8654, 23.055, 38.2548, -28.6212, -29.9147
2.32717, 2, 17.8852, 15.8648, 23.055, 38.2554, -28.6205, -29.9149
2.33513, 2, 17.8849, 15.8645, 23.055, 38.2557, -28.6201, -29.915
2.34314, 2, 17.8842, 15.8643, 23.055, 38.2558, -28.6201, -29.9151
2.35122, 2, 17.8835, 15.8643, 23.0551, 38.2559, -28.62, -29.9152
2.35915, 2, 17.8831, 15.8643, 23.055, 38.2559, -28.62, -29.9151
2.36719, 2, 17.8829, 15.8642, 23.055, 38.2559, -28.62, -29.9151
2.37526, 2, 17.8829, 15.864, 23.055, 38.2559, -28.62, -29.9152
2.38305, 2, 17.883, 15.8638, 23.055, 38.2559, -28.62, -29.9152
2.39107, 2, 17.8832, 15.8634, 23.055, 38.2559, -28.62, -29.9152
2.39915, 2, 17.8837, 15.8631, 23.055, 38.2559, -28.62, -29.9152
2.40727, 2, 17.8841, 15.8628, 23.055, 38.256, -28.62, -29.9152
2.41514, 2, 17.8848, 15.8626, 23.055, 38.256, -28.6201, -29.9152
2.42363, 2, 17.8857, 15.8626, 23.055, 38.2559, -28.6201, -29.9152
2.43135, 2, 17.8864, 15.8625, 23.055, 38.256, -28.62, -29.9151
2.44007, 2, 17.887, 15.8626, 23.055, 38.256, -28.62, -29.9151
2.4478, 2, 17.8873, 15.8626, 23.055, 38.256, -28.62, -29.9152
2.45615, 2, 17.8875, 15.8626, 23.055, 38.256, -28.6201, -29.9151
2.46355, 2, 17.8876, 15.8626, 23.055, 38.2559, -28.6201, -29.9151
2.47206, 2, 17.8877, 15.8626, 23.055, 38.2559, -28.6201, -29.9152
2.48024, 2, 17.8877, 15.8626, 23.055, 38.2559, -28.6201, -29.9152
2.48758, 2, 17.8877, 15.8625, 23.055, 38.2559, -28.6201, -29.9152
2.49619, 2, 17.8877, 15.8625, 23.055, 38.2559, -28.6202, -29.9152
2.50389, 2, 17.8877, 15.8625, 23.055, 38.2559, -28.6202, -29.9152
2.51206, 2, 17.8873, 15.8623, 23.055, 38.2559, -28.6201, -29.9152
2.51994, 2, 17.8872, 15.8623, 23.055, 38.256, -28.6202, -29.9152
2.52816, 2, 17.887, 15.8622, 23.055, 38.2559, -28.6202, -29.9151
2.53507, 2, 17.887, 15.8622, 23.055, 38.2559, -28.6202, -29.9152
2.54445, 2, 17.887, 15.8622, 23.055, 38.2559, -28.6203, -29.9152
2.55103, 2, 17.887, 15.8622, 23.055, 38.2559, -28.6203, -29.9152
2.56041, 2, 17.887, 15.8623, 23.055, 38.2559, -28.6203, -29.9152
2.5671, 2, 17.887, 15.8623, 23.055, 38.2559, -28.6203, -29.9152
2.57654, 2, 17.887, 15.8623, 23.055, 38.2559, -28.6203, -29.9152
2.58454, 2, 17.887, 15.8623, 23.055, 38.2559, -28.6204, -29.9152
2.59288, 2, 17.887, 15.8623, 23.055, 38.2559, -28.6204, -29.9151
2.60089, 2, 17.887, 15.8623, 23.055, 38.2559, -28.6204, -29.9151
2.60859, 2, 17.887, 15.8623, 23.055, 38.2559, -28.6205, -29.9151
2.61682, 2, 17.887, 15.8623, 23.055, 38.2559, -28.6205, -29.9151
2.62479, 2, 17.887, 15.8622, 23.055, 38.2559, -28.6205, -29.9152
2.63259, 2, 17.887, 15.8622, 23.055, 38.2559, -28.6205, -29.9151
2.64107, 2, 17.8869, 15.8623, 23.055, 38.2559, -28.6205, -29.9151
2.64706, 2, 17.8869, 15.8623, 23.055, 38.2559, -28.6205, -29.9151
2.65604, 2, 17.8869, 15.8623, 23.055, 38.2559, -28.6205, -29.9151
2.66426, 2, 17.8869, 15.8623, 23.055, 38.2559, -28.6205, -29.9151
2.6721, 2, 17.8868, 15.8623, 23.055, 38.2559, -28.6205, -29.9151
2.68004, 2, 17.8868, 15.8623, 23.055, 38.2559, -28.6205, -29.9151
2.68804, 2, 17.8868, 15.8624, 23.055, 38.2559, -28.6206, -29.9151
2.69503, 2, 17.8868, 15.8624, 23.055, 38.2559, -28.6206, -29.9151
2.70406, 2, 17.8868, 15.8624, 23.055, 38.2559, -28.6206, -29.9151
2.71206, 2, 17.8868, 15.8623, 23.055, 38.2559, -28.6206, -29.915
2.72009, 2, 17.8868, 15.8623, 23.055, 38.2559, -28.6206, -29.915
2.72803, 2, 17.8868, 15.8623, 23.055, 38.2558, -28.6206, -29.9151
2.73604, 2, 17.8868, 15.8623, 23.055, 38.2559, -28.6206, -29.9151
2.7441, 2, 17.8867, 15.8623, 23.055, 38.2559, -28.6206, -29.9151
2.75209, 2, 17.8867, 15.8623, 23.055, 38.2558, -28.6207, -29.9151
2.76003, 2, 17.8867, 15.8623, 23.055, 38.2558, -28.6207, -29.9151
2.76815, 2, 17.8867, 15.8623, 23.055, 38.2558, -28.6207, -29.9151
2.77604, 2, 17.8867, 15.8624, 23.055, 38.2558, -28.6208, -29.915
2.78404, 2, 17.8866, 15.8624, 23.055, 38.2558, -28.6208, -29.915
2.79212, 2, 17.8866, 15.8624, 23.055, 38.2558, -28.6208, -29.9151
2.80004, 2, 17.8866, 15.8624, 23.055, 38.2558, -28.6208, -29.9151
2.80805, 2, 17.8865, 15.8624, 23.055, 38.2557, -28.6208, -29.9151
2.81612, 2, 17.8865, 15.8624, 23.055, 38.2557, -28.6208, -29.9151
2.82303, 2, 17.8864, 15.8624, 23.055, 38.2557, -28.6208, -29.915
2.83207, 2, 17.8864, 15.8624, 23.055, 38.2557, -28.6208, -29.915
2.8401, 2, 17.8863, 15.8624, 23.055, 38.2557, -28.6208, -29.915
2.84803, 2, 17.8863, 15.8624, 23.055, 38.2556, -28.6208, -29.915
2.85604, 2, 17.8863, 15.8624, 23.0551, 38.2557, -28.6208, -29.915
2.8641, 2, 17.8862, 15.8624, 23.055, 38.2557, -28.6209, -29.915
2.87206, 2, 17.8862, 15.8624, 23.055, 38.2557, -28.6209, -29.915
2.87924, 2, 17.8861, 15.8624, 23.055, 38.2557, -28.6209, -29.9151
2.88704, 2, 17.8861, 15.8624, 23.055, 38.2557, -28.6209, -29.9151
2.89506, 2, 17.886, 15.8624, 23.055, 38.2557, -28.6209, -29.915
2.90313, 2, 17.886, 15.8624, 23.055, 38.2557, -28.6209, -29.915
2.91112, 2, 17.886, 15.8624, 23.055, 38.2557, -28.621, -29.915
2.91914, 2, 17.8859, 15.8624, 23.055, 38.2557, -28.621, -29.9151
2.92729, 2, 17.8858, 15.8624, 23.055, 38.2556, -28.621, -29.915
2.93538, 2, 17.8858, 15.8624, 23.055, 38.2556, -28.621, -29.915
2.94333, 2, 17.8857, 15.8624, 23.055, 38.2556, -28.621, -29.915
2.95145, 2, 17.8857, 15.8624, 23.055, 38.2556, -28.621, -29.915
2.95954, 2, 17.8856, 15.8624, 23.055, 38.2556, -28.621, -29.915
2.96812, 2, 17.8856, 15.8624, 23.055, 38.2556, -28.621, -29.915
2.97558, 2, 17.8855, 15.8624, 23.055, 38.2556, -28.621, -29.915
2.98421, 2, 17.8855, 15.8624, 23.055, 38.2556, -28.6211, -29.915
2.99159, 2, 17.8854, 15.8624, 23.055, 38.2556, -28.6211, -29.915
3.00014, 2, 17.8853, 15.8625, 23.055, 38.2555, -28.6211, -29.915
3.00767, 2, 17.8853, 15.8625, 23.055, 38.2555, -28.6211, -29.915
3.01604, 2, 17.8852, 15.8625, 23.055, 38.2555, -28.6211, -29.9149
3.02308, 2, 17.8852, 15.8625, 23.055, 38.2555, -28.6211, -29.915
3.03217, 2, 17.8851, 15.8624, 23.055, 38.2555, -28.6211, -29.915
3.03904, 2, 17.8851, 15.8624, 23.0551, 38.2555, -28.6212, -29.915
3.04819, 2, 17.885, 15.8624, 23.055, 38.2554, -28.6212, -29.915
3.05502, 2, 17.885, 15.8624, 23.055, 38.2554, -28.6212, -29.915
3.0643, 2, 17.8849, 15.8624, 23.055, 38.2554, -28.6212, -29.915
3.07106, 2, 17.8849, 15.8624, 23.055, 38.2554, -28.6212, -29.915
3.08055, 2, 17.8848, 15.8625, 23.055, 38.2554, -28.6212, -29.915
3.08854, 2, 17.8848, 15.8625, 23.055, 38.2554, -28.6212, -29.915
3.09653, 2, 17.8847, 15.8625, 23.055, 38.2553, -28.6212, -29.915
3.10467, 2, 17.8847, 15.8625, 23.055, 38.2554, -28.6212, -29.915
3.11259, 2, 17.8846, 15.8625, 23.055, 38.2553, -28.6212, -29.915
3.12058, 2, 17.8846, 15.8625, 23.055, 38.2553, -28.6212, -29.915
3.12871, 2, 17.8845, 15.8625, 23.055, 38.2553, -28.6212, -29.915
3.13663, 2, 17.8845, 15.8625, 23.055, 38.2553, -28.6213, -29.915
3.14404, 2, 17.8845, 15.8625, 23.055, 38.2552, -28.6213, -29.915
3.1521, 2, 17.8844, 15.8625, 23.055, 38.2552, -28.6213, -29.915
3.16002, 2, 17.8843, 15.8625, 23.0551, 38.2552, -28.6213, -29.9149
3.16802, 2, 17.8843, 15.8625, 23.0551, 38.2552, -28.6213, -29.9149
3.17608, 2, 17.8843, 15.8625, 23.055, 38.2552, -28.6213, -29.9149
3.18402, 2, 17.8843, 15.8625, 23.055, 38.2552, -28.6213, -29.915
3.19204, 2, 17.8843, 15.8625, 23.055, 38.2552, -28.6213, -29.915
3.2001, 2, 17.8842, 15.8625, 23.055, 38.2552, -28.6213, -29.9149
3.20803, 2, 17.8842, 15.8625, 23.055, 38.2551, -28.6213, -29.9149
3.21602, 2, 17.8842, 15.8625, 23.0551, 38.2551, -28.6213, -29.915
3.22407, 2, 17.8842, 15.8625, 23.0551, 38.2551, -28.6213, -29.915
3.23204, 2, 17.8842, 15.8625, 23.0551, 38.2551, -28.6213, -29.9149
3.24002, 2, 17.8842, 15.8625, 23.0551, 38.2551, -28.6213, -29.9149
3.24702, 2, 17.8841, 15.8625, 23.055, 38.255, -28.6213, -29.9149
3.25606, 2, 17.8841, 15.8625, 23.0551, 38.255, -28.6213, -29.915
3.26413, 2, 17.8841, 15.8625, 23.055, 38.255, -28.6213, -29.915
3.27211, 2, 17.8841, 15.8625, 23.0551, 38.255, -28.6213, -29.915
3.28107, 2, 17.8841, 15.8625, 23.055, 38.255, -28.6213, -29.9149
3.28802, 2, 17.8841, 15.8625, 23.055, 38.255, -28.6213, -29.9149
3.29609, 2, 17.884, 15.8625, 23.055, 38.2549, -28.6213, -29.9149
3.30402, 2, 17.884, 15.8625, 23.0551, 38.2549, -28.6213, -29.9149
3.3122, 2, 17.884, 15.8625, 23.0551, 38.2549, -28.6213, -29.9149
3.32002, 2, 17.884, 15.8626, 23.0551, 38.2549, -28.6214, -29.9149
3.32804, 2, 17.884, 15.8626, 23.0551, 38.2549, -28.6214, -29.9149
3.33607, 2, 17.884, 15.8626, 23.0551, 38.2549, -28.6214, -29.9149
3.34402, 2, 17.8839, 15.8626, 23.0551, 38.2549, -28.6214, -29.9149
3.35201, 2, 17.8839, 15.8626, 23.055, 38.2549, -28.6214, -29.9149
3.3601, 2, 17.8839, 15.8625, 23.055, 38.2549, -28.6214, -29.9149
3.36714, 2, 17.8839, 15.8626, 23.055, 38.2548, -28.6214, -29.9148
3.37531, 4, 17.8839, 15.8626, 23.055, 38.2548, -28.6214, -29.9149
3.38314, 4, 17.8839, 15.8626, 23.0551, 38.2548, -28.6214, -29.9149
3.39103, 4, 17.8839, 15.8626, 23.0551, 38.2547, -28.6214, -29.9149
3.39911, 4, 17.8839, 15.8626, 23.0551, 38.2547, -28.6215, -29.9149
3.40705, 4, 17.8838, 15.8626, 23.055, 38.2547, -28.6215, -29.9149
3.4151, 4, 17.8838, 15.8626, 23.0551, 38.2547, -28.6215, -29.9149
3.42348, 4, 17.8838, 15.8626, 23.0551, 38.2547, -28.6215, -29.9149
3.43122, 4, 17.8838, 15.8626, 23.0551, 38.2546, -28.6215, -29.9149
3.43961, 4, 17.8838, 15.8626, 23.0551, 38.2547, -28.6215, -29.9149
3.44803, 4, 17.8838, 15.8627, 23.0551, 38.2546, -28.6214, -29.9149
3.45611, 4, 17.8838, 15.8627, 23.0551, 38.2546, -28.6215, -29.9149
3.4638, 4, 17.8838, 15.8626, 23.0551, 38.2546, -28.6215, -29.9149
3.47213, 4, 17.8838, 15.8626, 23.0551, 38.2546, -28.6215, -29.9148
3.48037, 4, 17.8837, 15.8627, 23.0551, 38.2546, -28.6215, -29.9147
3.50823, 4, 17.8837, 15.8627, 23.0551, 38.2545, -28.6214, -29.9147
3.50949, 4, 17.8837, 15.8627, 23.0551, 38.2545, -28.6214, -29.9147
3.51066, 4, 17.8837, 15.8627, 23.0551, 38.2545, -28.6214, -29.9147
3.51273, 4, 17.8837, 15.8627, 23.0551, 38.2546, -28.6214, -29.9147
3.52029, 4, 17.8836, 15.8627, 23.0551, 38.2546, -28.6214, -29.9147
3.52702, 4, 17.8834, 15.8627, 23.0551, 38.2545, -28.6214, -29.9147
3.53605, 4, 17.8802, 15.8627, 23.0553, 38.254, -28.6216, -29.9145
3.54302, 4, 17.8776, 15.8626, 23.0556, 38.2529, -28.6218, -29.914
3.55222, 4, 17.8638, 15.8621, 23.0594, 38.2386, -28.6256, -29.905
3.55905, 4, 17.8572, 15.8615, 23.0625, 38.2277, -28.6291, -29.8966
3.56865, 4, 17.8298, 15.8574, 23.0821, 38.163, -28.6514, -29.8418
3.57647, 5, 17.804, 15.8519, 23.1068, 38.0812, -28.6792, -29.7711
3.58442, 5, 17.7721, 15.8436, 23.1432, 37.9608, -28.7212, -29.6661
3.591, 5, 17.754, 15.8384, 23.1663, 37.8845, -28.7484, -29.5994
3.60054, 5, 17.6917, 15.8184, 23.255, 37.5922, -28.8531, -29.3431
3.60856, 5, 17.6428, 15.8018, 23.3287, 37.3502, -28.9419, -29.1305
3.61679, 5, 17.5883, 15.7835, 23.4115, 37.079, -29.0422, -28.8914
3.62463, 5, 17.5286, 15.7637, 23.5011, 36.7872, -29.1514, -28.6338
3.63264, 5, 17.4968, 15.7534, 23.595, 36.4827, -29.2673, -28.3648
3.64001, 5, 17.4297, 15.7323, 23.643, 36.3276, -29.3267, -28.2279
3.64806, 5, 17.3582, 15.711, 23.7397, 36.0149, -29.4476, -27.9524
3.65607, 5, 17.2834, 15.6895, 23.8369, 35.7015, -29.5708, -27.6758
3.66401, 5, 17.2068, 15.6683, 23.9343, 35.3887, -29.6947, -27.4003
3.67201, 5, 17.1294, 15.6473, 24.0315, 35.0774, -29.82, -27.1263
3.68006, 5, 17.0513, 15.6265, 24.1286, 34.7682, -29.9458, -26.8544
3.68802, 5, 16.973, 15.6061, 24.2255, 34.4608, -30.0724, -26.5843
3.69602, 5, 16.8948, 15.5862, 24.322, 34.1554, -30.2001, -26.3163
3.70407, 5, 16.8166, 15.5666, 24.4181, 33.8522, -30.3281, -26.0506
3.71202, 5, 16.7385, 15.5476, 24.5136, 33.5509, -30.4571, -25.7872
3.72002, 5, 16.6607, 15.5291, 24.6088, 33.252, -30.5864, -25.5259
3.72805, 5, 16.5831, 15.5109, 24.7038, 32.9551, -30.7168, -25.2666
3.736, 5, 16.5055, 15.4931, 24.7986, 32.6603, -30.8474, -25.0098
3.74404, 5, 16.4282, 15.4758, 24.893, 32.3677, -30.9788, -24.7552
3.75207, 5, 16.3508, 15.4588, 24.987, 32.077, -31.1108, -24.5024
3.76003, 5, 16.2732, 15.4419, 25.0804, 31.7882, -31.2434, -24.2516
3.76804, 5, 16.1954, 15.4254, 25.1733, 31.5017, -31.3769, -24.0026
3.77699, 5, 16.1171, 15.4094, 25.2658, 31.2171, -31.5109, -23.7557
3.78401, 5, 16.0384, 15.3937, 25.3581, 30.9345, -31.6457, -23.5111
3.79221, 5, 15.9594, 15.3782, 25.4501, 30.6538, -31.781, -23.2681
3.8, 5, 15.8799, 15.3631, 25.5419, 30.3751, -31.9169, -23.0271
3.80811, 5, 15.7999, 15.3486, 25.6331, 30.0983, -32.0534, -22.788
3.815, 5, 15.7198, 15.3345, 25.7238, 29.8236, -32.1906, -22.5511
3.82303, 5, 15.6395, 15.3206, 25.8139, 29.5508, -32.3281, -22.3162
3.832, 5, 15.5591, 15.3072, 25.9037, 29.2797, -32.4665, -22.083
3.84077, 5, 15.4787, 15.2944, 25.9932, 29.0107, -32.6051, -21.8519
3.84708, 5, 15.3982, 15.282, 26.0825, 28.7436, -32.7444, -21.6226
3.856, 5, 15.3176, 15.27, 26.1715, 28.4782, -32.8841, -21.3955
3.86484, 5, 15.2369, 15.2582, 26.26, 28.2147, -33.0247, -21.1703
3.872, 5, 15.1564, 15.2468, 26.348, 27.9532, -33.1655, -20.9467
3.88012, 5, 15.076, 15.236, 26.4354, 27.6932, -33.3068, -20.7253
3.88702, 5, 14.9956, 15.2254, 26.5224, 27.4351, -33.4487, -20.5056
3.896, 5, 14.9151, 15.2153, 26.6091, 27.1787, -33.591, -20.2881
3.90402, 5, 14.8344, 15.2055, 26.6954, 26.9242, -33.7338, -20.0719
3.91278, 5, 14.7536, 15.1959, 26.7815, 26.6712, -33.8772, -19.8574
3.92, 5, 14.6727, 15.1867, 26.8672, 26.4202, -34.0211, -19.6447
3.92803, 5, 14.5917, 15.178, 26.9524, 26.171, -34.1653, -19.4338
3.93679, 5, 14.5103, 15.1699, 27.0371, 25.9234, -34.3102, -19.2248
3.94404, 5, 14.4286, 15.1621, 27.1213, 25.6774, -34.4556, -19.0176
3.952, 5, 14.3467, 15.1547, 27.205, 25.4333, -34.6016, -18.8117
3.96142, 5, 14.2644, 15.1478, 27.2885, 25.1908, -34.748, -18.6077
3.96752, 5, 14.1821, 15.1412, 27.3717, 24.9498, -34.895, -18.4053
3.97616, 5, 14.0997, 15.1349, 27.4545, 24.7105, -35.0423, -18.2046
3.98353, 5, 14.0171, 15.129, 27.537, 24.4731, -35.1903, -18.0059
3.99212, 5, 13.9345, 15.1236, 27.619, 24.2371, -35.3386, -17.8085
4.00016, 5, 13.8519, 15.1187, 27.7005, 24.0025, -35.4874, -17.6127
4.00758, 5, 13.8106, 15.1164, 27.741, 23.7696, -35.6367, -17.4186
4.01601, 5, 13.6868, 15.11, 27.862, 23.5382, -35.7864, -17.2259
4.02417, 5, 13.6044, 15.1063, 27.9422, 23.3083, -35.9367, -17.0352
4.03098, 5, 13.5633, 15.1045, 27.9822, 23.1939, -36.0119, -16.9405
4.04003, 5, 13.4397, 15.0999, 28.1016, 22.8532, -36.2381, -16.6585
4.04701, 5, 13.3985, 15.0985, 28.1412, 22.7403, -36.3137, -16.5651
4.05618, 5, 13.2746, 15.0951, 28.2593, 22.4043, -36.541, -16.2876
4.06303, 5, 13.2331, 15.0942, 28.2985, 22.2928, -36.617, -16.196
4.07239, 5, 13.1084, 15.092, 28.4152, 21.9611, -36.8456, -15.9232
4.07906, 5, 13.0666, 15.0915, 28.4539, 21.8512, -36.922, -15.8331
4.08847, 5, 12.9411, 15.0905, 28.5693, 21.5237, -37.152, -15.5646
4.09499, 5, 12.8991, 15.0904, 28.6076, 21.4151, -37.2287, -15.4757
4.10453, 5, 12.773, 15.0902, 28.7219, 21.092, -37.4597, -15.2111
4.11108, 5, 12.7308, 15.0903, 28.7599, 20.9849, -37.5368, -15.1237
4.12061, 5, 12.604, 15.0909, 28.8731, 20.6658, -37.7692, -14.8636
4.12853, 5, 12.5617, 15.0913, 28.948, 20.4547, -37.9247, -14.692
4.13504, 5, 12.4771, 15.0922, 28.9853, 20.3496, -38.0026, -14.6068
4.14499, 5, 12.3503, 15.0944, 29.0964, 20.0364, -38.2369, -14.3524
4.15199, 5, 12.308, 15.0953, 29.1331, 19.9327, -38.3151, -14.2683
4.16, 5, 12.2236, 15.0974, 29.2064, 19.7261, -38.4717, -14.101
4.16804, 5, 12.139, 15.0998, 29.2793, 19.5209, -38.6289, -13.9349
4.17598, 5, 12.0544, 15.1027, 29.3517, 19.3171, -38.7862, -13.7705
4.18297, 5, 11.9696, 15.106, 29.4238, 19.1147, -38.9439, -13.6074
4.19199, 5, 11.8848, 15.1099, 29.4955, 18.9134, -39.1021, -13.4456
4.2, 5, 11.7999, 15.1142, 29.5667, 18.7132, -39.2603, -13.2848
4.20804, 5, 11.7149, 15.1189, 29.6376, 18.5145, -39.4191, -13.1255
4.21602, 5, 11.6296, 15.1242, 29.7079, 18.3171, -39.578, -12.9673
4.22399, 5, 11.5442, 15.1299, 29.7779, 18.1208, -39.7373, -12.8104
4.23354, 5, 11.4157, 15.1394, 29.8819, 17.8284, -39.977, -12.5778
4.24, 5, 11.3728, 15.1428, 29.9164, 17.7316, -40.0571, -12.501
4.24698, 5, 11.2868, 15.1501, 29.9852, 17.5391, -40.2172, -12.3481
4.25598, 5, 11.2006, 15.1577, 30.0535, 17.3476, -40.378, -12.1963
4.26403, 5, 11.1142, 15.1656, 30.1216, 17.1572, -40.5387, -12.0457
4.27205, 5, 11.0279, 15.174, 30.1891, 16.9679, -40.7, -11.8963
4.28001, 5, 10.9417, 15.1827, 30.2563, 16.7799, -40.8616, -11.7482
4.28898, 5, 10.8554, 15.1915, 30.3229, 16.5929, -41.0234, -11.6012
4.29604, 5, 10.7692, 15.201, 30.389, 16.4071, -41.1856, -11.4556
4.30399, 5, 10.6828, 15.2112, 30.4547, 16.2223, -41.348, -11.3112
4.31199, 5, 10.5966, 15.2218, 30.52, 16.0387, -41.5108, -11.1678
4.32006, 5, 10.5103, 15.2327, 30.5848, 15.8563, -41.6738, -11.0252
4.328, 5, 10.4241, 15.244, 30.6493, 15.6751, -41.8372, -10.8839
4.33599, 5, 10.3378, 15.2557, 30.7133, 15.4949, -42.0009, -10.7435
4.34405, 5, 10.2513, 15.2681, 30.777, 15.3156, -42.165, -10.6045
4.35198, 5, 10.1646, 15.2809, 30.8402, 15.1377, -42.3293, -10.4665
4.36002, 5, 10.0776, 15.2941, 30.903, 14.9607, -42.4941, -10.3296
4.36805, 5, 9.99056, 15.3075, 30.9654, 14.7848, -42.659, -10.1941
4.37598, 5, 9.90337, 15.3215, 31.0273, 14.6098, -42.824, -10.0594
4.38409, 5, 9.81597, 15.3359, 31.0887, 14.4356, -42.9895, -9.92551
4.39204, 5, 9.72834, 15.3508, 31.1497, 14.2627, -43.1552, -9.79272
4.39922, 5, 9.64053, 15.366, 31.2102, 14.0909, -43.3211, -9.66094
4.40777, 5, 9.55264, 15.3813, 31.2703, 13.9201, -43.4874, -9.53012
4.41598, 5, 9.46465, 15.3974, 31.33, 13.7499, -43.6536, -9.40036
4.42399, 5, 9.37668, 15.4138, 31.3893, 13.5808, -43.8202, -9.27175
4.4321, 5, 9.28855, 15.4304, 31.4483, 13.4126, -43.9869, -9.14427
4.44, 5, 9.2005, 15.4475, 31.5067, 13.2454, -44.1539, -9.01769
4.448, 5, 9.11243, 15.4651, 31.5647, 13.0792, -44.3209, -8.89178
4.45628, 5, 9.02435, 15.4832, 31.6223, 12.9137, -44.4883, -8.76673
4.46344, 5, 8.93622, 15.5015, 31.6793, 12.7491, -44.6557, -8.64271
4.47149, 5, 8.84799, 15.5205, 31.736, 12.5856, -44.8235, -8.51972
4.48035, 5, 8.75965, 15.5398, 31.7922, 12.4231, -44.9917, -8.39761
4.48774, 5, 8.67123, 15.5593, 31.8479, 12.2615, -45.1602, -8.27643
4.49618, 5, 8.5828, 15.5794, 31.9033, 12.1008, -45.3289, -8.15641
4.5043, 5, 8.53854, 15.5896, 31.9582, 11.9407, -45.4979, -8.0372
4.51168, 5, 8.45, 15.6207, 32.0126, 11.7816, -45.6671, -7.91889
4.52022, 5, 8.31669, 15.6419, 32.0667, 11.6234, -45.8365, -7.80168
4.52696, 5, 8.27216, 15.6526, 32.0936, 11.5447, -45.9213, -7.74323
4.53501, 5, 8.18302, 15.6744, 32.147, 11.3879, -46.0911, -7.62713
4.54413, 5, 8.04924, 15.7078, 32.2263, 11.1541, -46.3457, -7.45452
4.55098, 5, 8.00467, 15.7191, 32.2525, 11.0764, -46.4308, -7.39741
4.55903, 5, 7.91549, 15.7421, 32.3045, 10.9219, -46.601, -7.28406
4.56827, 5, 7.78158, 15.7774, 32.3817, 10.6919, -46.8564, -7.11557
4.57496, 5, 7.73691, 15.7893, 32.4072, 10.6157, -46.9416, -7.05982
4.58303, 5, 7.64763, 15.8134, 32.4579, 10.4639, -47.1121, -6.94911
4.5925, 5, 7.51404, 15.8506, 32.5331, 10.2371, -47.3681, -6.7844
4.6006, 5, 7.42502, 15.8759, 32.5827, 10.0871, -47.5389, -6.67562
4.60854, 5, 7.33602, 15.9016, 32.6319, 9.93765, -47.7102, -6.56732
4.61658, 5, 7.24695, 15.9275, 32.6805, 9.78923, -47.8815, -6.46
4.6246, 5, 7.15771, 15.954, 32.7288, 9.64152, -48.053, -6.35349
4.63274, 5, 7.11301, 15.9673, 32.7768, 9.49453, -48.2248, -6.24751
4.64087, 5, 6.97857, 16.008, 32.8241, 9.34805, -48.3967, -6.14278
4.65074, 5, 6.88871, 16.0357, 32.8711, 9.20268, -48.5689, -6.0384
4.65602, 5, 6.84368, 16.0497, 32.8944, 9.13018, -48.655, -5.98672
4.66402, 5, 6.75352, 16.078, 32.9406, 8.98596, -48.8276, -5.88357
4.67199, 5, 6.66327, 16.1066, 32.9865, 8.84258, -49.0002, -5.7817
4.81591, 5, 5.03115, 16.6892, 33.7336, 6.37765, -52.1285, -4.06151
4.8171, 5, 5.03115, 16.6892, 33.7336, 6.37765, -52.1285, -4.06151
4.81915, 5, 4.98543, 16.7072, 33.7523, 6.31215, -52.216, -4.01664
4.82044, 5, 4.98543, 16.7072, 33.7523, 6.31215, -52.216, -4.01664
4.82232, 5, 4.93973, 16.7253, 33.7709, 6.24675, -52.3035, -3.97226
4.8237, 5, 4.93973, 16.7253, 33.7709, 6.24675, -52.3035, -3.97226
4.82498, 5, 4.93973, 16.7253, 33.7709, 6.24675, -52.3035, -3.97226
4.82902, 5, 4.89407, 16.7435, 33.7893, 6.18162, -52.3909, -3.92815
4.83134, 5, 4.84842, 16.7618, 33.8075, 6.11671, -52.4784, -3.88396
4.83256, 5, 4.84842, 16.7618, 33.8075, 6.11671, -52.4784, -3.88396
4.83444, 5, 4.80277, 16.7801, 33.8257, 6.05188, -52.566, -3.83978
4.83579, 5, 4.80277, 16.7801, 33.8257, 6.05188, -52.566, -3.83978
4.83703, 5, 4.80277, 16.7801, 33.8257, 6.05188, -52.566, -3.83978
4.8398, 5, 4.75715, 16.7985, 33.8438, 5.98699, -52.6536, -3.79602
4.841, 5, 4.75715, 16.7985, 33.8438, 5.98699, -52.6536, -3.79602
4.84741, 5, 4.66597, 16.8358, 33.8796, 5.85776, -52.829, -3.70918
4.84859, 5, 4.66597, 16.8358, 33.8796, 5.85776, -52.829, -3.70918
4.85128, 5, 4.62038, 16.8546, 33.8974, 5.79349, -52.9166, -3.66562
4.8527, 5, 4.62038, 16.8546, 33.8974, 5.79349, -52.9166, -3.66562
4.85449, 5, 4.57481, 16.8735, 33.915, 5.72937, -53.0044, -3.62252
4.85593, 5, 4.57481, 16.8735, 33.915, 5.72937, -53.0044, -3.62252
4.8571, 5, 4.57481, 16.8735, 33.915, 5.72937, -53.0044, -3.62252
4.86308, 5, 4.48375, 16.9115, 33.9499, 5.60158, -53.1799, -3.53734
4.86778, 5, 4.4383, 16.9306, 33.9672, 5.53796, -53.2676, -3.49448
4.87203, 5, 4.39286, 16.9499, 33.9844, 5.47452, -53.3554, -3.45178
4.88002, 5, 4.30204, 16.9888, 34.0183, 5.34798, -53.531, -3.36763
4.888, 5, 4.21126, 17.028, 34.0518, 5.22212, -53.7068, -3.28323
4.89603, 5, 4.12021, 17.0675, 34.085, 5.09664, -53.8825, -3.20006
4.90398, 5, 4.02905, 17.1074, 34.1176, 4.97169, -54.0585, -3.11692
4.91201, 5, 3.9378, 17.1478, 34.1497, 4.84736, -54.2341, -3.03478
4.92008, 5, 3.84641, 17.1884, 34.1814, 4.72366, -54.41, -2.95296
4.92797, 5, 3.75489, 17.2294, 34.2127, 4.60067, -54.5858, -2.87169
4.93606, 5, 3.6631, 17.2707, 34.2435, 4.47808, -54.7617, -2.79152
4.94398, 5, 3.57112, 17.3124, 34.2738, 4.35626, -54.9376, -2.71127
4.95198, 5, 3.47903, 17.3545, 34.3037, 4.23466, -55.1136, -2.63234
4.96009, 5, 3.38692, 17.3971, 34.3331, 4.11357, -55.2897, -2.55333
4.96801, 5, 3.29478, 17.44, 34.3619, 3.99303, -55.4659, -2.47538
4.97605, 5, 3.2027, 17.4833, 34.3903, 3.87317, -55.6421, -2.39804
4.98412, 5, 3.11064, 17.527, 34.4184, 3.75388, -55.8186, -2.32068
4.99207, 5, 3.01863, 17.5711, 34.446, 3.6351, -55.9951, -2.24442
4.99973, 5, 2.9267, 17.6156, 34.4729, 3.51691, -56.1718, -2.16777
5.00813, 5, 2.83484, 17.6604, 34.4995, 3.39896, -56.3485, -2.09255
5.01551, 5, 2.7889, 17.683, 34.5126, 3.34007, -56.4368, -2.01721
5.02398, 5, 2.65108, 17.7513, 34.5514, 3.16448, -56.702, -1.94244
5.03207, 5, 2.55926, 17.7971, 34.5765, 3.04789, -56.8788, -1.86876
5.03896, 5, 2.51337, 17.8202, 34.589, 2.98989, -56.9672, -1.83167
5.04808, 5, 2.37564, 17.89, 34.6255, 2.81661, -57.2323, -1.72192
5.05494, 5, 2.32971, 17.9134, 34.6376, 2.75911, -57.3205, -1.68574
5.0642, 5, 2.19147, 17.984, 34.6727, 2.58738, -57.5855, -1.57737
5.07095, 5, 2.14534, 18.0077, 34.6841, 2.53025, -57.6736, -1.54184
5.08033, 5, 2.00687, 18.0795, 34.7178, 2.35961, -57.9384, -1.43485
5.08699, 5, 1.96072, 18.1036, 34.7288, 2.30301, -58.0267, -1.3996
5.09667, 5, 1.8223, 18.1765, 34.7613, 2.13399, -58.2917, -1.29502
5.10456, 5, 1.72995, 18.2255, 34.7823, 2.0221, -58.4683, -1.22518
5.11251, 5, 1.63757, 18.275, 34.8027, 1.91058, -58.6449, -1.15649
5.12059, 5, 1.54528, 18.3248, 34.8228, 1.79974, -58.8216, -1.0873
5.12854, 5, 1.45326, 18.3751, 34.8423, 1.68909, -58.9984, -1.01893
5.13656, 5, 1.40733, 18.4003, 34.8614, 1.57861, -59.1754, -0.951456
5.14454, 5, 1.31554, 18.4512, 34.8709, 1.52367, -59.2639, -0.8835
5.15195, 5, 1.22383, 18.5023, 34.8893, 1.41404, -59.4408, -0.849978
5.16004, 5, 1.13215, 18.5538, 34.9072, 1.30496, -59.618, -0.783761
5.16799, 5, 1.04041, 18.6055, 34.9248, 1.1965, -59.795, -0.717058
5.17595, 5, 0.948575, 18.6576, 34.9418, 1.0883, -59.9719, -0.65133
5.18399, 5, 0.856605, 18.7097, 34.9582, 0.980596, -60.1488, -0.586506
5.19197, 5, 0.764459, 18.762, 34.9743, 0.873143, -60.3254, -0.521761
5.19897, 5, 0.672174, 18.8144, 34.99, 0.765825, -60.5016, -0.458938
5.20697, 5, 0.57977, 18.867, 35.0048, 0.658769, -60.677, -0.398033
5.216, 5, 0.487185, 18.9197, 35.0192, 0.551711, -60.8514, -0.338654
5.224, 5, 0.394489, 18.9723, 35.0331, 0.444735, -61.0248, -0.282846
5.23194, 5, 0.301677, 19.025, 35.0464, 0.337739, -61.1964, -0.230974
5.23894, 6, 0.208893, 19.0777, 35.0589, 0.230455, -61.3666, -0.18239
5.24795, 6, 0.11616, 19.1302, 35.0711, 0.122871, -61.5348, -0.137661
5.25593, 6, 0.0234732, 19.1827, 35.0829, 0.0148445, -61.7013, -0.0975415
5.26555, 6, -0.0692533, 19.2349, 35.094, -0.0936049, -61.9472, -0.0459054
5.27199, 6, -0.162046, 19.2868, 35.1046, -0.202517, -62.0282, -0.0307899
5.28092, 6, -0.254761, 19.3384, 35.1145, -0.311791, -62.1889, -0.00354957
5.28699, 6, -0.347487, 19.3898, 35.1238, -0.421591, -62.3478, 0.0200251
5.29594, 6, -0.440248, 19.4411, 35.1327, -0.531414, -62.5053, 0.0400031
5.30395, 6, -0.533044, 19.4921, 35.1411, -0.641727, -62.6614, 0.0566737
5.31201, 6, -0.626032, 19.5431, 35.1488, -0.752063, -62.8162, 0.0704839
5.32003, 6, -0.719099, 19.5941, 35.1561, -0.862617, -62.9701, 0.0819707
5.32802, 6, -0.812245, 19.6452, 35.1629, -0.973389, -63.1236, 0.0920391
5.33597, 6, -0.905495, 19.6964, 35.1692, -1.08385, -63.2768, 0.10081
5.34396, 6, -0.998853, 19.7478, 35.175, -1.19416, -63.4298, 0.109026
5.35202, 6, -1.09235, 19.7995, 35.1806, -1.30419, -63.5828, 0.116672
5.36002, 6, -1.1858, 19.8516, 35.1858, -1.41397, -63.7356, 0.123748
5.36794, 6, -1.27917, 19.9039, 35.1907, -1.52355, -63.8884, 0.130639
5.37602, 6, -1.37245, 19.9567, 35.1951, -1.63277, -64.0409, 0.137126
5.38393, 6, -1.46576, 20.0097, 35.1991, -1.74205, -64.1937, 0.143227
5.39199, 6, -1.55899, 20.0629, 35.2026, -1.85114, -64.3461, 0.149182
5.40007, 6, -1.65208, 20.1164, 35.2057, -1.96013, -64.4987, 0.154887
5.40794, 6, -1.74504, 20.1701, 35.2084, -2.06889, -64.651, 0.160332
5.41631, 6, -1.83789, 20.224, 35.2106, -2.17733, -64.8035, 0.165483
5.42301, 6, -1.93076, 20.2781, 35.2124, -2.28547, -64.9556, 0.170453
5.43194, 6, -2.02383, 20.3326, 35.2139, -2.39351, -65.108, 0.175155
5.44084, 6, -2.11694, 20.3872, 35.2148, -2.50125, -65.26, 0.179614
5.44794, 6, -2.21021, 20.4421, 35.2153, -2.60902, -65.4123, 0.183976
5.45596, 6, -2.30351, 20.4974, 35.2155, -2.71669, -65.5642, 0.188129
5.46475, 6, -2.397, 20.5529, 35.2155, -2.82413, -65.7163, 0.19206
5.47201, 6, -2.49072, 20.6088, 35.2153, -2.93138, -65.8682, 0.195717
5.48009, 6, -2.58457, 20.665, 35.2147, -3.03823, -66.02, 0.199095
5.48882, 6, -2.67853, 20.7216, 35.2137, -3.14494, -66.1718, 0.202179
5.49605, 6, -2.77249, 20.7784, 35.2122, -3.25131, -66.3236, 0.205078
5.50397, 6, -2.86642, 20.8356, 35.2103, -3.35766, -66.4753, 0.207663
5.51283, 6, -2.96032, 20.8929, 35.2079, -3.46401, -66.6272, 0.210119
5.5201, 6, -3.05414, 20.9504, 35.205, -3.57019, -66.7789, 0.212186
5.52765, 6, -3.10102, 20.9792, 35.2034, -3.62328, -66.8547, 0.213142
5.53688, 6, -3.24155, 21.066, 35.1978, -3.78207, -67.0821, 0.215478
5.544, 6, -3.33516, 21.1242, 35.1935, -3.88774, -67.2333, 0.21673
5.55098, 6, -3.38199, 21.1533, 35.1912, -3.94037, -67.309, 0.217314
5.56172, 6, -3.52243, 21.2412, 35.1834, -4.09835, -67.5359, 0.218653
5.56817, 6, -3.61588, 21.3002, 35.1775, -4.20328, -67.6871, 0.219219
5.57493, 6, -3.66262, 21.3298, 35.1743, -4.25569, -67.7626, 0.219426
5.58427, 6, -3.80289, 21.4191, 35.1645, -4.41315, -67.9892, 0.219752
5.59097, 6, -3.84975, 21.4491, 35.1611, -4.46551, -68.0645, 0.219787
5.60085, 6, -3.99054, 21.5393, 35.15, -4.62219, -68.2902, 0.219864
5.60855, 6, -4.08437, 21.5998, 35.1421, -4.72641, -68.4405, 0.219841
5.61647, 6, -4.17827, 21.6605, 35.1338, -4.83022, -68.591, 0.219794
5.62466, 6, -4.27216, 21.7214, 35.1249, -4.93398, -68.7414, 0.219743
5.63251, 6, -4.31912, 21.7825, 35.1155, -5.03757, -68.8918, 0.219675
5.63899, 6, -4.41313, 21.8131, 35.1107, -5.08919, -68.9669, 0.219572
5.6488, 6, -4.507, 21.8745, 35.1009, -5.19262, -69.192, 0.219042
5.65593, 6, -4.60069, 21.9361, 35.0905, -5.296, -69.267, 0.218705
5.663, 6, -4.69405, 21.998, 35.0796, -5.39918, -69.417, 0.217649
5.67202, 6, -4.78726, 22.0601, 35.0681, -5.50214, -69.5669, 0.216195
5.67999, 6, -4.88037, 22.1226, 35.0562, -5.60499, -69.7169, 0.214241
5.68699, 6, -4.97348, 22.1853, 35.0439, -5.70739, -69.8666, 0.21173
5.69594, 6, -5.06652, 22.2484, 35.0312, -5.80985, -70.0164, 0.208897
5.70393, 6, -5.15963, 22.3118, 35.018, -5.91202, -70.166, 0.205609
5.71092, 6, -5.25286, 22.3754, 35.0044, -6.01416, -70.3154, 0.201898
5.72, 6, -5.34626, 22.4392, 34.9906, -6.11619, -70.4648, 0.197796
5.72798, 6, -5.43981, 22.5032, 34.9762, -6.21817, -70.6138, 0.193455
5.73599, 6, -5.53351, 22.5675, 34.9612, -6.32008, -70.7627, 0.188741
5.74392, 6, -5.6273, 22.632, 34.9457, -6.42162, -70.9117, 0.183821
5.75192, 6, -5.7211, 22.6965, 34.9299, -6.52295, -71.0602, 0.178666
5.75892, 6, -5.81498, 22.7613, 34.9136, -6.62421, -71.2088, 0.173341
5.76795, 6, -5.9089, 22.8264, 34.8969, -6.72514, -71.3571, 0.167695
5.77693, 6, -6.00269, 22.8917, 34.8799, -6.82602, -71.5054, 0.161948
5.78294, 6, -6.09641, 22.9574, 34.8624, -6.92694, -71.6533, 0.15606
5.79199, 6, -6.19019, 23.0233, 34.8442, -7.02785, -71.8015, 0.149949
5.80092, 6, -6.28388, 23.0894, 34.8257, -7.12849, -71.9492, 0.143655
5.80693, 6, -6.37747, 23.1558, 34.8069, -7.22909, -72.0972, 0.137318
5.81592, 6, -6.47091, 23.2224, 34.7875, -7.32955, -72.2445, 0.130601
5.82392, 6, -6.56419, 23.2893, 34.7679, -7.42959, -72.392, 0.123918
5.83193, 6, -6.65747, 23.3564, 34.7478, -7.52971, -72.5392, 0.117039
5.84006, 6, -6.75076, 23.4236, 34.727, -7.62954, -72.6865, 0.109894
5.84794, 6, -6.84402, 23.4911, 34.7059, -7.72927, -72.8336, 0.102553
5.85593, 6, -6.93725, 23.5588, 34.6843, -7.82909, -72.9806, 0.094719
5.864, 6, -7.0305, 23.6267, 34.6623, -7.92882, -73.1273, 0.086834
5.87192, 6, -7.12376, 23.695, 34.6399, -8.02827, -73.274, 0.0786808
5.88, 6, -7.21708, 23.7634, 34.617, -8.12748, -73.4203, 0.070209
5.88801, 6, -7.31043, 23.832, 34.5937, -8.22658, -73.5667, 0.0615438
5.89596, 6, -7.40374, 23.9009, 34.57, -8.32538, -73.7127, 0.0525111
5.90395, 6, -7.49689, 23.9699, 34.5459, -8.42403, -73.8587, 0.043284
5.91199, 6, -7.58999, 24.0393, 34.5212, -8.52263, -74.0045, 0.0338495
5.9201, 6, -7.68306, 24.1089, 34.496, -8.62105, -74.1502, 0.0241489
5.92784, 6, -7.7759, 24.1787, 34.4705, -8.71949, -74.2957, 0.0141849
5.936, 6, -7.86859, 24.2487, 34.4447, -8.81803, -74.4412, 0.00421142
5.94395, 6, -7.96109, 24.3189, 34.4183, -8.91617, -74.5862, -0.00577131
5.95205, 6, -8.05363, 24.3893, 34.3914, -9.01421, -74.7314, -0.0158892
5.96, 6, -8.14624, 24.46, 34.3641, -9.11204, -74.8762, -0.0259453
5.96795, 6, -8.23877, 24.5309, 34.3365, -9.20966, -75.021, -0.0360312
5.97619, 6, -8.33133, 24.6019, 34.3085, -9.30741, -75.1654, -0.0461894
5.98346, 6, -8.42394, 24.6731, 34.2798, -9.4047, -75.3099, -0.0566193
5.99203, 6, -8.5165, 24.7445, 34.2508, -9.5022, -75.4538, -0.0671668
6.00047, 6, -8.60927, 24.8161, 34.2215, -9.59958, -75.5978, -0.0776984
6.00752, 6, -8.7022, 24.8879, 34.1916, -9.6968, -75.7414, -0.0885452
6.01603, 6, -8.7951, 24.9601, 34.1612, -9.79407, -75.885, -0.0996144
6.02461, 6, -8.88795, 25.0323, 34.1305, -9.89098, -76.0281, -0.110804
6.03194, 6, -8.98071, 25.1049, 34.0994, -9.98762, -76.1713, -0.122378
6.03896, 6, -9.02711, 25.1413, 34.0837, -10.036, -76.2428, -0.128317
6.04887, 6, -9.16621, 25.2507, 34.0356, -10.1807, -76.4569, -0.14648
6.05601, 6, -9.25878, 25.324, 34.0032, -10.277, -76.5994, -0.158932
6.06297, 6, -9.30503, 25.3606, 33.9868, -10.3252, -76.6707, -0.165145
6.07302, 6, -9.44351, 25.4707, 33.9368, -10.4697, -76.8842, -0.184281
6.08025, 6, -9.53582, 25.5445, 33.903, -10.566, -77.0266, -0.197071
6.08689, 6, -9.58199, 25.5814, 33.8859, -10.614, -77.0977, -0.203384
6.09715, 6, -9.7202, 25.6923, 33.8338, -10.7581, -77.3106, -0.222406
6.10297, 6, -9.76624, 25.7294, 33.8163, -10.806, -77.3814, -0.228794
6.11257, 6, -9.90427, 25.8409, 33.7631, -10.9493, -77.5937, -0.247791
6.12134, 6, -9.99642, 25.9156, 33.7269, -11.0448, -77.7348, -0.260694
6.12701, 6, -10.0425, 25.953, 33.7087, -11.0924, -77.8053, -0.267135
6.13653, 6, -10.1807, 26.0654, 33.6536, -11.2354, -78.0166, -0.28687
6.14532, 6, -10.2267, 26.1029, 33.6349, -11.283, -78.0869, -0.3002
6.15097, 6, -10.3187, 26.1782, 33.5973, -11.3783, -78.2273, -0.307001
6.16094, 6, -10.4566, 26.2915, 33.5401, -11.5208, -78.4377, -0.327899
6.16804, 6, -10.5026, 26.3294, 33.5208, -11.5682, -78.5076, -0.335172
6.17592, 6, -10.5944, 26.4053, 33.4818, -11.6629, -78.6469, -0.349609
6.18395, 6, -10.6859, 26.4814, 33.4426, -11.7573, -78.7865, -0.36425
6.19191, 6, -10.7772, 26.5576, 33.4027, -11.8517, -78.9255, -0.37893
6.1989, 6, -10.8682, 26.6341, 33.3624, -11.946, -79.0647, -0.393548
6.20792, 6, -10.9591, 26.7107, 33.3218, -12.04, -79.2033, -0.408153
6.21591, 6, -11.0499, 26.7875, 33.2807, -12.1341, -79.3419, -0.422785
6.22292, 6, -11.1406, 26.8644, 33.2391, -12.2283, -79.4803, -0.43739
6.23199, 6, -11.2314, 26.9415, 33.1971, -12.3221, -79.6185, -0.452021
6.23996, 6, -11.3221, 27.0189, 33.1545, -12.416, -79.7565, -0.466963
6.2469, 6, -11.4131, 27.0964, 33.1117, -12.5097, -79.8945, -0.482043
6.2559, 6, -11.5041, 27.1741, 33.0684, -12.6028, -80.0322, -0.497428
6.26391, 6, -11.5952, 27.2519, 33.0245, -12.6962, -80.17, -0.513229
6.27347, 6, -11.6863, 27.3299, 32.9804, -12.7895, -80.3073, -0.529129
6.28, 6, -11.7774, 27.4082, 32.9357, -12.8824, -80.4445, -0.545189
6.28792, 6, -11.8685, 27.4864, 32.8906, -12.9756, -80.5815, -0.56127
6.29603, 6, -11.9597, 27.5648, 32.8451, -13.0686, -80.7182, -0.577017
6.30495, 6, -12.0507, 27.6434, 32.7992, -13.1615, -80.8548, -0.592782
6.31191, 6, -12.1416, 27.7221, 32.7528, -13.2545, -80.9909, -0.608541
6.31996, 6, -12.2324, 27.8011, 32.7059, -13.3472, -81.1269, -0.624587
6.32792, 6, -12.323, 27.8802, 32.6586, -13.4395, -81.2625, -0.640515
6.33599, 6, -12.4136, 27.9595, 32.6109, -13.5319, -81.398, -0.656811
6.34393, 6, -12.5039, 28.0389, 32.5626, -13.624, -81.533, -0.673492
6.3519, 6, -12.5941, 28.1186, 32.5139, -13.7161, -81.6681, -0.690405
6.36007, 6, -12.6841, 28.1984, 32.4649, -13.8082, -81.8025, -0.707626
6.3679, 6, -12.774, 28.2784, 32.4154, -13.9002, -81.9371, -0.72496
6.37588, 6, -12.8639, 28.3585, 32.3654, -13.9923, -82.0711, -0.74225
6.384, 6, -12.9537, 28.4387, 32.3151, -14.084, -82.2048, -0.759568
6.3919, 6, -13.0435, 28.5192, 32.2643, -14.1759, -82.3384, -0.776612
6.4, 6, -13.1333, 28.5998, 32.2132, -14.2675, -82.4716, -0.793559
6.40799, 6, -13.2232, 28.6805, 32.1614, -14.3587, -82.605, -0.810613
6.4159, 6, -13.313, 28.7614, 32.1094, -14.45, -82.7377, -0.827793
6.42392, 6, -13.4028, 28.8426, 32.0568, -14.5411, -82.8706, -0.845173
6.43337, 6, -13.4925, 28.9238, 32.0038, -14.6321, -83.0029, -0.862847
6.43995, 6, -13.582, 29.0052, 31.9503, -14.7232, -83.135, -0.880806
6.44802, 6, -13.6714, 29.0866, 31.8964, -14.8143, -83.2669, -0.899205
6.4559, 6, -13.7606, 29.1683, 31.842, -14.905, -83.3986, -0.91763
6.46393, 6, -13.8497, 29.2501, 31.7873, -14.9958, -83.5301, -0.935938
6.47202, 6, -13.9384, 29.332, 31.732, -15.0864, -83.6615, -0.954137
6.48004, 6, -14.0269, 29.4142, 31.6763, -15.1766, -83.7926, -0.972155
6.48751, 6, -14.1153, 29.4964, 31.6203, -15.267, -83.9232, -0.990147
6.49607, 6, -14.2036, 29.5789, 31.5638, -15.3569, -84.0539, -1.00812
6.50402, 6, -14.2919, 29.6616, 31.5069, -15.4468, -84.184, -1.0263
6.51153, 6, -14.3801, 29.7443, 31.4496, -15.5368, -84.314, -1.04485
6.52014, 6, -14.4682, 29.8271, 31.3917, -15.6265, -84.4437, -1.0637
6.52742, 6, -14.5123, 29.8686, 31.3626, -15.6716, -84.5085, -1.07325
6.53593, 6, -14.6447, 29.9933, 31.2747, -15.8059, -84.7024, -1.10203
6.54405, 6, -14.7331, 30.0767, 31.2155, -15.8955, -84.8315, -1.12127
6.5509, 6, -14.7773, 30.1183, 31.1857, -15.9402, -84.8959, -1.13074
6.56007, 6, -14.9099, 30.2436, 31.0957, -16.0738, -85.0886, -1.15894
6.5669, 6, -14.9541, 30.2855, 31.0655, -16.1184, -85.1528, -1.16823
6.57616, 6, -15.0865, 30.4112, 30.9743, -16.252, -85.3445, -1.19631
6.58294, 6, -15.1306, 30.4531, 30.9438, -16.2964, -85.4084, -1.20568
6.59242, 6, -15.2629, 30.5791, 30.8513, -16.4296, -85.5993, -1.23429
6.60037, 6, -15.3508, 30.6633, 30.7892, -16.5184, -85.7264, -1.25377
6.60848, 6, -15.4386, 30.7476, 30.7265, -16.6071, -85.8532, -1.27353
6.6169, 6, -15.5262, 30.832, 30.6633, -16.6959, -85.9797, -1.29308
6.62447, 6, -15.6137, 30.9166, 30.5997, -16.7843, -86.1061, -1.31269
6.63247, 6, -15.701, 31.0013, 30.5357, -16.8726, -86.2319, -1.33194
6.64065, 6, -15.7882, 31.0861, 30.4712, -16.9607, -86.3578, -1.35115
6.64842, 6, -15.8317, 31.1286, 30.4388, -17.0047, -86.4205, -1.36071
6.65589, 6, -15.9186, 31.2136, 30.3737, -17.0924, -86.5455, -1.37986
6.66395, 6, -16.0054, 31.2987, 30.3082, -17.1802, -86.6707, -1.39926
6.672, 6, -16.0922, 31.384, 30.2423, -17.2681, -86.7952, -1.41866
6.67996, 6, -16.179, 31.4694, 30.176, -17.3557, -86.9198, -1.4385
6.68794, 6, -16.2657, 31.555, 30.1093, -17.4435, -87.044, -1.45857
6.6949, 6, -16.3524, 31.6406, 30.042, -17.5309, -87.168, -1.47868
6.7039, 6, -16.4389, 31.7264, 29.9743, -17.6184, -87.2917, -1.49861
6.71194, 6, -16.5253, 31.8124, 29.9061, -17.7058, -87.4152, -1.51842
6.71994, 6, -16.6118, 31.8984, 29.8374, -17.7926, -87.5386, -1.53805
6.72789, 6, -16.698, 31.9846, 29.7683, -17.8797, -87.6615, -1.5576
6.73602, 6, -16.784, 32.0708, 29.6989, -17.9664, -87.7844, -1.57733
6.74291, 6, -16.8697, 32.1572, 29.629, -18.053, -87.9068, -1.59738
6.75189, 6, -16.9551, 32.2436, 29.5588, -18.1399, -88.0291, -1.6177
6.7589, 6, -17.0405, 32.3302, 29.4881, -18.2264, -88.151, -1.63824
6.7669, 6, -17.1256, 32.4169, 29.4169, -18.313, -88.2725, -1.6587
6.77589, 6, -17.2106, 32.5037, 29.3452, -18.3993, -88.394, -1.6789
6.78401, 6, -17.2955, 32.5907, 29.273, -18.4854, -88.5149, -1.69881
6.79293, 6, -17.3803, 32.6777, 29.2005, -18.5714, -88.6357, -1.71864
6.79995, 6, -17.4652, 32.7649, 29.1275, -18.657, -88.756, -1.73843
6.8089, 6, -17.5502, 32.8521, 29.0541, -18.7427, -88.8761, -1.75824
6.81594, 6, -17.6353, 32.9395, 28.9803, -18.8282, -88.9961, -1.77839
6.8239, 6, -17.7203, 33.0271, 28.9061, -18.9134, -89.1152, -1.7989
6.83195, 6, -17.8053, 33.1147, 28.8315, -18.9988, -89.2343, -1.81976
6.83993, 6, -17.8901, 33.2025, 28.7564, -19.0838, -89.3529, -1.84064
6.8479, 6, -17.9746, 33.2902, 28.6809, -19.1693, -89.4713, -1.86119
6.85595, 6, -18.0582, 33.3775, 28.6051, -19.2541, -89.5896, -1.88178
6.86388, 6, -18.1403, 33.4642, 28.5291, -19.3388, -89.7069, -1.9019
6.87189, 6, -18.2204, 33.5493, 28.4535, -19.423, -89.8239, -1.92182
6.88002, 6, -18.2967, 33.6313, 28.3794, -19.5055, -89.9389, -1.94158
6.88788, 6, -18.3677, 33.7088, 28.308, -19.5862, -90.0509, -1.96093
6.89589, 6, -18.4333, 33.7807, 28.2405, -19.6625, -90.1574, -1.97949
6.90399, 6, -18.4932, 33.8466, 28.178, -19.7329, -90.255, -1.99695
6.91188, 6, -18.5466, 33.9054, 28.1225, -19.7942, -90.3417, -2.01239
6.91993, 6, -18.5934, 33.9565, 28.0748, -19.8466, -90.4142, -2.02557
6.92796, 6, -18.6346, 34.0008, 28.0356, -19.8877, -90.4721, -2.03594
6.93589, 6, -18.6709, 34.0382, 28.005, -19.9177, -90.5148, -2.04348
6.94388, 6, -18.7012, 34.0683, 27.9824, -19.9383, -90.544, -2.04871
6.9521, 6, -18.7254, 34.0908, 27.9667, -19.9513, -90.5625, -2.05195
6.95919, 6, -18.7441, 34.1072, 27.9565, -19.9591, -90.5735, -2.05375
6.96732, 6, -18.7573, 34.1183, 27.9503, -19.9634, -90.5794, -2.05481
6.9757, 6, -18.7654, 34.1248, 27.9467, -19.9655, -90.5824, -2.05533
6.98396, 7, -18.7697, 34.1278, 27.9446, -19.9667, -90.5839, -2.05568
6.99197, 7, -18.7716, 34.1291, 27.9434, -19.9673, -90.5847, -2.05586
7.00013, 7, -18.7724, 34.1295, 27.9427, -19.9676, -90.5851, -2.05588
7.00744, 7, -18.7726, 34.1295, 27.9423, -19.9678, -90.5853, -2.05593
7.01603, 7, -18.7724, 34.1294, 27.942, -19.9679, -90.5854, -2.05597
7.02406, 7, -18.7721, 34.1295, 27.9419, -19.968, -90.5854, -2.05595
7.03189, 7, -18.7718, 34.1296, 27.9418, -19.968, -90.5855, -2.05594
7.03996, 7, -18.7716, 34.13, 27.9417, -19.968, -90.5856, -2.05592
7.048, 7, -18.7715, 34.1308, 27.9417, -19.9681, -90.5856, -2.05591
7.05595, 7, -18.7714, 34.1317, 27.9417, -19.9681, -90.5856, -2.05592
7.06293, 7, -18.7714, 34.1322, 27.9417, -19.9681, -90.5856, -2.05595
7.07225, 7, -18.7715, 34.1335, 27.9417, -19.9681, -90.5856, -2.05595
7.07993, 7, -18.7716, 34.1338, 27.9417, -19.9681, -90.5856, -2.05595
7.08692, 7, -18.7718, 34.1342, 27.9417, -19.9682, -90.5856, -2.05596
7.09631, 7, -18.7721, 34.1344, 27.9417, -19.9682, -90.5856, -2.05604
7.10288, 7, -18.7723, 34.1344, 27.9417, -19.9682, -90.5856, -2.05603
