hehonglu123/ABB_Primitive_Study/realrobot/movel_30_ori/curve_exe_v300_z1.csv
timestamp, cmd_num, J1, J2, J3, J4, J5, J6
0.000418, -1, -18.7714, 34.1326, 27.9418, -19.968, -90.5853, -2.05554
0.003361, -1, -18.7714, 34.1326, 27.9418, -19.968, -90.5853, -2.05553
0.010239, -1, -18.7714, 34.1326, 27.9418, -19.968, -90.5853, -2.05552
0.033722, -1, -18.7714, 34.1326, 27.9418, -19.968, -90.5854, -2.05555
0.035202, -1, -18.7714, 34.1326, 27.9418, -19.968, -90.5854, -2.05552
0.036389, -1, -18.7714, 34.1326, 27.9418, -19.968, -90.5854, -2.05552
0.039761, -1, -18.7714, 34.1326, 27.9418, -19.968, -90.5854, -2.05552
0.047518, -1, -18.7714, 34.1326, 27.9418, -19.968, -90.5853, -2.05553
0.055396, -1, -18.7712, 34.1326, 27.9418, -19.968, -90.5853, -2.05553
0.06339, -1, -18.77, 34.1323, 27.9418, -19.968, -90.5853, -2.05554
0.071465, -1, -18.7664, 34.131, 27.9419, -19.9679, -90.5852, -2.05554
0.079404, -1, -18.7594, 34.128, 27.9421, -19.9671, -90.5841, -2.05567
0.087409, -1, -18.7484, 34.1226, 27.9424, -19.9633, -90.58, -2.05608
0.09551, -1, -18.7315, 34.114, 27.9425, -19.953, -90.5698, -2.0588
0.103397, -1, -18.7062, 34.1009, 27.9424, -19.933, -90.5493, -2.06722
0.111412, -1, -18.671, 34.0829, 27.9416, -19.8988, -90.5138, -2.08283
0.119523, -1, -18.6244, 34.0592, 27.9394, -19.8445, -90.457, -2.1078
0.1274, -1, -18.5648, 34.0289, 27.9351, -19.7662, -90.3752, -2.14444
0.13543, -1, -18.4914, 33.9916, 27.9281, -19.6593, -90.2629, -2.19564
0.143773, -1, -18.4039, 33.9475, 27.9177, -19.5216, -90.1179, -2.26138
0.151494, -1, -18.3028, 33.8965, 27.9037, -19.3521, -89.9387, -2.34204
0.159515, -1, -18.1878, 33.8388, 27.8866, -19.1519, -89.7271, -2.43813
0.167898, -1, -18.0592, 33.7743, 27.8666, -18.9245, -89.4864, -2.5463
0.175506, -1, -17.9178, 33.7036, 27.8444, -18.6746, -89.2211, -2.66588
0.18358, -1, -17.7651, 33.6274, 27.8208, -18.4076, -88.9371, -2.7936
0.192061, -1, -17.6025, 33.546, 27.7964, -18.1281, -88.6402, -2.9274
0.201263, -1, -17.431, 33.4602, 27.7716, -17.8408, -88.3346, -3.06512
0.207434, -1, -17.2526, 33.3711, 27.7465, -17.5487, -88.0238, -3.20543
0.216331, -1, -17.0696, 33.2797, 27.7214, -17.2533, -87.71, -3.34728
0.223883, -1, -16.8835, 33.1871, 27.6962, -16.9566, -87.3944, -3.48984
0.231568, -1, -16.6952, 33.0937, 27.6712, -16.6586, -87.0773, -3.63264
0.240502, -1, -16.5058, 32.9999, 27.6462, -16.3597, -86.7591, -3.77559
0.247755, -1, -16.3158, 32.9061, 27.621, -16.0603, -86.4403, -3.91899
0.255856, -1, -16.1258, 32.8123, 27.596, -15.7597, -86.1205, -4.06283
0.264886, -1, -15.9359, 32.7186, 27.571, -15.4585, -85.8004, -4.20666
0.272905, -1, -15.7467, 32.6249, 27.5459, -15.1572, -85.4796, -4.35099
0.28049, -1, -15.558, 32.5313, 27.5206, -14.8553, -85.1584, -4.4956
0.288775, -1, -15.3696, 32.4373, 27.4954, -14.553, -84.837, -4.64017
0.296004, -1, -15.1817, 32.3432, 27.4702, -14.2506, -84.5149, -4.78502
0.304014, -1, -15.0878, 32.2487, 27.4449, -13.9475, -84.1927, -4.93003
0.312758, -1, -14.9001, 32.2013, 27.4323, -13.7958, -84.0316, -5.00244
0.319398, -1, -14.7119, 32.1062, 27.4067, -13.4925, -83.7089, -5.14763
0.327475, -1, -14.5226, 32.011, 27.3811, -13.189, -83.3859, -5.29298
0.335383, -1, -14.3323, 31.9156, 27.3555, -12.8853, -83.0626, -5.43846
0.343385, -1, -14.1409, 31.8201, 27.33, -12.5816, -82.7392, -5.58422
0.352543, -1, -13.8526, 31.6767, 27.2915, -12.1252, -82.2534, -5.80268
0.359399, -1, -13.7563, 31.6289, 27.2787, -11.9731, -82.0914, -5.87549
0.367438, -1, -13.5632, 31.5335, 27.2531, -11.6687, -81.7673, -6.02121
0.375385, -1, -13.3694, 31.438, 27.2275, -11.3642, -81.4433, -6.16671
0.383418, -1, -13.1756, 31.3426, 27.2019, -11.0599, -81.1193, -6.3124
0.393037, -1, -12.8862, 31.1999, 27.1635, -10.6033, -80.6335, -6.53099
0.399386, -1, -12.7901, 31.1524, 27.1507, -10.451, -80.4718, -6.60385
0.409772, -1, -12.5025, 31.0098, 27.1125, -9.99463, -79.9866, -6.82275
0.415464, -1, -12.4071, 30.9622, 27.0997, -9.84261, -79.8249, -6.8955
0.423383, -1, -12.217, 30.8671, 27.074, -9.53853, -79.5014, -7.04096
0.432987, -1, -12.0276, 30.7718, 27.0484, -9.08287, -79.0162, -7.25916
0.439458, -1, -11.8389, 30.6765, 27.0229, -8.93112, -78.8546, -7.33187
0.44843, -1, -11.65, 30.5812, 26.9974, -8.62744, -78.5313, -7.47713
0.455399, -1, -11.4609, 30.486, 26.9719, -8.32433, -78.2086, -7.62231
0.463507, -1, -11.2715, 30.391, 26.9463, -8.0219, -77.8867, -7.76735
0.471373, -1, -11.0817, 30.2961, 26.9208, -7.71967, -77.565, -7.91218
0.479368, -1, -10.8916, 30.2015, 26.8954, -7.41816, -77.244, -8.05646
0.487456, -1, -10.701, 30.1072, 26.8701, -7.11689, -76.9237, -8.20049
0.495394, -1, -10.5104, 30.013, 26.8447, -6.81587, -76.6036, -8.34425
0.503383, -1, -10.3194, 29.9189, 26.8195, -6.51575, -76.2839, -8.48779
0.511466, -1, -10.129, 29.8251, 26.7944, -6.21619, -75.9647, -8.63102
0.519382, -1, -9.9393, 29.7315, 26.7693, -5.91701, -75.6461, -8.77416
0.527383, -1, -9.75019, 29.6381, 26.7441, -5.61856, -75.3283, -8.91739
0.53546, -1, -9.56205, 29.5447, 26.7191, -5.32044, -75.0113, -9.05987
0.54338, -1, -9.37486, 29.4516, 26.6941, -5.02299, -74.6951, -9.20206
0.551428, -1, -9.18873, 29.3585, 26.6691, -4.72658, -74.3796, -9.34376
0.559455, -1, -9.00351, 29.2657, 26.6442, -4.4307, -74.0648, -9.48512
0.567381, -1, -8.81907, 29.1729, 26.6192, -4.13572, -73.7509, -9.62637
0.575381, -1, -8.63537, 29.0803, 26.5945, -3.84171, -73.4378, -9.76718
0.583452, -1, -8.45189, 28.9881, 26.5698, -3.5481, -73.1255, -9.90761
0.591389, -1, -8.26871, 28.8963, 26.5451, -3.25563, -72.8143, -10.0478
0.599416, -1, -8.08571, 28.8047, 26.5205, -2.96418, -72.5041, -10.1874
0.607457, -1, -7.90252, 28.7135, 26.4959, -2.67339, -72.1944, -10.3265
0.615399, -1, -7.71943, 28.6227, 26.4716, -2.38381, -71.8859, -10.4651
0.623447, -1, -7.53667, 28.5321, 26.4474, -2.09489, -71.5782, -10.6031
0.631544, -1, -7.35412, 28.4419, 26.4232, -1.80677, -71.2715, -10.7407
0.639421, -1, -7.17202, 28.352, 26.399, -1.5197, -70.9661, -10.8781
0.647534, -1, -6.99047, 28.2624, 26.375, -1.2337, -70.6616, -11.0149
0.655557, -1, -6.80992, 28.1731, 26.351, -0.948725, -70.3582, -11.1515
0.66352, -1, -6.6305, 28.0841, 26.3272, -0.66493, -70.0562, -11.2875
0.671558, -1, -6.45204, 27.9953, 26.3033, -0.382051, -69.7554, -11.4229
0.679901, -1, -6.27491, 27.9068, 26.2795, -0.100005, -69.4557, -11.5577
0.687388, -1, -6.09887, 27.8187, 26.2559, 0.180835, -69.1568, -11.6922
0.696117, -1, -5.92373, 27.7308, 26.2323, 0.460546, -68.8591, -11.8261
0.704473, -1, -5.74959, 27.6432, 26.209, 0.739185, -68.5623, -11.9596
0.711586, -1, -5.57608, 27.556, 26.1855, 1.01676, -68.2665, -12.0924
0.720329, -1, -5.40297, 27.4692, 26.1621, 1.29315, -67.972, -12.2251
0.727548, -1, -5.2302, 27.3829, 26.1389, 1.56845, -67.6789, -12.357
0.735661, -1, -5.05769, 27.2968, 26.1158, 1.84293, -67.3871, -12.4881
0.744502, -1, -4.88549, 27.2112, 26.093, 2.1159, -67.0965, -12.6186
0.751727, -1, -4.71364, 27.126, 26.07, 2.38761, -66.8073, -12.7486
0.759868, -1, -4.54241, 27.0411, 26.0472, 2.65839, -66.5194, -12.878
0.768725, -1, -4.37147, 26.9566, 26.0245, 2.92766, -66.2327, -13.0068
0.775887, -1, -4.20093, 26.8724, 26.0019, 3.19591, -65.9471, -13.1352
0.784536, -1, -4.03129, 26.7886, 25.9794, 3.46322, -65.6628, -13.2631
0.792786, -1, -3.86276, 26.7052, 25.957, 3.72907, -65.3796, -13.3906
0.799984, -1, -3.69544, 26.622, 25.9347, 3.99383, -65.0975, -13.5173
0.808558, -1, -3.52926, 26.5392, 25.9125, 4.25757, -64.8168, -13.6434
0.815372, -1, -3.4466, 26.4979, 25.9014, 4.38888, -64.677, -13.7062
0.823419, -1, -3.28207, 26.4156, 25.8793, 4.65063, -64.3983, -13.8314
0.831398, -1, -3.11857, 26.3336, 25.8573, 4.91139, -64.1207, -13.9558
0.839371, -1, -2.95621, 26.252, 25.8354, 5.17118, -63.8445, -14.0801
0.847418, -1, -2.79479, 26.1707, 25.8137, 5.42962, -63.5697, -14.2038
0.855378, -1, -2.63413, 26.0898, 25.7921, 5.68676, -63.296, -14.3267
0.863365, -1, -2.47378, 26.0095, 25.7706, 5.94278, -63.0235, -14.4496
0.87143, -1, -2.31367, 25.9295, 25.7491, 6.19744, -62.7523, -14.5717
0.879359, -1, -2.15395, 25.8499, 25.7277, 6.45087, -62.4825, -14.6929
0.889623, -1, -1.91522, 25.7312, 25.6959, 6.82926, -62.0797, -14.8737
0.895417, -1, -1.83585, 25.6919, 25.6853, 6.95488, -61.946, -14.9338
0.904987, -1, -1.59851, 25.5743, 25.6539, 7.32959, -61.5468, -15.1128
0.911345, -1, -1.51955, 25.5353, 25.6435, 7.45388, -61.4144, -15.1723
0.919432, -1, -1.36204, 25.4576, 25.6225, 7.70179, -61.1501, -15.2909
0.928997, -1, -1.12699, 25.3415, 25.5916, 8.07153, -60.756, -15.4678
0.935401, -1, -1.0491, 25.303, 25.5812, 8.19414, -60.6254, -15.5268
0.944366, -1, -0.894175, 25.2262, 25.5607, 8.43888, -60.365, -15.6439
0.951394, -1, -0.740635, 25.1497, 25.5403, 8.68261, -60.1058, -15.7604
0.960362, -1, -0.588056, 25.0736, 25.5198, 8.92491, -59.8478, -15.8767
0.96743, -1, -0.436539, 24.9978, 25.4994, 9.16611, -59.5912, -15.9921
0.975363, -1, -0.286133, 24.9224, 25.4793, 9.40632, -59.3361, -16.1072
0.983367, -1, -0.136816, 24.8474, 25.4593, 9.64538, -59.0819, -16.2216
0.991373, -1, 0.0115548, 24.7727, 25.4394, 9.88317, -58.8288, -16.3356
1.00046, -1, 0.159209, 24.6983, 25.4196, 10.1201, -58.5767, -16.4492
1.00736, -1, 0.306426, 24.6243, 25.3996, 10.356, -58.3256, -16.562
1.01543, -1, 0.453601, 24.5506, 25.3799, 10.5907, -58.0755, -16.6748
1.02337, -1, 0.600676, 24.4773, 25.3603, 10.8243, -57.8264, -16.7868
1.03143, -1, 0.747429, 24.4043, 25.3408, 11.0569, -57.5784, -16.8981
1.03936, -1, 0.893946, 24.3315, 25.3214, 11.2883, -57.3316, -17.0093
1.04738, -1, 1.03989, 24.2591, 25.302, 11.5188, -57.086, -17.1193
1.05546, -1, 1.18534, 24.187, 25.2827, 11.7483, -56.8417, -17.229
1.06336, -1, 1.33024, 24.1152, 25.2635, 11.9768, -56.5986, -17.3381
1.07137, -1, 1.47463, 24.0439, 25.2444, 12.2044, -56.3568, -17.4469
1.07943, -1, 1.6186, 23.9728, 25.2254, 12.4307, -56.1159, -17.5552
1.08737, -1, 1.76178, 23.902, 25.2066, 12.656, -55.8762, -17.6628
1.09544, -1, 1.90385, 23.8316, 25.1877, 12.8805, -55.6376, -17.7705
1.1034, -1, 2.04486, 23.7615, 25.1689, 13.1038, -55.4, -17.8775
1.11137, -1, 2.18502, 23.6918, 25.1503, 13.326, -55.1634, -17.9838
1.11953, -1, 2.32422, 23.6223, 25.1317, 13.5474, -54.9276, -18.0898
1.12738, -1, 2.46242, 23.5531, 25.1132, 13.768, -54.6928, -18.1951
1.1354, -1, 2.59972, 23.4843, 25.0949, 13.9875, -54.4589, -18.3
1.14383, -1, 2.73599, 23.4157, 25.0765, 14.2061, -54.2259, -18.4044
1.15145, -1, 2.87152, 23.3473, 25.0582, 14.4235, -53.9942, -18.5086
1.15946, -1, 3.00653, 23.2793, 25.0401, 14.6403, -53.7636, -18.6122
1.16791, -1, 3.14132, 23.2114, 25.0218, 14.856, -53.5339, -18.7157
1.17548, -1, 3.27618, 23.1439, 25.0038, 15.0707, -53.3053, -18.8184
1.18348, -1, 3.41092, 23.0768, 24.9859, 15.2847, -53.0776, -18.9212
1.19218, -1, 3.54535, 23.0099, 24.968, 15.4979, -52.8509, -19.0232
1.19937, -1, 3.67954, 22.9433, 24.9502, 15.7103, -52.6251, -19.1245
1.2074, -1, 3.81337, 22.877, 24.9326, 15.9215, -52.4003, -19.2258
1.2163, -1, 3.94668, 22.811, 24.9148, 16.1317, -52.1765, -19.3262
1.34954, -1, 6.05627, 21.7579, 24.6333, 19.4844, -48.6078, -20.9305
1.35081, -1, 6.05627, 21.7579, 24.6333, 19.4844, -48.6078, -20.9305
1.3528, -1, 6.11808, 21.727, 24.625, 19.5828, -48.5033, -20.9774
1.35411, -1, 6.11808, 21.727, 24.625, 19.5828, -48.5033, -20.9774
1.35535, -1, 6.11808, 21.727, 24.625, 19.5828, -48.5033, -20.9774
1.3574, -1, 6.17985, 21.6962, 24.6168, 19.6809, -48.3989, -21.0244
1.35862, -1, 6.17985, 21.6962, 24.6168, 19.6809, -48.3989, -21.0244
1.36492, -1, 6.30327, 21.6348, 24.6005, 19.8765, -48.1907, -21.1185
1.36625, -1, 6.30327, 21.6348, 24.6005, 19.8765, -48.1907, -21.1185
1.36751, -1, 6.30327, 21.6348, 24.6005, 19.8765, -48.1907, -21.1185
1.3695, -1, 6.3649, 21.6042, 24.5922, 19.974, -48.0869, -21.165
1.37078, -1, 6.3649, 21.6042, 24.5922, 19.974, -48.0869, -21.165
1.37268, -1, 6.42649, 21.5736, 24.584, 20.0713, -47.9832, -21.2117
1.37413, -1, 6.42649, 21.5736, 24.584, 20.0713, -47.9832, -21.2117
1.37531, -1, 6.42649, 21.5736, 24.584, 20.0713, -47.9832, -21.2117
1.3776, -1, 6.48807, 21.543, 24.5757, 20.1684, -47.8798, -21.2585
1.3788, -1, 6.48807, 21.543, 24.5757, 20.1684, -47.8798, -21.2585
1.38067, -1, 6.54953, 21.5125, 24.5675, 20.2654, -47.7766, -21.3049
1.38201, -1, 6.54953, 21.5125, 24.5675, 20.2654, -47.7766, -21.3049
1.38329, -1, 6.54953, 21.5125, 24.5675, 20.2654, -47.7766, -21.3049
1.3869, -1, 6.61084, 21.4821, 24.5595, 20.3621, -47.6736, -21.3509
1.39293, -1, 6.73325, 21.4215, 24.5433, 20.5553, -47.4679, -21.4436
1.40091, -1, 6.85537, 21.361, 24.5271, 20.7478, -47.2626, -21.5354
1.4074, -1, 6.91626, 21.331, 24.519, 20.8437, -47.1605, -21.5811
1.41694, -1, 7.09808, 21.2411, 24.4948, 21.1303, -46.8549, -21.7183
1.42502, -1, 7.21849, 21.1815, 24.4788, 21.3205, -46.6522, -21.8093
1.43142, -1, 7.27846, 21.1517, 24.4708, 21.4154, -46.5511, -21.8549
1.43938, -1, 7.39799, 21.0925, 24.455, 21.6048, -46.3496, -21.9449
1.44834, -1, 7.51685, 21.0334, 24.4393, 21.7933, -46.1489, -22.0355
1.45547, -1, 7.63529, 20.9745, 24.4236, 21.9811, -45.9489, -22.125
1.4644, -1, 7.7533, 20.9158, 24.4078, 22.1684, -45.7499, -22.2151
1.47134, -1, 7.87075, 20.8572, 24.3921, 22.3551, -45.5513, -22.3042
1.47942, -1, 7.98761, 20.7988, 24.3765, 22.5413, -45.3537, -22.3934
1.48742, -1, 8.10384, 20.7405, 24.3608, 22.7266, -45.1569, -22.4817
1.49536, -1, 8.21952, 20.6824, 24.3453, 22.9111, -44.9607, -22.5703
1.50346, -1, 8.33488, 20.6245, 24.33, 23.0951, -44.7649, -22.6579
1.51136, -1, 8.44992, 20.5669, 24.3146, 23.2786, -44.5698, -22.7457
1.51934, -1, 8.56453, 20.5095, 24.2992, 23.4613, -44.375, -22.8328
1.52741, -1, 8.67862, 20.4523, 24.2838, 23.6433, -44.1811, -22.9199
1.53535, -1, 8.79225, 20.3954, 24.2687, 23.8247, -43.9877, -23.0068
1.54341, -1, 8.90565, 20.3387, 24.2535, 24.0057, -43.7947, -23.0933
1.55137, -1, 9.01886, 20.2821, 24.2383, 24.1862, -43.6027, -23.1797
1.55941, -1, 9.13196, 20.2257, 24.2234, 24.3659, -43.4115, -23.2656
1.56734, -1, 9.24501, 20.1695, 24.2085, 24.545, -43.2208, -23.3518
1.57534, -1, 9.35798, 20.1135, 24.1934, 24.7233, -43.0307, -23.4371
1.58342, -1, 9.47066, 20.0576, 24.1784, 24.9014, -42.8413, -23.5226
1.59135, -1, 9.58288, 20.0018, 24.1634, 25.0789, -42.6523, -23.607
1.59934, -1, 9.69463, 19.9462, 24.1486, 25.2556, -42.4641, -23.6919
1.60742, -1, 9.80602, 19.8907, 24.1337, 25.4319, -42.2765, -23.7759
1.61535, -1, 9.91717, 19.8355, 24.119, 25.6076, -42.0894, -23.86
1.62339, -1, 10.028, 19.7804, 24.1045, 25.7829, -41.9032, -23.9434
1.63142, -1, 10.1384, 19.7256, 24.0899, 25.9578, -41.7173, -24.0269
1.63938, -1, 10.2484, 19.671, 24.0752, 26.132, -41.5321, -24.1102
1.64748, -1, 10.358, 19.6165, 24.0606, 26.3055, -41.3473, -24.193
1.65544, -1, 10.4671, 19.5623, 24.0461, 26.4786, -41.1629, -24.2762
1.66344, -1, 10.5757, 19.5081, 24.0316, 26.6511, -40.9794, -24.3584
1.67155, -1, 10.6839, 19.4542, 24.0171, 26.8232, -40.7962, -24.4413
1.67945, -1, 10.7919, 19.4005, 24.0028, 26.9946, -40.6136, -24.5232
1.68752, -1, 10.8994, 19.3468, 23.9886, 27.1655, -40.4315, -24.6056
1.69552, -1, 11.0065, 19.2932, 23.9743, 27.3359, -40.2499, -24.6869
1.70337, -1, 11.1131, 19.2399, 23.9599, 27.5059, -40.0691, -24.7683
1.71138, -1, 11.2195, 19.1866, 23.9456, 27.6755, -39.8886, -24.8496
1.71943, -1, 11.3255, 19.1335, 23.9315, 27.8444, -39.7088, -24.9303
1.72756, -1, 11.431, 19.0806, 23.9173, 28.0128, -39.5294, -25.0111
1.7355, -1, 11.5362, 19.0279, 23.9031, 28.1806, -39.3506, -25.0913
1.74364, -1, 11.6411, 18.9754, 23.8893, 28.348, -39.1723, -25.1717
1.7517, -1, 11.746, 18.923, 23.8753, 28.5152, -38.9945, -25.2515
1.75969, -1, 11.8507, 18.8709, 23.8613, 28.6817, -38.8173, -25.3316
1.76786, -1, 11.9551, 18.8189, 23.8473, 28.8477, -38.6405, -25.4111
1.77653, -1, 12.0594, 18.7669, 23.8334, 29.0132, -38.4641, -25.4906
1.78393, -1, 12.1636, 18.7151, 23.8195, 29.1785, -38.2886, -25.5701
1.79251, -1, 12.2676, 18.6634, 23.8057, 29.3433, -38.1136, -25.6487
1.79992, -1, 12.3713, 18.6119, 23.7919, 29.5076, -37.9391, -25.728
1.80799, -1, 12.4748, 18.5605, 23.7783, 29.6714, -37.765, -25.8059
1.81594, -1, 12.5264, 18.5348, 23.7715, 29.753, -37.6781, -25.8843
1.82335, -1, 12.6295, 18.4836, 23.7579, 29.9162, -37.5046, -25.9235
1.83237, -1, 12.7835, 18.4069, 23.7372, 30.1601, -37.245, -26.0397
1.83939, -1, 12.8347, 18.3815, 23.7304, 30.2412, -37.1587, -26.0787
1.84738, -1, 12.9368, 18.3309, 23.7168, 30.4029, -36.9865, -26.1557
1.85646, -1, 13.0891, 18.2551, 23.6965, 30.6446, -36.7288, -26.2715
1.86335, -1, 13.1397, 18.2299, 23.6897, 30.7249, -36.6433, -26.3099
1.87133, -1, 13.2407, 18.1796, 23.6763, 30.8853, -36.4722, -26.3861
1.88066, -1, 13.3916, 18.1045, 23.6564, 31.1255, -36.2167, -26.5011
1.88738, -1, 13.4417, 18.0795, 23.6498, 31.2052, -36.1317, -26.539
1.89533, -1, 13.5418, 18.0295, 23.6364, 31.3644, -35.9622, -26.6153
1.90482, -1, 13.6917, 17.9547, 23.6163, 31.6022, -35.7089, -26.7293
1.9113, -1, 13.7415, 17.9298, 23.6097, 31.6813, -35.6246, -26.7671
1.9209, -1, 13.8907, 17.8553, 23.5898, 31.9182, -35.3727, -26.8807
1.92895, -1, 13.99, 17.8057, 23.5765, 32.0756, -35.2052, -26.9557
1.93699, -1, 14.0396, 17.7564, 23.5633, 32.2326, -35.038, -27.0311
1.94497, -1, 14.1386, 17.7317, 23.5568, 32.3109, -34.8717, -27.1055
1.9514, -1, 14.2372, 17.6826, 23.5438, 32.4672, -34.7886, -27.1428
1.96038, -1, 14.3354, 17.6336, 23.5307, 32.6233, -34.6228, -27.2178
1.96835, -1, 14.4332, 17.5848, 23.5175, 32.7791, -34.4574, -27.2915
1.97539, -1, 14.5307, 17.5362, 23.5044, 32.9345, -34.2922, -27.3659
1.98335, -1, 14.6279, 17.4877, 23.4915, 33.0893, -34.1273, -27.4401
1.99133, -1, 14.7246, 17.4393, 23.4785, 33.2437, -33.9628, -27.5137
1.9994, -1, 14.8211, 17.3911, 23.4656, 33.3978, -33.7987, -27.5878
2.00743, -1, 14.9175, 17.3429, 23.4527, 33.5516, -33.6351, -27.6612
2.01534, -1, 15.0137, 17.2947, 23.44, 33.705, -33.4717, -27.7351
2.02339, -1, 15.1098, 17.2466, 23.4272, 33.858, -33.3085, -27.8085
2.03134, -1, 15.2057, 17.1986, 23.4144, 34.0106, -33.1461, -27.8814
2.0394, -1, 15.3016, 17.1507, 23.4015, 34.1627, -32.9838, -27.9549
2.04738, -1, 15.3974, 17.1028, 23.3887, 34.3146, -32.8223, -28.0271
2.05533, -1, 15.4932, 17.0551, 23.3758, 34.4662, -32.661, -28.0998
2.06341, -1, 15.5889, 17.0076, 23.3631, 34.6175, -32.5002, -28.1723
2.07133, -1, 15.6844, 16.9603, 23.3503, 34.7683, -32.3396, -28.2441
2.07939, -1, 15.7795, 16.913, 23.3378, 34.9189, -32.1794, -28.3164
2.08744, -1, 15.8745, 16.8661, 23.3253, 35.0688, -32.0196, -28.3878
2.09534, -1, 15.9692, 16.8192, 23.3128, 35.2185, -31.8603, -28.4593
2.10333, -1, 16.0636, 16.7725, 23.3001, 35.3682, -31.7012, -28.5313
2.11139, -1, 16.1577, 16.7259, 23.2876, 35.5173, -31.5424, -28.6022
2.11935, -1, 16.2514, 16.6793, 23.2751, 35.666, -31.3842, -28.6739
2.12742, -1, 16.3448, 16.6327, 23.2627, 35.8145, -31.2262, -28.7448
2.1354, -1, 16.438, 16.5863, 23.2502, 35.9626, -31.0686, -28.8156
2.14369, -1, 16.5309, 16.5397, 23.2377, 36.1106, -30.9112, -28.8869
2.15141, -1, 16.6235, 16.4933, 23.2254, 36.2583, -30.754, -28.9572
2.15948, -1, 16.716, 16.4469, 23.213, 36.4056, -30.5973, -29.028
2.16746, -1, 16.8083, 16.4007, 23.2006, 36.5525, -30.4409, -29.0983
2.17547, -1, 16.9005, 16.3545, 23.1882, 36.6989, -30.285, -29.168
2.18358, -1, 16.9926, 16.3085, 23.1758, 36.8452, -30.1293, -29.2383
2.19139, -1, 17.0845, 16.2627, 23.1636, 36.9911, -29.9739, -29.3078
2.19933, -1, 17.1756, 16.2173, 23.1513, 37.1368, -29.8186, -29.3773
2.20763, -1, 17.2643, 16.1729, 23.1389, 37.2819, -29.6642, -29.4469
2.21536, -1, 17.3489, 16.1305, 23.1263, 37.4256, -29.5111, -29.5151
2.22341, -1, 17.4281, 16.091, 23.1138, 37.5661, -29.3613, -29.5826
2.23157, -1, 17.5018, 16.0544, 23.1014, 37.7004, -29.2179, -29.6472
2.23993, -1, 17.5695, 16.0214, 23.0897, 37.8252, -29.0848, -29.7068
2.24835, -1, 17.6295, 15.9922, 23.0791, 37.9364, -28.9657, -29.7607
2.25606, -1, 17.6826, 15.9663, 23.0702, 38.0305, -28.8646, -29.8065
2.26441, -1, 17.7296, 15.9426, 23.0638, 38.1058, -28.7837, -29.843
2.27178, -1, 17.7706, 15.9212, 23.0596, 38.162, -28.7228, -29.8701
2.27997, -1, 17.805, 15.9035, 23.0572, 38.2003, -28.681, -29.8888
2.28789, -1, 17.8325, 15.8897, 23.056, 38.2254, -28.6535, -29.9009
2.29655, -1, 17.8541, 15.8794, 23.0555, 38.2403, -28.6372, -29.9079
2.30415, -1, 17.8696, 15.8723, 23.0552, 38.2483, -28.6282, -29.9116
2.31189, -1, 17.8749, 15.8698, 23.0551, 38.2524, -28.6239, -29.9135
2.32043, 2, 17.8831, 15.866, 23.055, 38.2543, -28.6218, -29.9144
2.32808, 2, 17.8843, 15.8654, 23.055, 38.2548, -28.6208, -29.9148
2.33532, 2, 17.8853, 15.8648, 23.055, 38.2553, -28.6205, -29.9149
2.34338, 2, 17.8849, 15.8645, 23.055, 38.2557, -28.6202, -29.9151
2.35257, 2, 17.8838, 15.8644, 23.055, 38.2559, -28.62, -29.9152
2.35931, 2, 17.8835, 15.8643, 23.055, 38.2559, -28.6199, -29.9152
2.36743, 2, 17.8831, 15.8643, 23.055, 38.2559, -28.62, -29.9152
2.37536, 2, 17.8829, 15.8642, 23.055, 38.2559, -28.62, -29.9152
2.38333, 2, 17.8829, 15.8641, 23.055, 38.2559, -28.62, -29.9152
2.39131, 2, 17.883, 15.8638, 23.055, 38.256, -28.62, -29.9152
2.40111, 2, 17.8834, 15.8633, 23.055, 38.256, -28.62, -29.9152
2.40925, 2, 17.8839, 15.863, 23.055, 38.256, -28.62, -29.9152
2.41531, 2, 17.8841, 15.8629, 23.055, 38.256, -28.62, -29.9152
2.42492, 2, 17.8852, 15.8626, 23.055, 38.256, -28.62, -29.9152
2.43319, 2, 17.8861, 15.8626, 23.055, 38.256, -28.62, -29.9152
2.43931, 2, 17.8864, 15.8626, 23.055, 38.2559, -28.6201, -29.9152
2.44742, 2, 17.887, 15.8626, 23.055, 38.256, -28.6201, -29.9151
2.45531, 2, 17.8874, 15.8626, 23.055, 38.2559, -28.6201, -29.9152
2.46337, 2, 17.8875, 15.8626, 23.055, 38.256, -28.6201, -29.9151
2.47138, 2, 17.8876, 15.8626, 23.055, 38.256, -28.6201, -29.9152
2.47931, 2, 17.8877, 15.8626, 23.055, 38.256, -28.6201, -29.9151
2.48736, 2, 17.8877, 15.8626, 23.055, 38.256, -28.6201, -29.9151
2.49538, 2, 17.8877, 15.8626, 23.055, 38.256, -28.6201, -29.9152
2.50332, 2, 17.8877, 15.8625, 23.055, 38.256, -28.6201, -29.9152
2.51136, 2, 17.8875, 15.8624, 23.055, 38.256, -28.6202, -29.9152
2.51938, 2, 17.8873, 15.8623, 23.055, 38.2559, -28.6202, -29.9152
2.52736, 2, 17.8871, 15.8623, 23.055, 38.2559, -28.6202, -29.9152
2.53531, 2, 17.887, 15.8622, 23.055, 38.2559, -28.6202, -29.9151
2.54339, 2, 17.887, 15.8622, 23.055, 38.2559, -28.6203, -29.9151
2.55132, 2, 17.887, 15.8622, 23.055, 38.2559, -28.6203, -29.9151
2.55931, 2, 17.887, 15.8623, 23.055, 38.2559, -28.6203, -29.9152
2.56742, 2, 17.887, 15.8623, 23.055, 38.2559, -28.6203, -29.9151
2.5753, 2, 17.887, 15.8623, 23.055, 38.2559, -28.6203, -29.9152
2.58332, 2, 17.887, 15.8623, 23.055, 38.2559, -28.6203, -29.9151
2.59138, 2, 17.887, 15.8623, 23.055, 38.2559, -28.6204, -29.9151
2.59931, 2, 17.887, 15.8623, 23.055, 38.2559, -28.6203, -29.9151
2.60736, 2, 17.887, 15.8623, 23.055, 38.2559, -28.6204, -29.9151
2.61538, 2, 17.887, 15.8623, 23.055, 38.2559, -28.6204, -29.9152
2.62342, 2, 17.8869, 15.8623, 23.055, 38.2559, -28.6205, -29.9151
2.63136, 2, 17.8869, 15.8623, 23.055, 38.2559, -28.6205, -29.9152
2.63938, 2, 17.8869, 15.8623, 23.055, 38.2559, -28.6205, -29.9151
2.6474, 2, 17.8869, 15.8623, 23.055, 38.2559, -28.6205, -29.9151
2.6554, 2, 17.8868, 15.8623, 23.055, 38.2559, -28.6205, -29.9151
2.66347, 2, 17.8868, 15.8623, 23.055, 38.2558, -28.6205, -29.9152
2.67141, 2, 17.8868, 15.8623, 23.055, 38.2559, -28.6205, -29.9152
2.67946, 2, 17.8868, 15.8624, 23.055, 38.2559, -28.6205, -29.9151
2.68753, 2, 17.8868, 15.8624, 23.055, 38.2559, -28.6206, -29.9151
2.69537, 2, 17.8868, 15.8624, 23.055, 38.2559, -28.6206, -29.9151
2.70332, 2, 17.8868, 15.8624, 23.055, 38.2559, -28.6207, -29.9151
2.7114, 2, 17.8868, 15.8623, 23.055, 38.2559, -28.6206, -29.9151
2.71935, 2, 17.8868, 15.8623, 23.055, 38.2559, -28.6207, -29.9151
2.7274, 2, 17.8868, 15.8623, 23.055, 38.2559, -28.6207, -29.9152
2.73548, 2, 17.8867, 15.8623, 23.055, 38.2559, -28.6207, -29.9151
2.74383, 2, 17.8867, 15.8623, 23.055, 38.2559, -28.6207, -29.9151
2.75161, 2, 17.8867, 15.8623, 23.055, 38.2559, -28.6207, -29.915
2.75969, 2, 17.8867, 15.8623, 23.055, 38.2558, -28.6208, -29.9151
2.76817, 2, 17.8866, 15.8624, 23.055, 38.2558, -28.6208, -29.9151
2.77573, 2, 17.8866, 15.8624, 23.055, 38.2558, -28.6208, -29.9151
2.78444, 2, 17.8866, 15.8624, 23.055, 38.2558, -28.6208, -29.9151
2.79225, 2, 17.8866, 15.8624, 23.055, 38.2558, -28.6208, -29.9151
2.79991, 2, 17.8866, 15.8624, 23.055, 38.2558, -28.6208, -29.9151
2.80843, 2, 17.8865, 15.8624, 23.055, 38.2558, -28.6208, -29.9151
2.81616, 2, 17.8865, 15.8624, 23.055, 38.2558, -28.6208, -29.9151
2.82384, 2, 17.8865, 15.8624, 23.055, 38.2558, -28.6208, -29.9151
2.83231, 2, 17.8864, 15.8624, 23.055, 38.2557, -28.6209, -29.9151
2.84022, 2, 17.8864, 15.8624, 23.055, 38.2557, -28.6208, -29.915
2.84738, 2, 17.8863, 15.8624, 23.055, 38.2557, -28.6209, -29.9151
2.85535, 2, 17.8863, 15.8623, 23.055, 38.2558, -28.6208, -29.9151
2.86486, 2, 17.8862, 15.8624, 23.055, 38.2557, -28.6209, -29.9151
2.8713, 2, 17.8862, 15.8624, 23.055, 38.2557, -28.6209, -29.915
2.87935, 2, 17.8862, 15.8624, 23.055, 38.2557, -28.6209, -29.915
2.8874, 2, 17.8861, 15.8624, 23.055, 38.2557, -28.6209, -29.915
2.89528, 2, 17.8861, 15.8624, 23.055, 38.2557, -28.621, -29.9151
2.90481, 2, 17.886, 15.8625, 23.055, 38.2557, -28.621, -29.915
2.91126, 2, 17.8859, 15.8625, 23.055, 38.2556, -28.621, -29.915
2.9193, 2, 17.8859, 15.8625, 23.055, 38.2556, -28.621, -29.9151
2.92888, 2, 17.8858, 15.8624, 23.055, 38.2556, -28.6211, -29.9151
2.9373, 2, 17.8858, 15.8624, 23.055, 38.2556, -28.6211, -29.915
2.94331, 2, 17.8857, 15.8624, 23.055, 38.2556, -28.6211, -29.915
2.95136, 2, 17.8857, 15.8624, 23.055, 38.2556, -28.6211, -29.915
2.96117, 2, 17.8856, 15.8624, 23.055, 38.2556, -28.6211, -29.915
2.96738, 2, 17.8856, 15.8624, 23.055, 38.2556, -28.6211, -29.915
2.97536, 2, 17.8856, 15.8624, 23.055, 38.2556, -28.6211, -29.915
2.98331, 2, 17.8855, 15.8625, 23.055, 38.2556, -28.6211, -29.915
2.99229, 2, 17.8855, 15.8624, 23.055, 38.2556, -28.6211, -29.915
2.99936, 2, 17.8854, 15.8625, 23.055, 38.2556, -28.6211, -29.915
3.00734, 2, 17.8853, 15.8625, 23.055, 38.2556, -28.6212, -29.915
3.01534, 2, 17.8853, 15.8625, 23.055, 38.2556, -28.6212, -29.915
3.02337, 2, 17.8852, 15.8625, 23.055, 38.2555, -28.6212, -29.915
3.03129, 2, 17.8852, 15.8625, 23.055, 38.2555, -28.6212, -29.915
3.03929, 2, 17.8851, 15.8625, 23.055, 38.2555, -28.6212, -29.915
3.0474, 2, 17.8851, 15.8625, 23.055, 38.2554, -28.6211, -29.915
3.05529, 2, 17.885, 15.8625, 23.055, 38.2554, -28.6212, -29.915
3.0633, 2, 17.885, 15.8625, 23.055, 38.2554, -28.6211, -29.915
3.07136, 2, 17.8849, 15.8625, 23.055, 38.2553, -28.6211, -29.915
3.07929, 2, 17.8849, 15.8625, 23.055, 38.2553, -28.6212, -29.915
3.08733, 2, 17.8848, 15.8625, 23.055, 38.2553, -28.6212, -29.915
3.09536, 2, 17.8848, 15.8625, 23.055, 38.2554, -28.6212, -29.915
3.1033, 2, 17.8847, 15.8625, 23.055, 38.2554, -28.6212, -29.915
3.11129, 2, 17.8847, 15.8625, 23.055, 38.2554, -28.6212, -29.9149
3.11936, 2, 17.8846, 15.8625, 23.055, 38.2553, -28.6212, -29.915
3.12734, 2, 17.8846, 15.8625, 23.055, 38.2553, -28.6212, -29.915
3.13537, 2, 17.8845, 15.8625, 23.055, 38.2553, -28.6212, -29.915
3.14338, 2, 17.8845, 15.8625, 23.055, 38.2552, -28.6212, -29.9149
3.15134, 2, 17.8844, 15.8625, 23.055, 38.2552, -28.6212, -29.9149
3.15937, 2, 17.8843, 15.8625, 23.055, 38.2552, -28.6212, -29.9149
3.16749, 2, 17.8843, 15.8625, 23.055, 38.2552, -28.6213, -29.9149
3.17539, 2, 17.8843, 15.8625, 23.055, 38.2551, -28.6213, -29.915
3.18345, 2, 17.8843, 15.8625, 23.055, 38.2551, -28.6213, -29.915
3.19147, 2, 17.8842, 15.8625, 23.055, 38.2551, -28.6212, -29.915
3.19938, 2, 17.8842, 15.8625, 23.055, 38.2551, -28.6212, -29.915
3.20733, 2, 17.8841, 15.8625, 23.055, 38.2551, -28.6212, -29.915
3.21539, 2, 17.8841, 15.8625, 23.055, 38.2551, -28.6213, -29.9149
3.22357, 2, 17.8841, 15.8626, 23.055, 38.255, -28.6213, -29.9149
3.2314, 2, 17.884, 15.8626, 23.055, 38.255, -28.6213, -29.9149
3.23948, 2, 17.884, 15.8626, 23.055, 38.255, -28.6213, -29.9149
3.24757, 2, 17.884, 15.8626, 23.055, 38.255, -28.6213, -29.9149
3.25562, 2, 17.884, 15.8626, 23.055, 38.255, -28.6213, -29.915
3.26395, 2, 17.884, 15.8626, 23.055, 38.255, -28.6214, -29.915
3.27239, 2, 17.884, 15.8626, 23.055, 38.255, -28.6214, -29.9149
3.27981, 2, 17.8839, 15.8626, 23.055, 38.255, -28.6213, -29.9149
3.28843, 2, 17.8839, 15.8626, 23.055, 38.255, -28.6213, -29.9149
3.29589, 2, 17.8839, 15.8626, 23.055, 38.2549, -28.6213, -29.9149
3.30439, 2, 17.8839, 15.8626, 23.055, 38.2549, -28.6214, -29.9149
3.3119, 2, 17.8839, 15.8626, 23.055, 38.2549, -28.6214, -29.9149
3.32068, 2, 17.8839, 15.8626, 23.055, 38.2548, -28.6214, -29.9149
3.32956, 2, 17.8839, 15.8626, 23.055, 38.2548, -28.6214, -29.9149
3.33531, 2, 17.8839, 15.8626, 23.055, 38.2548, -28.6213, -29.9149
3.34439, 2, 17.8838, 15.8626, 23.055, 38.2547, -28.6214, -29.9148
3.35133, 2, 17.8838, 15.8626, 23.055, 38.2547, -28.6214, -29.9149
3.3604, 2, 17.8838, 15.8626, 23.055, 38.2547, -28.6214, -29.9149
3.36732, 2, 17.8838, 15.8626, 23.055, 38.2547, -28.6214, -29.9149
3.37528, 2, 17.8838, 15.8626, 23.055, 38.2547, -28.6214, -29.9149
3.38331, 2, 17.8838, 15.8626, 23.055, 38.2547, -28.6214, -29.9149
3.39282, 2, 17.8838, 15.8626, 23.055, 38.2547, -28.6214, -29.9149
3.40071, 2, 17.8838, 15.8626, 23.055, 38.2547, -28.6214, -29.9149
3.40737, 4, 17.8837, 15.8626, 23.055, 38.2547, -28.6215, -29.9149
3.41702, 4, 17.8837, 15.8626, 23.055, 38.2547, -28.6215, -29.9149
3.42329, 4, 17.8837, 15.8626, 23.055, 38.2547, -28.6215, -29.9149
3.43134, 4, 17.8837, 15.8627, 23.055, 38.2546, -28.6215, -29.9149
3.44093, 4, 17.8837, 15.8627, 23.055, 38.2546, -28.6214, -29.9149
3.44921, 4, 17.8837, 15.8627, 23.055, 38.2546, -28.6214, -29.9148
3.45534, 4, 17.8837, 15.8627, 23.055, 38.2546, -28.6214, -29.9148
3.4652, 4, 17.8836, 15.8627, 23.055, 38.2546, -28.6215, -29.9149
3.47133, 4, 17.8836, 15.8627, 23.055, 38.2546, -28.6215, -29.9149
3.47934, 4, 17.8836, 15.8627, 23.055, 38.2546, -28.6215, -29.9148
3.48732, 4, 17.8836, 15.8627, 23.055, 38.2545, -28.6215, -29.9148
3.49528, 4, 17.8836, 15.8627, 23.055, 38.2545, -28.6215, -29.9148
3.50335, 4, 17.8836, 15.8627, 23.055, 38.2545, -28.6215, -29.9148
3.53112, 4, 17.8836, 15.8627, 23.055, 38.2544, -28.6215, -29.9148
3.53237, 4, 17.8835, 15.8627, 23.055, 38.2544, -28.6215, -29.9148
3.53444, 4, 17.8835, 15.8627, 23.055, 38.2544, -28.6215, -29.9148
3.53573, 4, 17.8835, 15.8627, 23.055, 38.2544, -28.6215, -29.9148
3.54328, 4, 17.8835, 15.8627, 23.055, 38.2545, -28.6215, -29.9148
3.55133, 4, 17.8834, 15.8627, 23.055, 38.2544, -28.6215, -29.9147
3.55928, 4, 17.8828, 15.8627, 23.055, 38.2544, -28.6215, -29.9147
3.56733, 4, 17.8801, 15.8627, 23.0552, 38.2539, -28.6216, -29.9145
3.57533, 4, 17.8739, 15.8626, 23.0562, 38.2504, -28.6224, -29.9128
3.58327, 4, 17.8637, 15.8621, 23.0593, 38.2385, -28.6256, -29.9051
3.59129, 4, 17.8494, 15.8606, 23.0669, 38.2121, -28.6343, -29.8836
3.59955, 4, 17.8298, 15.8575, 23.0818, 38.1629, -28.6513, -29.8417
3.60829, 5, 17.804, 15.852, 23.1065, 38.0811, -28.6792, -29.7711
3.61534, 5, 17.7721, 15.8438, 23.143, 37.9608, -28.7212, -29.6662
3.62328, 5, 17.7347, 15.8327, 23.1925, 37.7974, -28.7796, -29.5232
3.63127, 5, 17.6918, 15.8187, 23.2548, 37.5923, -28.8532, -29.3432
3.6394, 5, 17.643, 15.8022, 23.3284, 37.3503, -28.9421, -29.1307
3.64735, 5, 17.5884, 15.7839, 23.4111, 37.0791, -29.0423, -28.8916
3.6554, 5, 17.5286, 15.764, 23.5006, 36.7872, -29.1516, -28.6341
3.66336, 5, 17.4638, 15.7432, 23.5946, 36.4827, -29.2673, -28.3649
3.67137, 5, 17.3944, 15.7219, 23.6908, 36.1715, -29.3868, -28.0905
3.67945, 5, 17.3211, 15.7005, 23.7878, 35.8583, -29.509, -27.814
3.68745, 5, 17.2452, 15.679, 23.8851, 35.545, -29.6327, -27.5378
3.69544, 5, 17.1682, 15.6579, 23.9824, 35.2328, -29.7572, -27.263
3.70345, 5, 17.0903, 15.637, 24.0796, 34.9227, -29.8829, -26.9902
3.71129, 5, 17.0121, 15.6163, 24.1767, 34.6143, -30.0089, -26.7192
3.71932, 5, 16.934, 15.5962, 24.2735, 34.3079, -30.1361, -26.4502
3.72748, 5, 16.8557, 15.5765, 24.3698, 34.0036, -30.2639, -26.1832
3.73536, 5, 16.7776, 15.5572, 24.4656, 33.7013, -30.3924, -25.9186
3.74347, 5, 16.6996, 15.5385, 24.5609, 33.4012, -30.5217, -25.6563
3.75162, 5, 16.6219, 15.5202, 24.6561, 33.1033, -30.6514, -25.3959
3.75954, 5, 16.5443, 15.5022, 24.7511, 32.8075, -30.782, -25.138
3.76763, 5, 16.4668, 15.4847, 24.8457, 32.5138, -30.9129, -24.8822
3.77578, 5, 16.3894, 15.4675, 24.94, 32.2222, -31.0447, -24.6287
3.78442, 5, 16.312, 15.4506, 25.0337, 31.9323, -31.1769, -24.3767
3.79177, 5, 16.2343, 15.4338, 25.1268, 31.6447, -31.31, -24.1269
3.80043, 5, 16.1562, 15.4176, 25.2196, 31.3592, -31.4436, -23.8789
3.80792, 5, 16.0777, 15.4017, 25.312, 31.0756, -31.5781, -23.6332
3.81588, 5, 15.9989, 15.386, 25.4042, 30.7939, -31.7132, -23.3894
3.82435, 5, 15.9196, 15.3707, 25.4961, 30.5142, -31.8488, -23.1473
3.83185, 5, 15.8798, 15.3633, 25.5419, 30.3751, -31.9169, -22.9072
3.84036, 5, 15.7599, 15.3417, 25.6786, 29.9607, -32.1219, -22.6691
3.84727, 5, 15.7198, 15.3347, 25.7238, 29.8236, -32.1906, -22.5509
3.85537, 5, 15.6394, 15.3208, 25.814, 29.5508, -32.3281, -22.3161
3.86445, 5, 15.5189, 15.301, 25.9486, 29.145, -32.5357, -21.9671
3.87126, 5, 15.4787, 15.2946, 25.9933, 29.0108, -32.6051, -21.8518
3.88128, 5, 15.3578, 15.2762, 26.1271, 28.6107, -32.8142, -21.5087
3.88726, 5, 15.3175, 15.2702, 26.1716, 28.4783, -32.8841, -21.3954
3.89669, 5, 15.1967, 15.2527, 26.3041, 28.0838, -33.095, -21.0582
3.90546, 5, 15.1162, 15.2416, 26.3918, 27.823, -33.2359, -20.8356
3.91133, 5, 15.076, 15.2362, 26.4355, 27.6933, -33.3068, -20.7251
3.92083, 5, 14.9553, 15.2205, 26.5658, 27.3067, -33.5196, -20.3965
3.92965, 5, 14.8747, 15.2105, 26.6523, 27.0513, -33.6623, -20.1799
3.93527, 5, 14.8343, 15.2056, 26.6954, 26.9242, -33.7338, -20.0719
3.94493, 5, 14.7536, 15.196, 26.8244, 26.5455, -33.9492, -19.7508
3.95133, 5, 14.6726, 15.1868, 26.8672, 26.4202, -34.0211, -19.6447
3.96096, 5, 14.5916, 15.1782, 26.9523, 26.047, -34.2377, -19.329
3.96827, 5, 14.5103, 15.1701, 27.037, 25.9234, -34.3102, -19.2247
3.97538, 5, 14.4286, 15.1622, 27.1212, 25.6774, -34.4556, -19.0175
3.98431, 5, 14.3466, 15.1549, 27.2049, 25.4333, -34.6015, -18.8117
3.99228, 5, 14.2644, 15.148, 27.2884, 25.1908, -34.748, -18.6077
4.00032, 5, 14.182, 15.1414, 27.3715, 24.9498, -34.895, -18.4053
4.0073, 5, 14.0996, 15.135, 27.4543, 24.7106, -35.0423, -18.2047
4.01605, 5, 14.0171, 15.1291, 27.5368, 24.4732, -35.1902, -18.0059
4.02331, 5, 13.9345, 15.1237, 27.6188, 24.2371, -35.3386, -17.8085
4.03127, 5, 13.8519, 15.1188, 27.7002, 24.0025, -35.4874, -17.6127
4.04005, 5, 13.7693, 15.1143, 27.7812, 23.7696, -35.6367, -17.4187
4.04831, 5, 13.6868, 15.1101, 27.8618, 23.5381, -35.7864, -17.226
4.05526, 5, 13.6045, 15.1063, 27.942, 23.3083, -35.9366, -17.0353
4.06406, 5, 13.5221, 15.1029, 28.0218, 23.0799, -36.0871, -16.846
4.07234, 5, 13.4397, 15.0999, 28.1014, 22.8531, -36.2381, -16.6584
4.07926, 5, 13.3572, 15.0973, 28.1805, 22.6279, -36.3892, -16.4722
4.08804, 5, 13.2745, 15.0951, 28.2592, 22.4042, -36.5411, -16.2876
4.09633, 5, 13.1916, 15.0934, 28.3373, 22.1817, -36.6929, -16.1046
4.10326, 5, 13.1084, 15.0921, 28.415, 21.9611, -36.8456, -15.923
4.11207, 5, 13.0249, 15.0912, 28.4923, 21.7417, -36.9985, -15.7433
4.12033, 5, 12.9411, 15.0906, 28.5691, 21.5236, -37.152, -15.5644
4.12726, 5, 12.8571, 15.0904, 28.6457, 21.307, -37.3054, -15.3872
4.13611, 5, 12.773, 15.0903, 28.7219, 21.0919, -37.4597, -15.2111
4.14431, 5, 12.6886, 15.0906, 28.7976, 20.8783, -37.6141, -15.0367
4.15129, 5, 12.6041, 15.0911, 28.873, 20.6659, -37.7692, -14.8636
4.16011, 5, 12.5194, 15.0918, 28.9481, 20.4546, -37.9247, -14.6919
4.16832, 5, 12.4349, 15.0929, 29.0225, 20.2449, -38.0805, -14.5217
4.17536, 5, 12.3504, 15.0944, 29.0964, 20.0364, -38.2368, -14.3523
4.18343, 5, 12.2659, 15.0963, 29.1699, 19.8292, -38.3933, -14.1845
4.19141, 5, 12.1814, 15.0985, 29.243, 19.6232, -38.5502, -14.0179
4.19936, 5, 12.0967, 15.1011, 29.3157, 19.4188, -38.7076, -13.8527
4.20816, 5, 12.012, 15.1042, 29.388, 19.2157, -38.8651, -13.6888
4.21527, 5, 11.9272, 15.1078, 29.4599, 19.0139, -39.0229, -13.5264
4.22329, 5, 11.8423, 15.1119, 29.5314, 18.8131, -39.1812, -13.3652
4.23219, 5, 11.7574, 15.1164, 29.6025, 18.6137, -39.3396, -13.2051
4.23953, 5, 11.6723, 15.1214, 29.6731, 18.4157, -39.4986, -13.0463
4.24748, 5, 11.5869, 15.1269, 29.7433, 18.2188, -39.6576, -12.8888
4.2568, 5, 11.5014, 15.1328, 29.813, 18.023, -39.8171, -12.7325
4.26358, 5, 11.4156, 15.1393, 29.8823, 17.8284, -39.9769, -12.5777
4.27173, 5, 11.3297, 15.1463, 29.9512, 17.6352, -40.1371, -12.4243
4.27967, 5, 11.2435, 15.1537, 30.0197, 17.4431, -40.2976, -12.272
4.28789, 5, 11.1573, 15.1615, 30.0879, 17.2523, -40.4582, -12.1208
4.29639, 5, 11.071, 15.1697, 30.1557, 17.0624, -40.6193, -11.9708
4.3038, 5, 10.9847, 15.1782, 30.223, 16.8737, -40.7807, -11.8221
4.31192, 5, 10.8985, 15.1869, 30.2899, 16.6862, -40.9424, -11.6746
4.3199, 5, 10.8123, 15.196, 30.3562, 16.4999, -41.1044, -11.5282
4.32935, 5, 10.726, 15.2059, 30.4221, 16.3144, -41.2668, -11.3832
4.33526, 5, 10.6829, 15.2111, 30.4549, 16.2222, -41.348, -11.3111
4.3433, 5, 10.5966, 15.2216, 30.5201, 16.0386, -41.5108, -11.1678
4.35324, 5, 10.4673, 15.2381, 30.6172, 15.7656, -41.7554, -10.9545
4.3593, 5, 10.4241, 15.2438, 30.6494, 15.6751, -41.8372, -10.8841
4.36729, 5, 10.3379, 15.2556, 30.7134, 15.4949, -42.0009, -10.7436
4.37525, 5, 10.2513, 15.268, 30.7771, 15.3156, -42.165, -10.6047
4.3833, 5, 10.1646, 15.2808, 30.8403, 15.1376, -42.3294, -10.4667
4.39125, 5, 10.0776, 15.2939, 30.9031, 14.9607, -42.4941, -10.3299
4.39926, 5, 9.99053, 15.3073, 30.9655, 14.7849, -42.659, -10.1944
4.40939, 5, 9.85961, 15.3284, 31.0582, 14.5226, -42.9068, -9.99247
4.41524, 5, 9.8159, 15.3357, 31.0888, 14.4357, -42.9895, -9.92564
4.42478, 5, 9.68443, 15.3581, 31.1801, 14.1767, -43.2381, -9.72692
4.43307, 5, 9.59657, 15.3733, 31.2404, 14.0054, -43.4041, -9.59544
4.43926, 5, 9.55262, 15.3811, 31.2704, 13.92, -43.4874, -9.53024
4.44882, 5, 9.46462, 15.3971, 31.3301, 13.6652, -43.7368, -9.33608
4.45698, 5, 9.37665, 15.4135, 31.3895, 13.4966, -43.9036, -9.20787
4.46326, 5, 9.28863, 15.4301, 31.4484, 13.4126, -43.9869, -9.14425
4.47224, 5, 9.20057, 15.4472, 31.5069, 13.2454, -44.1539, -9.01762
4.48029, 5, 9.11252, 15.4649, 31.5649, 13.0792, -44.3209, -8.89185
4.48724, 5, 9.02449, 15.4829, 31.6224, 12.9137, -44.4882, -8.7668
4.49531, 5, 8.93634, 15.5013, 31.6795, 12.7491, -44.6558, -8.64265
4.5033, 5, 8.84806, 15.5202, 31.7361, 12.5856, -44.8235, -8.51966
4.51124, 5, 8.75968, 15.5396, 31.7924, 12.423, -44.9917, -8.39762
4.51939, 5, 8.67126, 15.5591, 31.8481, 12.2614, -45.1601, -8.27633
4.52729, 5, 8.5828, 15.5791, 31.9034, 12.1007, -45.329, -8.15635
4.53533, 5, 8.49433, 15.5996, 31.9583, 11.9406, -45.4979, -8.03718
4.54324, 5, 8.40563, 15.6204, 32.0127, 11.7816, -45.6671, -7.91898
4.55124, 5, 8.31673, 15.6416, 32.0667, 11.6234, -45.8365, -7.80162
4.55931, 5, 8.22764, 15.6632, 32.1205, 11.4662, -46.0061, -7.68497
4.56724, 5, 8.13843, 15.6851, 32.1736, 11.3098, -46.1759, -7.56928
4.57525, 5, 8.04926, 15.7075, 32.2263, 11.1541, -46.3458, -7.45449
4.58332, 5, 7.96012, 15.7303, 32.2786, 10.9991, -46.5159, -7.34052
4.59124, 5, 7.87089, 15.7535, 32.3304, 10.845, -46.6861, -7.22755
4.59924, 5, 7.78162, 15.7771, 32.3817, 10.692, -46.8563, -7.11537
4.60732, 5, 7.6923, 15.8011, 32.4327, 10.5397, -47.0269, -7.00408
4.61525, 5, 7.60306, 15.8255, 32.4832, 10.3881, -47.1973, -6.89405
4.62324, 5, 7.51405, 15.8504, 32.5331, 10.2371, -47.368, -6.78434
4.63131, 5, 7.42507, 15.8756, 32.5827, 10.0871, -47.5389, -6.67554
4.63924, 5, 7.33601, 15.9013, 32.6319, 9.93768, -47.7102, -6.56734
4.64725, 5, 7.24697, 15.9273, 32.6805, 9.78924, -47.8815, -6.46003
4.65534, 5, 7.15768, 15.9537, 32.7288, 9.64154, -48.0531, -6.35343
4.66331, 5, 7.06825, 15.9806, 32.7767, 9.49457, -48.2248, -6.24753
4.67139, 5, 6.97854, 16.0078, 32.824, 9.34807, -48.3968, -6.14276
4.6794, 5, 6.88869, 16.0355, 32.871, 9.20268, -48.5688, -6.03847
4.68734, 5, 6.7986, 16.0635, 32.9174, 9.05791, -48.7412, -5.93525
4.69561, 5, 6.70842, 16.0921, 32.9635, 8.91416, -48.9138, -5.83268
4.70429, 5, 6.61813, 16.1209, 33.009, 8.77105, -49.0867, -5.73098
4.71146, 5, 6.52773, 16.1502, 33.0541, 8.62871, -49.2597, -5.6299
4.71934, 5, 6.43723, 16.1798, 33.0989, 8.48688, -49.4326, -5.52931
4.72729, 5, 6.34669, 16.2099, 33.143, 8.34585, -49.6058, -5.42948
4.73532, 5, 6.25623, 16.2404, 33.1867, 8.20565, -49.7789, -5.33021
4.74343, 5, 6.16579, 16.2712, 33.23, 8.06623, -49.9524, -5.23204
4.75154, 5, 6.07545, 16.3024, 33.2729, 7.92738, -50.1258, -5.13396
4.75946, 5, 5.98502, 16.334, 33.3153, 7.78925, -50.2992, -5.03739
4.76762, 5, 5.8946, 16.366, 33.3573, 7.65156, -50.473, -4.94111
4.77633, 5, 5.80414, 16.3984, 33.3988, 7.51468, -50.6466, -4.84585
4.78366, 5, 5.71359, 16.4311, 33.4399, 7.37837, -50.8205, -4.75088
4.7918, 5, 5.62309, 16.4643, 33.4805, 7.24298, -50.9943, -4.65728
4.80044, 5, 5.53228, 16.4978, 33.5206, 7.10819, -51.1687, -4.56363
4.80779, 5, 5.4414, 16.5317, 33.5604, 6.9741, -51.3428, -4.47124
4.81652, 5, 5.35049, 16.566, 33.5996, 6.84044, -51.5172, -4.37878
4.82383, 5, 5.30499, 16.5833, 33.6385, 6.70744, -51.6916, -4.28746
4.83242, 5, 5.16817, 16.6359, 33.6768, 6.575, -51.8663, -4.19644
4.83923, 5, 5.12248, 16.6536, 33.6958, 6.50901, -51.9537, -4.15148
4.84725, 5, 5.03103, 16.6892, 33.7334, 6.37767, -52.1285, -4.06156
4.85627, 5, 4.89396, 16.7436, 33.789, 6.18168, -52.3909, -3.92812
4.86327, 5, 4.84829, 16.7619, 33.8073, 6.11674, -52.4784, -3.88392
4.87123, 5, 4.75706, 16.7986, 33.8435, 5.98704, -52.6536, -3.79605
4.88043, 5, 4.62036, 16.8547, 33.8971, 5.79351, -52.9166, -3.6656
4.88723, 5, 4.57481, 16.8736, 33.9147, 5.72943, -53.0043, -3.62247
4.89665, 5, 4.43831, 16.9308, 33.9669, 5.53792, -53.2676, -3.49454
4.90328, 5, 4.39288, 16.95, 33.984, 5.47451, -53.3554, -3.45184
4.9113, 5, 4.30203, 16.9889, 34.018, 5.34799, -53.5311, -3.36759
4.91922, 5, 4.21122, 17.0281, 34.0515, 5.22209, -53.7067, -3.28324
4.92958, 5, 4.07467, 17.0875, 34.1012, 5.03408, -53.9705, -3.15854
4.93529, 5, 4.02908, 17.1076, 34.1174, 4.97172, -54.0584, -3.11693
4.94484, 5, 3.89212, 17.1682, 34.1653, 4.7854, -54.3221, -2.99401
4.9537, 5, 3.8464, 17.1886, 34.1812, 4.72367, -54.4978, -2.9122
4.9593, 5, 3.75489, 17.2295, 34.2125, 4.60067, -54.5858, -2.87176
4.96926, 5, 3.61708, 17.2916, 34.2584, 4.41717, -54.8496, -2.7513
4.97522, 5, 3.57105, 17.3125, 34.2736, 4.35629, -54.9376, -2.71131
4.9833, 5, 3.47902, 17.3547, 34.3036, 4.23466, -55.1136, -2.63235
4.99122, 5, 3.38694, 17.3972, 34.333, 4.11359, -55.2897, -2.55322
4.99923, 5, 3.29486, 17.4401, 34.3617, 3.99301, -55.4658, -2.47537
5.00729, 5, 3.20276, 17.4834, 34.3902, 3.87312, -55.6421, -2.39799
5.01522, 5, 3.11071, 17.5271, 34.4183, 3.75388, -55.8186, -2.32067
5.02325, 5, 3.01868, 17.5712, 34.4459, 3.63512, -55.9951, -2.24446
5.03127, 5, 2.92675, 17.6157, 34.4729, 3.51688, -56.1717, -2.16781
5.03922, 5, 2.8349, 17.6605, 34.4995, 3.39896, -56.3484, -2.09265
5.04734, 5, 2.74302, 17.7058, 34.5257, 3.28138, -56.5252, -2.01727
5.05522, 5, 2.65117, 17.7514, 34.5514, 3.16444, -56.702, -1.94251
5.06323, 5, 2.55933, 17.7972, 34.5765, 3.04787, -56.8788, -1.86879
5.07129, 5, 2.46752, 17.8435, 34.6013, 2.93205, -57.0555, -1.79473
5.07922, 5, 2.37567, 17.8901, 34.6255, 2.81664, -57.2322, -1.72202
5.08722, 5, 2.28369, 17.9369, 34.6495, 2.70181, -57.4089, -1.64946
5.09529, 5, 2.19145, 17.9841, 34.6727, 2.58735, -57.5855, -1.57743
5.10324, 5, 2.09916, 18.0316, 34.6954, 2.47315, -57.7619, -1.50626
5.11122, 5, 2.00684, 18.0795, 34.7178, 2.35964, -57.9384, -1.43482
5.11929, 5, 1.91461, 18.1278, 34.7397, 2.24657, -58.115, -1.3647
5.12723, 5, 1.82235, 18.1764, 34.7613, 2.13408, -58.2916, -1.29498
5.13522, 5, 1.72996, 18.2255, 34.7822, 2.02215, -58.4683, -1.22511
5.14329, 5, 1.63756, 18.275, 34.8027, 1.91064, -58.6449, -1.15644
5.15123, 5, 1.54527, 18.3248, 34.8227, 1.7998, -58.8217, -1.08733
5.15933, 5, 1.45325, 18.3751, 34.8422, 1.68909, -58.9985, -1.01893
5.16731, 5, 1.36143, 18.4257, 34.8614, 1.57868, -59.1754, -0.951483
5.17532, 5, 1.2697, 18.4767, 34.8802, 1.46891, -59.3524, -0.883424
5.18339, 5, 1.178, 18.528, 34.8982, 1.35957, -59.5295, -0.816799
5.19167, 5, 1.0863, 18.5796, 34.916, 1.25074, -59.7065, -0.750337
5.19938, 5, 0.994462, 18.6316, 34.9335, 1.14238, -59.8835, -0.683876
5.20742, 5, 0.902606, 18.6838, 34.9501, 1.03438, -60.0605, -0.618739
5.21599, 5, 0.81056, 18.7363, 34.9663, 0.926965, -60.2373, -0.553659
5.22422, 5, 0.718342, 18.7891, 34.9823, 0.819749, -60.4142, -0.488709
5.23135, 5, 0.626106, 18.8422, 34.9976, 0.712874, -60.5908, -0.425217
5.24015, 5, 0.533687, 18.8957, 35.0123, 0.6065, -60.7675, -0.361306
5.24735, 5, 0.441329, 18.9491, 35.0267, 0.500498, -60.944, -0.298055
5.25577, 5, 0.349029, 19.002, 35.0406, 0.394846, -61.1199, -0.237054
5.2643, 5, 0.256762, 19.0547, 35.0537, 0.289284, -61.2945, -0.17846
5.27156, 6, 0.16433, 19.1072, 35.0661, 0.183382, -61.4665, -0.124796
5.27976, 6, 0.071746, 19.1597, 35.0782, 0.0769077, -61.6355, -0.0783084
5.28847, 6, -0.0208375, 19.2118, 35.0895, -0.0306231, -61.8006, -0.039647
5.29571, 6, -0.113524, 19.2636, 35.1002, -0.139228, -61.962, -0.00872144
5.30418, 6, -0.206307, 19.3153, 35.1103, -0.248673, -62.12, 0.0152376
5.31266, 6, -0.299, 19.3667, 35.1196, -0.359039, -62.2755, 0.0332741
5.3198, 6, -0.391528, 19.4176, 35.1285, -0.469811, -62.4296, 0.0473537
5.32832, 6, -0.483878, 19.4679, 35.137, -0.580768, -62.5831, 0.0593927
5.33661, 6, -0.53011, 19.4929, 35.141, -0.636323, -62.6596, 0.0647685
5.34321, 6, -0.62276, 19.543, 35.1486, -0.747234, -62.8126, 0.0746585
5.35238, 6, -0.762174, 19.6187, 35.1593, -0.913604, -63.042, 0.088389
5.35922, 6, -0.808731, 19.644, 35.1626, -0.969086, -63.1184, 0.0926913
5.36726, 6, -0.901964, 19.6948, 35.1689, -1.07968, -63.2713, 0.100941
5.37643, 6, -1.04212, 19.7718, 35.1775, -1.24518, -63.5007, 0.112598
5.38326, 6, -1.08887, 19.7976, 35.1802, -1.30016, -63.5772, 0.116255
5.39126, 6, -1.18236, 19.8496, 35.1854, -1.40992, -63.7299, 0.12327
5.40098, 6, -1.32243, 19.9283, 35.1925, -1.57423, -63.959, 0.133458
5.4095, 6, -1.41569, 19.9812, 35.1968, -1.68345, -64.1116, 0.139748
5.41527, 6, -1.46231, 20.0078, 35.1987, -1.73806, -64.1879, 0.142818
5.42481, 6, -1.60207, 20.0878, 35.2039, -1.9018, -64.4166, 0.151699
5.43357, 6, -1.69511, 20.1415, 35.2068, -2.01062, -64.5691, 0.157195
5.43921, 6, -1.74157, 20.1684, 35.208, -2.06495, -64.6452, 0.15992
5.44908, 6, -1.83443, 20.2494, 35.2113, -2.22749, -64.8738, 0.167639
5.45528, 6, -1.92729, 20.2765, 35.2121, -2.28157, -64.9498, 0.170058
5.46481, 6, -2.02031, 20.3309, 35.2135, -2.38961, -65.1021, 0.177218
5.47225, 6, -2.11343, 20.3855, 35.2145, -2.49737, -65.2543, 0.179424
5.47928, 6, -2.20662, 20.4404, 35.2151, -2.60514, -65.4065, 0.183757
5.48721, 6, -2.29994, 20.4956, 35.2153, -2.71277, -65.5584, 0.187881
5.49523, 6, -2.39343, 20.5511, 35.2153, -2.8202, -65.7106, 0.191752
5.50327, 6, -2.48715, 20.6068, 35.2151, -2.92748, -65.8624, 0.195338
5.5112, 6, -2.58104, 20.663, 35.2146, -3.03436, -66.0143, 0.198818
5.51922, 6, -2.67503, 20.7196, 35.2136, -3.14108, -66.166, 0.201946
5.52727, 6, -2.769, 20.7765, 35.2123, -3.24745, -66.3179, 0.204849
5.53527, 6, -2.86288, 20.8336, 35.2104, -3.35385, -66.4696, 0.20758
5.54321, 6, -2.95679, 20.8909, 35.2081, -3.46018, -66.6214, 0.209964
5.55132, 6, -3.05068, 20.9485, 35.2052, -3.56635, -66.7732, 0.212048
5.55921, 6, -3.14445, 21.0061, 35.2019, -3.67234, -66.9248, 0.213838
5.56771, 6, -3.23812, 21.0641, 35.1982, -3.77817, -67.0763, 0.215449
5.57521, 6, -3.33171, 21.1222, 35.1939, -3.88385, -67.2277, 0.216809
5.58321, 6, -3.42533, 21.1806, 35.1892, -3.98914, -67.3791, 0.217825
5.592, 6, -3.51889, 21.2393, 35.1838, -4.09448, -67.5302, 0.218586
5.60028, 6, -3.61233, 21.2982, 35.1779, -4.19942, -67.6815, 0.219118
5.60821, 6, -3.70577, 21.3574, 35.1716, -4.30435, -67.8324, 0.219543
5.61601, 6, -3.7993, 21.417, 35.165, -4.40924, -67.9835, 0.219789
5.62427, 6, -3.89308, 21.4769, 35.158, -4.51384, -68.134, 0.21988
5.6312, 6, -3.98695, 21.537, 35.1505, -4.6183, -68.2846, 0.219929
5.64007, 6, -4.08081, 21.5975, 35.1426, -4.72258, -68.4348, 0.21993
5.64827, 6, -4.17466, 21.6582, 35.1343, -4.82635, -68.5853, 0.219886
5.65522, 6, -4.26853, 21.719, 35.1254, -4.93016, -68.7357, 0.219778
5.66404, 6, -4.36253, 21.7801, 35.1161, -5.03371, -68.8862, 0.219567
5.67226, 6, -4.45654, 21.8415, 35.1065, -5.13706, -69.0362, 0.219375
5.6793, 6, -4.55035, 21.903, 35.0964, -5.24037, -69.1863, 0.218997
5.68809, 6, -4.64393, 21.9647, 35.0857, -5.34375, -69.3363, 0.218332
5.69628, 6, -4.73717, 22.0268, 35.0746, -5.44682, -69.4863, 0.21706
5.70336, 6, -4.83033, 22.0891, 35.0629, -5.54964, -69.6362, 0.215419
5.71219, 6, -4.92346, 22.1517, 35.0508, -5.65232, -69.7862, 0.213261
5.71926, 6, -5.0165, 22.2145, 35.0383, -5.75471, -69.9358, 0.210557
5.72724, 6, -5.10962, 22.2778, 35.0254, -5.85704, -70.0856, 0.207472
5.73619, 6, -5.20274, 22.3412, 35.012, -5.95909, -70.235, 0.203909
5.7433, 6, -5.29602, 22.4049, 34.9983, -6.06125, -70.3845, 0.200076
5.75143, 6, -5.38948, 22.4687, 34.9843, -6.1633, -70.5337, 0.19594
5.76028, 6, -5.48305, 22.5329, 34.9696, -6.26517, -70.6826, 0.191462
5.76746, 6, -5.57679, 22.5971, 34.9544, -6.36698, -70.8316, 0.18659
5.77569, 6, -5.67053, 22.6616, 34.9388, -6.46842, -70.9804, 0.181473
5.78361, 6, -5.76446, 22.7263, 34.9228, -6.56967, -71.129, 0.176131
5.79242, 6, -5.85838, 22.7913, 34.9062, -6.67074, -71.2774, 0.170637
5.79976, 6, -5.95223, 22.8565, 34.8893, -6.77176, -71.4257, 0.164913
5.80913, 6, -6.04603, 22.922, 34.8722, -6.87259, -71.5739, 0.159064
5.81661, 6, -6.13974, 22.9878, 34.8543, -6.97346, -71.7217, 0.153133
5.82382, 6, -6.23353, 23.0538, 34.836, -7.07441, -71.8698, 0.146984
5.83311, 6, -6.32723, 23.1201, 34.8174, -7.17493, -72.0176, 0.140665
5.8392, 6, -6.374, 23.1533, 34.8079, -7.22527, -72.0916, 0.137489
5.84725, 6, -6.46743, 23.2198, 34.7885, -7.32574, -72.2389, 0.130844
5.85712, 6, -6.60735, 23.3202, 34.7589, -7.47582, -72.4601, 0.120626
5.86509, 6, -6.70065, 23.3873, 34.7384, -7.57584, -72.6073, 0.113709
5.87128, 6, -6.74728, 23.421, 34.728, -7.62576, -72.6809, 0.110073
5.88125, 6, -6.88714, 23.5223, 34.6962, -7.77543, -72.9016, 0.0988569
5.8873, 6, -6.93372, 23.5561, 34.6853, -7.82529, -72.975, 0.0950019
5.89524, 6, -7.02688, 23.624, 34.6633, -7.92501, -73.1218, 0.0871
5.90549, 6, -7.16687, 23.7264, 34.6295, -8.07413, -73.3416, 0.0746941
5.91124, 6, -7.21354, 23.7607, 34.618, -8.1237, -73.4147, 0.0704627
5.91919, 6, -7.3069, 23.8293, 34.5948, -8.22288, -73.5611, 0.0617778
5.9287, 6, -7.44676, 23.9327, 34.559, -8.37101, -73.7801, 0.0481374
5.93531, 6, -7.49331, 23.9673, 34.5469, -8.42033, -73.8531, 0.0435142
5.9432, 6, -7.58643, 24.0366, 34.5223, -8.51897, -73.9989, 0.0340585
5.95277, 6, -7.67952, 24.1062, 34.4844, -8.6666, -74.2173, 0.0193433
5.95926, 6, -7.77242, 24.176, 34.4716, -8.71583, -74.2901, 0.0144158
5.96879, 6, -7.86509, 24.246, 34.4458, -8.81437, -74.4356, -0.000621671
5.97624, 6, -7.95759, 24.3161, 34.4194, -8.91247, -74.5807, -0.00562808
5.98419, 6, -8.05011, 24.3865, 34.3925, -9.01062, -74.7259, -0.0156255
5.99119, 6, -8.14269, 24.4572, 34.3652, -9.10843, -74.8705, -0.0257322
5.99919, 6, -8.23529, 24.5281, 34.3376, -9.20605, -75.0155, -0.0358823
6.00719, 6, -8.32782, 24.5991, 34.3095, -9.30377, -75.1598, -0.0460438
6.01524, 6, -8.42041, 24.6703, 34.2809, -9.40111, -75.3043, -0.0564279
6.02327, 6, -8.51303, 24.7417, 34.2519, -9.49857, -75.4482, -0.0668881
6.03119, 6, -8.60578, 24.8134, 34.2225, -9.59591, -75.5923, -0.0774936
6.03925, 6, -8.69866, 24.8852, 34.1927, -9.69312, -75.7359, -0.0882787
6.04726, 6, -8.79154, 24.9572, 34.1623, -9.7904, -75.8795, -0.0993784
6.05529, 6, -8.88442, 25.0295, 34.1316, -9.88737, -76.0227, -0.110622
6.06319, 6, -8.97717, 25.102, 34.1005, -9.98405, -76.1658, -0.122229
6.07124, 6, -9.06991, 25.1749, 34.0688, -10.0807, -76.3086, -0.134178
6.0792, 6, -9.16263, 25.2479, 34.0367, -10.177, -76.4515, -0.146366
6.08719, 6, -9.25523, 25.3211, 34.0042, -10.2734, -76.594, -0.158806
6.0953, 6, -9.3477, 25.3944, 33.9714, -10.3698, -76.7365, -0.171241
6.10319, 6, -9.44007, 25.4678, 33.9379, -10.4661, -76.8788, -0.184074
6.11119, 6, -9.53243, 25.5416, 33.9041, -10.5623, -77.0212, -0.1968
6.11932, 6, -9.62468, 25.6154, 33.8698, -10.6584, -77.1633, -0.209362
6.12719, 6, -9.71676, 25.6894, 33.835, -10.7545, -77.3052, -0.222062
6.13531, 6, -9.80884, 25.7636, 33.7998, -10.8502, -77.4468, -0.234642
6.14319, 6, -9.90088, 25.838, 33.7642, -10.9458, -77.5883, -0.247314
6.15119, 6, -9.99298, 25.9126, 33.7281, -11.0413, -77.7294, -0.260159
6.15939, 6, -10.0852, 25.9875, 33.6916, -11.1364, -77.8706, -0.273031
6.16726, 6, -10.1772, 26.0625, 33.6548, -11.2318, -78.0112, -0.286154
6.17535, 6, -10.2693, 26.1377, 33.6174, -11.3271, -78.1519, -0.299564
6.18334, 6, -10.3612, 26.213, 33.5796, -11.4222, -78.2922, -0.313071
6.19129, 6, -10.4532, 26.2887, 33.5414, -11.5172, -78.4324, -0.327121
6.19929, 6, -10.545, 26.3644, 33.5027, -11.612, -78.5721, -0.341554
6.20741, 6, -10.6367, 26.4404, 33.4636, -11.7066, -78.7115, -0.35618
6.21536, 6, -10.7281, 26.5166, 33.4241, -11.801, -78.8508, -0.370863
6.22348, 6, -10.8192, 26.5929, 33.384, -11.8953, -78.9898, -0.385578
6.2322, 6, -10.9102, 26.6694, 33.3436, -11.9894, -79.1289, -0.400214
6.23926, 6, -11.0011, 26.7462, 33.3027, -12.0836, -79.2674, -0.414765
6.24738, 6, -11.0918, 26.823, 33.2613, -12.1776, -79.406, -0.429426
6.25551, 6, -11.1825, 26.9, 33.2195, -12.2717, -79.5442, -0.444063
6.26339, 6, -11.2733, 26.9772, 33.1772, -12.3655, -79.6824, -0.458731
6.27182, 6, -11.3642, 27.0546, 33.1345, -12.4592, -79.8203, -0.473719
6.28026, 6, -11.4552, 27.1323, 33.0915, -12.5527, -79.9582, -0.488933
6.28773, 6, -11.5462, 27.21, 33.0479, -12.6459, -80.0959, -0.504535
6.29635, 6, -11.6373, 27.2879, 33.0039, -12.7393, -80.2335, -0.520351
6.30373, 6, -11.7284, 27.3661, 32.9596, -12.8324, -80.3707, -0.536379
6.31233, 6, -11.8195, 27.4443, 32.9147, -12.9254, -80.5078, -0.552384
6.32, 6, -11.9107, 27.5227, 32.8694, -13.0184, -80.6447, -0.568411
6.32779, 6, -11.9563, 27.6011, 32.8237, -13.1115, -80.7814, -0.584176
6.33637, 6, -12.0928, 27.6798, 32.7776, -13.2043, -80.9177, -0.599961
6.34318, 6, -12.1382, 27.7192, 32.7544, -13.2509, -80.9858, -0.607896
6.35222, 6, -12.2743, 27.8376, 32.6839, -13.3898, -81.1896, -0.631836
6.35922, 6, -12.3196, 27.8772, 32.6602, -13.4359, -81.2574, -0.639837
6.36863, 6, -12.4554, 27.9962, 32.5884, -13.5743, -81.4605, -0.664434
6.37523, 6, -12.5005, 28.0359, 32.5642, -13.6203, -81.528, -0.672759
6.38322, 6, -12.5907, 28.1155, 32.5155, -13.7125, -81.663, -0.689665
6.39279, 6, -12.7256, 28.2354, 32.4419, -13.8506, -81.8647, -0.715471
6.40141, 6, -12.8155, 28.3154, 32.3922, -13.9427, -81.9992, -0.732817
6.40722, 6, -12.8604, 28.3555, 32.3672, -13.9887, -82.066, -0.741462
6.41713, 6, -12.9953, 28.4759, 32.2915, -14.1264, -82.2666, -0.767314
6.42317, 6, -13.0402, 28.5162, 32.2661, -14.1723, -82.3334, -0.775846
6.43122, 6, -13.13, 28.5968, 32.215, -14.2639, -82.4666, -0.79279
6.44083, 6, -13.2647, 28.718, 32.1373, -14.4008, -82.6663, -0.818467
6.44958, 6, -13.3545, 28.7989, 32.0851, -14.492, -82.7992, -0.835727
6.45524, 6, -13.3994, 28.8395, 32.0587, -14.5376, -82.8656, -0.844472
6.46502, 6, -13.4891, 28.9208, 32.0057, -14.6285, -82.9978, -0.871122
6.47123, 6, -13.5786, 29.0021, 31.9523, -14.7197, -83.13, -0.880131
6.48028, 6, -13.6679, 29.0836, 31.8984, -14.8109, -83.2619, -0.898499
6.48817, 6, -13.7571, 29.1652, 31.844, -14.9016, -83.3937, -0.916891
6.49628, 6, -13.8462, 29.247, 31.7893, -14.9925, -83.5252, -0.93518
6.50317, 6, -13.9349, 29.329, 31.734, -15.083, -83.6565, -0.953434
6.51117, 6, -14.0235, 29.4111, 31.6784, -15.1732, -83.7876, -0.971399
6.51923, 6, -14.1118, 29.4934, 31.6224, -15.2635, -83.9183, -0.989389
6.52718, 6, -14.2002, 29.5758, 31.5659, -15.3535, -84.0489, -1.00737
6.53517, 6, -14.2885, 29.6585, 31.509, -15.4434, -84.179, -1.02563
6.54328, 6, -14.3767, 29.7412, 31.4517, -15.5333, -84.3091, -1.04417
6.55117, 6, -14.4649, 29.824, 31.394, -15.623, -84.4388, -1.06297
6.55922, 6, -14.5531, 29.907, 31.3357, -15.7131, -84.5684, -1.08211
6.56725, 6, -14.6413, 29.9902, 31.277, -15.8026, -84.6975, -1.10131
6.57517, 6, -14.7297, 30.0735, 31.2178, -15.8921, -84.8266, -1.12051
6.58317, 6, -14.8182, 30.157, 31.1581, -15.9815, -84.9553, -1.13933
6.59124, 6, -14.9066, 30.2405, 31.0981, -16.0704, -85.0837, -1.15811
6.59917, 6, -14.995, 30.3242, 31.0376, -16.1596, -85.2119, -1.17681
6.60718, 6, -15.0832, 30.4081, 30.9767, -16.2486, -85.3396, -1.19555
6.61523, 6, -15.1714, 30.492, 30.9155, -16.3373, -85.4675, -1.2144
6.62317, 6, -15.2596, 30.576, 30.8538, -16.4263, -85.5945, -1.23352
6.63117, 6, -15.3475, 30.6601, 30.7916, -16.5151, -85.7216, -1.25298
6.63924, 6, -15.4352, 30.7444, 30.729, -16.6038, -85.8484, -1.27272
6.64718, 6, -15.5228, 30.8289, 30.6659, -16.6925, -85.9748, -1.2923
6.65523, 6, -15.6103, 30.9135, 30.6023, -16.781, -86.1013, -1.31192
6.6632, 6, -15.6976, 30.9982, 30.5383, -16.8692, -86.2272, -1.3311
6.67125, 6, -15.7848, 31.083, 30.4738, -16.9573, -86.3531, -1.35033
6.67933, 6, -15.8718, 31.168, 30.409, -17.0452, -86.4783, -1.3695
6.68728, 6, -15.9587, 31.253, 30.3437, -17.1331, -86.6034, -1.38875
6.69527, 6, -16.0455, 31.3381, 30.278, -17.2207, -86.7282, -1.40821
6.70333, 6, -16.1323, 31.4235, 30.212, -17.3086, -86.8528, -1.42781
6.71176, 6, -16.2191, 31.509, 30.1454, -17.3964, -86.9773, -1.44772
6.72018, 6, -16.3058, 31.5946, 30.0785, -17.4838, -87.1014, -1.46791
6.72741, 6, -16.3924, 31.6804, 30.0109, -17.5714, -87.2253, -1.48782
6.73608, 6, -16.4789, 31.7663, 29.943, -17.6588, -87.3487, -1.5077
6.74417, 6, -16.5653, 31.8523, 29.8745, -17.7459, -87.4721, -1.52744
6.75138, 6, -16.6517, 31.9384, 29.8057, -17.8328, -87.5953, -1.54707
6.76017, 6, -16.7378, 32.0245, 29.7364, -17.9198, -87.7182, -1.56665
6.76741, 6, -16.8236, 32.1108, 29.6668, -18.0065, -87.841, -1.58646
6.77552, 6, -16.9091, 32.1973, 29.5968, -18.0931, -87.9633, -1.60669
6.78432, 6, -16.9944, 32.2838, 29.5262, -18.1798, -88.0855, -1.62715
6.79169, 6, -17.0797, 32.3704, 29.4553, -18.2665, -88.2071, -1.6477
6.80026, 6, -17.1648, 32.4571, 29.3838, -18.3528, -88.3287, -1.66806
6.8084, 6, -17.2497, 32.544, 29.3119, -18.4392, -88.4498, -1.68815
6.8157, 6, -17.3346, 32.631, 29.2396, -18.5252, -88.5706, -1.70795
6.82428, 6, -17.4194, 32.7181, 29.1668, -18.611, -88.6913, -1.72763
6.83287, 6, -17.4619, 32.7617, 29.0936, -18.6967, -88.8114, -1.74758
6.84024, 6, -17.5895, 32.8926, 29.02, -18.7822, -88.9316, -1.76754
6.84788, 6, -17.632, 32.9363, 28.983, -18.8249, -88.9915, -1.78782
6.85638, 6, -17.7596, 33.0677, 28.8716, -18.9528, -89.1702, -1.80856
6.8632, 6, -17.8021, 33.1116, 28.8343, -18.9956, -89.2298, -1.81905
6.87224, 6, -17.9295, 33.2433, 28.7215, -19.1235, -89.4076, -1.8503
6.87924, 6, -17.9719, 33.2872, 28.6837, -19.1661, -89.4669, -1.86055
6.88843, 6, -18.0984, 33.4188, 28.5695, -19.2935, -89.6441, -1.89122
6.89525, 6, -18.1396, 33.4621, 28.5314, -19.3359, -89.7028, -1.90124
6.90457, 6, -18.2576, 33.5883, 28.4184, -19.4622, -89.8784, -1.93116
6.91116, 6, -18.2946, 33.6286, 28.3816, -19.5034, -89.9359, -1.94106
6.92074, 6, -18.3987, 33.7429, 28.2756, -19.6231, -90.1026, -1.96991
6.92878, 6, -18.462, 33.8124, 28.2102, -19.6968, -90.2051, -1.9879
6.93722, 6, -18.5186, 33.8749, 28.1511, -19.7629, -90.2973, -2.0045
6.94322, 6, -18.5444, 33.9032, 28.1243, -19.7923, -90.339, -2.01202
6.95282, 6, -18.6133, 33.978, 28.056, -19.8664, -90.4418, -2.03066
6.96108, 6, -18.6527, 34.0194, 28.0209, -19.9018, -90.4923, -2.0395
6.96723, 6, -18.6703, 34.0372, 28.0065, -19.9156, -90.5119, -2.04298
6.9769, 6, -18.7002, 34.0671, 27.9838, -19.9442, -90.5525, -2.05019
6.98551, 6, -18.7338, 34.0984, 27.9621, -19.9549, -90.5676, -2.05279
6.99217, 6, -18.7424, 34.1059, 27.9574, -19.9584, -90.5726, -2.05363
7.00026, 6, -18.7557, 34.1174, 27.9508, -19.963, -90.5789, -2.05476
7.00817, 6, -18.7642, 34.1242, 27.947, -19.9654, -90.5822, -2.0554
7.01521, 7, -18.7689, 34.1274, 27.9448, -19.9666, -90.5838, -2.05569
7.02316, 7, -18.7711, 34.1289, 27.9436, -19.9672, -90.5846, -2.05578
7.03116, 7, -18.772, 34.1295, 27.9428, -19.9675, -90.585, -2.05589
7.03922, 7, -18.7723, 34.1295, 27.9424, -19.9677, -90.5853, -2.05591
7.04721, 7, -18.7721, 34.1295, 27.9421, -19.9679, -90.5853, -2.05598
7.05515, 7, -18.7719, 34.1295, 27.942, -19.9679, -90.5854, -2.05601
7.06326, 7, -18.7717, 34.1296, 27.9418, -19.968, -90.5855, -2.05601
7.07115, 7, -18.7716, 34.13, 27.9417, -19.968, -90.5855, -2.05604
7.07915, 7, -18.7715, 34.1308, 27.9417, -19.9681, -90.5856, -2.05602
7.08723, 7, -18.7715, 34.1317, 27.9417, -19.9681, -90.5856, -2.05601
7.09515, 7, -18.7715, 34.1326, 27.9417, -19.9681, -90.5856, -2.05603
7.10315, 7, -18.7717, 34.1334, 27.9416, -19.9681, -90.5856, -2.05599
7.11119, 7, -18.7718, 34.1339, 27.9416, -19.9681, -90.5856, -2.05604
7.11915, 7, -18.772, 34.1342, 27.9416, -19.9681, -90.5856, -2.05604
7.12715, 7, -18.7723, 34.1343, 27.9416, -19.9681, -90.5856, -2.05606
