hehonglu123/ABB_Primitive_Study/realrobot/movel_30_ori/curve_exe_vmax_z1.csv
timestamp, cmd_num, J1, J2, J3, J4, J5, J6
0.00047, -1, -18.771, 34.1317, 27.9431, -19.9674, -90.5846, -2.05489
0.004063, -1, -18.771, 34.1317, 27.9431, -19.9674, -90.5846, -2.05485
0.008019, -1, -18.771, 34.1317, 27.9431, -19.9674, -90.5846, -2.05483
0.028558, -1, -18.771, 34.1317, 27.9431, -19.9674, -90.5846, -2.05479
0.029986, -1, -18.771, 34.1317, 27.9431, -19.9674, -90.5846, -2.05481
0.032445, -1, -18.771, 34.1317, 27.9431, -19.9674, -90.5846, -2.05485
0.039183, -1, -18.771, 34.1317, 27.9431, -19.9674, -90.5846, -2.05485
0.048316, -1, -18.7708, 34.1317, 27.9431, -19.9674, -90.5846, -2.05481
0.055247, -1, -18.7704, 34.1316, 27.9431, -19.9674, -90.5846, -2.05482
0.063239, -1, -18.7681, 34.1311, 27.9431, -19.9674, -90.5846, -2.05491
0.072564, -1, -18.7589, 34.1277, 27.9432, -19.9663, -90.5832, -2.05503
0.07921, -1, -18.7539, 34.1255, 27.9433, -19.9648, -90.5816, -2.05528
0.08934, -1, -18.7309, 34.1143, 27.9434, -19.9514, -90.5683, -2.05997
0.095248, -1, -18.7194, 34.1085, 27.9433, -19.9427, -90.5594, -2.06382
0.104698, -1, -18.6702, 34.0838, 27.9423, -19.8968, -90.5118, -2.08517
0.113498, -1, -18.6236, 34.0604, 27.9399, -19.8423, -90.4549, -2.11064
0.119297, -1, -18.5955, 34.0462, 27.9379, -19.8062, -90.4175, -2.12744
0.128792, -1, -18.4906, 33.9933, 27.9281, -19.657, -90.2607, -2.19892
0.137669, -1, -18.403, 33.9494, 27.9175, -19.5192, -90.1157, -2.26456
0.14321, -1, -18.3541, 33.9248, 27.9108, -19.4384, -90.0304, -2.30286
0.152206, -1, -18.2462, 33.8706, 27.895, -19.2531, -89.8345, -2.39172
0.160181, -1, -18.1244, 33.8096, 27.8762, -19.0388, -89.6079, -2.49356
0.167211, -1, -17.9892, 33.7419, 27.8548, -18.7996, -89.3542, -2.60782
0.175184, -1, -17.842, 33.6684, 27.8317, -18.5405, -89.0789, -2.73162
0.183212, -1, -17.6842, 33.5895, 27.8075, -18.2666, -88.7878, -2.86236
0.191221, -1, -17.5168, 33.5058, 27.7828, -17.9827, -88.4861, -2.99826
0.199184, -1, -17.3415, 33.4182, 27.7578, -17.6929, -88.1776, -3.1372
0.207217, -1, -17.1606, 33.3279, 27.7325, -17.3989, -87.8652, -3.27834
0.215182, -1, -16.976, 33.2358, 27.7073, -17.1029, -87.5503, -3.42032
0.223182, -1, -16.7887, 33.1427, 27.6822, -16.8055, -87.2339, -3.5628
0.23126, -1, -16.5998, 33.0492, 27.6572, -16.5071, -86.9165, -3.70572
0.239182, -1, -16.4099, 32.9555, 27.632, -16.208, -86.5979, -3.84876
0.247183, -1, -16.2199, 32.8616, 27.6069, -15.9081, -86.2786, -3.99213
0.255241, -1, -16.0299, 32.7679, 27.5818, -15.6072, -85.9587, -4.13591
0.26326, -1, -15.8403, 32.6742, 27.5568, -15.306, -85.6384, -4.27977
0.271193, -1, -15.6515, 32.5805, 27.5316, -15.0046, -85.3174, -4.42417
0.279268, -1, -15.4629, 32.4866, 27.5063, -14.7024, -84.9962, -4.56884
0.287179, -1, -15.2748, 32.3925, 27.4811, -14.4002, -84.6745, -4.71327
0.295182, -1, -15.0871, 32.2981, 27.4558, -14.0975, -84.3523, -4.85818
0.303286, -1, -14.8994, 32.2034, 27.4305, -13.7942, -84.03, -5.0031
0.31119, -1, -14.7112, 32.1083, 27.405, -13.491, -83.7074, -5.14816
0.31925, -1, -14.5219, 32.013, 27.3794, -13.1875, -83.3844, -5.29346
0.327183, -1, -14.3315, 31.9175, 27.3538, -12.8839, -83.0612, -5.4389
0.335182, -1, -14.1401, 31.822, 27.3283, -12.5802, -82.7378, -5.5846
0.343271, -1, -13.9481, 31.7264, 27.3027, -12.2761, -82.4141, -5.7302
0.351254, -1, -13.7555, 31.6308, 27.277, -11.9717, -82.09, -5.87566
0.359272, -1, -13.5623, 31.5353, 27.2514, -11.6675, -81.7661, -6.02122
0.367332, -1, -13.3686, 31.4399, 27.2258, -11.3631, -81.442, -6.16664
0.375285, -1, -13.1748, 31.3445, 27.2003, -11.0588, -81.118, -6.31226
0.383282, -1, -12.9817, 31.2493, 27.1747, -10.7544, -80.7941, -6.45791
0.391298, -1, -12.7893, 31.1541, 27.1492, -10.4499, -80.4706, -6.60352
0.399187, -1, -12.5974, 31.059, 27.1237, -10.1456, -80.1472, -6.74942
0.407266, -1, -12.4064, 30.9638, 27.0982, -9.84153, -79.8237, -6.89516
0.415215, -1, -12.2163, 30.8686, 27.0725, -9.53743, -79.5003, -7.04062
0.423232, -1, -12.027, 30.7734, 27.047, -9.23365, -79.1768, -7.18609
0.432182, -1, -11.8382, 30.678, 27.0214, -8.93007, -78.8535, -7.33134
0.439355, -1, -11.6495, 30.5826, 26.996, -8.62647, -78.5303, -7.47666
0.447678, -1, -11.4603, 30.4874, 26.9705, -8.32333, -78.2076, -7.62187
0.456348, -1, -11.2709, 30.3923, 26.9449, -8.02091, -77.8857, -7.76703
0.463555, -1, -11.0811, 30.2974, 26.9195, -7.71875, -77.5639, -7.91172
0.47177, -1, -10.891, 30.2028, 26.8942, -7.41714, -77.2429, -8.05616
0.480482, -1, -10.7004, 30.1084, 26.8689, -7.11604, -76.9226, -8.20016
0.487719, -1, -10.5098, 30.0142, 26.8435, -6.81504, -76.6026, -8.34389
0.496347, -1, -10.3188, 29.9201, 26.8184, -6.51486, -76.2828, -8.48752
0.504635, -1, -10.1283, 29.8262, 26.7932, -6.2153, -75.9638, -8.63085
0.511777, -1, -10.0333, 29.7325, 26.7682, -5.91605, -75.645, -8.77397
0.520248, -1, -9.74948, 29.6391, 26.7431, -5.61763, -75.3273, -8.91704
0.527165, -1, -9.65536, 29.5924, 26.7305, -5.46859, -75.1688, -8.98836
0.535173, -1, -9.46773, 29.4991, 26.7056, -5.17073, -74.8521, -9.1308
0.674878, -1, -6.27435, 27.9072, 26.2791, -0.0992849, -69.4547, -11.5573
0.676129, -1, -6.27435, 27.9072, 26.2791, -0.0992849, -69.4547, -11.5573
0.679027, -1, -6.18625, 27.8631, 26.2673, 0.0412434, -69.3052, -11.6246
0.680273, -1, -6.18625, 27.8631, 26.2673, 0.0412434, -69.3052, -11.6246
0.682363, -1, -6.09834, 27.8191, 26.2555, 0.181561, -69.1559, -11.6918
0.683605, -1, -6.09834, 27.8191, 26.2555, 0.181561, -69.1559, -11.6918
0.685458, -1, -6.01063, 27.7751, 26.2437, 0.321652, -69.0069, -11.7588
0.688298, -1, -6.01063, 27.7751, 26.2437, 0.321652, -69.0069, -11.7588
0.691373, -1, -5.92318, 27.7311, 26.232, 0.461375, -68.8581, -11.8257
0.693202, -1, -5.92318, 27.7311, 26.2203, 0.600783, -68.7097, -11.8925
0.694644, -1, -5.83599, 27.6873, 26.2203, 0.600783, -68.7097, -11.8925
0.69583, -1, -5.83599, 27.6873, 26.2203, 0.600783, -68.7097, -11.8925
0.697905, -1, -5.74901, 27.6435, 26.2086, 0.740002, -68.5615, -11.9592
0.69913, -1, -5.74901, 27.6435, 26.2086, 0.740002, -68.5615, -11.9592
0.700389, -1, -5.74901, 27.6435, 26.2086, 0.740002, -68.5615, -11.9592
0.706381, -1, -5.57551, 27.5563, 26.1852, 1.01761, -68.2657, -12.0922
0.707596, -1, -5.57551, 27.5563, 26.1852, 1.01761, -68.2657, -12.0922
0.709422, -1, -5.48894, 27.5129, 26.1735, 1.15596, -68.1183, -12.1586
0.71078, -1, -5.48894, 27.5129, 26.1735, 1.15596, -68.1183, -12.1586
0.71212, -1, -5.48894, 27.5129, 26.1735, 1.15596, -68.1183, -12.1586
0.714798, -1, -5.40245, 27.4695, 26.1619, 1.29396, -67.9712, -12.2248
0.716079, -1, -5.40245, 27.4695, 26.1619, 1.29396, -67.9712, -12.2248
0.72221, -1, -5.22966, 27.3831, 26.1387, 1.56925, -67.678, -12.3567
0.72726, -1, -5.14335, 27.3401, 26.1271, 1.70658, -67.532, -12.4223
0.735161, -1, -4.97098, 27.2542, 26.1042, 1.98028, -67.2408, -12.5533
0.743173, -1, -4.7989, 27.1688, 26.0813, 2.25265, -66.9508, -12.6834
0.751242, -1, -4.62741, 27.0838, 26.0584, 2.52395, -66.6623, -12.8131
0.759161, -1, -4.45641, 26.9991, 26.0358, 2.79396, -66.375, -12.9423
0.76721, -1, -4.2856, 26.9147, 26.0131, 3.06255, -66.0889, -13.0709
0.775695, -1, -4.11543, 26.8307, 25.9907, 3.33041, -65.8039, -13.1989
0.783191, -1, -3.94623, 26.747, 25.9682, 3.59705, -65.5201, -13.3267
0.791164, -1, -3.77835, 26.6637, 25.9459, 3.86225, -65.2375, -13.4539
0.799961, -1, -3.61165, 26.5807, 25.9237, 4.12658, -64.9561, -13.5803
0.808288, -1, -3.44608, 26.4979, 25.9015, 4.3896, -64.6761, -13.7061
0.815164, -1, -3.28158, 26.4156, 25.8794, 4.65138, -64.3974, -13.8313
0.823994, -1, -3.11805, 26.3336, 25.8574, 4.91218, -64.1199, -13.9557
0.832261, -1, -2.95571, 26.252, 25.8355, 5.17188, -63.8437, -14.0799
0.839167, -1, -2.79434, 26.1707, 25.8138, 5.43034, -63.5687, -14.2035
0.848014, -1, -2.63362, 26.0898, 25.7922, 5.68756, -63.295, -14.3265
0.856225, -1, -2.47329, 26.0095, 25.7708, 5.94348, -63.0226, -14.4493
0.863258, -1, -2.31322, 25.9295, 25.7493, 6.19816, -62.7514, -14.5713
0.872141, -1, -2.15348, 25.8499, 25.7279, 6.45163, -62.4816, -14.6927
0.879331, -1, -1.99415, 25.7707, 25.7067, 6.7041, -62.2129, -14.8136
0.887374, -1, -1.83529, 25.6919, 25.6855, 6.95559, -61.9451, -14.9337
0.89609, -1, -1.67706, 25.6134, 25.6647, 7.20567, -61.6788, -15.0532
0.904234, -1, -1.5191, 25.5353, 25.6437, 7.45457, -61.4135, -15.1723
0.91119, -1, -1.36151, 25.4575, 25.6228, 7.70254, -61.1492, -15.2909
0.920152, -1, -1.20461, 25.3801, 25.6021, 7.94933, -60.8862, -15.4089
0.9272, -1, -1.04863, 25.3029, 25.5815, 8.19487, -60.6245, -15.5267
0.935425, -1, -0.893711, 25.2261, 25.561, 8.43963, -60.3641, -15.6439
0.944185, -1, -0.740197, 25.1496, 25.5406, 8.68333, -60.105, -15.7604
0.951392, -1, -0.587665, 25.0735, 25.5201, 8.92558, -59.8469, -15.8765
0.959869, -1, -0.436161, 24.9977, 25.4997, 9.16683, -59.5904, -15.9919
0.968228, -1, -0.285834, 24.9223, 25.4796, 9.40707, -59.3353, -16.107
0.975596, -1, -0.136548, 24.8473, 25.4595, 9.64618, -59.0811, -16.2214
0.983728, -1, 0.0117493, 24.7726, 25.4397, 9.88385, -58.828, -16.3354
0.994278, -1, 0.159437, 24.6982, 25.4198, 10.1208, -58.5759, -16.4491
1.0004, -1, 0.306691, 24.6242, 25.3999, 10.3568, -58.3249, -16.5619
1.00774, -1, 0.453861, 24.5506, 25.3801, 10.5914, -58.0747, -16.6747
1.01668, -1, 0.600966, 24.4772, 25.3604, 10.8249, -57.8256, -16.7866
1.02372, -1, 0.674413, 24.4406, 25.3506, 10.9414, -57.7014, -16.898
1.03216, -1, 0.894332, 24.3313, 25.3216, 11.2891, -57.3308, -17.009
1.03923, -1, 0.967359, 24.2951, 25.3119, 11.4044, -57.2078, -17.0641
1.04716, -1, 1.11301, 24.2228, 25.2924, 11.6343, -56.9629, -17.174
1.05629, -1, 1.33059, 24.1151, 25.2636, 11.9774, -56.5978, -17.338
1.06321, -1, 1.40284, 24.0793, 25.254, 12.0914, -56.4767, -17.3925
1.07242, -1, 1.61898, 23.9726, 25.2254, 12.4314, -56.1151, -17.555
1.07915, -1, 1.69068, 23.9371, 25.216, 12.5441, -55.9951, -17.6089
1.08926, -1, 1.90419, 23.8315, 25.1877, 12.8812, -55.6368, -17.7704
1.09516, -1, 1.97482, 23.7964, 25.1783, 12.9931, -55.5179, -17.8239
1.10461, -1, 2.18538, 23.6915, 25.1503, 13.3267, -55.1625, -17.9837
1.11342, -1, 2.32455, 23.6221, 25.1316, 13.548, -54.9268, -18.0896
1.11913, -1, 2.39377, 23.5875, 25.1224, 13.6585, -54.8093, -18.1424
1.12871, -1, 2.60004, 23.484, 25.0949, 13.9882, -54.458, -18.2998
1.13754, -1, 2.73626, 23.4154, 25.0765, 14.2067, -54.2251, -18.4041
1.14315, -1, 2.80408, 23.3812, 25.0673, 14.3156, -54.1091, -18.4563
1.15287, -1, 2.93933, 23.313, 25.04, 14.6411, -53.7628, -18.6119
1.16168, -1, 3.07424, 23.245, 25.0217, 14.8567, -53.5331, -18.7153
1.16715, -1, 3.20915, 23.1773, 25.0127, 14.9642, -53.4187, -18.7666
1.17522, -1, 3.34404, 23.11, 24.9948, 15.1785, -53.1906, -18.8697
1.18315, -1, 3.4786, 23.043, 24.977, 15.3921, -52.9632, -18.9719
1.19115, -1, 3.61295, 22.9763, 24.9591, 15.6049, -52.7371, -19.0738
1.19921, -1, 3.74699, 22.9098, 24.9413, 15.8166, -52.5117, -19.1749
1.20718, -1, 3.88049, 22.8436, 24.9237, 16.0273, -52.2875, -19.276
1.21516, -1, 4.01367, 22.7778, 24.9059, 16.2373, -52.0642, -19.3762
1.22321, -1, 4.14639, 22.7122, 24.8884, 16.4464, -51.8416, -19.4761
1.23115, -1, 4.27866, 22.6469, 24.871, 16.6545, -51.6199, -19.5756
1.23915, -1, 4.41035, 22.5818, 24.8535, 16.8617, -51.3989, -19.6747
1.24721, -1, 4.5412, 22.517, 24.8361, 17.0683, -51.179, -19.7736
1.25516, -1, 4.67143, 22.4523, 24.8189, 17.2742, -50.96, -19.8719
1.26315, -1, 4.8009, 22.3879, 24.8017, 17.4791, -50.7416, -19.9703
1.27126, -1, 4.92967, 22.3237, 24.7845, 17.6832, -50.5242, -20.0681
1.27918, -1, 5.05771, 22.2598, 24.7675, 17.8863, -50.3077, -20.1656
1.28717, -1, 5.18483, 22.1961, 24.7505, 18.0889, -50.092, -20.2623
1.29522, -1, 5.31125, 22.1326, 24.7334, 18.2908, -49.8772, -20.359
1.30315, -1, 5.4367, 22.0694, 24.7165, 18.4917, -49.6632, -20.4549
1.31114, -1, 5.56133, 22.0065, 24.6997, 18.6918, -49.4502, -20.5508
1.31921, -1, 5.68548, 21.9439, 24.6828, 18.8913, -49.2381, -20.6461
1.32715, -1, 5.80935, 21.8815, 24.6662, 19.0902, -49.0267, -20.7413
1.33515, -1, 5.93311, 21.8195, 24.6497, 19.288, -48.8166, -20.8357
1.34321, -1, 6.05682, 21.7577, 24.6331, 19.4851, -48.6071, -20.9305
1.3512, -1, 6.18038, 21.696, 24.6166, 19.6816, -48.3982, -21.0244
1.35927, -1, 6.30376, 21.6346, 24.6002, 19.8772, -48.19, -21.1184
1.36725, -1, 6.4269, 21.5734, 24.5837, 20.072, -47.9826, -21.2116
1.37527, -1, 6.5499, 21.5123, 24.5673, 20.266, -47.7759, -21.3049
1.38331, -1, 6.67246, 21.4516, 24.5512, 20.4593, -47.5698, -21.3972
1.39127, -1, 6.79476, 21.391, 24.535, 20.6523, -47.3643, -21.4898
1.3992, -1, 6.91655, 21.3308, 24.5188, 20.8442, -47.1597, -21.5813
1.40715, -1, 7.0379, 21.2708, 24.5027, 21.0355, -46.9557, -21.6731
1.41523, -1, 7.1586, 21.2111, 24.4867, 21.2262, -46.7527, -21.7639
1.42324, -1, 7.27871, 21.1515, 24.4707, 21.4161, -46.5504, -21.8551
1.43125, -1, 7.3982, 21.0922, 24.4548, 21.6054, -46.349, -21.9451
1.43934, -1, 7.51707, 21.0332, 24.4392, 21.7939, -46.1482, -22.0357
1.44736, -1, 7.63552, 20.9742, 24.4235, 21.9818, -45.9482, -22.1253
1.45544, -1, 7.75355, 20.9155, 24.4077, 22.169, -45.7492, -22.2153
1.46363, -1, 7.87101, 20.857, 24.392, 22.3558, -45.5505, -22.3045
1.47216, -1, 7.9879, 20.7985, 24.3763, 22.542, -45.353, -22.3938
1.47964, -1, 8.10419, 20.7403, 24.3607, 22.7273, -45.1562, -22.482
1.48823, -1, 8.21991, 20.6822, 24.3452, 22.9119, -44.9599, -22.5706
1.4957, -1, 8.33525, 20.6244, 24.3299, 23.0958, -44.7643, -22.6582
1.50432, -1, 8.45031, 20.5667, 24.3146, 23.2793, -44.5691, -22.7459
1.5119, -1, 8.56494, 20.5094, 24.2991, 23.462, -44.3744, -22.8332
1.52031, -1, 8.67902, 20.4522, 24.2838, 23.644, -44.1804, -22.9203
1.52797, -1, 8.79264, 20.3953, 24.2686, 23.8254, -43.987, -23.0072
1.53615, -1, 8.906, 20.3386, 24.2534, 24.0064, -43.794, -23.0936
1.54321, -1, 8.96259, 20.3103, 24.2458, 24.0967, -43.6979, -23.1369
1.55219, -1, 9.13215, 20.2256, 24.2233, 24.3665, -43.4108, -23.266
1.55918, -1, 9.18869, 20.1975, 24.2159, 24.4562, -43.3154, -23.3092
1.56713, -1, 9.30173, 20.1413, 24.2008, 24.6349, -43.1249, -23.3948
1.5764, -1, 9.47092, 20.0575, 24.1782, 24.902, -42.8405, -23.523
1.58318, -1, 9.5271, 20.0295, 24.1708, 24.9909, -42.7461, -23.5653
1.59265, -1, 9.69494, 19.9462, 24.1484, 25.2562, -42.4634, -23.6925
1.60064, -1, 9.80636, 19.8906, 24.1336, 25.4326, -42.2758, -23.7765
1.60877, -1, 9.91753, 19.8354, 24.1189, 25.6082, -42.0886, -23.8608
1.6167, -1, 10.0283, 19.7804, 24.1043, 25.7835, -41.9024, -23.9441
1.62469, -1, 10.1387, 19.7256, 24.0897, 25.9585, -41.7166, -24.0276
1.63274, -1, 10.2488, 19.671, 24.075, 26.1326, -41.5314, -24.1109
1.64076, -1, 10.3584, 19.6165, 24.0603, 26.3062, -41.3466, -24.1937
1.64878, -1, 10.413, 19.5894, 24.0458, 26.4792, -41.1623, -24.2768
1.65701, -1, 10.5218, 19.5352, 24.0313, 26.6518, -40.9787, -24.3589
1.66313, -1, 10.6302, 19.4811, 24.024, 26.738, -40.887, -24.4005
1.67194, -1, 10.7384, 19.4273, 24.0096, 26.9096, -40.7041, -24.4828
1.67913, -1, 10.8461, 19.3736, 23.9955, 27.0808, -40.5218, -24.5648
1.68714, -1, 10.9535, 19.3199, 23.9812, 27.2513, -40.3399, -24.6468
1.6959, -1, 11.0603, 19.2664, 23.9668, 27.4216, -40.1587, -24.7277
1.70315, -1, 11.1668, 19.2132, 23.9525, 27.5914, -39.978, -24.8094
1.71117, -1, 11.273, 19.16, 23.9382, 27.7606, -39.7979, -24.89
1.71996, -1, 11.3788, 19.107, 23.924, 27.9293, -39.6183, -24.971
1.72821, -1, 11.484, 19.0542, 23.9099, 28.0974, -39.4392, -25.0513
1.73612, -1, 11.589, 19.0016, 23.8959, 28.265, -39.2607, -25.1316
1.74413, -1, 11.6938, 18.9492, 23.882, 28.4324, -39.0825, -25.2119
1.75219, -1, 11.7985, 18.8969, 23.868, 28.5992, -38.9051, -25.2915
1.75913, -1, 11.9031, 18.8448, 23.854, 28.7654, -38.7281, -25.3715
1.76869, -1, 12.0075, 18.7928, 23.84, 28.9311, -38.5514, -25.4507
1.77517, -1, 12.1117, 18.7409, 23.8261, 29.0964, -38.3756, -25.5304
1.78322, -1, 12.2159, 18.6891, 23.8123, 29.2615, -38.2003, -25.6093
1.79115, -1, 12.3197, 18.6375, 23.7984, 29.4262, -38.0256, -25.6883
1.79913, -1, 12.4233, 18.586, 23.7848, 29.5902, -37.8514, -25.7669
1.80721, -1, 12.5267, 18.5346, 23.7712, 29.7537, -37.6774, -25.8448
1.81513, -1, 12.6298, 18.4834, 23.7576, 29.9168, -37.5039, -25.9233
1.8232, -1, 12.7326, 18.4323, 23.7438, 30.0795, -37.3307, -26.0007
1.83121, -1, 12.8351, 18.3813, 23.7301, 30.2419, -37.158, -26.0786
1.83912, -1, 12.9372, 18.3306, 23.7165, 30.4036, -36.9858, -26.1557
1.84713, -1, 13.0389, 18.2801, 23.7029, 30.5648, -36.8139, -26.2326
1.85538, -1, 13.1402, 18.2297, 23.6894, 30.7255, -36.6425, -26.3098
1.86322, -1, 13.2412, 18.1795, 23.676, 30.886, -36.4715, -26.3861
1.87122, -1, 13.3418, 18.1293, 23.6628, 31.0462, -36.3012, -26.4629
1.8796, -1, 13.4421, 18.0793, 23.6494, 31.2058, -36.1311, -26.539
1.88724, -1, 13.5422, 18.0294, 23.636, 31.365, -35.9616, -26.6153
1.89523, -1, 13.6422, 17.9795, 23.6226, 31.5237, -35.7925, -26.6916
1.90379, -1, 13.7419, 17.9297, 23.6094, 31.6819, -35.6239, -26.7671
1.91226, -1, 13.8414, 17.88, 23.5961, 31.84, -35.4558, -26.8431
1.91915, -1, 13.9407, 17.8304, 23.5828, 31.9976, -35.2882, -26.9182
1.92798, -1, 14.0398, 17.7809, 23.5696, 32.1547, -35.1209, -26.9935
1.93625, -1, 14.1388, 17.7316, 23.5566, 32.3115, -34.9541, -27.0683
1.94332, -1, 14.2374, 17.6824, 23.5435, 32.4678, -34.788, -27.1428
1.95214, -1, 14.3356, 17.6335, 23.5304, 32.6239, -34.6222, -27.2178
1.95939, -1, 14.4334, 17.5847, 23.5172, 32.7797, -34.4568, -27.2915
1.96746, -1, 14.5309, 17.5361, 23.5041, 32.9351, -34.2915, -27.3659
1.97635, -1, 14.6281, 17.4876, 23.4912, 33.0899, -34.1267, -27.4401
1.9836, -1, 14.7249, 17.4392, 23.4783, 33.2444, -33.9622, -27.5138
1.99168, -1, 14.8215, 17.391, 23.4653, 33.3985, -33.7981, -27.588
2.00041, -1, 14.9179, 17.3427, 23.4524, 33.5522, -33.6345, -27.6613
2.00768, -1, 15.0141, 17.2945, 23.4398, 33.7057, -33.4711, -27.7352
2.01623, -1, 15.1102, 17.2464, 23.427, 33.8586, -33.3078, -27.8086
2.02454, -1, 15.1582, 17.2224, 23.4141, 34.0112, -33.1453, -27.8815
2.03185, -1, 15.2541, 17.1505, 23.4011, 34.1632, -32.9832, -27.9549
2.04076, -1, 15.3977, 17.1027, 23.3883, 34.3152, -32.8216, -28.0272
2.04834, -1, 15.4935, 17.055, 23.3755, 34.4668, -32.6604, -28.1
2.05511, -1, 15.5413, 17.0312, 23.3691, 34.5425, -32.5799, -28.1364
2.06502, -1, 15.6845, 16.9602, 23.35, 34.7689, -32.339, -28.2442
2.07236, -1, 15.7797, 16.9129, 23.3375, 34.9194, -32.1787, -28.3168
2.0791, -1, 15.8273, 16.8894, 23.3312, 34.9944, -32.0987, -28.3525
2.08918, -1, 15.9694, 16.8191, 23.3125, 35.2192, -31.8596, -28.4596
2.09511, -1, 16.0167, 16.7957, 23.3062, 35.294, -31.7801, -28.4957
2.10455, -1, 16.1579, 16.7258, 23.2873, 35.518, -31.5418, -28.6024
2.11317, -1, 16.2516, 16.6792, 23.2748, 35.6667, -31.3837, -28.674
2.11912, -1, 16.2984, 16.6559, 23.2686, 35.7409, -31.3046, -28.7096
2.12866, -1, 16.4384, 16.5862, 23.2499, 35.9632, -31.068, -28.8157
2.13764, -1, 16.5313, 16.5396, 23.2374, 36.1111, -30.9106, -28.887
2.14476, -1, 16.6239, 16.4932, 23.2251, 36.2589, -30.7534, -28.9574
2.15274, -1, 16.6702, 16.4469, 23.2128, 36.4061, -30.5967, -29.0282
2.16087, -1, 16.7626, 16.4237, 23.2066, 36.553, -30.4404, -29.0986
2.16711, -1, 16.8548, 16.3775, 23.1942, 36.6263, -30.3623, -29.1333
2.17614, -1, 16.947, 16.3315, 23.1818, 36.7726, -30.2067, -29.2035
2.18415, -1, 17.039, 16.2856, 23.1695, 36.9187, -30.0509, -29.2735
2.19217, -1, 17.1306, 16.2399, 23.1572, 37.0646, -29.8957, -29.3428
2.20011, -1, 17.2208, 16.1949, 23.1449, 37.21, -29.7406, -29.4126
2.20811, -1, 17.3075, 16.1514, 23.1323, 37.3546, -29.5868, -29.4814
2.21514, -1, 17.3895, 16.1104, 23.1198, 37.497, -29.435, -29.5493
2.22311, -1, 17.4659, 16.0723, 23.1073, 37.6348, -29.2881, -29.6158
2.23118, -1, 17.5367, 16.0375, 23.0952, 37.7647, -29.1492, -29.678
2.23912, -1, 17.6007, 16.0064, 23.084, 37.8831, -29.0229, -29.7348
2.24711, -1, 17.6571, 15.9789, 23.0742, 37.9863, -28.9122, -29.7849
2.25611, -1, 17.7071, 15.9542, 23.0665, 38.0707, -28.8215, -29.826
2.26418, -1, 17.751, 15.9316, 23.0613, 38.1366, -28.7504, -29.8578
2.27211, -1, 17.7889, 15.9119, 23.0581, 38.1831, -28.6997, -29.8805
2.28011, -1, 17.8197, 15.8962, 23.0564, 38.2144, -28.6656, -29.8958
2.28713, -1, 17.8442, 15.8842, 23.0556, 38.2339, -28.6442, -29.905
2.29513, -1, 17.8628, 15.8756, 23.0553, 38.2449, -28.632, -29.9101
2.30317, -1, 17.875, 15.87, 23.0551, 38.2506, -28.6257, -29.9127
2.31107, 2, 17.8814, 15.867, 23.0551, 38.2534, -28.6227, -29.914
2.31912, 2, 17.8843, 15.8655, 23.055, 38.2547, -28.6213, -29.9146
2.32718, 2, 17.8852, 15.8649, 23.055, 38.2553, -28.6205, -29.9148
2.33511, 2, 17.8848, 15.8646, 23.055, 38.2556, -28.6203, -29.915
2.34311, 2, 17.8841, 15.8644, 23.055, 38.2558, -28.6202, -29.9151
2.35119, 2, 17.8834, 15.8644, 23.055, 38.2559, -28.6201, -29.9151
2.35916, 2, 17.883, 15.8643, 23.055, 38.2559, -28.6201, -29.9151
2.36719, 2, 17.8828, 15.8643, 23.055, 38.2559, -28.6201, -29.9151
2.37526, 2, 17.8828, 15.8641, 23.055, 38.2559, -28.6201, -29.9152
2.38324, 2, 17.8828, 15.8639, 23.055, 38.2559, -28.6201, -29.9151
2.39122, 2, 17.8831, 15.8636, 23.055, 38.2559, -28.6201, -29.9152
2.39929, 2, 17.8835, 15.8632, 23.055, 38.2559, -28.6201, -29.9152
2.40717, 2, 17.8839, 15.8629, 23.055, 38.2559, -28.6201, -29.9151
2.41511, 2, 17.8847, 15.8628, 23.055, 38.2559, -28.6201, -29.9151
2.42321, 2, 17.8856, 15.8627, 23.055, 38.2559, -28.6201, -29.9151
2.4313, 2, 17.8863, 15.8626, 23.055, 38.2559, -28.6201, -29.9152
2.43916, 2, 17.8868, 15.8626, 23.055, 38.2559, -28.6201, -29.9151
2.4477, 2, 17.8872, 15.8626, 23.055, 38.2559, -28.6201, -29.9152
2.45534, 2, 17.8874, 15.8627, 23.055, 38.2559, -28.6201, -29.9151
2.46339, 2, 17.8875, 15.8627, 23.055, 38.2559, -28.6201, -29.9152
2.47187, 2, 17.8875, 15.8627, 23.055, 38.2559, -28.6201, -29.9152
2.48021, 2, 17.8875, 15.8627, 23.055, 38.2559, -28.6202, -29.9152
2.48758, 2, 17.8875, 15.8627, 23.055, 38.2559, -28.6202, -29.9152
2.49599, 2, 17.8875, 15.8626, 23.055, 38.2559, -28.6202, -29.9152
2.50428, 2, 17.8873, 15.8625, 23.055, 38.2559, -28.6202, -29.9151
2.51167, 2, 17.8871, 15.8624, 23.055, 38.2559, -28.6202, -29.9151
2.52021, 2, 17.887, 15.8624, 23.055, 38.2558, -28.6202, -29.9152
2.52806, 2, 17.8869, 15.8623, 23.055, 38.2558, -28.6203, -29.9151
2.5351, 2, 17.8869, 15.8623, 23.055, 38.2559, -28.6203, -29.9151
2.54415, 2, 17.8868, 15.8623, 23.055, 38.2559, -28.6203, -29.9151
2.55113, 2, 17.8868, 15.8623, 23.055, 38.2559, -28.6203, -29.9151
2.56014, 2, 17.8868, 15.8624, 23.055, 38.2559, -28.6204, -29.9152
2.56797, 2, 17.8868, 15.8624, 23.055, 38.2559, -28.6203, -29.9151
2.5751, 2, 17.8868, 15.8624, 23.055, 38.2559, -28.6204, -29.915
2.58435, 2, 17.8868, 15.8624, 23.055, 38.2559, -28.6203, -29.9151
2.59116, 2, 17.8868, 15.8624, 23.055, 38.2558, -28.6204, -29.9151
2.59911, 2, 17.8868, 15.8624, 23.055, 38.2559, -28.6204, -29.9151
2.60853, 2, 17.8868, 15.8624, 23.055, 38.2559, -28.6205, -29.9151
2.61691, 2, 17.8868, 15.8623, 23.055, 38.2559, -28.6205, -29.9151
2.62493, 2, 17.8867, 15.8623, 23.055, 38.2559, -28.6205, -29.915
2.63265, 2, 17.8867, 15.8623, 23.055, 38.2559, -28.6205, -29.915
2.64088, 2, 17.8867, 15.8623, 23.055, 38.2558, -28.6205, -29.9151
2.64709, 2, 17.8867, 15.8623, 23.055, 38.2558, -28.6205, -29.9151
2.65692, 2, 17.8866, 15.8624, 23.055, 38.2558, -28.6205, -29.9151
2.66492, 2, 17.8866, 15.8624, 23.055, 38.2558, -28.6205, -29.9152
2.67214, 2, 17.8866, 15.8624, 23.055, 38.2558, -28.6206, -29.9151
2.68009, 2, 17.8866, 15.8624, 23.055, 38.2558, -28.6205, -29.915
2.6889, 2, 17.8866, 15.8624, 23.055, 38.2558, -28.6206, -29.915
2.69509, 2, 17.8866, 15.8624, 23.055, 38.2559, -28.6206, -29.9151
2.70309, 2, 17.8865, 15.8624, 23.055, 38.2558, -28.6206, -29.9151
2.7121, 2, 17.8865, 15.8624, 23.055, 38.2559, -28.6206, -29.915
2.71924, 2, 17.8865, 15.8624, 23.055, 38.2558, -28.6206, -29.9151
2.72709, 2, 17.8865, 15.8624, 23.055, 38.2558, -28.6206, -29.9151
2.73611, 2, 17.8865, 15.8624, 23.055, 38.2558, -28.6207, -29.915
2.74415, 2, 17.8865, 15.8623, 23.055, 38.2558, -28.6207, -29.9151
2.75209, 2, 17.8865, 15.8624, 23.055, 38.2558, -28.6207, -29.915
2.76009, 2, 17.8865, 15.8624, 23.055, 38.2558, -28.6207, -29.915
2.76709, 2, 17.8864, 15.8624, 23.055, 38.2558, -28.6207, -29.9151
2.77509, 2, 17.8864, 15.8624, 23.055, 38.2557, -28.6207, -29.9151
2.7841, 2, 17.8863, 15.8624, 23.055, 38.2557, -28.6207, -29.915
2.79216, 2, 17.8863, 15.8624, 23.055, 38.2557, -28.6208, -29.915
2.80009, 2, 17.8863, 15.8624, 23.055, 38.2557, -28.6208, -29.9151
2.80716, 2, 17.8863, 15.8624, 23.055, 38.2557, -28.6208, -29.915
2.81509, 2, 17.8862, 15.8624, 23.055, 38.2557, -28.6208, -29.915
2.82309, 2, 17.8862, 15.8624, 23.055, 38.2557, -28.6208, -29.915
2.83116, 2, 17.8862, 15.8624, 23.055, 38.2557, -28.6208, -29.915
2.83911, 2, 17.8861, 15.8624, 23.055, 38.2557, -28.6208, -29.915
2.84719, 2, 17.886, 15.8624, 23.055, 38.2557, -28.6208, -29.915
2.85517, 2, 17.886, 15.8624, 23.055, 38.2557, -28.6208, -29.915
2.86314, 2, 17.886, 15.8624, 23.055, 38.2557, -28.6208, -29.9151
2.87118, 2, 17.8859, 15.8624, 23.055, 38.2557, -28.6208, -29.915
2.87926, 2, 17.8859, 15.8624, 23.055, 38.2557, -28.6208, -29.915
2.88722, 2, 17.8859, 15.8624, 23.055, 38.2556, -28.6208, -29.915
2.89519, 2, 17.8858, 15.8625, 23.055, 38.2557, -28.6209, -29.915
2.90327, 2, 17.8857, 15.8625, 23.0551, 38.2557, -28.6209, -29.9151
2.91109, 2, 17.8857, 15.8625, 23.055, 38.2556, -28.6209, -29.915
2.91911, 2, 17.8856, 15.8625, 23.055, 38.2556, -28.621, -29.9151
2.92719, 2, 17.8856, 15.8624, 23.055, 38.2556, -28.621, -29.915
2.93515, 2, 17.8855, 15.8624, 23.055, 38.2557, -28.621, -29.915
2.94316, 2, 17.8855, 15.8624, 23.055, 38.2556, -28.6211, -29.915
2.95135, 2, 17.8855, 15.8624, 23.055, 38.2556, -28.621, -29.915
2.95939, 2, 17.8854, 15.8624, 23.055, 38.2556, -28.621, -29.915
2.96738, 2, 17.8854, 15.8625, 23.055, 38.2556, -28.621, -29.915
2.97553, 2, 17.8853, 15.8624, 23.055, 38.2555, -28.621, -29.915
2.98356, 2, 17.8853, 15.8625, 23.055, 38.2556, -28.621, -29.915
2.9922, 2, 17.8852, 15.8625, 23.055, 38.2556, -28.6211, -29.915
2.99967, 2, 17.8851, 15.8625, 23.055, 38.2555, -28.6211, -29.915
3.00824, 2, 17.8851, 15.8625, 23.055, 38.2555, -28.6211, -29.915
3.01565, 2, 17.885, 15.8625, 23.0551, 38.2555, -28.6211, -29.915
3.0242, 2, 17.885, 15.8625, 23.0551, 38.2555, -28.6211, -29.915
3.03192, 2, 17.885, 15.8625, 23.055, 38.2555, -28.6211, -29.9149
3.04009, 2, 17.8849, 15.8625, 23.0551, 38.2555, -28.6211, -29.9149
3.04713, 2, 17.8848, 15.8625, 23.0551, 38.2555, -28.6211, -29.915
3.05623, 2, 17.8848, 15.8625, 23.055, 38.2555, -28.6211, -29.915
3.06308, 2, 17.8847, 15.8625, 23.055, 38.2555, -28.6211, -29.9149
3.07223, 2, 17.8847, 15.8625, 23.055, 38.2554, -28.6212, -29.915
3.07909, 2, 17.8847, 15.8625, 23.055, 38.2554, -28.6212, -29.915
3.08834, 2, 17.8846, 15.8625, 23.055, 38.2554, -28.6212, -29.915
3.09517, 2, 17.8846, 15.8625, 23.055, 38.2554, -28.6212, -29.915
3.10459, 2, 17.8845, 15.8625, 23.0551, 38.2554, -28.6212, -29.9149
3.11108, 2, 17.8845, 15.8625, 23.0551, 38.2554, -28.6212, -29.9149
3.12058, 2, 17.8844, 15.8625, 23.055, 38.2554, -28.6212, -29.915
3.12708, 2, 17.8844, 15.8625, 23.055, 38.2554, -28.6212, -29.9149
3.13667, 2, 17.8843, 15.8625, 23.055, 38.2553, -28.6212, -29.9149
3.14465, 2, 17.8843, 15.8625, 23.055, 38.2553, -28.6212, -29.9149
3.15279, 2, 17.8842, 15.8625, 23.0551, 38.2553, -28.6212, -29.915
3.1607, 2, 17.8842, 15.8625, 23.0551, 38.2553, -28.6212, -29.9149
3.16808, 2, 17.8842, 15.8625, 23.055, 38.2553, -28.6212, -29.9149
3.17612, 2, 17.8841, 15.8625, 23.0551, 38.2552, -28.6212, -29.9149
3.18409, 2, 17.8841, 15.8625, 23.0551, 38.2552, -28.6212, -29.9149
3.19208, 2, 17.8841, 15.8625, 23.055, 38.2552, -28.6212, -29.9149
3.20013, 2, 17.884, 15.8626, 23.0551, 38.2552, -28.6212, -29.9149
3.20807, 2, 17.884, 15.8625, 23.055, 38.2552, -28.6212, -29.9149
3.21607, 2, 17.884, 15.8625, 23.055, 38.2552, -28.6212, -29.9149
3.22419, 2, 17.8839, 15.8626, 23.055, 38.2551, -28.6213, -29.9149
3.23208, 2, 17.8839, 15.8626, 23.0551, 38.2551, -28.6213, -29.9149
3.24009, 2, 17.8839, 15.8626, 23.055, 38.2551, -28.6213, -29.9149
3.24813, 2, 17.8839, 15.8625, 23.0551, 38.2551, -28.6213, -29.9149
3.25607, 2, 17.8839, 15.8626, 23.055, 38.2551, -28.6214, -29.9149
3.26408, 2, 17.8839, 15.8626, 23.0551, 38.2551, -28.6213, -29.9149
3.27213, 2, 17.8838, 15.8626, 23.0551, 38.2551, -28.6213, -29.9149
3.28008, 2, 17.8839, 15.8626, 23.055, 38.255, -28.6213, -29.9149
3.28806, 2, 17.8838, 15.8626, 23.055, 38.255, -28.6213, -29.9149
3.29614, 2, 17.8838, 15.8626, 23.0551, 38.255, -28.6214, -29.9149
3.30408, 2, 17.8838, 15.8626, 23.0551, 38.255, -28.6214, -29.9149
3.31133, 2, 17.8838, 15.8626, 23.0551, 38.2549, -28.6214, -29.9149
3.32013, 2, 17.8838, 15.8626, 23.0551, 38.2549, -28.6214, -29.9149
3.32708, 2, 17.8838, 15.8626, 23.0551, 38.2549, -28.6214, -29.9149
3.33607, 2, 17.8838, 15.8626, 23.0551, 38.2549, -28.6214, -29.9149
3.34415, 2, 17.8838, 15.8626, 23.0551, 38.2548, -28.6214, -29.9149
3.35107, 2, 17.8837, 15.8626, 23.0551, 38.2548, -28.6214, -29.9149
3.36007, 2, 17.8837, 15.8626, 23.0551, 38.2548, -28.6214, -29.9149
3.36814, 2, 17.8837, 15.8626, 23.0551, 38.2548, -28.6214, -29.9149
3.37531, 2, 17.8837, 15.8626, 23.0551, 38.2548, -28.6214, -29.9149
3.38328, 2, 17.8837, 15.8626, 23.0551, 38.2548, -28.6214, -29.9148
3.39121, 2, 17.8837, 15.8626, 23.0551, 38.2548, -28.6214, -29.9148
3.39927, 4, 17.8837, 15.8626, 23.0551, 38.2548, -28.6214, -29.9148
3.40725, 4, 17.8837, 15.8626, 23.0551, 38.2548, -28.6214, -29.9148
3.41508, 4, 17.8837, 15.8626, 23.0551, 38.2547, -28.6214, -29.9149
3.42315, 4, 17.8837, 15.8626, 23.0551, 38.2547, -28.6214, -29.9149
3.43117, 4, 17.8837, 15.8626, 23.0551, 38.2547, -28.6214, -29.9148
3.4392, 4, 17.8837, 15.8626, 23.0551, 38.2547, -28.6215, -29.9148
3.44733, 4, 17.8837, 15.8626, 23.0551, 38.2547, -28.6215, -29.9148
3.45536, 4, 17.8837, 15.8626, 23.0551, 38.2547, -28.6215, -29.9148
3.46368, 4, 17.8836, 15.8626, 23.0551, 38.2546, -28.6215, -29.9148
3.47207, 4, 17.8836, 15.8626, 23.0551, 38.2546, -28.6215, -29.9148
3.47948, 4, 17.8836, 15.8626, 23.0551, 38.2546, -28.6215, -29.9148
3.48788, 4, 17.8836, 15.8626, 23.0551, 38.2546, -28.6215, -29.9148
3.49619, 4, 17.8836, 15.8627, 23.0551, 38.2546, -28.6215, -29.9148
3.50406, 4, 17.8836, 15.8627, 23.0551, 38.2546, -28.6215, -29.9147
3.52642, 4, 17.8835, 15.8627, 23.0551, 38.2546, -28.6215, -29.9148
3.52905, 4, 17.8835, 15.8627, 23.0551, 38.2546, -28.6215, -29.9148
3.53083, 4, 17.8835, 15.8627, 23.0551, 38.2546, -28.6215, -29.9148
3.53832, 4, 17.8835, 15.8627, 23.0551, 38.2546, -28.6215, -29.9148
3.55298, 4, 17.8828, 15.8627, 23.0551, 38.2545, -28.6214, -29.9147
3.55422, 4, 17.8828, 15.8627, 23.0551, 38.2545, -28.6214, -29.9147
3.56014, 4, 17.8802, 15.8627, 23.0553, 38.254, -28.6215, -29.9144
3.56711, 4, 17.8776, 15.8626, 23.0556, 38.2529, -28.6218, -29.9139
3.57712, 4, 17.8634, 15.862, 23.0596, 38.2385, -28.6256, -29.9048
3.58427, 4, 17.847, 15.8605, 23.0678, 38.2111, -28.6346, -29.8826
3.59106, 4, 17.8357, 15.859, 23.0748, 38.1886, -28.6424, -29.8634
3.59908, 5, 17.8052, 15.8542, 23.0973, 38.1159, -28.6671, -29.8015
3.60842, 5, 17.7359, 15.8403, 23.1606, 37.9112, -28.7387, -29.6242
3.61506, 5, 17.7054, 15.8333, 23.192, 37.8093, -28.7752, -29.5357
3.62605, 5, 17.5881, 15.8042, 23.325, 37.379, -28.9322, -29.161
3.6334, 5, 17.4853, 15.7775, 23.4499, 36.9754, -29.0833, -28.8086
3.63909, 5, 17.4259, 15.7618, 23.524, 36.7362, -29.1744, -28.5994
3.64868, 5, 17.2122, 15.7058, 23.7942, 35.8652, -29.5144, -27.8385
3.65745, 5, 17.1285, 15.6618, 24.0142, 35.1605, -29.7992, -27.2227
3.66313, 5, 16.942, 15.638, 24.1364, 34.7728, -29.9596, -26.884
3.67206, 5, 16.7297, 15.5874, 24.4032, 33.9286, -30.3172, -26.1489
3.68011, 5, 16.4907, 15.5342, 24.6983, 33.0012, -30.7245, -25.3468
3.68806, 5, 16.2239, 15.4795, 25.0203, 31.9994, -31.1818, -24.482
3.69606, 5, 15.9292, 15.4247, 25.3668, 30.9317, -31.6906, -23.5612
3.70412, 5, 15.6073, 15.3718, 25.7353, 29.805, -32.2511, -22.596
3.71206, 5, 15.2581, 15.3225, 26.1239, 28.6302, -32.8633, -21.592
3.72009, 5, 14.8818, 15.2786, 26.53, 27.4151, -33.5277, -20.5606
3.72815, 5, 14.4781, 15.2417, 26.9513, 26.166, -34.2457, -19.5063
3.73606, 5, 14.0482, 15.2133, 27.3856, 24.8928, -35.0172, -18.4377
3.74409, 5, 13.594, 15.1947, 27.8298, 23.6012, -35.8412, -17.3611
3.75831, 5, 12.622, 15.1915, 28.7379, 20.9898, -37.6432, -15.2145
3.7596, 5, 12.622, 15.1915, 28.7379, 20.9898, -37.6432, -15.2145
3.76706, 5, 12.1073, 15.2096, 29.1953, 19.6851, -38.6199, -14.1559
3.77606, 5, 11.5747, 15.2424, 29.6501, 18.3927, -39.6374, -13.1169
3.78414, 5, 11.0255, 15.2913, 30.0987, 17.1224, -40.6912, -12.1065
3.79206, 5, 10.4648, 15.3568, 30.5356, 15.8812, -41.7753, -11.1313
3.80006, 5, 9.89741, 15.4398, 30.9568, 14.6782, -42.8793, -10.1944
3.80812, 5, 9.32499, 15.5403, 31.3596, 13.5188, -43.9947, -9.30294
3.81509, 5, 8.74766, 15.6573, 31.7421, 12.4042, -45.1191, -8.45701
3.82408, 5, 8.16732, 15.7898, 32.1029, 11.3377, -46.2465, -7.65979
3.83216, 5, 7.58667, 15.9366, 32.441, 10.3203, -47.3682, -6.90818
3.83907, 5, 7.01071, 16.097, 32.7567, 9.34886, -48.484, -6.20063
3.84806, 5, 6.44584, 16.2691, 33.0496, 8.42457, -49.5881, -5.53925
3.85506, 5, 5.89688, 16.4506, 33.3187, 7.55111, -50.6688, -4.92092
3.86315, 5, 5.36443, 16.6401, 33.5647, 6.72893, -51.7237, -4.3463
3.87121, 5, 4.84702, 16.8368, 33.7862, 5.95643, -52.7464, -3.81581
3.87915, 5, 4.34511, 17.0387, 33.9841, 5.23603, -53.7282, -3.32774
3.88744, 5, 3.86297, 17.242, 34.1605, 4.56663, -54.6658, -2.88013
3.89525, 5, 3.40589, 17.444, 34.3164, 3.94758, -55.5569, -2.47162
3.90322, 5, 2.97599, 17.6434, 34.4528, 3.37705, -56.3987, -2.0997
3.91177, 5, 2.57317, 17.8374, 34.5714, 2.85336, -57.1862, -1.76256
3.92005, 5, 2.19628, 18.0236, 34.6737, 2.37638, -57.9172, -1.45862
3.92811, 5, 1.84641, 18.2015, 34.761, 1.9433, -58.5936, -1.18573
3.93581, 5, 1.52541, 18.3698, 34.8347, 1.55338, -59.2139, -0.942224
3.94412, 5, 1.23219, 18.5272, 34.8965, 1.20533, -59.7753, -0.727248
3.95212, 5, 0.961951, 18.6751, 34.9471, 0.896292, -60.2776, -0.54034
3.96007, 5, 0.707598, 18.8162, 34.9878, 0.621101, -60.7252, -0.381384
3.96748, 6, 0.461907, 18.9527, 35.02, 0.372265, -61.1269, -0.250734
3.97538, 6, 0.220594, 19.086, 35.046, 0.139292, -61.4943, -0.1458
3.98421, 6, -0.0197076, 19.2188, 35.0675, -0.0892091, -61.843, -0.0649906
3.99156, 6, -0.261815, 19.3538, 35.0867, -0.324767, -62.1902, -0.00328654
4.00024, 6, -0.509989, 19.4921, 35.1048, -0.577682, -62.5516, 0.04313
4.00832, 6, -0.767214, 19.6355, 35.1223, -0.854844, -62.9409, 0.07882
4.01563, 6, -1.03673, 19.7873, 35.1389, -1.16076, -63.3672, 0.107512
4.02438, 6, -1.32467, 19.9513, 35.1536, -1.496, -63.835, 0.132095
4.03166, 6, -1.47716, 20.0386, 35.1652, -1.86108, -64.3449, 0.154079
4.04006, 6, -1.97239, 20.3247, 35.1723, -2.25448, -64.8969, 0.17382
4.04705, 6, -2.15032, 20.4293, 35.1739, -2.46148, -65.1883, 0.182723
4.05609, 6, -2.72258, 20.773, 35.1689, -3.1205, -66.1216, 0.204389
4.06313, 6, -2.92583, 20.8973, 35.1632, -3.35258, -66.452, 0.209545
4.07217, 6, -3.57379, 21.3003, 35.1318, -4.08285, -67.4965, 0.2188
4.07904, 6, -3.80222, 21.4449, 35.1158, -4.33692, -67.8615, 0.219678
4.0872, 6, -4.27703, 21.749, 35.0745, -4.86062, -68.6159, 0.217352
4.09714, 6, -5.02773, 22.2444, 34.9863, -5.68319, -69.8096, 0.199774
4.10309, 6, -5.28715, 22.42, 34.9492, -5.96662, -70.2228, 0.190251
4.11251, 6, -6.09309, 22.9798, 34.8121, -6.84279, -71.5028, 0.149562
4.11905, 6, -6.37107, 23.1764, 34.7573, -7.14361, -71.9432, 0.1318
4.12858, 6, -7.23109, 23.7952, 34.5635, -8.06881, -73.3039, 0.0654664
4.13748, 6, -7.82044, 24.2303, 34.4091, -8.7021, -74.2368, 0.00939233
4.14306, 6, -8.11718, 24.4536, 34.3244, -9.0229, -74.7088, -0.0215211
4.15264, 6, -9.00626, 25.1419, 34.0397, -9.9936, -76.1412, -0.128118
4.16133, 6, -9.30125, 25.6136, 33.8244, -10.6421, -77.0999, -0.209104
4.16706, 6, -9.88989, 25.8526, 33.7098, -10.965, -77.5765, -0.25155
4.17709, 6, -10.7679, 26.5783, 33.3409, -11.9174, -78.9802, -0.388551
4.18304, 6, -11.0576, 26.8214, 33.2097, -12.2278, -79.4372, -0.436127
4.19205, 6, -11.6271, 27.3069, 32.9382, -12.8347, -80.3309, -0.5339
4.1991, 6, -12.1797, 27.7879, 32.6569, -13.4191, -81.1901, -0.633431
4.20808, 6, -12.7148, 28.2615, 32.3685, -13.9795, -82.0099, -0.734163
4.21512, 6, -13.233, 28.7255, 32.0763, -14.5147, -82.7912, -0.834148
4.2241, 6, -13.7335, 29.1763, 31.7812, -15.0235, -83.5328, -0.93367
4.23214, 6, -14.2114, 29.6116, 31.4861, -15.5072, -84.235, -1.03098
4.23904, 6, -14.662, 30.0297, 31.1924, -15.9653, -84.8971, -1.12635
4.24806, 6, -15.084, 30.4301, 30.9037, -16.3976, -85.5199, -1.2183
4.25504, 6, -15.4795, 30.8113, 30.6215, -16.8038, -86.1039, -1.30709
4.2641, 6, -15.8514, 31.1723, 30.347, -17.1845, -86.6492, -1.39124
4.27205, 6, -16.2001, 31.5125, 30.0819, -17.5397, -87.1564, -1.47178
4.28012, 6, -16.5254, 31.8321, 29.8267, -17.8693, -87.6256, -1.54673
4.28803, 6, -16.8266, 32.1297, 29.5848, -18.1732, -88.057, -1.61762
4.29603, 6, -17.1029, 32.4054, 29.3579, -18.4515, -88.451, -1.68259
4.30598, 6, -17.4717, 32.7762, 29.0471, -18.821, -88.9725, -1.76973
4.31106, 6, -17.5826, 32.888, 28.9525, -18.9315, -89.128, -1.79647
4.32004, 6, -17.7857, 33.0948, 28.7768, -19.1338, -89.4123, -1.84568
4.3281, 6, -17.9643, 33.2797, 28.6186, -19.3111, -89.6613, -1.88857
4.33606, 6, -18.1194, 33.4419, 28.4794, -19.4639, -89.8756, -1.92555
4.34311, 6, -18.2522, 33.5813, 28.36, -19.5926, -90.0562, -1.95719
4.35105, 6, -18.3645, 33.6997, 28.2599, -19.6981, -90.2041, -1.98368
4.35904, 6, -18.4587, 33.798, 28.178, -19.7813, -90.3217, -2.00505
4.36803, 6, -18.5368, 33.8779, 28.1133, -19.8451, -90.4111, -2.02151
4.37611, 6, -18.6005, 33.942, 28.0635, -19.891, -90.4767, -2.0337
4.38313, 6, -18.6511, 33.9921, 28.0265, -19.9225, -90.5213, -2.04198
4.3912, 6, -18.6894, 34.0297, 28.0005, -19.943, -90.5505, -2.04745
4.39918, 6, -18.7177, 34.0572, 27.9827, -19.9556, -90.5681, -2.05079
4.40729, 6, -18.7384, 34.077, 27.9709, -19.9627, -90.5779, -2.05256
4.41606, 6, -18.7528, 34.0908, 27.9633, -19.9663, -90.583, -2.05364
4.42416, 6, -18.7619, 34.0998, 27.9584, -19.968, -90.5855, -2.05418
4.43117, 7, -18.767, 34.1057, 27.955, -19.9688, -90.5866, -2.05453
4.43914, 7, -18.7698, 34.11, 27.9526, -19.9691, -90.5871, -2.05475
4.44711, 7, -18.7713, 34.1132, 27.9507, -19.9693, -90.5874, -2.05491
4.45515, 7, -18.7717, 34.1159, 27.9492, -19.9694, -90.5874, -2.05499
4.46365, 7, -18.772, 34.1183, 27.9481, -19.9694, -90.5875, -2.05499
4.47212, 7, -18.7723, 34.1205, 27.9473, -19.9695, -90.5875, -2.05502
4.47935, 7, -18.7726, 34.1226, 27.9466, -19.9695, -90.5875, -2.05503
4.48754, 7, -18.7729, 34.1245, 27.946, -19.9694, -90.5875, -2.05501
4.49616, 7, -18.7732, 34.1262, 27.9456, -19.9694, -90.5875, -2.05504
4.50356, 7, -18.7733, 34.1276, 27.9452, -19.9694, -90.5875, -2.05505
4.51214, 7, -18.7734, 34.1288, 27.9449, -19.9694, -90.5874, -2.05503
4.51994, 7, -18.7735, 34.1297, 27.9447, -19.9694, -90.5874, -2.05503
4.52814, 7, -18.7735, 34.1302, 27.9444, -19.9694, -90.5873, -2.05508
4.53573, 7, -18.7736, 34.1304, 27.9442, -19.9694, -90.5872, -2.05509
4.54426, 7, -18.7738, 34.1306, 27.944, -19.9693, -90.5871, -2.05506
4.55103, 7, -18.7739, 34.1306, 27.944, -19.9693, -90.587, -2.05504
