hehonglu123/ABB_Primitive_Study/realrobot/movel_30_ori/curve_exe_v300_z20.csv
timestamp, cmd_num, J1, J2, J3, J4, J5, J6
0.008402, -1, -18.771, 34.1312, 27.9428, -19.968, -90.5854, -2.05576
0.155731, -1, -18.2486, 33.873, 27.8953, -19.2576, -89.8377, -2.39059
0.157748, -1, -18.1896, 33.8434, 27.8863, -19.1538, -89.7281, -2.44013
0.158939, -1, -18.1896, 33.8434, 27.8863, -19.1538, -89.7281, -2.44013
0.160273, -1, -18.1896, 33.8434, 27.8863, -19.1538, -89.7281, -2.44013
0.162225, -1, -18.127, 33.8121, 27.8766, -19.0432, -89.6111, -2.4926
0.1635, -1, -18.127, 33.8121, 27.8766, -19.0432, -89.6111, -2.4926
0.166191, -1, -18.0611, 33.7791, 27.8662, -18.9263, -89.4872, -2.54837
0.171984, -1, -17.992, 33.7445, 27.8552, -18.8039, -89.3573, -2.60704
0.174058, -1, -17.9199, 33.7085, 27.8438, -18.6764, -89.2219, -2.66803
0.176329, -1, -17.9199, 33.7085, 27.8438, -18.6764, -89.2219, -2.66803
0.178374, -1, -17.845, 33.6711, 27.8321, -18.5447, -89.0819, -2.73105
0.17982, -1, -17.845, 33.6711, 27.8321, -18.5447, -89.0819, -2.73105
0.181861, -1, -17.7675, 33.6323, 27.8201, -18.4093, -88.938, -2.79574
0.183062, -1, -17.7675, 33.6323, 27.8201, -18.4093, -88.938, -2.79574
0.184316, -1, -17.7675, 33.6323, 27.8201, -18.4093, -88.938, -2.79574
0.187736, -1, -17.6874, 33.5921, 27.8079, -18.2708, -88.7908, -2.86195
0.190379, -1, -17.6049, 33.5508, 27.7955, -18.1298, -88.641, -2.92954
0.191664, -1, -17.6049, 33.5508, 27.7955, -18.1298, -88.641, -2.92954
0.193529, -1, -17.5201, 33.5084, 27.7831, -17.9868, -88.489, -2.998
0.194951, -1, -17.5201, 33.5084, 27.7831, -17.9868, -88.489, -2.998
0.1963, -1, -17.5201, 33.5084, 27.7831, -17.9868, -88.489, -2.998
0.198452, -1, -17.4333, 33.465, 27.7707, -17.8424, -88.3353, -3.06721
0.202058, -1, -17.3448, 33.4208, 27.7581, -17.6968, -88.1804, -3.13708
0.203297, -1, -17.3448, 33.4208, 27.7581, -17.6968, -88.1804, -3.13708
0.204476, -1, -17.3448, 33.4208, 27.7581, -17.6968, -88.1804, -3.13708
0.206886, -1, -17.2549, 33.3759, 27.7455, -17.5501, -88.0245, -3.2075
0.215978, -1, -17.0719, 33.2845, 27.7202, -17.2548, -87.7107, -3.34928
0.223949, -1, -16.8857, 33.1919, 27.695, -16.9579, -87.395, -3.49176
0.232003, -1, -16.6973, 33.0985, 27.6699, -16.6599, -87.078, -3.63465
0.240023, -1, -16.5076, 33.0049, 27.6447, -16.3609, -86.7597, -3.7776
0.24795, -1, -16.3175, 32.9111, 27.6195, -16.0613, -86.4407, -3.92092
0.256015, -1, -16.1274, 32.8174, 27.5945, -15.7608, -86.1211, -4.0647
0.26499, -1, -15.9374, 32.7237, 27.5694, -15.4595, -85.8009, -4.20848
0.271951, -1, -15.7482, 32.63, 27.5443, -15.1581, -85.48, -4.35279
0.280057, -1, -15.5594, 32.5363, 27.5191, -14.8562, -85.1588, -4.49732
0.287937, -1, -15.3709, 32.4423, 27.4938, -14.5538, -84.8373, -4.64188
0.296025, -1, -15.1829, 32.348, 27.4686, -14.2513, -84.5153, -4.78673
0.303939, -1, -14.9952, 32.2535, 27.4433, -13.9481, -84.193, -4.93157
0.311246, -1, -14.8072, 32.1585, 27.4179, -13.6447, -83.8705, -5.07641
0.32036, -1, -14.6184, 32.0631, 27.3922, -13.3413, -83.5476, -5.22156
0.327031, -1, -14.4286, 31.9677, 27.3667, -13.0376, -83.2244, -5.36693
0.335953, -1, -14.2376, 31.8721, 27.341, -12.7339, -82.901, -5.51252
0.34472, -1, -14.0459, 31.7765, 27.3155, -12.43, -82.5775, -5.6582
0.351936, -1, -13.8535, 31.6808, 27.2898, -12.1256, -82.2535, -5.8037
0.360001, -1, -13.6607, 31.5852, 27.2642, -11.8211, -81.9294, -5.94926
0.368779, -1, -13.4671, 31.4897, 27.2386, -11.5168, -81.6053, -6.09486
0.375998, -1, -13.2733, 31.3942, 27.2131, -11.2123, -81.2813, -6.24044
0.383943, -1, -13.0798, 31.2989, 27.1875, -10.9079, -80.9572, -6.38625
0.393621, -1, -12.887, 31.2037, 27.162, -10.6035, -80.6335, -6.53179
0.399163, -1, -12.6948, 31.1085, 27.1365, -10.2988, -80.3099, -6.67768
0.408001, -1, -12.5032, 31.0133, 27.111, -9.99458, -79.9864, -6.82353
0.415943, -1, -12.3127, 30.9181, 27.0854, -9.69057, -79.663, -6.96894
0.423937, -1, -12.1229, 30.8228, 27.0598, -9.38647, -79.3394, -7.11455
0.432116, -1, -11.9339, 30.7274, 27.0343, -9.08274, -79.016, -7.2599
0.439889, -1, -11.745, 30.6319, 27.0088, -8.7791, -78.6927, -7.40512
0.448091, -1, -11.5561, 30.5365, 26.9834, -8.47567, -78.3696, -7.55038
0.456041, -1, -11.3668, 30.4413, 26.9577, -8.17298, -78.0474, -7.69552
0.463619, -1, -11.1771, 30.3464, 26.9323, -7.8706, -77.7256, -7.84038
0.471539, -1, -10.9872, 30.2515, 26.9069, -7.56861, -77.4042, -7.9849
0.480099, -1, -10.7968, 30.157, 26.8816, -7.26727, -77.0835, -8.12907
0.487826, -1, -10.7015, 30.1098, 26.8689, -7.11663, -76.7633, -8.27291
0.496031, -1, -10.4153, 29.9685, 26.8309, -6.66551, -76.4433, -8.41656
0.502927, -1, -10.3198, 29.9215, 26.8183, -6.51553, -76.2835, -8.48837
0.512078, -1, -10.0344, 29.7808, 26.7806, -6.06624, -75.805, -8.70319
0.520139, -1, -9.8449, 29.6872, 26.7556, -5.7674, -75.4867, -8.84645
0.526925, -1, -9.75048, 29.6404, 26.743, -5.61825, -75.328, -8.91794
0.536587, -1, -9.46857, 29.5004, 26.7054, -5.17121, -74.8526, -9.13156
0.542932, -1, -9.37511, 29.4538, 26.6929, -5.02266, -74.6946, -9.20263
0.552288, -1, -9.0963, 29.3141, 26.6555, -4.57824, -74.2218, -9.4151
0.558926, -1, -9.00379, 29.2676, 26.6431, -4.43039, -74.0645, -9.4857
0.568426, -1, -8.72742, 29.1284, 26.6058, -3.98823, -73.5938, -9.69746
0.576446, -1, -8.54383, 29.0359, 26.5811, -3.69447, -73.2811, -9.83796
0.585547, -1, -8.36044, 28.9438, 26.5564, -3.40136, -72.9693, -9.97829
0.592519, -1, -8.17738, 28.8521, 26.5318, -3.10944, -72.6587, -10.1182
0.600561, -1, -7.99417, 28.7606, 26.5071, -2.81826, -72.3486, -10.2573
0.737874, -1, -4.97123, 27.2545, 26.104, 1.9801, -67.2412, -12.5541
0.7393, -1, -4.97123, 27.2545, 26.104, 1.9801, -67.2412, -12.5541
0.740544, -1, -4.97123, 27.2545, 26.104, 1.9801, -67.2412, -12.5541
0.74331, -1, -4.88516, 27.2117, 26.0925, 2.11641, -67.096, -12.6192
0.744509, -1, -4.88516, 27.2117, 26.0925, 2.11641, -67.096, -12.6192
0.746533, -1, -4.79915, 27.1691, 26.0811, 2.2524, -66.9511, -12.6842
0.747849, -1, -4.79915, 27.1691, 26.0811, 2.2524, -66.9511, -12.6842
0.75208, -1, -4.71325, 27.1265, 26.0696, 2.3882, -66.8067, -12.7492
0.755049, -1, -4.62755, 27.084, 26.0582, 2.52374, -66.6626, -12.8139
0.756269, -1, -4.62755, 27.084, 26.0582, 2.52374, -66.6626, -12.8139
0.758324, -1, -4.54198, 27.0416, 26.0468, 2.65891, -66.5188, -12.8785
0.759547, -1, -4.54198, 27.0416, 26.0468, 2.65891, -66.5188, -12.8785
0.760946, -1, -4.54198, 27.0416, 26.0468, 2.65891, -66.5188, -12.8785
0.762976, -1, -4.45649, 26.9993, 26.0355, 2.79367, -66.3753, -12.943
0.764178, -1, -4.45649, 26.9993, 26.0355, 2.79367, -66.3753, -12.943
0.767661, -1, -4.37106, 26.9571, 26.0241, 2.9281, -66.2321, -13.0074
0.768925, -1, -4.37106, 26.9571, 26.0241, 2.9281, -66.2321, -13.0074
0.7709, -1, -4.28574, 26.9149, 26.0128, 3.0623, -66.0892, -13.0717
0.772163, -1, -4.28574, 26.9149, 26.0128, 3.0623, -66.0892, -13.0717
0.773962, -1, -4.20057, 26.8728, 26.0016, 3.19633, -65.9465, -13.1357
0.775448, -1, -4.20057, 26.8728, 26.0016, 3.19633, -65.9465, -13.1357
0.776635, -1, -4.20057, 26.8728, 26.0016, 3.19633, -65.9465, -13.1357
0.78615, -1, -3.94643, 26.7472, 25.9679, 3.59686, -65.5204, -13.3275
0.791015, -1, -3.86231, 26.7055, 25.9567, 3.72964, -65.3789, -13.3912
0.799985, -1, -3.69505, 26.6223, 25.9344, 3.99435, -65.0969, -13.5178
0.807916, -1, -3.52892, 26.5394, 25.9123, 4.25811, -64.8162, -13.6439
0.815911, -1, -3.36389, 26.4569, 25.8901, 4.5204, -64.5369, -13.7693
0.824031, -1, -3.19982, 26.3747, 25.8681, 4.78168, -64.2588, -13.8941
0.83192, -1, -3.03689, 26.2929, 25.846, 5.04199, -63.9819, -14.0185
0.839933, -1, -2.87504, 26.2114, 25.8243, 5.30115, -63.7063, -14.1424
0.847983, -1, -2.71403, 26.1303, 25.8026, 5.55893, -63.432, -14.2658
0.855916, -1, -2.55359, 26.0497, 25.7811, 5.81545, -63.1589, -14.3886
0.863925, -1, -2.39329, 25.9695, 25.7596, 6.07084, -62.8871, -14.511
0.87198, -1, -2.23335, 25.8897, 25.7382, 6.32487, -62.6166, -14.6327
0.879976, -1, -2.07386, 25.8103, 25.7169, 6.5778, -62.3472, -14.7539
0.887984, -1, -1.91476, 25.7313, 25.6957, 6.82988, -62.079, -14.8742
0.895914, -1, -1.75613, 25.6527, 25.6747, 7.08071, -61.8119, -14.994
0.903918, -1, -1.59811, 25.5744, 25.6538, 7.33017, -61.5462, -15.1131
0.911994, -1, -1.44029, 25.4964, 25.6328, 7.57858, -61.2813, -15.232
0.919929, -1, -1.283, 25.4188, 25.612, 7.82595, -61.0177, -15.3505
0.927949, -1, -1.12654, 25.3414, 25.5914, 8.07209, -60.7553, -15.4682
0.936176, -1, -0.971022, 25.2644, 25.5708, 8.31721, -60.4944, -15.5858
0.943428, -1, -0.816787, 25.1877, 25.5504, 8.56155, -60.2346, -15.7027
0.951539, -1, -0.663731, 25.1114, 25.5299, 8.80451, -59.976, -15.8189
0.960112, -1, -0.511653, 25.0354, 25.5094, 9.04628, -59.7187, -15.9348
0.96748, -1, -0.360743, 24.9598, 25.4892, 9.28694, -59.4629, -16.05
0.976035, -1, -0.210949, 24.8846, 25.4691, 9.52663, -59.2083, -16.1647
0.984509, -1, -0.0621261, 24.8097, 25.4491, 9.76506, -58.9546, -16.279
0.992125, -1, 0.085858, 24.7351, 25.4293, 10.0023, -58.702, -16.3928
0.998923, -1, 0.159609, 24.698, 25.4194, 10.1206, -58.5761, -16.4496
1.00795, -1, 0.38047, 24.5871, 25.3895, 10.4741, -58.1998, -16.6191
1.01603, -1, 0.527645, 24.5136, 25.3699, 10.7082, -57.9502, -16.7314
1.02292, -1, 0.601167, 24.477, 25.36, 10.8249, -57.8258, -16.7874
1.03207, -1, 0.821256, 24.3675, 25.3308, 11.1734, -57.4541, -16.9542
1.03891, -1, 0.894464, 24.3311, 25.3212, 11.289, -57.3309, -17.0097
1.0483, -1, 1.11317, 24.2226, 25.292, 11.6342, -56.963, -17.1746
1.05511, -1, 1.18585, 24.1866, 25.2824, 11.7488, -56.841, -17.2294
1.06439, -1, 1.40296, 24.0791, 25.2536, 12.0913, -56.4768, -17.393
1.07094, -1, 1.47515, 24.0435, 25.244, 12.205, -56.3561, -17.4472
1.08042, -1, 1.69077, 23.937, 25.2156, 12.544, -55.9953, -17.6094
1.08847, -1, 1.83346, 23.8664, 25.1968, 12.769, -55.7561, -17.7171
1.09654, -1, 1.97496, 23.7962, 25.1779, 12.9929, -55.5181, -17.8244
1.10448, -1, 2.04536, 23.7612, 25.1592, 13.2157, -55.2809, -17.9311
1.11253, -1, 2.18554, 23.6914, 25.1499, 13.4374, -55.0447, -18.037
1.11992, -1, 2.32476, 23.622, 25.1313, 13.548, -54.9269, -18.0899
1.12795, -1, 2.46296, 23.5528, 25.1128, 13.7686, -54.6922, -18.1953
1.13592, -1, 2.60028, 23.4839, 25.0945, 13.9881, -54.4582, -18.3003
1.14391, -1, 2.73658, 23.4153, 25.0761, 14.2067, -54.2252, -18.4047
1.15195, -1, 2.87201, 23.347, 25.0579, 14.4241, -53.9936, -18.509
1.15995, -1, 3.007, 23.2789, 25.0397, 14.641, -53.7629, -18.6126
1.16792, -1, 3.14184, 23.211, 25.0214, 14.8566, -53.5332, -18.716
1.17596, -1, 3.27674, 23.1435, 25.0034, 15.0714, -53.3046, -18.8188
1.1839, -1, 3.41148, 23.0764, 24.9856, 15.2853, -53.0769, -18.9216
1.19192, -1, 3.54598, 23.0094, 24.9676, 15.4986, -52.8502, -19.0236
1.19995, -1, 3.6802, 22.9429, 24.9498, 15.7109, -52.6244, -19.1249
1.2079, -1, 3.81403, 22.8766, 24.9322, 15.9221, -52.3996, -19.2261
1.21597, -1, 3.94731, 22.8105, 24.9144, 16.1324, -52.1758, -19.3265
1.22397, -1, 4.08026, 22.7448, 24.8968, 16.3419, -51.9528, -19.4268
1.2319, -1, 4.21278, 22.6794, 24.8793, 16.5504, -51.7306, -19.5264
1.23992, -1, 4.34479, 22.6142, 24.8619, 16.7582, -51.5093, -19.6259
1.24891, -1, 4.47609, 22.5492, 24.8445, 16.9651, -51.2889, -19.7245
1.2559, -1, 4.60661, 22.4844, 24.8272, 17.1713, -51.0694, -19.8235
1.26391, -1, 4.7365, 22.4199, 24.8099, 17.3767, -50.8507, -19.9215
1.27196, -1, 4.86562, 22.3556, 24.7927, 17.5811, -50.6328, -20.0199
1.2799, -1, 4.99399, 22.2915, 24.7757, 17.7848, -50.4159, -20.1174
1.28791, -1, 5.12154, 22.2277, 24.7587, 17.9877, -50.1998, -20.2147
1.29596, -1, 5.24837, 22.1641, 24.7416, 18.19, -49.9845, -20.3112
1.3039, -1, 5.37433, 22.1008, 24.7246, 18.3912, -49.7702, -20.4077
1.31201, -1, 5.4993, 22.0377, 24.7078, 18.5917, -49.5567, -20.5034
1.31997, -1, 5.62368, 21.975, 24.6909, 18.7916, -49.3442, -20.599
1.32793, -1, 5.74763, 21.9125, 24.6741, 18.9909, -49.1323, -20.6942
1.33604, -1, 5.87139, 21.8503, 24.6576, 19.1892, -48.9216, -20.789
1.34389, -1, 5.99511, 21.7883, 24.6411, 19.3866, -48.7118, -20.8836
1.35191, -1, 6.11875, 21.7265, 24.6245, 19.5834, -48.5026, -20.9777
1.36076, -1, 6.24218, 21.665, 24.6081, 19.7795, -48.2941, -21.0718
1.3679, -1, 6.36552, 21.6037, 24.5917, 19.9747, -48.0863, -21.1653
1.37594, -1, 6.48865, 21.5426, 24.5752, 20.1691, -47.8791, -21.2586
1.38469, -1, 6.61149, 21.4817, 24.559, 20.3628, -47.6728, -21.3512
1.39194, -1, 6.73388, 21.4211, 24.5429, 20.5559, -47.4671, -21.4438
1.3999, -1, 6.85595, 21.3607, 24.5267, 20.7484, -47.262, -21.5357
1.40926, -1, 6.9775, 21.3006, 24.5104, 20.94, -47.0578, -21.6273
1.41589, -1, 7.09854, 21.2407, 24.4944, 21.131, -46.8543, -21.7185
1.42397, -1, 7.21897, 21.1811, 24.4785, 21.3211, -46.6515, -21.8095
1.43207, -1, 7.3388, 21.1216, 24.4625, 21.5108, -46.4496, -21.9002
1.43993, -1, 7.45796, 21.0625, 24.4468, 21.6998, -46.2486, -21.9904
1.44805, -1, 7.57661, 21.0035, 24.4312, 21.8879, -46.0481, -22.0805
1.45637, -1, 7.69486, 20.9446, 24.4154, 22.0755, -45.8487, -22.1702
1.46348, -1, 7.8126, 20.886, 24.3997, 22.2625, -45.6498, -22.26
1.47206, -1, 7.92977, 20.8275, 24.384, 22.449, -45.4517, -22.3491
1.48043, -1, 8.0463, 20.7691, 24.3683, 22.6347, -45.2545, -22.4381
1.48751, -1, 8.10437, 20.74, 24.3527, 22.8196, -45.058, -22.5262
1.4961, -1, 8.27779, 20.653, 24.3373, 23.0039, -44.862, -22.6146
1.50291, -1, 8.33542, 20.6241, 24.3297, 23.0958, -44.7642, -22.6583
1.51095, -1, 8.45044, 20.5665, 24.3143, 23.2793, -44.5691, -22.746
1.52003, -1, 8.62213, 20.4805, 24.2912, 23.5531, -44.2774, -22.8766
1.52689, -1, 8.67909, 20.4519, 24.2835, 23.644, -44.1805, -22.9203
1.53494, -1, 8.7927, 20.395, 24.2683, 23.8253, -43.9869, -23.0071
1.54418, -1, 8.96272, 20.31, 24.2455, 24.0966, -43.6979, -23.137
1.55089, -1, 9.01929, 20.2817, 24.238, 24.1868, -43.602, -23.1801
1.56045, -1, 9.18894, 20.1972, 24.2156, 24.4562, -43.3154, -23.3091
1.56833, -1, 9.30198, 20.1411, 24.2006, 24.6348, -43.125, -23.3948
1.57718, -1, 9.41484, 20.0851, 24.1855, 24.813, -42.9351, -23.4805
1.58446, -1, 9.52732, 20.0292, 24.1705, 24.9908, -42.7461, -23.5653
1.59243, -1, 9.63929, 19.9736, 24.1556, 25.1679, -42.5575, -23.65
1.60147, -1, 9.75081, 19.918, 24.1408, 25.3444, -42.3696, -23.7346
1.60689, -1, 9.8065, 19.8903, 24.1333, 25.4326, -42.2758, -23.7764
1.61639, -1, 9.91766, 19.835, 24.1186, 25.6083, -42.0887, -23.8607
1.62389, -1, 10.0285, 19.78, 24.1041, 25.7836, -41.9024, -23.944
1.6309, -1, 10.1389, 19.7252, 24.0894, 25.9585, -41.7166, -24.0275
1.64105, -1, 10.3038, 19.6433, 24.0674, 26.2195, -41.4389, -24.152
1.64696, -1, 10.3585, 19.6161, 24.0601, 26.3062, -41.3466, -24.1935
1.65589, -1, 10.4675, 19.5619, 24.0456, 26.4792, -41.1623, -24.2766
1.66393, -1, 10.5762, 19.5078, 24.0311, 26.6518, -40.9786, -24.3588
1.67193, -1, 10.6843, 19.4539, 24.0166, 26.8238, -40.7955, -24.4417
1.67891, -1, 10.7923, 19.4001, 24.0024, 26.9952, -40.6129, -24.5236
1.68799, -1, 10.8998, 19.3464, 23.9882, 27.1661, -40.4308, -24.6059
1.69594, -1, 11.0068, 19.2929, 23.9739, 27.3365, -40.2492, -24.6873
1.7039, -1, 11.1135, 19.2395, 23.9595, 27.5066, -40.0683, -24.7687
1.71188, -1, 11.2199, 19.1863, 23.9452, 27.6761, -39.8879, -24.8499
1.7189, -1, 11.3258, 19.1332, 23.9311, 27.8449, -39.708, -24.9305
1.7279, -1, 11.4314, 19.0803, 23.9169, 28.0134, -39.5288, -25.0114
1.73588, -1, 11.5366, 19.0276, 23.9028, 28.1812, -39.3499, -25.0914
1.74396, -1, 11.6416, 18.9752, 23.8889, 28.3487, -39.1716, -25.172
1.75366, -1, 11.7464, 18.9228, 23.875, 28.5992, -38.9052, -25.2916
1.75988, -1, 11.8511, 18.8706, 23.861, 28.6824, -38.8167, -25.3317
1.76795, -1, 11.9556, 18.8186, 23.8469, 28.8483, -38.6398, -25.4112
1.77588, -1, 12.0598, 18.7667, 23.833, 29.0139, -38.4635, -25.4907
1.78396, -1, 12.164, 18.7148, 23.8192, 29.1791, -38.2879, -25.5702
1.79188, -1, 12.268, 18.6631, 23.8053, 29.3439, -38.113, -25.6489
1.79988, -1, 12.3717, 18.6116, 23.7916, 29.5083, -37.9384, -25.7283
1.80795, -1, 12.4752, 18.5601, 23.778, 29.672, -37.7643, -25.8063
1.81596, -1, 12.5784, 18.5088, 23.7644, 29.8353, -37.5906, -25.8847
1.8239, -1, 12.6814, 18.4577, 23.7507, 29.9981, -37.4172, -25.9626
1.83199, -1, 12.784, 18.4066, 23.7369, 30.1607, -37.2443, -26.04
1.83991, -1, 12.8862, 18.3558, 23.7233, 30.3227, -37.0718, -26.1178
1.84788, -1, 12.9881, 18.3052, 23.7098, 30.4842, -36.8998, -26.1943
1.85595, -1, 13.0896, 18.2547, 23.6962, 30.6452, -36.7281, -26.2718
1.8639, -1, 13.1907, 18.2044, 23.6827, 30.8058, -36.557, -26.3483
1.87188, -1, 13.2915, 18.1542, 23.6694, 30.9662, -36.3863, -26.4248
1.87999, -1, 13.392, 18.1042, 23.6562, 31.1261, -36.2161, -26.5015
1.88692, -1, 13.4922, 18.0542, 23.6428, 31.2855, -36.0463, -26.5774
1.8959, -1, 13.5923, 18.0042, 23.6294, 31.4445, -35.877, -26.654
1.90396, -1, 13.6921, 17.9545, 23.6161, 31.6028, -35.7082, -26.7297
1.91188, -1, 13.7917, 17.9047, 23.6028, 31.761, -35.5398, -26.8055
1.91988, -1, 13.8912, 17.8551, 23.5896, 31.9189, -35.3721, -26.8811
1.92795, -1, 13.9905, 17.8055, 23.5762, 32.0762, -35.2046, -26.9561
1.93589, -1, 14.0896, 17.7561, 23.5631, 32.2332, -35.0374, -27.0315
1.944, -1, 14.1884, 17.7069, 23.5501, 32.3897, -34.871, -27.1059
1.95196, -1, 14.2868, 17.6579, 23.537, 32.5459, -34.7049, -27.1807
1.95998, -1, 14.3848, 17.609, 23.5239, 32.7018, -34.5394, -27.255
1.96804, -1, 14.4825, 17.5603, 23.5107, 32.8574, -34.3741, -27.3288
1.97599, -1, 14.5798, 17.5117, 23.4977, 33.0126, -34.209, -27.4035
1.98401, -1, 14.6767, 17.4633, 23.4848, 33.1672, -34.0443, -27.4772
1.99206, -1, 14.7734, 17.415, 23.4718, 33.3215, -33.8799, -27.5512
1.99889, -1, 14.8216, 17.3909, 23.4653, 33.3985, -33.798, -27.5882
2.00791, -1, 14.9661, 17.3185, 23.4461, 33.629, -33.5526, -27.6985
2.01598, -1, 15.0623, 17.2704, 23.4334, 33.7822, -33.3894, -27.7724
2.02398, -1, 15.1582, 17.2223, 23.4206, 33.935, -33.2264, -27.8453
2.03093, -1, 15.2062, 17.1983, 23.4141, 34.0112, -33.1453, -27.8819
2.04013, -1, 15.35, 17.1265, 23.3948, 34.2393, -32.9023, -27.9914
2.04688, -1, 15.3978, 17.1026, 23.3884, 34.3152, -32.8217, -28.0274
2.05625, -1, 15.5415, 17.031, 23.3692, 34.5426, -32.5799, -28.1364
2.06291, -1, 15.5893, 17.0074, 23.3628, 34.6182, -32.4995, -28.1725
2.07234, -1, 15.7324, 16.9364, 23.3438, 34.8443, -32.2589, -28.2806
2.08038, -1, 15.8275, 16.8893, 23.3313, 34.9945, -32.0987, -28.3525
2.08844, -1, 15.9223, 16.8424, 23.3188, 35.1443, -31.9393, -28.4236
2.09646, -1, 16.0169, 16.7955, 23.3063, 35.2941, -31.7801, -28.4957
2.10445, -1, 16.1111, 16.7489, 23.2936, 35.4435, -31.621, -28.5669
2.11248, -1, 16.1581, 16.7023, 23.2811, 35.5924, -31.4626, -28.6382
2.12043, -1, 16.2518, 16.679, 23.2749, 35.6667, -31.3836, -28.6741
2.12787, -1, 16.3452, 16.6325, 23.2625, 35.8151, -31.2255, -28.745
2.13592, -1, 16.4384, 16.586, 23.25, 35.9632, -31.0679, -28.8158
2.14387, -1, 16.5312, 16.5394, 23.2375, 36.1111, -30.9105, -28.8872
2.15187, -1, 16.6239, 16.493, 23.2252, 36.2589, -30.7533, -28.9575
2.15993, -1, 16.7164, 16.4467, 23.2128, 36.4062, -30.5967, -29.0282
2.1679, -1, 16.8087, 16.4004, 23.2005, 36.5531, -30.4402, -29.0986
2.17587, -1, 16.901, 16.3543, 23.1881, 36.6995, -30.2844, -29.1683
2.18392, -1, 16.993, 16.3083, 23.1757, 36.8458, -30.1287, -29.2388
2.1919, -1, 17.0849, 16.2624, 23.1635, 36.9917, -29.9733, -29.3081
2.19988, -1, 17.1761, 16.217, 23.1512, 37.1374, -29.818, -29.3776
2.20791, -1, 17.2648, 16.1726, 23.1388, 37.2825, -29.6636, -29.4473
2.21592, -1, 17.3493, 16.1303, 23.1262, 37.4263, -29.5104, -29.5154
2.22391, -1, 17.4285, 16.0907, 23.1137, 37.5667, -29.3607, -29.5829
2.23196, -1, 17.5022, 16.0542, 23.1014, 37.701, -29.2172, -29.6475
2.23988, -1, 17.5698, 16.0211, 23.0896, 37.8256, -29.0843, -29.7069
2.24787, -1, 17.6298, 15.992, 23.0791, 37.937, -28.9652, -29.7608
2.25594, -1, 17.6829, 15.966, 23.0702, 38.0309, -28.8642, -29.8065
2.26386, -1, 17.7298, 15.9424, 23.0638, 38.1061, -28.7834, -29.8429
2.27186, -1, 17.7708, 15.921, 23.0596, 38.1622, -28.7226, -29.87
2.27994, -1, 17.8052, 15.9033, 23.0572, 38.2004, -28.6808, -29.8888
2.28787, -1, 17.8326, 15.8896, 23.0561, 38.2255, -28.6535, -29.9008
2.29583, -1, 17.8542, 15.8793, 23.0555, 38.2403, -28.6371, -29.9078
2.30393, -1, 17.8696, 15.8722, 23.0553, 38.2484, -28.6283, -29.9116
2.31186, -1, 17.8787, 15.868, 23.0552, 38.2523, -28.6238, -29.9134
2.31984, 2, 17.883, 15.8659, 23.0552, 38.2543, -28.6217, -29.9143
2.32793, 2, 17.8849, 15.865, 23.0551, 38.2551, -28.6208, -29.9147
2.3359, 2, 17.8852, 15.8645, 23.0552, 38.2556, -28.6203, -29.915
2.34386, 2, 17.8846, 15.8644, 23.0552, 38.2557, -28.6202, -29.9151
2.35193, 2, 17.8839, 15.8643, 23.0552, 38.2558, -28.6201, -29.9152
2.35987, 2, 17.8833, 15.8642, 23.0552, 38.2559, -28.62, -29.9152
2.36786, 2, 17.8831, 15.8642, 23.0552, 38.2559, -28.62, -29.9151
2.37593, 2, 17.883, 15.8641, 23.0552, 38.2558, -28.62, -29.9151
2.38386, 2, 17.8831, 15.8639, 23.0551, 38.2558, -28.62, -29.9151
2.39193, 2, 17.8832, 15.8636, 23.0552, 38.2559, -28.62, -29.9151
2.39995, 2, 17.8835, 15.8632, 23.0551, 38.2559, -28.62, -29.9151
2.40786, 2, 17.8839, 15.8629, 23.0551, 38.2559, -28.62, -29.9152
2.41586, 2, 17.8845, 15.8627, 23.0551, 38.2559, -28.6201, -29.9152
2.42393, 2, 17.8853, 15.8626, 23.0551, 38.2559, -28.6201, -29.9152
2.43187, 2, 17.8862, 15.8625, 23.0551, 38.2559, -28.6201, -29.9152
2.43989, 2, 17.8868, 15.8625, 23.0551, 38.2559, -28.6201, -29.9152
2.44796, 2, 17.8872, 15.8625, 23.0551, 38.2559, -28.6202, -29.9152
2.45595, 2, 17.8875, 15.8625, 23.0551, 38.2559, -28.6201, -29.9152
2.46396, 2, 17.8877, 15.8626, 23.0551, 38.2559, -28.6202, -29.9151
2.47202, 2, 17.8878, 15.8626, 23.0551, 38.2559, -28.6201, -29.9151
2.47998, 2, 17.8878, 15.8626, 23.0551, 38.2559, -28.6202, -29.9151
2.48797, 2, 17.8878, 15.8626, 23.0551, 38.256, -28.6202, -29.9152
2.49603, 2, 17.8878, 15.8625, 23.0551, 38.2559, -28.6202, -29.9151
2.5039, 2, 17.8877, 15.8625, 23.0551, 38.2559, -28.6202, -29.9151
2.51199, 2, 17.8875, 15.8624, 23.0551, 38.2559, -28.6202, -29.9152
2.52026, 2, 17.8873, 15.8623, 23.0551, 38.2559, -28.6202, -29.9152
2.52686, 2, 17.8872, 15.8622, 23.0551, 38.2559, -28.6202, -29.9152
2.53599, 2, 17.8871, 15.8622, 23.0551, 38.2559, -28.6202, -29.9152
2.54416, 2, 17.887, 15.8622, 23.0551, 38.2559, -28.6202, -29.9152
2.55087, 2, 17.887, 15.8622, 23.0551, 38.2559, -28.6203, -29.9152
2.56023, 2, 17.8871, 15.8623, 23.0551, 38.2559, -28.6203, -29.9151
2.5669, 2, 17.8871, 15.8623, 23.0551, 38.2559, -28.6203, -29.9151
2.5764, 2, 17.8871, 15.8623, 23.0551, 38.2559, -28.6203, -29.9151
2.58442, 2, 17.8871, 15.8623, 23.0551, 38.2559, -28.6203, -29.9151
2.59245, 2, 17.887, 15.8623, 23.0551, 38.2559, -28.6204, -29.9151
2.60046, 2, 17.887, 15.8623, 23.0551, 38.2559, -28.6204, -29.9151
2.60844, 2, 17.887, 15.8623, 23.0551, 38.2559, -28.6204, -29.9151
2.61667, 2, 17.887, 15.8623, 23.0551, 38.2559, -28.6204, -29.9151
2.62385, 2, 17.8871, 15.8623, 23.0551, 38.2559, -28.6205, -29.9151
2.63186, 2, 17.887, 15.8623, 23.0551, 38.2559, -28.6205, -29.9151
2.64057, 2, 17.887, 15.8622, 23.0551, 38.2559, -28.6205, -29.9151
2.64785, 2, 17.8869, 15.8622, 23.0551, 38.2559, -28.6205, -29.9151
2.65585, 2, 17.8869, 15.8623, 23.0551, 38.2559, -28.6205, -29.9151
2.6639, 2, 17.8869, 15.8623, 23.0551, 38.2559, -28.6205, -29.9151
2.67189, 2, 17.8869, 15.8623, 23.0551, 38.2559, -28.6205, -29.9151
2.67986, 2, 17.8869, 15.8623, 23.0551, 38.2559, -28.6205, -29.9151
2.6879, 2, 17.8869, 15.8623, 23.0551, 38.2559, -28.6205, -29.9151
2.69585, 2, 17.8868, 15.8623, 23.0551, 38.2559, -28.6205, -29.9152
2.70386, 2, 17.8868, 15.8623, 23.0551, 38.2558, -28.6205, -29.9151
2.7119, 2, 17.8868, 15.8623, 23.0551, 38.2558, -28.6206, -29.9151
2.71986, 2, 17.8868, 15.8623, 23.0551, 38.2559, -28.6206, -29.9151
2.72789, 2, 17.8868, 15.8623, 23.0551, 38.2559, -28.6207, -29.9151
2.73593, 2, 17.8868, 15.8623, 23.0551, 38.2558, -28.6207, -29.9151
2.74385, 2, 17.8868, 15.8623, 23.0551, 38.2558, -28.6207, -29.9151
2.75286, 2, 17.8868, 15.8623, 23.0551, 38.2558, -28.6207, -29.9151
2.75992, 2, 17.8867, 15.8623, 23.0552, 38.2558, -28.6208, -29.9151
2.76892, 2, 17.8867, 15.8623, 23.0551, 38.2558, -28.6207, -29.9151
2.77585, 2, 17.8867, 15.8623, 23.0551, 38.2558, -28.6207, -29.9151
2.78391, 2, 17.8866, 15.8624, 23.0551, 38.2558, -28.6208, -29.915
2.79185, 2, 17.8866, 15.8624, 23.0551, 38.2558, -28.6208, -29.915
2.79985, 2, 17.8866, 15.8624, 23.0551, 38.2558, -28.6208, -29.915
2.80791, 2, 17.8866, 15.8624, 23.0551, 38.2558, -28.6208, -29.9151
2.81585, 2, 17.8865, 15.8624, 23.0551, 38.2558, -28.6208, -29.915
2.82384, 2, 17.8865, 15.8624, 23.0551, 38.2557, -28.6208, -29.915
2.83192, 2, 17.8864, 15.8623, 23.0551, 38.2557, -28.6208, -29.915
2.8399, 2, 17.8864, 15.8623, 23.0551, 38.2557, -28.6208, -29.915
2.84785, 2, 17.8863, 15.8623, 23.0551, 38.2557, -28.6208, -29.9151
2.85591, 2, 17.8863, 15.8623, 23.0551, 38.2557, -28.6208, -29.915
2.86384, 2, 17.8862, 15.8624, 23.0551, 38.2557, -28.6208, -29.915
2.87188, 2, 17.8862, 15.8624, 23.0551, 38.2557, -28.6208, -29.9151
2.87992, 2, 17.8862, 15.8624, 23.0552, 38.2557, -28.6209, -29.915
2.88785, 2, 17.8861, 15.8624, 23.0551, 38.2557, -28.6209, -29.915
2.89589, 2, 17.8861, 15.8624, 23.0551, 38.2557, -28.6209, -29.915
2.90392, 2, 17.886, 15.8624, 23.0551, 38.2557, -28.621, -29.915
2.91185, 2, 17.886, 15.8624, 23.0551, 38.2556, -28.621, -29.915
2.91986, 2, 17.8859, 15.8624, 23.0551, 38.2557, -28.621, -29.915
2.92791, 2, 17.8859, 15.8624, 23.0551, 38.2557, -28.6209, -29.915
2.93585, 2, 17.8859, 15.8624, 23.0551, 38.2556, -28.621, -29.9151
2.94387, 2, 17.8858, 15.8624, 23.0551, 38.2556, -28.621, -29.915
2.95197, 2, 17.8858, 15.8624, 23.0552, 38.2556, -28.621, -29.915
2.95995, 2, 17.8857, 15.8624, 23.0552, 38.2556, -28.621, -29.915
2.96795, 2, 17.8857, 15.8624, 23.0552, 38.2556, -28.621, -29.915
2.97601, 2, 17.8856, 15.8624, 23.0552, 38.2556, -28.621, -29.915
2.98396, 2, 17.8855, 15.8624, 23.0551, 38.2556, -28.6211, -29.915
2.99195, 2, 17.8855, 15.8624, 23.0551, 38.2555, -28.6211, -29.915
3.00003, 2, 17.8854, 15.8624, 23.0551, 38.2555, -28.6212, -29.915
3.0079, 2, 17.8854, 15.8625, 23.0551, 38.2555, -28.6212, -29.915
3.01588, 2, 17.8853, 15.8624, 23.0551, 38.2555, -28.6212, -29.915
3.024, 2, 17.8852, 15.8624, 23.0552, 38.2554, -28.6212, -29.915
3.03107, 2, 17.8852, 15.8624, 23.0551, 38.2554, -28.6212, -29.915
3.03999, 2, 17.8851, 15.8624, 23.0552, 38.2555, -28.6212, -29.915
3.0481, 2, 17.885, 15.8624, 23.0552, 38.2554, -28.6212, -29.915
3.05486, 2, 17.885, 15.8625, 23.0552, 38.2554, -28.6212, -29.915
3.06422, 2, 17.885, 15.8624, 23.0552, 38.2554, -28.6212, -29.9149
3.07087, 2, 17.8849, 15.8625, 23.0552, 38.2554, -28.6212, -29.9149
3.08076, 2, 17.8848, 15.8625, 23.0552, 38.2554, -28.6212, -29.9149
3.08838, 2, 17.8848, 15.8625, 23.0552, 38.2554, -28.6212, -29.9149
3.09639, 2, 17.8848, 15.8625, 23.0552, 38.2554, -28.6212, -29.9149
3.10477, 2, 17.8847, 15.8625, 23.0552, 38.2553, -28.6212, -29.9149
3.11242, 2, 17.8847, 15.8625, 23.0552, 38.2553, -28.6212, -29.9149
3.12045, 2, 17.8846, 15.8625, 23.0552, 38.2553, -28.6212, -29.915
3.1287, 2, 17.8845, 15.8625, 23.0552, 38.2553, -28.6212, -29.9149
3.13583, 2, 17.8845, 15.8625, 23.0552, 38.2553, -28.6212, -29.9149
3.14391, 2, 17.8845, 15.8625, 23.0552, 38.2552, -28.6212, -29.9149
3.15272, 2, 17.8844, 15.8625, 23.0551, 38.2552, -28.6212, -29.9149
3.15984, 2, 17.8844, 15.8625, 23.0552, 38.2552, -28.6212, -29.915
3.16788, 2, 17.8844, 15.8625, 23.0551, 38.2553, -28.6212, -29.915
3.17586, 2, 17.8843, 15.8625, 23.0552, 38.2552, -28.6212, -29.915
3.18383, 2, 17.8843, 15.8625, 23.0552, 38.2552, -28.6212, -29.9149
3.19188, 2, 17.8843, 15.8625, 23.0552, 38.2552, -28.6212, -29.9149
3.19984, 2, 17.8843, 15.8625, 23.0552, 38.2552, -28.6212, -29.9149
3.20783, 2, 17.8842, 15.8625, 23.0552, 38.2552, -28.6212, -29.9149
3.21588, 2, 17.8842, 15.8625, 23.0552, 38.2552, -28.6213, -29.9149
3.22383, 2, 17.8842, 15.8625, 23.0552, 38.2551, -28.6213, -29.9149
3.23188, 2, 17.8842, 15.8625, 23.0551, 38.2551, -28.6213, -29.9149
3.23992, 2, 17.8842, 15.8625, 23.0551, 38.255, -28.6213, -29.9149
3.24783, 2, 17.8842, 15.8625, 23.0552, 38.255, -28.6213, -29.9149
3.25582, 2, 17.8841, 15.8625, 23.0552, 38.255, -28.6214, -29.9149
3.26389, 2, 17.8841, 15.8625, 23.0552, 38.255, -28.6213, -29.9149
3.2738, 2, 17.8841, 15.8625, 23.0552, 38.2549, -28.6213, -29.9149
3.27984, 2, 17.8841, 15.8625, 23.0552, 38.2549, -28.6213, -29.9149
3.28789, 2, 17.8841, 15.8625, 23.0552, 38.2549, -28.6214, -29.9149
3.29583, 2, 17.8841, 15.8625, 23.0552, 38.2549, -28.6213, -29.9149
3.30383, 2, 17.8841, 15.8625, 23.0552, 38.2549, -28.6214, -29.9149
3.31189, 2, 17.8841, 15.8625, 23.0552, 38.2549, -28.6214, -29.9149
3.31998, 2, 17.884, 15.8625, 23.0552, 38.2549, -28.6214, -29.9149
3.32782, 2, 17.884, 15.8625, 23.0552, 38.2549, -28.6214, -29.9149
3.3359, 2, 17.884, 15.8626, 23.0552, 38.2548, -28.6214, -29.9149
3.34386, 2, 17.884, 15.8626, 23.0552, 38.2548, -28.6214, -29.9149
3.35184, 2, 17.884, 15.8626, 23.0552, 38.2548, -28.6214, -29.9149
3.3599, 2, 17.8839, 15.8626, 23.0552, 38.2548, -28.6214, -29.9149
3.36783, 2, 17.8839, 15.8625, 23.0552, 38.2548, -28.6214, -29.9149
3.37582, 2, 17.8839, 15.8626, 23.0552, 38.2547, -28.6214, -29.9149
3.38389, 2, 17.8839, 15.8626, 23.0552, 38.2547, -28.6214, -29.9149
3.39185, 2, 17.8839, 15.8626, 23.0552, 38.2547, -28.6214, -29.9149
3.39989, 2, 17.8839, 15.8626, 23.0552, 38.2547, -28.6214, -29.9149
3.4079, 4, 17.8839, 15.8626, 23.0552, 38.2547, -28.6214, -29.9149
3.41583, 4, 17.8839, 15.8626, 23.0552, 38.2547, -28.6214, -29.9149
3.42383, 4, 17.8838, 15.8626, 23.0552, 38.2547, -28.6214, -29.9149
3.4319, 4, 17.8838, 15.8626, 23.0552, 38.2547, -28.6214, -29.9149
3.43984, 4, 17.8838, 15.8626, 23.0552, 38.2547, -28.6214, -29.9148
3.44787, 4, 17.8837, 15.8626, 23.0552, 38.2546, -28.6214, -29.9148
3.45606, 4, 17.8837, 15.8626, 23.0552, 38.2546, -28.6214, -29.9148
3.46392, 4, 17.8837, 15.8626, 23.0552, 38.2546, -28.6214, -29.9149
3.47193, 4, 17.8837, 15.8626, 23.0552, 38.2547, -28.6214, -29.9149
3.48, 4, 17.8837, 15.8626, 23.0552, 38.2546, -28.6214, -29.9148
3.48794, 4, 17.8837, 15.8626, 23.0552, 38.2545, -28.6215, -29.9148
3.49588, 4, 17.8837, 15.8626, 23.0552, 38.2546, -28.6215, -29.9149
3.50419, 4, 17.8837, 15.8626, 23.0552, 38.2546, -28.6215, -29.9149
3.53076, 4, 17.8836, 15.8627, 23.0552, 38.2546, -28.6215, -29.9148
3.53288, 4, 17.8836, 15.8627, 23.0552, 38.2545, -28.6215, -29.9148
3.5341, 4, 17.8836, 15.8627, 23.0552, 38.2545, -28.6215, -29.9148
3.53682, 4, 17.8836, 15.8627, 23.0552, 38.2545, -28.6215, -29.9148
3.54496, 4, 17.8836, 15.8627, 23.0552, 38.2544, -28.6215, -29.9147
3.55207, 4, 17.8834, 15.8627, 23.0552, 38.2545, -28.6215, -29.9147
3.55883, 4, 17.8829, 15.8627, 23.0552, 38.2544, -28.6215, -29.9147
3.56905, 4, 17.8775, 15.8626, 23.0557, 38.2528, -28.6218, -29.914
3.57627, 4, 17.8694, 15.8624, 23.0576, 38.2459, -28.6235, -29.9101
3.58283, 4, 17.8638, 15.8621, 23.0596, 38.2386, -28.6257, -29.9051
3.59233, 4, 17.8404, 15.8593, 23.0738, 38.1911, -28.6417, -29.8657
3.60126, 4, 17.8176, 15.8551, 23.0934, 38.1266, -28.6638, -29.8105
3.60845, 5, 17.7888, 15.8483, 23.1238, 38.0263, -28.6983, -29.7232
3.61639, 5, 17.7721, 15.8439, 23.1668, 37.8846, -28.7484, -29.5995
3.62515, 5, 17.7346, 15.8327, 23.1932, 37.7975, -28.7796, -29.4377
3.63264, 5, 17.6918, 15.8187, 23.2556, 37.5923, -28.8531, -29.2407
3.63983, 5, 17.6428, 15.8022, 23.3292, 37.3504, -28.942, -29.1307
3.64781, 5, 17.5882, 15.7838, 23.412, 37.0791, -29.0423, -28.8916
3.65581, 5, 17.5285, 15.764, 23.5015, 36.7873, -29.1516, -28.634
3.66381, 5, 17.4637, 15.7431, 23.5955, 36.4827, -29.2674, -28.3649
3.67194, 5, 17.3943, 15.7219, 23.6917, 36.1716, -29.3868, -28.0904
3.67882, 5, 17.3209, 15.7005, 23.7886, 35.8582, -29.5091, -27.8141
3.68782, 5, 17.2451, 15.679, 23.8859, 35.545, -29.6327, -27.5379
3.69586, 5, 17.1681, 15.6579, 23.9832, 35.2328, -29.7572, -27.2631
3.70283, 5, 17.0902, 15.637, 24.0803, 34.9227, -29.8829, -26.9902
3.71181, 5, 17.0121, 15.6164, 24.1774, 34.6143, -30.0089, -26.7193
3.71882, 5, 16.9339, 15.5963, 24.2741, 34.3078, -30.1361, -26.4502
3.72792, 5, 16.8557, 15.5766, 24.3704, 34.0035, -30.2638, -26.1833
3.73582, 5, 16.7776, 15.5573, 24.4662, 33.7013, -30.3924, -25.9187
3.7439, 5, 16.6996, 15.5385, 24.5615, 33.4011, -30.5217, -25.6565
3.75082, 5, 16.6219, 15.5202, 24.6566, 33.1034, -30.6514, -25.3961
3.75982, 5, 16.5443, 15.5021, 24.7515, 32.8075, -30.782, -25.1382
3.76788, 5, 16.4668, 15.4846, 24.8461, 32.5137, -30.9129, -24.8824
3.77582, 5, 16.3894, 15.4675, 24.9404, 32.2222, -31.0447, -24.6288
3.78381, 5, 16.312, 15.4505, 25.0341, 31.9323, -31.1769, -24.377
3.79188, 5, 16.2343, 15.4337, 25.1271, 31.6448, -31.31, -24.1272
3.79998, 5, 16.1562, 15.4174, 25.2198, 31.3593, -31.4436, -23.8793
3.80781, 5, 16.0777, 15.4016, 25.3122, 31.0756, -31.5781, -23.6334
3.8159, 5, 15.9989, 15.3859, 25.4043, 30.7939, -31.7132, -23.3896
3.82381, 5, 15.9196, 15.3706, 25.4962, 30.5142, -31.8488, -23.1475
3.83194, 5, 15.8399, 15.3559, 25.5877, 30.2365, -31.9851, -22.9074
3.83982, 5, 15.7598, 15.3416, 25.6786, 29.9607, -32.122, -22.6694
3.84785, 5, 15.6796, 15.3276, 25.769, 29.687, -32.2592, -22.4336
3.85587, 5, 15.5993, 15.3139, 25.8589, 29.4151, -32.3972, -22.1994
3.86382, 5, 15.5189, 15.3008, 25.9486, 29.1449, -32.5358, -21.9673
3.87181, 5, 15.4384, 15.2883, 26.038, 28.8769, -32.6747, -21.737
3.8799, 5, 15.3578, 15.2761, 26.1271, 28.6107, -32.8143, -21.5088
3.88781, 5, 15.2772, 15.2642, 26.2158, 28.3463, -32.9543, -21.2826
3.8958, 5, 15.1967, 15.2525, 26.304, 28.0838, -33.0951, -21.0582
3.90389, 5, 15.1163, 15.2414, 26.3916, 27.8231, -33.236, -20.8356
3.91182, 5, 15.0359, 15.2307, 26.4787, 27.564, -33.3778, -20.6152
3.91982, 5, 14.9554, 15.2203, 26.5655, 27.3067, -33.5196, -20.3965
3.92789, 5, 14.8748, 15.2104, 26.652, 27.0512, -33.6624, -20.1798
3.93581, 5, 14.7941, 15.2006, 26.7382, 26.7975, -33.8053, -19.9643
3.94381, 5, 14.7132, 15.1912, 26.824, 26.5455, -33.9491, -19.7507
3.95205, 5, 14.6322, 15.1823, 26.9095, 26.2954, -34.0931, -19.5389
3.95989, 5, 14.551, 15.174, 26.9944, 26.047, -34.2377, -19.329
3.96795, 5, 14.4695, 15.166, 27.0788, 25.8001, -34.3828, -19.1209
3.97623, 5, 14.3876, 15.1584, 27.1628, 25.5551, -34.5285, -18.9143
3.9834, 5, 14.3054, 15.1513, 27.2464, 25.3118, -34.6747, -18.7094
3.99199, 5, 14.2231, 15.1446, 27.3298, 25.0701, -34.8215, -18.5062
4.00037, 5, 14.1407, 15.138, 27.4128, 24.8299, -34.9685, -18.3047
4.00781, 5, 14.0583, 15.1318, 27.4954, 24.5916, -35.1163, -18.105
4.016, 5, 13.9757, 15.1262, 27.5777, 24.3549, -35.2644, -17.907
4.02465, 5, 13.8931, 15.1211, 27.6594, 24.1196, -35.413, -17.7103
4.03187, 5, 13.8106, 15.1163, 27.7407, 23.8858, -35.562, -17.5155
4.04004, 5, 13.7281, 15.112, 27.8214, 23.6537, -35.7115, -17.322
4.04681, 5, 13.6869, 15.11, 27.8617, 23.5382, -35.7864, -17.2259
4.05496, 5, 13.6046, 15.1062, 27.9419, 23.3082, -35.9367, -17.0351
4.06419, 5, 13.481, 15.1013, 28.0616, 22.9663, -36.1626, -16.752
4.07081, 5, 13.4398, 15.0998, 28.1013, 22.8531, -36.2381, -16.6583
4.0789, 5, 13.3573, 15.0972, 28.1804, 22.6279, -36.3893, -16.4723
4.08839, 5, 13.2331, 15.0942, 28.2984, 22.2927, -36.617, -16.1959
4.09715, 5, 13.15, 15.0926, 28.3763, 22.0712, -36.7691, -16.0137
4.10292, 5, 13.1084, 15.092, 28.4151, 21.961, -36.8456, -15.9232
4.1124, 5, 12.983, 15.0907, 28.5308, 21.6325, -37.0751, -15.6538
4.12137, 5, 12.8991, 15.0904, 28.6076, 21.4151, -37.2287, -15.4757
4.12687, 5, 12.8571, 15.0903, 28.6458, 21.307, -37.3054, -15.3873
4.13682, 5, 12.7307, 15.0902, 28.7599, 20.9849, -37.5369, -15.1238
4.1438, 5, 12.6885, 15.0904, 28.7978, 20.8782, -37.6141, -15.0367
4.15087, 5, 12.604, 15.0909, 28.8732, 20.6659, -37.7692, -14.8637
4.15986, 5, 12.5194, 15.0917, 28.9481, 20.4546, -37.9246, -14.6922
4.1678, 5, 12.4349, 15.0928, 29.0225, 20.2449, -38.0805, -14.5218
4.17488, 5, 12.3504, 15.0943, 29.0964, 20.0364, -38.2368, -14.3525
4.1839, 5, 12.2658, 15.0963, 29.1699, 19.8292, -38.3933, -14.1846
4.19179, 5, 12.1814, 15.0985, 29.243, 19.6233, -38.5502, -14.0179
4.19885, 5, 12.0968, 15.1012, 29.3157, 19.4188, -38.7076, -13.8527
4.2078, 5, 12.012, 15.1043, 29.3879, 19.2157, -38.8651, -13.689
4.21579, 5, 11.9273, 15.1079, 29.4599, 19.0139, -39.0229, -13.5265
4.22286, 5, 11.8424, 15.1121, 29.5313, 18.8131, -39.1812, -13.3653
4.23181, 5, 11.7574, 15.1166, 29.6024, 18.6137, -39.3396, -13.2051
4.23981, 5, 11.6723, 15.1215, 29.673, 18.4157, -39.4985, -13.0463
4.24687, 5, 11.5869, 15.127, 29.7431, 18.2188, -39.6575, -12.8887
4.2558, 5, 11.5014, 15.133, 29.8128, 18.0229, -39.817, -12.7324
4.26386, 5, 11.4157, 15.1395, 29.8821, 17.8283, -39.9769, -12.5777
4.27285, 5, 11.3297, 15.1465, 29.951, 17.6352, -40.1371, -12.4243
4.27982, 5, 11.2436, 15.1539, 30.0195, 17.4432, -40.2975, -12.272
4.28786, 5, 11.1573, 15.1617, 30.0877, 17.2523, -40.4583, -12.1207
4.29579, 5, 11.071, 15.1698, 30.1554, 17.0624, -40.6194, -11.9708
4.30385, 5, 10.9848, 15.1784, 30.2227, 16.8737, -40.7808, -11.822
4.31186, 5, 10.8986, 15.1871, 30.2895, 16.6863, -40.9425, -11.6745
4.31981, 5, 10.8124, 15.1963, 30.3558, 16.4999, -41.1045, -11.5282
4.3278, 5, 10.7261, 15.2061, 30.4217, 16.3145, -41.2668, -11.3832
4.33586, 5, 10.6398, 15.2165, 30.4872, 16.1303, -41.4294, -11.2393
4.34379, 5, 10.5535, 15.2272, 30.5523, 15.9473, -41.5922, -11.0963
4.35184, 5, 10.4673, 15.2383, 30.617, 15.7656, -41.7555, -10.9544
4.35987, 5, 10.381, 15.2499, 30.6812, 15.5848, -41.919, -10.8137
4.36779, 5, 10.2947, 15.2619, 30.745, 15.4051, -42.0829, -10.674
4.3758, 5, 10.208, 15.2746, 30.8085, 15.2264, -42.2472, -10.5356
4.38385, 5, 10.1211, 15.2875, 30.8715, 15.049, -42.4117, -10.3982
4.39184, 5, 10.0341, 15.3008, 30.9342, 14.8726, -42.5766, -10.262
4.40036, 5, 9.94695, 15.3145, 30.9964, 14.6972, -42.7415, -10.1268
4.40701, 5, 9.85969, 15.3287, 31.058, 14.5226, -42.9068, -9.99242
4.41581, 5, 9.77216, 15.3434, 31.1193, 14.3491, -43.0723, -9.85902
4.42462, 5, 9.68444, 15.3584, 31.18, 14.1768, -43.2382, -9.72666
4.4318, 5, 9.59659, 15.3736, 31.2403, 14.0054, -43.4042, -9.59527
4.43979, 5, 9.50865, 15.3893, 31.3003, 13.8349, -43.5707, -9.46504
4.44859, 5, 9.42066, 15.4056, 31.3598, 13.6652, -43.7369, -9.3359
4.45585, 5, 9.33262, 15.422, 31.419, 13.4966, -43.9036, -9.20781
4.46387, 5, 9.24454, 15.4388, 31.4776, 13.3289, -44.0703, -9.08079
4.47273, 5, 9.15648, 15.4562, 31.5359, 13.1622, -44.2373, -8.95455
4.47989, 5, 9.06843, 15.4742, 31.5937, 12.9964, -44.4045, -8.82909
4.4879, 5, 8.98032, 15.4923, 31.651, 12.8313, -44.5719, -8.70449
4.49683, 5, 8.89212, 15.5109, 31.7078, 12.6672, -44.7396, -8.58112
4.50392, 5, 8.80382, 15.5301, 31.7642, 12.5042, -44.9075, -8.45841
4.51185, 5, 8.71545, 15.5495, 31.8202, 12.3421, -45.0759, -8.33685
4.52078, 5, 8.62705, 15.5692, 31.8757, 12.1809, -45.2445, -8.21621
4.52784, 5, 8.53858, 15.5895, 31.9308, 12.0206, -45.4133, -8.09647
4.53597, 5, 8.45005, 15.6102, 31.9855, 11.8609, -45.5825, -7.97803
4.54483, 5, 8.36122, 15.6311, 32.0396, 11.7024, -45.7518, -7.86015
4.55215, 5, 8.27225, 15.6526, 32.0935, 11.5448, -45.9212, -7.74319
4.55879, 5, 8.2277, 15.6634, 32.1203, 11.4663, -46.0061, -7.68507
4.56896, 5, 8.09394, 15.6964, 32.1998, 11.2319, -46.2607, -7.51174
4.57621, 5, 8.00481, 15.7191, 32.2524, 11.0765, -46.4308, -7.39734
4.58288, 5, 7.96022, 15.7305, 32.2784, 10.9991, -46.5158, -7.34048
4.59229, 5, 7.82628, 15.7654, 32.356, 10.7684, -46.7712, -7.17119
4.6005, 5, 7.73699, 15.7893, 32.4071, 10.6157, -46.9415, -7.05956
4.60841, 5, 7.64769, 15.8134, 32.4578, 10.4639, -47.1121, -6.94887
4.61634, 5, 7.55856, 15.8381, 32.508, 10.3126, -47.2826, -6.83901
4.62897, 5, 7.42509, 15.8758, 32.5826, 10.0871, -47.5389, -6.67552
4.63242, 5, 7.42509, 15.8758, 32.5826, 10.0871, -47.6246, -6.62117
4.63983, 5, 7.33606, 15.9015, 32.6318, 9.93772, -47.7102, -6.56726
4.64778, 5, 7.24698, 15.9274, 32.6804, 9.78928, -47.8815, -6.45994
4.65583, 5, 7.15777, 15.9539, 32.7288, 9.64157, -48.0531, -6.35351
4.66378, 5, 7.06833, 15.9807, 32.7767, 9.49452, -48.2248, -6.24753
4.67084, 5, 6.97864, 16.0079, 32.824, 9.34806, -48.3968, -6.14285
4.67981, 5, 6.88878, 16.0357, 32.8711, 9.20264, -48.5688, -6.03849
4.68782, 5, 6.79867, 16.0637, 32.9176, 9.0579, -48.7413, -5.9352
4.69489, 5, 6.70846, 16.0922, 32.9636, 8.91409, -48.9138, -5.83263
4.70383, 5, 6.61818, 16.1211, 33.0092, 8.77106, -49.0867, -5.73106
4.71177, 5, 6.52769, 16.1503, 33.0543, 8.6287, -49.2596, -5.62975
4.72217, 5, 6.39192, 16.1949, 33.1212, 8.41632, -49.5192, -5.47918
4.72679, 5, 6.34666, 16.21, 33.1432, 8.34588, -49.6058, -5.42939
4.73578, 5, 6.25622, 16.2405, 33.1869, 8.20569, -49.7789, -5.3302
4.74378, 5, 6.16579, 16.2714, 33.2303, 8.06618, -49.9524, -5.23203
4.75384, 5, 6.03025, 16.3183, 33.2944, 7.85822, -50.2125, -5.08563
4.75986, 5, 5.98503, 16.3342, 33.3156, 7.78918, -50.2993, -5.03751
4.76779, 5, 5.89459, 16.3662, 33.3575, 7.65156, -50.473, -4.94122
4.77585, 5, 5.80411, 16.3986, 33.399, 7.51459, -50.6466, -4.84601
4.78378, 5, 5.71361, 16.4313, 33.4402, 7.3784, -50.8206, -4.75109
4.79178, 5, 5.62309, 16.4646, 33.4807, 7.24304, -50.9945, -4.65742
4.79978, 5, 5.53236, 16.4982, 33.5208, 7.10833, -51.1688, -4.56395
4.80779, 5, 5.44142, 16.5321, 33.5606, 6.97419, -51.343, -4.47153
4.81586, 5, 5.35044, 16.5663, 33.5998, 6.84057, -51.5174, -4.37915
4.82379, 5, 5.25934, 16.6012, 33.6386, 6.70758, -51.6919, -4.28794
4.83178, 5, 5.16809, 16.6364, 33.6769, 6.57511, -51.8666, -4.19677
4.83983, 5, 5.07666, 16.6718, 33.7147, 6.44341, -52.0414, -4.10688
4.84778, 5, 4.98516, 16.7078, 33.7521, 6.31241, -52.2163, -4.01707
4.85581, 5, 4.89378, 16.7441, 33.789, 6.18191, -52.3913, -3.92856
4.86385, 5, 4.80247, 16.7808, 33.8253, 6.05217, -52.5663, -3.84019
4.87183, 5, 4.71129, 16.8178, 33.8614, 5.92259, -52.7417, -3.75319
4.87977, 5, 4.62011, 16.8553, 33.8969, 5.79389, -52.9171, -3.66617
4.88778, 5, 4.52908, 16.8932, 33.932, 5.66574, -53.0926, -3.58051
4.89577, 5, 4.43813, 16.9314, 33.9667, 5.53833, -53.2681, -3.49513
4.90385, 5, 4.34726, 16.9701, 34.0009, 5.41159, -53.4438, -3.41019
4.91177, 5, 4.25646, 17.0092, 34.0346, 5.2854, -53.6194, -3.32608
4.91978, 5, 4.16553, 17.0485, 34.068, 5.15975, -53.7951, -3.24209
4.92784, 5, 4.07443, 17.0883, 34.101, 5.03453, -53.9711, -3.15916
4.93578, 5, 3.98324, 17.1285, 34.1333, 4.90994, -54.1468, -3.07626
4.9439, 5, 3.89187, 17.1689, 34.1652, 4.7859, -54.3227, -2.9946
4.95179, 5, 3.80038, 17.2097, 34.1967, 4.6626, -54.4985, -2.91272
4.95984, 5, 3.70873, 17.2509, 34.2277, 4.53984, -54.6744, -2.8323
4.96792, 5, 3.61679, 17.2924, 34.2582, 4.41766, -54.8502, -2.75196
4.97587, 5, 3.52469, 17.3343, 34.2884, 4.29591, -55.0262, -2.67229
4.98394, 5, 3.43256, 17.3766, 34.3181, 4.1745, -55.2023, -2.5934
4.99194, 5, 3.3405, 17.4193, 34.3472, 4.05373, -55.3784, -2.5146
4.9999, 5, 3.24843, 17.4624, 34.3757, 3.93341, -55.5546, -2.4373
5.00784, 5, 3.15634, 17.5058, 34.4041, 3.81396, -55.7309, -2.35963
5.01591, 5, 3.06434, 17.5497, 34.4319, 3.69484, -55.9073, -2.28306
5.02389, 5, 2.97238, 17.594, 34.4592, 3.57631, -56.0839, -2.20652
5.03182, 5, 2.88054, 17.6386, 34.486, 3.45817, -56.2605, -2.13051
5.04, 5, 2.78873, 17.6836, 34.5123, 3.34037, -56.4373, -2.05542
5.04794, 5, 2.69686, 17.729, 34.5383, 3.22315, -56.614, -1.97999
5.05513, 5, 2.65093, 17.7518, 34.5511, 3.1647, -56.7024, -1.94289
5.0642, 5, 2.51327, 17.8207, 34.5887, 2.99013, -56.9675, -1.83195
5.07079, 5, 2.46734, 17.8438, 34.6011, 2.93232, -57.0559, -1.79494
5.0809, 5, 2.32958, 17.9137, 34.6374, 2.75932, -57.3208, -1.68605
5.08903, 5, 2.23743, 17.9607, 34.661, 2.64476, -57.4975, -1.61341
5.09633, 5, 2.14519, 18.0079, 34.684, 2.53041, -57.6738, -1.54194
5.10433, 5, 2.05292, 18.0556, 34.7066, 2.41648, -57.8503, -1.47066
5.11085, 5, 2.00677, 18.0796, 34.7177, 2.35978, -57.9385, -1.43497
5.12115, 5, 1.86845, 18.1521, 34.7505, 2.19023, -58.2034, -1.32999
5.12677, 5, 1.82229, 18.1765, 34.7613, 2.13412, -58.2917, -1.29503
5.1363, 5, 1.72993, 18.2255, 34.7822, 2.02221, -58.4684, -1.22513
5.14527, 5, 1.63753, 18.2749, 34.8028, 1.91067, -58.645, -1.12197
5.15079, 5, 1.54521, 18.3247, 34.8229, 1.79979, -58.8217, -1.08731
5.15976, 5, 1.45315, 18.3749, 34.8423, 1.68912, -58.9984, -1.01904
5.16781, 5, 1.36135, 18.4253, 34.8615, 1.57859, -59.1752, -0.951809
5.17477, 5, 1.26961, 18.4761, 34.8803, 1.46869, -59.3521, -0.88438
5.18387, 5, 1.17791, 18.5271, 34.8983, 1.35913, -59.5286, -0.818748
5.1918, 5, 1.08616, 18.5782, 34.916, 1.24998, -59.7047, -0.754485
5.19878, 5, 0.99426, 18.6295, 34.9333, 1.14115, -59.8803, -0.691191
5.20781, 5, 0.902321, 18.6809, 34.9498, 1.03232, -60.0551, -0.63057
5.21577, 5, 0.810225, 18.7324, 34.9658, 0.923774, -60.2289, -0.571973
5.22386, 5, 0.717876, 18.7839, 34.9816, 0.815049, -60.402, -0.515056
5.23177, 5, 0.625491, 18.8356, 34.9965, 0.70635, -60.5739, -0.461319
5.23976, 5, 0.532901, 18.8874, 35.0108, 0.597866, -60.7449, -0.410197
5.24684, 5, 0.440197, 18.9392, 35.0247, 0.489293, -60.9148, -0.360814
5.25577, 5, 0.347328, 18.9911, 35.0382, 0.381094, -61.0839, -0.313533
5.26402, 6, 0.254481, 19.043, 35.0509, 0.272746, -61.2517, -0.269386
5.27183, 6, 0.161664, 19.095, 35.0631, 0.164538, -61.4187, -0.227823
5.28083, 6, 0.0689579, 19.1471, 35.075, 0.0562595, -61.5848, -0.188401
5.28776, 6, -0.0237198, 19.1993, 35.0864, -0.0521612, -61.7497, -0.15083
5.29583, 6, -0.116444, 19.2515, 35.0974, -0.160851, -61.914, -0.115681
5.30381, 6, -0.209175, 19.3037, 35.1078, -0.2693, -62.077, -0.0831977
5.31177, 6, -0.301844, 19.3558, 35.1175, -0.378046, -62.2393, -0.0532651
5.31984, 6, -0.394532, 19.4079, 35.1268, -0.486725, -62.4006, -0.0258103
5.32776, 6, -0.487234, 19.4599, 35.1357, -0.595393, -62.561, -0.000219775
5.33578, 6, -0.580074, 19.5117, 35.144, -0.704257, -62.7204, 0.0234374
5.34388, 6, -0.673092, 19.5637, 35.1517, -0.813031, -62.8787, 0.0449232
5.35176, 6, -0.76611, 19.6157, 35.1591, -0.922271, -63.0362, 0.0638464
5.3598, 6, -0.859246, 19.6677, 35.1659, -1.03165, -63.1927, 0.080293
5.36782, 6, -0.952419, 19.7198, 35.1721, -1.14099, -63.3483, 0.0943417
5.37582, 6, -1.04583, 19.772, 35.1778, -1.25044, -63.5032, 0.106379
5.38382, 6, -1.13923, 19.8244, 35.1833, -1.35978, -63.6574, 0.116576
5.39185, 6, -1.23261, 19.877, 35.1884, -1.46911, -63.811, 0.125303
5.39976, 6, -1.32588, 19.9298, 35.1931, -1.57832, -63.9642, 0.133099
5.40776, 6, -1.41912, 19.9829, 35.1973, -1.68746, -64.117, 0.140002
5.41583, 6, -1.51237, 20.036, 35.2011, -1.79657, -64.2698, 0.1463
5.42381, 6, -1.60552, 20.0895, 35.2044, -1.90563, -64.4223, 0.152288
5.4318, 6, -1.69856, 20.1431, 35.2073, -2.01447, -64.5749, 0.157865
5.43978, 6, -1.79148, 20.1968, 35.2097, -2.12297, -64.7272, 0.163272
5.44776, 6, -1.88434, 20.2508, 35.2118, -2.23125, -64.8796, 0.168352
5.45601, 6, -1.97732, 20.3051, 35.2134, -2.33935, -65.0317, 0.173157
5.46387, 6, -2.07045, 20.3597, 35.2146, -2.44727, -65.1841, 0.177747
5.47185, 6, -2.16362, 20.4144, 35.2153, -2.55496, -65.3362, 0.182172
5.48014, 6, -2.25686, 20.4695, 35.2157, -2.66265, -65.4883, 0.186435
5.48731, 6, -2.35027, 20.525, 35.2158, -2.77017, -65.6403, 0.190376
5.49593, 6, -2.44389, 20.5807, 35.2157, -2.87766, -65.7923, 0.194119
5.50433, 6, -2.53768, 20.6367, 35.2153, -2.98475, -65.9441, 0.197591
5.51196, 6, -2.63157, 20.6932, 35.2145, -3.09145, -66.0959, 0.200828
5.52002, 6, -2.72552, 20.7499, 35.2133, -3.19808, -66.2478, 0.203804
5.52858, 6, -2.81942, 20.8069, 35.2116, -3.30449, -66.3995, 0.206564
5.5358, 6, -2.91332, 20.8641, 35.2094, -3.41068, -66.5513, 0.20905
5.54419, 6, -3.00716, 20.9215, 35.2067, -3.517, -66.703, 0.211255
5.55079, 6, -3.05408, 20.9503, 35.2052, -3.57015, -66.7789, 0.212292
5.5588, 6, -3.14779, 21.008, 35.2018, -3.67608, -66.9305, 0.214145
5.56838, 6, -3.28833, 21.095, 35.196, -3.83494, -67.1578, 0.216292
5.57696, 6, -3.38201, 21.1533, 35.1914, -3.94036, -67.3091, 0.217379
5.58424, 6, -3.47568, 21.2118, 35.1863, -4.04571, -67.4604, 0.218311
5.5908, 6, -3.52246, 21.2412, 35.1836, -4.09834, -67.5359, 0.218691
5.60107, 6, -3.66268, 21.3298, 35.1745, -4.25574, -67.7626, 0.219428
5.60829, 6, -3.7562, 21.3892, 35.1681, -4.36071, -67.9136, 0.219722
5.61656, 6, -3.84985, 21.449, 35.1612, -4.46552, -68.0644, 0.219871
5.62518, 6, -3.94371, 21.5091, 35.1539, -4.57002, -68.2149, 0.219918
5.63083, 6, -3.99066, 21.5392, 35.1501, -4.62221, -68.2903, 0.219922
5.63975, 6, -4.0845, 21.5998, 35.1422, -4.72645, -68.4405, 0.219904
5.64775, 6, -4.17831, 21.6604, 35.1338, -4.83027, -68.591, 0.21986
5.65475, 6, -4.27221, 21.7213, 35.1249, -4.93407, -68.7414, 0.219788
5.66382, 6, -4.36615, 21.7824, 35.1155, -5.03771, -68.8918, 0.219737
5.67175, 6, -4.46009, 21.8438, 35.1059, -5.14105, -69.0419, 0.219581
5.67875, 6, -4.55387, 21.9052, 35.0957, -5.24435, -69.192, 0.219172
5.68775, 6, -4.64745, 21.967, 35.0851, -5.34776, -69.3419, 0.218457
5.69577, 6, -4.7407, 22.029, 35.0739, -5.4508, -69.492, 0.2173
5.70277, 6, -4.83389, 22.0913, 35.0621, -5.55366, -69.6419, 0.215665
5.7118, 6, -4.92702, 22.1539, 35.0501, -5.65631, -69.7918, 0.213575
5.71974, 6, -5.02007, 22.2169, 35.0375, -5.75878, -69.9415, 0.210999
5.72676, 6, -5.11319, 22.2802, 35.0245, -5.86111, -70.0912, 0.207858
5.73575, 6, -5.20631, 22.3437, 35.0111, -5.9632, -70.2407, 0.204317
5.7438, 6, -5.2996, 22.4074, 34.9974, -6.06536, -70.3901, 0.200524
5.75075, 6, -5.3931, 22.4713, 34.9833, -6.16742, -70.5394, 0.196292
5.75974, 6, -5.48674, 22.5354, 34.9687, -6.26923, -70.6883, 0.191741
5.76875, 6, -5.58047, 22.5998, 34.9534, -6.37105, -70.8372, 0.186975
5.7748, 6, -5.67424, 22.6643, 34.9378, -6.47256, -70.986, 0.181896
5.78381, 6, -5.76813, 22.729, 34.9217, -6.57376, -71.1346, 0.176607
5.79276, 6, -5.86198, 22.7939, 34.9051, -6.67488, -71.283, 0.171098
5.79875, 6, -5.95584, 22.8591, 34.8882, -6.77588, -71.4313, 0.165411
5.80776, 6, -6.04965, 22.9247, 34.871, -6.87672, -71.5794, 0.159396
5.81578, 6, -6.14336, 22.9905, 34.8532, -6.97757, -71.7274, 0.153366
5.82381, 6, -6.23712, 23.0565, 34.8348, -7.07851, -71.8754, 0.147216
5.83175, 6, -6.3308, 23.1228, 34.8162, -7.17901, -72.0232, 0.140874
5.83981, 6, -6.42426, 23.1893, 34.7971, -7.27954, -72.1709, 0.134339
5.84775, 6, -6.51766, 23.256, 34.7775, -7.37975, -72.3182, 0.127615
5.85575, 6, -6.61084, 23.323, 34.7577, -7.47978, -72.4656, 0.120769
5.86391, 6, -6.70412, 23.3902, 34.7372, -7.5798, -72.6128, 0.113822
5.87174, 6, -6.79743, 23.4575, 34.7162, -7.67954, -72.76, 0.106455
5.8798, 6, -6.89069, 23.5251, 34.6949, -7.77936, -72.9071, 0.0989309
5.88783, 6, -6.98389, 23.5929, 34.6731, -7.87916, -73.054, 0.091079
5.8958, 6, -7.07709, 23.6609, 34.6509, -7.97864, -73.2008, 0.0829696
5.90381, 6, -7.17042, 23.7292, 34.6283, -8.07798, -73.3471, 0.0746464
5.91182, 6, -7.26376, 23.7978, 34.6051, -8.17718, -73.4935, 0.0659805
5.91974, 6, -7.35709, 23.8665, 34.5817, -8.276, -73.6397, 0.057101
5.92781, 6, -7.45028, 23.9354, 34.5578, -8.3748, -73.7857, 0.0480645
5.93575, 6, -7.54336, 24.0047, 34.5334, -8.47351, -73.9316, 0.0386423
5.9438, 6, -7.63645, 24.0741, 34.5084, -8.57181, -74.0774, 0.0290448
5.95196, 6, -7.72946, 24.1438, 34.4831, -8.67029, -74.223, 0.0192244
5.95993, 6, -7.82224, 24.2137, 34.4575, -8.76882, -74.3685, 0.00917706
5.96781, 6, -7.91486, 24.2837, 34.4314, -8.867, -74.5138, -0.000817326
5.97661, 6, -8.00732, 24.354, 34.4048, -8.96523, -74.6589, -0.0108859
5.98414, 6, -8.09992, 24.4246, 34.3777, -9.06318, -74.8038, -0.0209592
5.99133, 6, -8.19253, 24.4954, 34.3502, -9.16073, -74.9487, -0.0311193
6.00062, 6, -8.28506, 24.5663, 34.3224, -9.25846, -75.0933, -0.0413225
6.00826, 6, -8.37763, 24.6374, 34.294, -9.356, -75.2378, -0.0516083
6.01546, 6, -8.42393, 24.673, 34.2797, -9.45331, -75.382, -0.0620491
6.02466, 6, -8.56291, 24.7802, 34.236, -9.55072, -75.526, -0.0725649
6.03259, 6, -8.65574, 24.852, 34.2064, -9.64807, -75.6698, -0.0832686
6.03978, 6, -8.74866, 24.9239, 34.1762, -9.74518, -75.8134, -0.0941952
6.04801, 6, -8.84152, 24.9961, 34.1456, -9.84235, -75.9568, -0.105429
6.05677, 6, -8.93431, 25.0685, 34.1147, -9.93922, -76.0999, -0.116943
6.06402, 6, -9.02709, 25.1412, 34.0834, -10.0358, -76.2429, -0.128663
6.07075, 6, -9.07346, 25.1776, 34.0674, -10.0841, -76.3143, -0.13462
6.08083, 6, -9.21247, 25.2872, 34.0191, -10.2287, -76.5283, -0.153171
6.08823, 6, -9.30501, 25.3605, 33.9865, -10.325, -76.6709, -0.165547
6.09477, 6, -9.35125, 25.3972, 33.97, -10.3732, -76.7422, -0.171835
6.10506, 6, -9.48982, 25.5075, 33.9197, -10.5178, -76.9556, -0.191
6.11079, 6, -9.53601, 25.5444, 33.9027, -10.5657, -77.0267, -0.197401
6.12028, 6, -9.67427, 25.6552, 33.851, -10.71, -77.2397, -0.216349
6.12681, 6, -9.72031, 25.6922, 33.8336, -10.758, -77.3107, -0.222657
6.13474, 6, -9.81239, 25.7664, 33.7984, -10.8537, -77.4523, -0.23537
6.14569, 6, -9.9505, 25.8781, 33.7448, -10.997, -77.6644, -0.254328
6.15172, 6, -9.99659, 25.9155, 33.7267, -11.0447, -77.7349, -0.26069
6.15874, 6, -10.0887, 25.9903, 33.6902, -11.1399, -77.876, -0.273651
6.16774, 6, -10.1808, 26.0653, 33.6533, -11.2353, -78.0166, -0.286832
6.1748, 6, -10.2728, 26.1404, 33.616, -11.3306, -78.1573, -0.300146
6.18378, 6, -10.3647, 26.2158, 33.5782, -11.4258, -78.2975, -0.313764
6.19173, 6, -10.4567, 26.2914, 33.54, -11.5208, -78.4377, -0.327758
6.19981, 6, -10.5485, 26.3672, 33.5012, -11.6156, -78.5774, -0.342184
6.20675, 6, -10.6402, 26.4433, 33.4621, -11.7101, -78.7169, -0.356763
6.21578, 6, -10.7316, 26.5194, 33.4226, -11.8046, -78.8561, -0.371446
6.22377, 6, -10.8227, 26.5957, 33.3825, -11.8989, -78.9951, -0.386063
6.23074, 6, -10.9137, 26.6723, 33.3421, -11.993, -79.1341, -0.400678
6.23973, 6, -11.0045, 26.7491, 33.3012, -12.0872, -79.2726, -0.415326
6.24676, 6, -11.0952, 26.8259, 33.2598, -12.1813, -79.4112, -0.429897
6.25574, 6, -11.186, 26.9028, 33.2181, -12.2754, -79.5494, -0.444485
6.26373, 6, -11.2768, 26.9801, 33.1758, -12.3692, -79.6876, -0.459214
6.2718, 6, -11.3676, 27.0576, 33.1331, -12.4629, -79.8254, -0.474366
6.28078, 6, -11.4586, 27.1352, 33.09, -12.5564, -79.9634, -0.489711
6.28774, 6, -11.5497, 27.213, 33.0464, -12.6496, -80.1011, -0.505266
6.2958, 6, -11.6407, 27.2908, 33.0024, -12.743, -80.2387, -0.521075
6.30373, 6, -11.7318, 27.369, 32.958, -12.8361, -80.3758, -0.537134
6.31173, 6, -11.8229, 27.4472, 32.9131, -12.9292, -80.5129, -0.553174
6.31973, 6, -11.9141, 27.5255, 32.8679, -13.0222, -80.6498, -0.569243
6.32776, 6, -12.0053, 27.6041, 32.8221, -13.1153, -80.7864, -0.585002
6.3358, 6, -12.0962, 27.6827, 32.776, -13.2082, -80.9227, -0.600839
6.34377, 6, -12.187, 27.7616, 32.7294, -13.301, -81.0589, -0.616836
6.35173, 6, -12.2777, 27.8406, 32.6822, -13.3936, -81.1945, -0.632768
6.35979, 6, -12.3683, 27.9199, 32.6347, -13.4859, -81.3301, -0.648819
6.36777, 6, -12.4588, 27.9992, 32.5867, -13.5781, -81.4654, -0.665344
6.37579, 6, -12.5491, 28.0787, 32.5383, -13.6703, -81.6004, -0.682016
6.38377, 6, -12.6392, 28.1585, 32.4894, -13.7623, -81.7352, -0.699183
6.39175, 6, -12.7291, 28.2385, 32.4401, -13.8544, -81.8696, -0.716413
6.3998, 6, -12.819, 28.3185, 32.3904, -13.9465, -82.0041, -0.73388
6.40776, 6, -12.9088, 28.3986, 32.3403, -14.0383, -82.1378, -0.751129
6.41573, 6, -12.9987, 28.4789, 32.2897, -14.1301, -82.2715, -0.768328
6.42379, 6, -13.0885, 28.5595, 32.2387, -14.2219, -82.4048, -0.785377
6.43173, 6, -13.1782, 28.6402, 32.1873, -14.3132, -82.5382, -0.802407
6.43973, 6, -13.2681, 28.721, 32.1354, -14.4046, -82.6712, -0.819477
6.44781, 6, -13.358, 28.802, 32.0832, -14.4958, -82.804, -0.836704
6.45573, 6, -13.4477, 28.8833, 32.0303, -14.5867, -82.9367, -0.854308
6.46376, 6, -13.5373, 28.9646, 31.9771, -14.6779, -83.0688, -0.872103
6.47181, 6, -13.6267, 29.046, 31.9234, -14.7689, -83.201, -0.890231
6.47988, 6, -13.716, 29.1275, 31.8693, -14.8599, -83.3326, -0.908617
6.48784, 6, -13.8051, 29.2093, 31.8147, -14.9506, -83.4644, -0.927009
6.49584, 6, -13.8941, 29.2911, 31.7597, -15.0412, -83.5957, -0.945269
6.5039, 6, -13.9827, 29.3732, 31.7042, -15.1316, -83.7271, -0.96337
6.51179, 6, -14.0711, 29.4554, 31.6484, -15.2218, -83.8578, -0.981309
6.51973, 6, -14.1594, 29.5378, 31.5921, -15.3119, -83.9886, -0.999236
6.52784, 6, -14.2477, 29.6203, 31.5355, -15.402, -84.119, -1.01725
6.53614, 6, -14.336, 29.703, 31.4783, -15.4917, -84.2491, -1.0356
6.54278, 6, -14.3801, 29.7444, 31.4496, -15.5368, -84.3141, -1.04491
6.55197, 6, -14.5123, 29.8687, 31.3627, -15.6715, -84.5086, -1.0733
6.56003, 6, -14.6005, 29.9518, 31.3042, -15.7612, -84.638, -1.09244
6.56683, 6, -14.6447, 29.9934, 31.2748, -15.806, -84.7025, -1.10206
6.57613, 6, -14.7773, 30.1185, 31.1857, -15.9402, -84.8961, -1.13073
6.58273, 6, -14.8216, 30.1602, 31.1558, -15.9849, -84.9603, -1.14009
6.59214, 6, -14.9542, 30.2856, 31.0656, -16.1184, -85.1528, -1.16805
6.59876, 6, -14.9984, 30.3275, 31.0353, -16.163, -85.2168, -1.1774
6.60829, 6, -15.1307, 30.4533, 30.9438, -16.2963, -85.4085, -1.20557
6.61626, 6, -15.219, 30.5372, 30.8823, -16.3852, -85.536, -1.2246
6.62433, 6, -15.307, 30.6213, 30.8204, -16.474, -85.6629, -1.24393
6.63259, 6, -15.3509, 30.6634, 30.758, -16.5629, -85.79, -1.26353
6.64028, 6, -15.4387, 30.7477, 30.7265, -16.6071, -85.8533, -1.28327
6.64833, 6, -15.5263, 30.8322, 30.6634, -16.6959, -85.9798, -1.29304
6.65571, 6, -15.6137, 30.9167, 30.5998, -16.7843, -86.1062, -1.31249
6.66373, 6, -15.701, 31.0014, 30.5358, -16.8725, -86.232, -1.33177
6.67177, 6, -15.7881, 31.0863, 30.4713, -16.9606, -86.3579, -1.35099
6.67971, 6, -15.8752, 31.1712, 30.4064, -17.0485, -86.483, -1.37004
6.68772, 6, -15.962, 31.2563, 30.3411, -17.1364, -86.6082, -1.38927
6.69576, 6, -16.0488, 31.3414, 30.2754, -17.2241, -86.733, -1.40874
6.70375, 6, -16.1356, 31.4268, 30.2093, -17.312, -86.8575, -1.42837
6.71172, 6, -16.2224, 31.5123, 30.1428, -17.3998, -86.982, -1.4483
6.71987, 6, -16.3091, 31.5978, 30.0758, -17.4872, -87.106, -1.46849
6.72773, 6, -16.3957, 31.6836, 30.0083, -17.5747, -87.23, -1.48842
6.73574, 6, -16.4822, 31.7695, 29.9403, -17.6621, -87.3534, -1.50837
6.74371, 6, -16.5687, 31.8555, 29.8719, -17.7492, -87.4769, -1.52807
6.75175, 6, -16.655, 31.9417, 29.803, -17.8362, -87.6, -1.54771
6.75974, 6, -16.7411, 32.0278, 29.7337, -17.9231, -87.723, -1.56737
6.76773, 6, -16.8269, 32.1141, 29.6641, -18.0098, -87.8458, -1.58713
6.77672, 6, -16.9124, 32.2005, 29.594, -18.0964, -87.968, -1.60738
6.78378, 6, -16.9979, 32.287, 29.5235, -18.1832, -88.0902, -1.62789
6.79275, 6, -17.0831, 32.3736, 29.4526, -18.2698, -88.2117, -1.64843
6.79975, 6, -17.1681, 32.4603, 29.3811, -18.3561, -88.3333, -1.66881
6.80775, 6, -17.253, 32.5472, 29.3092, -18.4425, -88.4545, -1.68886
6.81571, 6, -17.3379, 32.6343, 29.2369, -18.5285, -88.5753, -1.70856
6.82374, 6, -17.4227, 32.7214, 29.164, -18.6143, -88.696, -1.7284
6.83176, 6, -17.5077, 32.8086, 29.0909, -18.7001, -88.816, -1.74828
6.83974, 6, -17.5927, 32.8959, 29.0173, -18.7855, -88.9362, -1.76825
6.84774, 6, -17.6778, 32.9834, 28.9433, -18.8709, -89.0557, -1.78855
6.85573, 6, -17.7628, 33.0711, 28.8689, -18.9561, -89.1748, -1.80929
6.86376, 6, -17.8478, 33.1588, 28.7941, -19.0414, -89.2938, -1.83021
6.87175, 6, -17.9327, 33.2466, 28.7188, -19.1267, -89.4122, -1.8509
6.87973, 6, -18.0175, 33.3345, 28.643, -19.2117, -89.5306, -1.87154
6.88782, 6, -18.1016, 33.4222, 28.5667, -19.2967, -89.6486, -1.89187
6.89571, 6, -18.1836, 33.5086, 28.4905, -19.3814, -89.7662, -1.91199
6.90373, 6, -18.2621, 33.5927, 28.4151, -19.4656, -89.8831, -1.93192
6.91177, 6, -18.3356, 33.6729, 28.3416, -19.548, -89.9978, -1.95178
6.91971, 6, -18.4039, 33.748, 28.2714, -19.6275, -90.1087, -1.97088
6.92775, 6, -18.4666, 33.8172, 28.2057, -19.702, -90.2122, -1.98907
6.93576, 6, -18.5229, 33.8795, 28.1462, -19.7687, -90.3054, -2.00576
6.94371, 6, -18.5728, 33.9344, 28.0944, -19.8257, -90.3855, -2.02016
6.95173, 6, -18.6168, 33.9821, 28.051, -19.8724, -90.4503, -2.03194
6.95976, 6, -18.6558, 34.0231, 28.0165, -19.9071, -90.4997, -2.04065
6.96776, 6, -18.6892, 34.0567, 27.9905, -19.9314, -90.5342, -2.04675
6.97581, 6, -18.7164, 34.0826, 27.9721, -19.9472, -90.5567, -2.05069
6.98384, 6, -18.7376, 34.1014, 27.9599, -19.9567, -90.5702, -2.05309
6.99181, 6, -18.753, 34.1146, 27.9523, -19.9621, -90.5777, -2.05438
6.99987, 6, -18.7629, 34.1228, 27.9479, -19.9649, -90.5816, -2.05506
7.00784, 7, -18.7684, 34.1269, 27.9454, -19.9663, -90.5835, -2.05541
7.01577, 7, -18.771, 34.1287, 27.9439, -19.9671, -90.5844, -2.05566
7.02374, 7, -18.7722, 34.1294, 27.943, -19.9675, -90.5849, -2.05573
7.0318, 7, -18.7726, 34.1294, 27.9425, -19.9677, -90.5852, -2.05581
7.03978, 7, -18.7725, 34.1293, 27.9422, -19.9678, -90.5854, -2.0558
7.04782, 7, -18.7722, 34.1293, 27.942, -19.9679, -90.5855, -2.05586
7.05591, 7, -18.7719, 34.1294, 27.9419, -19.968, -90.5855, -2.05586
7.0639, 7, -18.7717, 34.1297, 27.9419, -19.968, -90.5856, -2.05583
7.07074, 7, -18.7716, 34.13, 27.9418, -19.968, -90.5856, -2.0558
7.08004, 7, -18.7714, 34.1313, 27.9418, -19.9681, -90.5855, -2.05579
7.08678, 7, -18.7714, 34.1318, 27.9418, -19.9681, -90.5855, -2.05577
7.0965, 7, -18.7715, 34.1333, 27.9418, -19.9681, -90.5856, -2.05581
7.10429, 7, -18.7717, 34.134, 27.9418, -19.9681, -90.5856, -2.05577
7.11221, 7, -18.7719, 34.1344, 27.9418, -19.9681, -90.5856, -2.05582
7.12026, 7, -18.7721, 34.1346, 27.9418, -19.9681, -90.5856, -2.0559
7.12883, 7, -18.7723, 34.1346, 27.9417, -19.9681, -90.5856, -2.05587
