hehonglu123/ABB_Primitive_Study/realrobot/movel_30_ori/curve_exe_v1000_z1.csv
timestamp, cmd_num, J1, J2, J3, J4, J5, J6
0.000375, -1, -18.7712, 34.1316, 27.943, -19.9675, -90.5847, -2.05532
0.006493, -1, -18.7712, 34.1316, 27.943, -19.9675, -90.5847, -2.0553
0.009204, -1, -18.7712, 34.1316, 27.943, -19.9675, -90.5847, -2.05529
0.033055, -1, -18.7712, 34.1316, 27.943, -19.9674, -90.5847, -2.05541
0.036741, -1, -18.7712, 34.1316, 27.943, -19.9674, -90.5847, -2.05536
0.037937, -1, -18.7712, 34.1316, 27.943, -19.9674, -90.5847, -2.05536
0.040027, -1, -18.7711, 34.1316, 27.943, -19.9674, -90.5847, -2.05533
0.048481, -1, -18.7711, 34.1316, 27.943, -19.9674, -90.5847, -2.0553
0.055773, -1, -18.7706, 34.1315, 27.943, -19.9674, -90.5847, -2.05524
0.064015, -1, -18.7683, 34.1311, 27.943, -19.9673, -90.5847, -2.05523
0.072787, -1, -18.763, 34.1293, 27.9431, -19.9671, -90.5841, -2.05527
0.07996, -1, -18.754, 34.1255, 27.9432, -19.9647, -90.5816, -2.05548
0.087999, -1, -18.7404, 34.119, 27.9432, -19.9576, -90.5747, -2.05652
0.096025, -1, -18.7194, 34.1086, 27.9432, -19.9427, -90.5596, -2.06141
0.10408, -1, -18.6891, 34.0934, 27.9428, -19.9161, -90.5322, -2.07283
0.112063, -1, -18.6702, 34.073, 27.9412, -19.8724, -90.4865, -2.09267
0.119986, -1, -18.6234, 34.0605, 27.9398, -19.8423, -90.4552, -2.10641
0.127456, -1, -18.5637, 34.0305, 27.9353, -19.7639, -90.3733, -2.14298
0.135495, -1, -18.4902, 33.9935, 27.928, -19.6571, -90.261, -2.19406
0.143527, -1, -18.4026, 33.9496, 27.9174, -19.5193, -90.116, -2.25972
0.151464, -1, -18.3012, 33.8989, 27.9032, -19.3497, -89.9368, -2.34034
0.159514, -1, -18.1862, 33.8414, 27.8859, -19.1495, -89.7252, -2.43628
0.167453, -1, -18.0575, 33.777, 27.8658, -18.9221, -89.4844, -2.54434
0.175444, -1, -17.9161, 33.7064, 27.8435, -18.6723, -89.2192, -2.66381
0.18356, -1, -17.7635, 33.6301, 27.8198, -18.4053, -88.9352, -2.79143
0.191452, -1, -17.6008, 33.5487, 27.7952, -18.1258, -88.6382, -2.92524
0.199489, -1, -17.4293, 33.4629, 27.7703, -17.8385, -88.3327, -3.06294
0.208937, -1, -17.1599, 33.3283, 27.7325, -17.3991, -87.8654, -3.27406
0.217053, -1, -16.9752, 33.2362, 27.7074, -17.1031, -87.5506, -3.41628
0.223495, -1, -16.8819, 33.1898, 27.6948, -16.9545, -87.3926, -3.48764
0.233019, -1, -16.6937, 33.0496, 27.6572, -16.5072, -86.9167, -3.70217
0.239512, -1, -16.5042, 33.0028, 27.6447, -16.3577, -86.7575, -3.7737
0.247446, -1, -16.3141, 32.909, 27.6195, -16.0584, -86.4387, -3.91712
0.257487, -1, -16.0292, 32.7684, 27.5819, -15.6074, -85.959, -4.13282
0.263509, -1, -15.9343, 32.7215, 27.5693, -15.4568, -85.7989, -4.20488
0.272439, -1, -15.7452, 32.6278, 27.5443, -15.1556, -85.4782, -4.34927
0.279513, -1, -15.5565, 32.5341, 27.5191, -14.8538, -85.157, -4.49389
0.287448, -1, -15.3681, 32.4402, 27.4938, -14.5515, -84.8356, -4.6386
0.295506, -1, -15.1802, 32.3459, 27.4686, -14.2491, -84.5136, -4.78356
0.303501, -1, -14.9925, 32.2514, 27.4433, -13.946, -84.1914, -4.92867
0.311455, -1, -14.8046, 32.1565, 27.4179, -13.6428, -83.869, -5.07369
0.319511, -1, -14.6158, 32.0612, 27.3923, -13.3395, -83.5461, -5.21912
0.327517, -1, -14.426, 31.9658, 27.3668, -13.0359, -83.2231, -5.36457
0.335531, -1, -14.2352, 31.8703, 27.3412, -12.7323, -82.8996, -5.51028
0.343501, -1, -14.0434, 31.7746, 27.3157, -12.4284, -82.5761, -5.65615
0.351437, -1, -13.8513, 31.679, 27.29, -12.1242, -82.2523, -5.80164
0.359523, -1, -13.6585, 31.5835, 27.2644, -11.8198, -81.9281, -5.94734
0.367478, -1, -13.465, 31.488, 27.2388, -11.5156, -81.6042, -6.09301
0.375455, -1, -13.2712, 31.3925, 27.2132, -11.2111, -81.2803, -6.23861
0.383586, -1, -13.0777, 31.2973, 27.1876, -10.9068, -80.9562, -6.38447
0.391439, -1, -12.885, 31.2021, 27.1621, -10.6025, -80.6325, -6.53016
0.399511, -1, -12.6929, 31.107, 27.1367, -10.298, -80.309, -6.67601
0.407574, -1, -12.5013, 31.0119, 27.1112, -9.99376, -79.9855, -6.82202
0.415455, -1, -12.3108, 30.9167, 27.0856, -9.68972, -79.6622, -6.96748
0.423571, -1, -12.121, 30.8215, 27.0599, -9.38569, -79.3386, -7.11315
0.431448, -1, -11.932, 30.7262, 27.0344, -9.08203, -79.0152, -7.25859
0.439455, -1, -11.7433, 30.6308, 27.009, -8.77845, -78.692, -7.40389
0.447552, -1, -11.5544, 30.5354, 26.9835, -8.47499, -78.3688, -7.54912
0.455541, -1, -11.3651, 30.4402, 26.9579, -8.17225, -78.0467, -7.69433
0.463587, -1, -11.1755, 30.3453, 26.9324, -7.86998, -77.725, -7.83931
0.471606, -1, -10.9857, 30.2504, 26.907, -7.56805, -77.4035, -7.98392
0.479528, -1, -10.7953, 30.1559, 26.8817, -7.26674, -77.0828, -8.12818
0.48755, -1, -10.6047, 30.0615, 26.8563, -6.9656, -76.7626, -8.2721
0.495652, -1, -10.414, 29.9674, 26.831, -6.66502, -76.4428, -8.41576
0.50369, -1, -10.2232, 29.8734, 26.8059, -6.36522, -76.1234, -8.55928
0.511479, -1, -10.0331, 29.7796, 26.7808, -6.06574, -75.8045, -8.70245
0.519545, -1, -9.8437, 29.6861, 26.7558, -5.76703, -75.4863, -8.84571
0.527589, -1, -9.65522, 29.5927, 26.7306, -5.46878, -75.169, -8.98849
0.535665, -1, -9.4675, 29.4994, 26.7056, -5.17093, -74.8522, -9.13086
0.543794, -1, -9.28085, 29.4064, 26.6807, -4.87404, -74.5364, -9.27279
0.551869, -1, -9.0952, 29.3133, 26.6557, -4.57797, -74.2213, -9.41442
0.560432, -1, -8.91038, 29.2205, 26.6308, -4.28246, -73.9069, -9.55567
0.567875, -1, -8.72631, 29.1277, 26.606, -3.98798, -73.5934, -9.69676
0.576506, -1, -8.54278, 29.0353, 26.5812, -3.69425, -73.2807, -9.83732
0.584126, -1, -8.3594, 28.9432, 26.5566, -3.40116, -72.9689, -9.97781
0.591999, -1, -8.17637, 28.8514, 26.532, -3.10924, -72.6583, -10.1177
0.600211, -1, -7.99333, 28.76, 26.5073, -2.81811, -72.3482, -10.2569
0.608081, -1, -7.8102, 28.669, 26.4829, -2.52783, -72.0392, -10.3957
0.61602, -1, -7.7187, 28.6236, 26.4708, -2.2387, -71.7311, -10.5341
0.624128, -1, -7.53597, 28.533, 26.4465, -2.09435, -71.4239, -10.6719
0.631498, -1, -7.35341, 28.4428, 26.4224, -1.80621, -71.2707, -10.7407
0.639434, -1, -7.17133, 28.3529, 26.3982, -1.51912, -70.9652, -10.8781
0.647433, -1, -6.98989, 28.2633, 26.3742, -1.23317, -70.6608, -11.0149
0.655479, -1, -6.80934, 28.1739, 26.3503, -0.948099, -70.3574, -11.1515
0.663504, -1, -6.62989, 28.0849, 26.3265, -0.664349, -70.0554, -11.2874
0.671437, -1, -6.4514, 27.9961, 26.3026, -0.381473, -69.7546, -11.4228
0.67943, -1, -6.27425, 27.9076, 26.2788, -0.0995035, -69.4549, -11.5575
0.687445, -1, -6.09817, 27.8194, 26.2552, 0.18139, -69.156, -11.692
0.697245, -1, -5.83589, 27.6876, 26.2199, 0.600518, -68.7098, -11.8927
0.703571, -1, -5.74892, 27.6438, 26.2083, 0.739703, -68.5616, -11.9594
0.711499, -1, -5.57538, 27.5566, 26.1848, 1.01734, -68.2658, -12.0924
0.719429, -1, -5.40228, 27.4698, 26.1615, 1.29369, -67.9713, -12.225
0.727428, -1, -5.22957, 27.3834, 26.1383, 1.569, -67.6782, -12.3569
0.736992, -1, -5.05706, 27.2973, 26.1038, 1.98013, -67.2409, -12.5536
0.743558, -1, -4.88488, 27.2117, 26.0924, 2.11638, -67.0958, -12.6187
0.751424, -1, -4.71299, 27.1265, 26.0694, 2.38822, -66.8065, -12.7487
0.759458, -1, -4.54177, 27.0416, 26.0467, 2.65893, -66.5186, -12.8781
0.767474, -1, -4.37091, 26.9571, 26.024, 2.92814, -66.2319, -13.007
0.776421, -1, -4.20043, 26.8729, 26.0014, 3.19632, -65.9464, -13.1352
0.783577, -1, -4.03072, 26.789, 25.979, 3.46374, -65.662, -13.2631
0.791431, -1, -3.8622, 26.7055, 25.9565, 3.72951, -65.3788, -13.3907
0.799454, -1, -3.69496, 26.6224, 25.9343, 3.99432, -65.0968, -13.5174
0.807481, -1, -3.5288, 26.5395, 25.9121, 4.25809, -64.8161, -13.6435
0.815431, -1, -3.36379, 26.4569, 25.89, 4.52037, -64.5367, -13.7689
0.823546, -1, -3.19973, 26.3747, 25.868, 4.78159, -64.2587, -13.8938
0.831461, -1, -3.03679, 26.2929, 25.846, 5.04184, -63.9818, -14.0181
0.839443, -1, -2.87489, 26.2115, 25.8242, 5.30105, -63.7062, -14.142
0.847491, -1, -2.71387, 26.1303, 25.8026, 5.55884, -63.4318, -14.2654
0.855437, -1, -2.55343, 26.0497, 25.7811, 5.81541, -63.1588, -14.3882
0.863497, -1, -2.39321, 25.9695, 25.7596, 6.07077, -62.8869, -14.5107
0.871525, -1, -2.23324, 25.8897, 25.7382, 6.32485, -62.6165, -14.6323
0.879437, -1, -2.07374, 25.8103, 25.7169, 6.57775, -62.3472, -14.7534
0.887435, -1, -1.91471, 25.7314, 25.6957, 6.82978, -62.0791, -14.8737
0.895493, -1, -1.75617, 25.6528, 25.6747, 7.08065, -61.8119, -14.9937
0.903494, -1, -1.59817, 25.5745, 25.6538, 7.33007, -61.546, -15.1129
0.911486, -1, -1.44036, 25.4966, 25.6329, 7.57844, -61.2813, -15.2317
0.919529, -1, -1.28304, 25.4189, 25.6121, 7.82588, -61.0177, -15.3503
0.927498, -1, -1.12656, 25.3417, 25.5915, 8.07201, -60.7553, -15.4678
0.935619, -1, -0.971086, 25.2647, 25.5709, 8.31705, -60.4943, -15.5855
0.943514, -1, -0.816834, 25.188, 25.5505, 8.56149, -60.2345, -15.7024
0.952178, -1, -0.663785, 25.1116, 25.5301, 8.80439, -59.9759, -15.8186
0.959602, -1, -0.511746, 25.0356, 25.5096, 9.04615, -59.7186, -15.9343
0.967522, -1, -0.360776, 24.9601, 25.4893, 9.28688, -59.4628, -16.0495
0.975548, -1, -0.210956, 24.8849, 25.4693, 9.52657, -59.2083, -16.1642
0.984006, -1, -0.0621746, 24.81, 25.4493, 9.76496, -58.9546, -16.2785
0.991528, -1, 0.0858419, 24.7355, 25.4295, 10.0022, -58.7019, -16.3922
1.00138, -1, 0.233237, 24.6613, 25.4096, 10.2386, -58.4504, -16.5056
1.00751, -1, 0.380463, 24.5875, 25.3897, 10.474, -58.1998, -16.6186
1.01547, -1, 0.52757, 24.514, 25.37, 10.7081, -57.9502, -16.7309
1.02357, -1, 0.674481, 24.4408, 25.3504, 10.9411, -57.7016, -16.8427
1.03159, -1, 0.821102, 24.3679, 25.331, 11.1733, -57.4542, -16.9537
1.03966, -1, 0.967353, 24.2953, 25.3116, 11.4042, -57.208, -17.0642
1.04774, -1, 1.113, 24.223, 25.2922, 11.6342, -56.963, -17.1741
1.05571, -1, 1.25809, 24.1511, 25.2729, 11.863, -56.7194, -17.2834
1.06377, -1, 1.40276, 24.0795, 25.2538, 12.0911, -56.4767, -17.3924
1.07195, -1, 1.54696, 24.0083, 25.2347, 12.3182, -56.2356, -17.5008
1.07999, -1, 1.69052, 23.9374, 25.2158, 12.5438, -55.9953, -17.6089
1.08794, -1, 1.83324, 23.8668, 25.197, 12.7688, -55.7562, -17.7165
1.09724, -1, 1.97475, 23.7966, 25.1781, 12.9928, -55.5181, -17.8238
1.10397, -1, 2.11532, 23.7267, 25.1594, 13.2154, -55.281, -17.9306
1.11199, -1, 2.18529, 23.657, 25.1408, 13.4373, -55.0448, -18.0366
1.1219, -1, 2.3937, 23.5877, 25.1222, 13.6582, -54.8095, -18.1425
1.12741, -1, 2.46267, 23.5531, 25.113, 13.7684, -54.6922, -18.195
1.13548, -1, 2.59998, 23.4842, 25.0947, 13.9879, -54.4583, -18.3
1.1435, -1, 2.73627, 23.4155, 25.0764, 14.2065, -54.2252, -18.4044
1.15255, -1, 2.93929, 23.3131, 25.049, 14.5325, -53.8781, -18.5605
1.15941, -1, 3.00676, 23.2791, 25.0399, 14.6408, -53.7629, -18.6122
1.16746, -1, 3.14158, 23.2113, 25.0216, 14.8565, -53.5333, -18.7155
1.17669, -1, 3.34387, 23.1102, 24.9947, 15.1782, -53.1907, -18.8698
1.18344, -1, 3.41118, 23.0767, 24.9858, 15.2851, -53.0769, -18.9211
1.19141, -1, 3.54561, 23.0098, 24.9679, 15.4983, -52.8503, -19.0232
1.19941, -1, 3.67986, 22.9432, 24.9501, 15.7107, -52.6244, -19.1245
1.20892, -1, 3.88037, 22.8438, 24.9236, 16.0271, -52.2877, -19.2761
1.21705, -1, 4.01357, 22.778, 24.9058, 16.2371, -52.0643, -19.3763
1.22342, -1, 4.08, 22.7451, 24.897, 16.3418, -51.9529, -19.4264
1.23299, -1, 4.27858, 22.6471, 24.8709, 16.6543, -51.62, -19.5758
1.24107, -1, 4.41029, 22.582, 24.8535, 16.8616, -51.399, -19.6748
1.24746, -1, 4.47587, 22.5495, 24.8448, 16.9649, -51.289, -19.7242
1.2564, -1, 4.60645, 22.4848, 24.8275, 17.1712, -51.0695, -19.8232
1.26451, -1, 4.73633, 22.4203, 24.8103, 17.3765, -50.8508, -19.9212
1.27141, -1, 4.86544, 22.356, 24.793, 17.581, -50.6329, -20.0195
1.27947, -1, 4.99381, 22.2919, 24.776, 17.7847, -50.416, -20.117
1.2874, -1, 5.12135, 22.2281, 24.7591, 17.9875, -50.1999, -20.2143
1.29543, -1, 5.24815, 22.1646, 24.742, 18.1899, -49.9846, -20.3107
1.30347, -1, 5.37403, 22.1013, 24.725, 18.391, -49.7703, -20.4072
1.31141, -1, 5.49902, 22.0382, 24.7082, 18.5916, -49.5567, -20.5031
1.31948, -1, 5.62337, 21.9754, 24.6913, 18.7914, -49.3442, -20.5986
1.32741, -1, 5.74732, 21.9129, 24.6745, 18.9907, -49.1324, -20.6939
1.33545, -1, 5.87115, 21.8508, 24.658, 19.189, -48.9217, -20.7886
1.34349, -1, 5.99485, 21.7888, 24.6414, 19.3865, -48.7119, -20.8834
1.35141, -1, 6.11848, 21.727, 24.6249, 19.5832, -48.5027, -20.9775
1.35942, -1, 6.24193, 21.6654, 24.6085, 19.7793, -48.2941, -21.0716
1.36748, -1, 6.36522, 21.6041, 24.5921, 19.9745, -48.0864, -21.1651
1.37545, -1, 6.48833, 21.543, 24.5756, 20.1689, -47.8792, -21.2586
1.38342, -1, 6.61111, 21.4821, 24.5594, 20.3625, -47.673, -21.3511
1.39147, -1, 6.73351, 21.4214, 24.5432, 20.5557, -47.4672, -21.4437
1.39941, -1, 6.85558, 21.3609, 24.527, 20.7482, -47.262, -21.5356
1.40742, -1, 6.97716, 21.3009, 24.5108, 20.9398, -47.0579, -21.6273
1.41554, -1, 7.09816, 21.241, 24.4948, 21.1308, -46.8544, -21.7185
1.42341, -1, 7.21863, 21.1813, 24.4788, 21.3209, -46.6516, -21.8094
1.4315, -1, 7.33848, 21.1218, 24.4629, 21.5106, -46.4496, -21.9001
1.43941, -1, 7.45764, 21.0627, 24.4472, 21.6996, -46.2488, -21.9904
1.44744, -1, 7.57629, 21.0037, 24.4315, 21.8876, -46.0482, -22.0805
1.45571, -1, 7.69457, 20.9448, 24.4158, 22.0752, -45.8488, -22.1702
1.4635, -1, 7.81233, 20.8862, 24.4, 22.2622, -45.6499, -22.2599
1.47151, -1, 7.92953, 20.8277, 24.3844, 22.4488, -45.4518, -22.3491
1.47987, -1, 8.04614, 20.7694, 24.3688, 22.6344, -45.2547, -22.4379
1.48752, -1, 8.16214, 20.7112, 24.3531, 22.8194, -45.0582, -22.5262
1.49551, -1, 8.27764, 20.6532, 24.3377, 23.0037, -44.8622, -22.6144
1.50418, -1, 8.39282, 20.5954, 24.3225, 23.1874, -44.6668, -22.702
1.51145, -1, 8.50765, 20.5379, 24.3071, 23.3705, -44.4718, -22.7897
1.51956, -1, 8.62201, 20.4806, 24.2917, 23.5529, -44.2775, -22.8765
1.52826, -1, 8.73578, 20.4235, 24.2764, 23.7345, -44.0838, -22.9638
1.53554, -1, 8.84922, 20.3667, 24.2612, 23.9156, -43.8906, -23.0502
1.54366, -1, 8.9625, 20.3101, 24.246, 24.0964, -43.6981, -23.1369
1.55245, -1, 9.07557, 20.2535, 24.2309, 24.2766, -43.5065, -23.2228
1.55979, -1, 9.18865, 20.1973, 24.2161, 24.4559, -43.3155, -23.309
1.56794, -1, 9.30168, 20.1411, 24.2011, 24.6347, -43.1251, -23.3946
1.57661, -1, 9.4145, 20.0852, 24.186, 24.8128, -42.9354, -23.4802
1.58402, -1, 9.52699, 20.0293, 24.1709, 24.9907, -42.7463, -23.5651
1.59197, -1, 9.63902, 19.9737, 24.1561, 25.1678, -42.5575, -23.6498
1.60079, -1, 9.75057, 19.9181, 24.1412, 25.3443, -42.3698, -23.7344
1.60801, -1, 9.86188, 19.8628, 24.1264, 25.5202, -42.1823, -23.8184
1.61629, -1, 9.91741, 19.8352, 24.1118, 25.6957, -41.9956, -23.9023
1.62478, -1, 10.0282, 19.7802, 24.1045, 25.7833, -41.9026, -23.9855
1.632, -1, 10.1386, 19.7254, 24.0899, 25.9582, -41.7168, -24.0693
1.6394, -1, 10.2486, 19.6708, 24.0752, 26.1324, -41.5315, -24.1107
1.6474, -1, 10.3583, 19.6164, 24.0605, 26.306, -41.3468, -24.1936
1.6554, -1, 10.4673, 19.5621, 24.046, 26.479, -41.1625, -24.2767
1.66342, -1, 10.5759, 19.508, 24.0315, 26.6516, -40.9788, -24.3589
1.67147, -1, 10.6841, 19.4541, 24.017, 26.8237, -40.7956, -24.4417
1.6794, -1, 10.7921, 19.4003, 24.0027, 26.9951, -40.6131, -24.5235
1.68739, -1, 10.8996, 19.3466, 23.9885, 27.1659, -40.4309, -24.6058
1.69544, -1, 11.0067, 19.2931, 23.9742, 27.3363, -40.2493, -24.6871
1.7034, -1, 11.1134, 19.2397, 23.9598, 27.5063, -40.0686, -24.7685
1.71142, -1, 11.2198, 19.1864, 23.9455, 27.6759, -39.8881, -24.8498
1.71945, -1, 11.3258, 19.1333, 23.9313, 27.8448, -39.7082, -24.9304
1.72743, -1, 11.4313, 19.0804, 23.9171, 28.0132, -39.5289, -25.0113
1.73539, -1, 11.5364, 19.0278, 23.903, 28.181, -39.3501, -25.0914
1.74567, -1, 11.6413, 18.9491, 23.8821, 28.4321, -39.0827, -25.2119
1.75144, -1, 11.7462, 18.9229, 23.8752, 28.5156, -38.9939, -25.2517
1.76035, -1, 11.8508, 18.8707, 23.8611, 28.6821, -38.8168, -25.3317
1.76748, -1, 11.9552, 18.8187, 23.8471, 28.8481, -38.6399, -25.4112
1.7764, -1, 12.0595, 18.7667, 23.8331, 29.0136, -38.4637, -25.4907
1.78345, -1, 12.1637, 18.7149, 23.8193, 29.1789, -38.2882, -25.5701
1.7914, -1, 12.2677, 18.6632, 23.8054, 29.3437, -38.1131, -25.6488
1.79939, -1, 12.3715, 18.6117, 23.7917, 29.5081, -37.9385, -25.728
1.80748, -1, 12.4749, 18.5602, 23.7781, 29.6718, -37.7644, -25.806
1.81539, -1, 12.5781, 18.5089, 23.7645, 29.835, -37.5908, -25.8844
1.82339, -1, 12.6812, 18.4578, 23.7507, 29.9979, -37.4174, -25.9623
1.83146, -1, 12.7837, 18.4067, 23.7369, 30.1605, -37.2446, -26.0397
1.83941, -1, 12.886, 18.3559, 23.7233, 30.3225, -37.072, -26.1174
1.84741, -1, 12.9879, 18.3053, 23.7098, 30.484, -36.9, -26.1939
1.85546, -1, 13.0894, 18.2549, 23.6962, 30.6449, -36.7282, -26.2713
1.86339, -1, 13.1905, 18.2046, 23.6827, 30.8056, -36.5572, -26.3478
1.87139, -1, 13.2913, 18.1544, 23.6694, 30.966, -36.3864, -26.4243
1.87949, -1, 13.3918, 18.1044, 23.6561, 31.1259, -36.2162, -26.5011
1.88741, -1, 13.492, 18.0544, 23.6428, 31.2853, -36.0464, -26.577
1.89539, -1, 13.5921, 18.0044, 23.6294, 31.4443, -35.8772, -26.6536
1.90346, -1, 13.6919, 17.9546, 23.616, 31.6026, -35.7084, -26.7294
1.91139, -1, 13.7915, 17.9049, 23.6028, 31.7607, -35.54, -26.8053
1.91951, -1, 13.8909, 17.8552, 23.5895, 31.9187, -35.3723, -26.8808
1.92747, -1, 13.9902, 17.8056, 23.5761, 32.076, -35.2047, -26.9558
1.93539, -1, 14.0893, 17.7562, 23.563, 32.2329, -35.0376, -27.0312
1.94351, -1, 14.1881, 17.707, 23.55, 32.3894, -34.8713, -27.1056
1.95143, -1, 14.2865, 17.658, 23.5369, 32.5456, -34.7051, -27.1805
1.95947, -1, 14.3845, 17.6091, 23.5237, 32.7016, -34.5396, -27.2548
1.96756, -1, 14.4822, 17.5604, 23.5106, 32.8572, -34.3743, -27.3286
1.97549, -1, 14.5796, 17.5119, 23.4976, 33.0124, -34.2092, -27.4031
1.98349, -1, 14.6765, 17.4635, 23.4847, 33.1669, -34.0447, -27.4768
1.99176, -1, 14.7732, 17.4152, 23.4717, 33.3213, -33.8802, -27.5508
1.99945, -1, 14.8696, 17.367, 23.4588, 33.4752, -33.7165, -27.6245
2.00749, -1, 14.9659, 17.3187, 23.446, 33.6289, -33.5528, -27.6979
2.01549, -1, 15.0621, 17.2705, 23.4333, 33.782, -33.3897, -27.7718
2.02344, -1, 15.1581, 17.2225, 23.4205, 33.9348, -33.2267, -27.8447
2.03149, -1, 15.2539, 17.1745, 23.4075, 34.0871, -33.0644, -27.918
2.03964, -1, 15.3498, 17.1266, 23.3947, 34.239, -32.9027, -27.9909
2.04764, -1, 15.4455, 17.0788, 23.3819, 34.3908, -32.7412, -28.0632
2.05565, -1, 15.5413, 17.0311, 23.3691, 34.5423, -32.5802, -28.1361
2.06373, -1, 15.6368, 16.9838, 23.3563, 34.6933, -32.4195, -28.208
2.0718, -1, 15.7321, 16.9364, 23.3436, 34.844, -32.2591, -28.2803
2.07985, -1, 15.8272, 16.8893, 23.3312, 34.9942, -32.099, -28.3523
2.08799, -1, 15.922, 16.8425, 23.3187, 35.144, -31.9395, -28.4234
2.09655, -1, 16.0166, 16.7956, 23.3061, 35.2938, -31.7803, -28.4955
2.10395, -1, 16.1109, 16.749, 23.2935, 35.4432, -31.6213, -28.5667
2.11198, -1, 16.2048, 16.7024, 23.281, 35.5921, -31.4629, -28.638
2.11998, -1, 16.2516, 16.6791, 23.2748, 35.7407, -31.3048, -28.7094
2.12791, -1, 16.3451, 16.6326, 23.2624, 35.8149, -31.2258, -28.7448
2.13638, -1, 16.4848, 16.5628, 23.2436, 36.0369, -30.9894, -28.8514
2.1434, -1, 16.5312, 16.5395, 23.2374, 36.1109, -30.9108, -28.8869
2.15138, -1, 16.6239, 16.4931, 23.2251, 36.2587, -30.7536, -28.9572
2.15943, -1, 16.7164, 16.4467, 23.2128, 36.406, -30.5969, -29.0279
2.16738, -1, 16.8086, 16.4005, 23.2004, 36.5529, -30.4405, -29.0984
2.17539, -1, 16.9009, 16.3543, 23.188, 36.6994, -30.2846, -29.168
2.18344, -1, 16.9929, 16.3083, 23.1756, 36.8455, -30.1289, -29.2384
2.19138, -1, 17.0847, 16.2625, 23.1634, 36.9915, -29.9735, -29.308
2.19938, -1, 17.1759, 16.2171, 23.1511, 37.1372, -29.8182, -29.3775
2.20888, -1, 17.3074, 16.1512, 23.1324, 37.3544, -29.587, -29.4814
2.21702, -1, 17.3893, 16.1102, 23.1198, 37.4968, -29.4352, -29.5492
2.22339, -1, 17.4282, 16.0907, 23.1135, 37.5665, -29.3609, -29.5829
2.23143, -1, 17.5019, 16.0542, 23.1012, 37.7008, -29.2175, -29.6475
2.24125, -1, 17.6006, 16.0061, 23.084, 37.8829, -29.023, -29.7347
2.24738, -1, 17.6296, 15.992, 23.0789, 37.9367, -28.9654, -29.7609
2.25549, -1, 17.6828, 15.9661, 23.0701, 38.0307, -28.8643, -29.8067
2.26534, -1, 17.751, 15.9314, 23.0613, 38.1365, -28.7505, -29.8579
2.27137, -1, 17.7707, 15.9211, 23.0595, 38.1621, -28.7227, -29.8703
2.27944, -1, 17.8051, 15.9034, 23.0571, 38.2003, -28.6809, -29.8891
2.2874, -1, 17.8325, 15.8896, 23.0559, 38.2254, -28.6535, -29.9012
2.29537, -1, 17.8542, 15.8794, 23.0554, 38.2403, -28.6372, -29.9081
2.30345, -1, 17.8696, 15.8723, 23.0552, 38.2483, -28.6283, -29.9118
2.31138, -1, 17.8787, 15.8681, 23.0551, 38.2524, -28.6239, -29.9136
2.31937, 2, 17.883, 15.866, 23.0551, 38.2542, -28.6218, -29.9145
2.32744, 2, 17.8849, 15.865, 23.055, 38.2551, -28.6208, -29.9149
2.33537, 2, 17.8851, 15.8646, 23.0551, 38.2555, -28.6203, -29.9151
2.3434, 2, 17.8845, 15.8644, 23.0551, 38.2557, -28.6201, -29.9152
2.35145, 2, 17.8837, 15.8643, 23.0551, 38.2558, -28.62, -29.9153
2.35938, 2, 17.8831, 15.8643, 23.0551, 38.2559, -28.62, -29.9153
2.36737, 2, 17.8829, 15.8642, 23.0551, 38.2559, -28.62, -29.9153
2.37544, 2, 17.8828, 15.8641, 23.0551, 38.2559, -28.62, -29.9154
2.38341, 2, 17.8828, 15.8639, 23.0551, 38.2559, -28.62, -29.9154
2.39137, 2, 17.883, 15.8636, 23.0551, 38.2559, -28.62, -29.9154
2.39943, 2, 17.8834, 15.8633, 23.0551, 38.2559, -28.62, -29.9153
2.40738, 2, 17.8838, 15.863, 23.0551, 38.2559, -28.6201, -29.9153
2.41551, 2, 17.8844, 15.8627, 23.0551, 38.2559, -28.6201, -29.9153
2.4235, 2, 17.8852, 15.8626, 23.0551, 38.2559, -28.6201, -29.9152
2.43138, 2, 17.8861, 15.8625, 23.0551, 38.2559, -28.6201, -29.9152
2.43938, 2, 17.8867, 15.8625, 23.0551, 38.2559, -28.6201, -29.9153
2.44745, 2, 17.8871, 15.8626, 23.0551, 38.2559, -28.6201, -29.9152
2.45542, 2, 17.8874, 15.8626, 23.0551, 38.2559, -28.6202, -29.9152
2.46346, 2, 17.8875, 15.8626, 23.0551, 38.2559, -28.6201, -29.9152
2.47153, 2, 17.8876, 15.8626, 23.0551, 38.2559, -28.6201, -29.9152
2.47947, 2, 17.8876, 15.8626, 23.0551, 38.2559, -28.6201, -29.9152
2.48748, 2, 17.8876, 15.8625, 23.0551, 38.2559, -28.6202, -29.9152
2.49553, 2, 17.8876, 15.8625, 23.0551, 38.2559, -28.6202, -29.9153
2.50344, 2, 17.8875, 15.8624, 23.0551, 38.2559, -28.6202, -29.9152
2.5114, 2, 17.8873, 15.8624, 23.0551, 38.2559, -28.6202, -29.9153
2.51946, 2, 17.8871, 15.8623, 23.0551, 38.2559, -28.6203, -29.9153
2.52742, 2, 17.887, 15.8622, 23.0551, 38.2559, -28.6203, -29.9153
2.5356, 2, 17.8869, 15.8622, 23.0551, 38.2559, -28.6203, -29.9153
2.54362, 2, 17.8869, 15.8622, 23.0551, 38.2559, -28.6203, -29.9153
2.55166, 2, 17.8869, 15.8622, 23.0551, 38.2559, -28.6203, -29.9152
2.55965, 2, 17.8869, 15.8623, 23.0551, 38.2559, -28.6204, -29.9152
2.56774, 2, 17.8869, 15.8623, 23.0551, 38.2559, -28.6203, -29.9152
2.57582, 2, 17.8869, 15.8623, 23.0551, 38.2559, -28.6203, -29.9152
2.58447, 2, 17.8869, 15.8623, 23.0551, 38.2559, -28.6203, -29.9152
2.59195, 2, 17.8869, 15.8623, 23.0551, 38.2559, -28.6204, -29.9152
2.60051, 2, 17.8869, 15.8623, 23.0551, 38.2559, -28.6204, -29.9152
2.60797, 2, 17.8869, 15.8623, 23.0551, 38.2559, -28.6204, -29.9152
2.61659, 2, 17.8869, 15.8622, 23.0551, 38.2559, -28.6204, -29.9152
2.62402, 2, 17.8869, 15.8622, 23.0551, 38.2559, -28.6205, -29.9152
2.63208, 2, 17.8869, 15.8622, 23.0551, 38.2559, -28.6205, -29.9152
2.63941, 2, 17.8868, 15.8622, 23.0551, 38.2559, -28.6205, -29.9153
2.64846, 2, 17.8868, 15.8622, 23.0551, 38.2559, -28.6205, -29.9152
2.65536, 2, 17.8868, 15.8622, 23.0551, 38.2559, -28.6205, -29.9152
2.66341, 2, 17.8867, 15.8623, 23.0551, 38.2559, -28.6205, -29.9152
2.67137, 2, 17.8867, 15.8623, 23.0551, 38.2559, -28.6205, -29.9152
2.67938, 2, 17.8867, 15.8623, 23.0551, 38.2559, -28.6205, -29.9152
2.68741, 2, 17.8867, 15.8623, 23.0551, 38.2559, -28.6206, -29.9152
2.69536, 2, 17.8867, 15.8623, 23.0551, 38.2558, -28.6206, -29.9152
2.70337, 2, 17.8867, 15.8623, 23.0551, 38.2558, -28.6206, -29.9152
2.71282, 2, 17.8867, 15.8623, 23.0551, 38.2558, -28.6206, -29.9151
2.71939, 2, 17.8867, 15.8623, 23.0551, 38.2558, -28.6207, -29.9151
2.72933, 2, 17.8867, 15.8623, 23.0551, 38.2558, -28.6207, -29.9152
2.73543, 2, 17.8867, 15.8623, 23.0551, 38.2558, -28.6207, -29.9152
2.74511, 2, 17.8867, 15.8623, 23.0551, 38.2557, -28.6207, -29.9151
2.75142, 2, 17.8866, 15.8623, 23.0551, 38.2557, -28.6208, -29.9151
2.76032, 2, 17.8866, 15.8623, 23.0551, 38.2557, -28.6208, -29.9152
2.76841, 2, 17.8866, 15.8623, 23.0551, 38.2557, -28.6208, -29.9151
2.77535, 2, 17.8865, 15.8623, 23.0551, 38.2557, -28.6208, -29.9152
2.78343, 2, 17.8865, 15.8623, 23.0551, 38.2557, -28.6208, -29.9152
2.79243, 2, 17.8865, 15.8624, 23.0551, 38.2557, -28.6208, -29.9152
2.79935, 2, 17.8865, 15.8624, 23.0551, 38.2557, -28.6208, -29.9151
2.80743, 2, 17.8865, 15.8624, 23.0551, 38.2557, -28.6208, -29.9151
2.81536, 2, 17.8864, 15.8624, 23.0551, 38.2557, -28.6208, -29.9152
2.82337, 2, 17.8864, 15.8624, 23.0551, 38.2557, -28.6208, -29.9151
2.83142, 2, 17.8863, 15.8623, 23.0551, 38.2557, -28.6208, -29.9152
2.83936, 2, 17.8863, 15.8623, 23.0551, 38.2557, -28.6208, -29.9152
2.84737, 2, 17.8863, 15.8623, 23.0551, 38.2557, -28.6209, -29.9151
2.85543, 2, 17.8862, 15.8623, 23.0551, 38.2557, -28.6208, -29.9152
2.86337, 2, 17.8862, 15.8623, 23.0551, 38.2557, -28.6208, -29.9151
2.87136, 2, 17.8861, 15.8623, 23.0551, 38.2557, -28.6209, -29.9151
2.87942, 2, 17.8861, 15.8624, 23.0551, 38.2557, -28.6209, -29.9151
2.88739, 2, 17.8861, 15.8624, 23.0551, 38.2557, -28.6208, -29.9151
2.89535, 2, 17.886, 15.8624, 23.0551, 38.2557, -28.6209, -29.9151
2.90343, 2, 17.886, 15.8624, 23.0551, 38.2556, -28.6209, -29.9151
2.91135, 2, 17.8859, 15.8624, 23.0551, 38.2557, -28.621, -29.9151
2.91938, 2, 17.8859, 15.8624, 23.0551, 38.2556, -28.621, -29.9151
2.92747, 2, 17.8858, 15.8624, 23.0551, 38.2556, -28.621, -29.9151
2.93536, 2, 17.8857, 15.8624, 23.0551, 38.2556, -28.621, -29.9151
2.94337, 2, 17.8857, 15.8624, 23.0551, 38.2556, -28.6211, -29.9151
2.95144, 2, 17.8857, 15.8624, 23.0551, 38.2556, -28.6211, -29.9151
2.95942, 2, 17.8856, 15.8624, 23.0551, 38.2556, -28.6211, -29.9152
2.96744, 2, 17.8856, 15.8624, 23.0551, 38.2556, -28.6211, -29.9151
2.97551, 2, 17.8855, 15.8624, 23.0551, 38.2556, -28.6211, -29.9151
2.98347, 2, 17.8855, 15.8624, 23.0551, 38.2556, -28.6211, -29.9151
2.99145, 2, 17.8854, 15.8624, 23.0551, 38.2556, -28.6212, -29.9151
2.99952, 2, 17.8853, 15.8624, 23.0551, 38.2555, -28.6212, -29.9151
3.00743, 2, 17.8853, 15.8624, 23.0551, 38.2555, -28.6212, -29.915
3.01538, 2, 17.8852, 15.8624, 23.0551, 38.2555, -28.6212, -29.915
3.02348, 2, 17.8852, 15.8624, 23.0551, 38.2555, -28.6212, -29.915
3.0314, 2, 17.8851, 15.8624, 23.0551, 38.2555, -28.6212, -29.915
3.03944, 2, 17.8851, 15.8624, 23.0551, 38.2555, -28.6211, -29.915
3.04757, 2, 17.885, 15.8624, 23.0551, 38.2555, -28.6211, -29.9151
3.0559, 2, 17.885, 15.8624, 23.0551, 38.2555, -28.6211, -29.915
3.06439, 2, 17.8849, 15.8624, 23.0551, 38.2554, -28.6212, -29.9151
3.07174, 2, 17.8848, 15.8624, 23.0551, 38.2554, -28.6212, -29.915
3.08013, 2, 17.8848, 15.8624, 23.0551, 38.2554, -28.6212, -29.915
3.08782, 2, 17.8847, 15.8624, 23.0551, 38.2554, -28.6212, -29.915
3.09596, 2, 17.8847, 15.8624, 23.0551, 38.2554, -28.6212, -29.915
3.1046, 2, 17.8847, 15.8624, 23.0551, 38.2553, -28.6212, -29.915
3.11191, 2, 17.8846, 15.8624, 23.0551, 38.2554, -28.6212, -29.915
3.12047, 2, 17.8845, 15.8625, 23.0551, 38.2554, -28.6212, -29.915
3.12823, 2, 17.8845, 15.8625, 23.0551, 38.2554, -28.6212, -29.915
3.13534, 2, 17.8845, 15.8625, 23.0551, 38.2554, -28.6212, -29.915
3.14442, 2, 17.8844, 15.8625, 23.0551, 38.2553, -28.6212, -29.915
3.15223, 2, 17.8843, 15.8625, 23.0551, 38.2553, -28.6212, -29.915
3.15935, 2, 17.8843, 15.8625, 23.0551, 38.2553, -28.6212, -29.915
3.16848, 2, 17.8842, 15.8625, 23.0551, 38.2552, -28.6212, -29.915
3.17534, 2, 17.8842, 15.8625, 23.0551, 38.2552, -28.6212, -29.915
3.18337, 2, 17.8842, 15.8625, 23.0551, 38.2552, -28.6212, -29.915
3.19139, 2, 17.8842, 15.8625, 23.0551, 38.2552, -28.6212, -29.9149
3.20114, 2, 17.8841, 15.8625, 23.0551, 38.2552, -28.6212, -29.915
3.20735, 2, 17.8841, 15.8625, 23.0551, 38.2551, -28.6212, -29.915
3.21683, 2, 17.884, 15.8625, 23.0551, 38.2552, -28.6212, -29.915
3.22338, 2, 17.884, 15.8625, 23.0551, 38.2551, -28.6212, -29.915
3.23134, 2, 17.884, 15.8625, 23.0551, 38.2552, -28.6213, -29.9149
3.23944, 2, 17.884, 15.8625, 23.0551, 38.2552, -28.6213, -29.915
3.24921, 2, 17.8839, 15.8625, 23.0551, 38.2551, -28.6213, -29.915
3.25534, 2, 17.8839, 15.8625, 23.0551, 38.2551, -28.6213, -29.915
3.26491, 2, 17.8839, 15.8625, 23.0551, 38.2551, -28.6214, -29.9149
3.27321, 2, 17.8839, 15.8625, 23.0551, 38.255, -28.6214, -29.9149
3.27934, 2, 17.8839, 15.8625, 23.0551, 38.255, -28.6214, -29.9149
3.28741, 2, 17.8838, 15.8625, 23.0551, 38.255, -28.6213, -29.9149
3.29534, 2, 17.8838, 15.8625, 23.0551, 38.255, -28.6214, -29.9149
3.30334, 2, 17.8838, 15.8625, 23.0551, 38.255, -28.6214, -29.915
3.3114, 2, 17.8838, 15.8625, 23.0551, 38.255, -28.6214, -29.9149
3.3203, 2, 17.8838, 15.8625, 23.0551, 38.2549, -28.6214, -29.9149
3.32839, 2, 17.8838, 15.8625, 23.0551, 38.2549, -28.6214, -29.9149
3.33541, 2, 17.8838, 15.8626, 23.0551, 38.2549, -28.6214, -29.9149
3.34335, 2, 17.8838, 15.8626, 23.0551, 38.2549, -28.6214, -29.9149
3.35136, 2, 17.8838, 15.8626, 23.0551, 38.2549, -28.6213, -29.9149
3.35938, 2, 17.8837, 15.8626, 23.0551, 38.2549, -28.6214, -29.9148
3.3674, 2, 17.8837, 15.8625, 23.0551, 38.2549, -28.6214, -29.9148
3.37533, 2, 17.8837, 15.8626, 23.0551, 38.2548, -28.6214, -29.9148
3.38338, 4, 17.8837, 15.8625, 23.0551, 38.2548, -28.6214, -29.9148
3.39137, 4, 17.8837, 15.8626, 23.0551, 38.2548, -28.6215, -29.9148
3.39934, 4, 17.8837, 15.8625, 23.0551, 38.2548, -28.6215, -29.9148
3.40741, 4, 17.8837, 15.8626, 23.0551, 38.2547, -28.6215, -29.9148
3.41533, 4, 17.8836, 15.8626, 23.0551, 38.2547, -28.6215, -29.9148
3.42335, 4, 17.8836, 15.8626, 23.0551, 38.2547, -28.6215, -29.9148
3.43146, 4, 17.8836, 15.8626, 23.0551, 38.2547, -28.6215, -29.9148
3.43934, 4, 17.8836, 15.8626, 23.0551, 38.2547, -28.6215, -29.9148
3.44734, 4, 17.8836, 15.8626, 23.0551, 38.2547, -28.6215, -29.9148
3.45544, 4, 17.8836, 15.8626, 23.0551, 38.2547, -28.6214, -29.9147
3.46341, 4, 17.8836, 15.8626, 23.0551, 38.2547, -28.6214, -29.9147
3.47143, 4, 17.8836, 15.8626, 23.0551, 38.2547, -28.6214, -29.9147
3.47949, 4, 17.8835, 15.8626, 23.0551, 38.2546, -28.6215, -29.9147
3.48758, 4, 17.8835, 15.8626, 23.0551, 38.2546, -28.6215, -29.9146
3.51261, 4, 17.8835, 15.8626, 23.0551, 38.2545, -28.6215, -29.9147
3.51514, 4, 17.8835, 15.8626, 23.0551, 38.2545, -28.6215, -29.9146
3.51708, 4, 17.8835, 15.8626, 23.0551, 38.2545, -28.6215, -29.9146
3.52552, 4, 17.8835, 15.8627, 23.0551, 38.2545, -28.6215, -29.9146
3.54063, 4, 17.8818, 15.8627, 23.0552, 38.2544, -28.6215, -29.9146
3.54181, 4, 17.8818, 15.8627, 23.0552, 38.2544, -28.6215, -29.9146
3.54391, 4, 17.8801, 15.8627, 23.0554, 38.254, -28.6215, -29.9144
3.5519, 5, 17.8739, 15.8625, 23.0564, 38.2504, -28.6224, -29.9127
3.68915, 5, 15.7629, 15.3633, 25.6523, 30.0367, -32.1132, -22.7725
3.69042, 5, 15.7629, 15.3633, 25.6523, 30.0367, -32.1132, -22.7725
3.69161, 5, 15.7629, 15.3633, 25.6523, 30.0367, -32.1132, -22.7725
3.69367, 5, 15.6357, 15.3408, 25.7998, 29.5867, -32.3389, -22.385
3.69486, 5, 15.6357, 15.3408, 25.7998, 29.5867, -32.3389, -22.385
3.697, 5, 15.5065, 15.3192, 25.9469, 29.1401, -32.567, -22.0009
3.69826, 5, 15.5065, 15.3192, 25.9469, 29.1401, -32.567, -22.0009
3.70142, 5, 15.3753, 15.2986, 26.0935, 28.6979, -32.7972, -21.6213
3.70273, 5, 15.3753, 15.2986, 26.0935, 28.6979, -32.7972, -21.6213
3.7055, 5, 15.3753, 15.279, 26.2394, 28.2605, -33.0294, -21.2465
3.70679, 5, 15.2428, 15.279, 26.2394, 28.2605, -33.0294, -21.2465
3.70871, 5, 15.2428, 15.279, 26.3842, 27.8274, -33.2634, -20.8762
3.71151, 5, 15.1093, 15.2605, 26.3842, 27.8274, -33.2634, -20.8762
3.71353, 5, 14.9749, 15.243, 26.5279, 27.3981, -33.499, -20.51
3.7148, 5, 14.9749, 15.243, 26.5279, 27.3981, -33.499, -20.51
3.71833, 5, 14.8399, 15.2267, 26.6709, 26.9727, -33.7362, -20.148
3.71953, 5, 14.8399, 15.2267, 26.6709, 26.9727, -33.7362, -20.148
3.72167, 5, 14.7043, 15.2114, 26.813, 26.5517, -33.9751, -19.7907
3.72291, 5, 14.7043, 15.2114, 26.813, 26.5517, -33.9751, -19.7907
3.7248, 5, 14.5681, 15.1973, 26.954, 26.1355, -34.2155, -19.4385
3.72636, 5, 14.5681, 15.1973, 26.954, 26.1355, -34.2155, -19.4385
3.72768, 5, 14.5681, 15.1973, 26.954, 26.1355, -34.2155, -19.4385
3.73747, 5, 14.1577, 15.1615, 27.3702, 24.9165, -34.9452, -18.4101
3.74333, 5, 14.0205, 15.152, 27.507, 24.5195, -35.1913, -18.076
3.75131, 5, 13.7459, 15.1361, 27.777, 23.7366, -35.6872, -17.4214
3.76009, 5, 13.4713, 15.1245, 28.0423, 22.9701, -36.1874, -16.7854
3.76737, 5, 13.1968, 15.1176, 28.3038, 22.2214, -36.6926, -16.1659
3.77631, 5, 12.922, 15.1148, 28.5604, 21.4893, -37.2024, -15.5629
3.78432, 5, 12.6457, 15.1158, 28.8129, 20.7731, -37.717, -14.9756
3.79131, 5, 12.3679, 15.121, 29.0608, 20.0701, -38.2362, -14.4047
3.79933, 5, 12.0891, 15.1308, 29.3037, 19.3826, -38.7595, -13.848
3.80812, 5, 11.8095, 15.1452, 29.5427, 18.7102, -39.2862, -13.3058
3.81636, 5, 11.5285, 15.164, 29.7766, 18.0512, -39.8165, -12.7782
3.82333, 5, 11.2454, 15.1873, 30.0056, 17.4062, -40.3506, -12.2649
3.83254, 5, 10.9594, 15.2151, 30.2304, 16.7733, -40.8881, -11.7649
3.83931, 5, 10.6698, 15.2473, 30.4503, 16.1535, -41.4293, -11.2781
3.84738, 5, 10.3782, 15.2842, 30.6653, 15.5465, -41.9738, -10.8033
3.85535, 5, 10.0862, 15.3256, 30.8764, 14.9509, -42.5218, -10.3414
3.86344, 5, 9.79445, 15.3717, 31.0825, 14.3676, -43.0722, -9.89147
3.87131, 5, 9.50304, 15.4224, 31.2833, 13.7952, -43.6253, -9.45269
3.87932, 5, 9.21154, 15.4776, 31.4799, 13.2327, -44.1809, -9.02506
3.88833, 5, 8.91914, 15.5374, 31.6719, 12.6819, -44.7392, -8.60808
3.89637, 5, 8.62545, 15.6017, 31.8584, 12.1406, -45.3006, -8.20204
3.90431, 5, 8.33054, 15.6705, 32.0402, 11.6091, -45.8647, -7.80617
3.91231, 5, 8.03382, 15.7437, 32.2178, 11.0878, -46.4305, -7.42029
3.91934, 5, 7.73476, 15.8211, 32.3901, 10.5755, -46.9976, -7.04415
3.92734, 5, 7.43444, 15.903, 32.557, 10.0716, -47.5666, -6.67709
3.93542, 5, 7.1338, 15.9894, 32.7196, 9.57667, -48.1383, -6.31876
3.94331, 5, 6.83328, 16.0803, 32.8776, 9.09039, -48.7124, -5.96968
3.95139, 5, 6.53327, 16.1755, 33.0301, 8.61233, -49.2885, -5.62926
3.95937, 5, 6.23327, 16.2753, 33.1776, 8.14234, -49.8654, -5.29695
3.96739, 5, 5.93238, 16.3795, 33.3202, 7.68026, -50.4431, -4.97262
3.97546, 5, 5.63092, 16.4881, 33.4579, 7.22584, -51.0225, -4.65622
3.98342, 5, 5.32878, 16.6011, 33.5906, 6.77843, -51.6037, -4.34706
3.99142, 5, 5.02504, 16.7187, 33.7181, 6.33798, -52.1861, -4.0455
3.9995, 5, 4.71963, 16.8408, 33.8403, 5.90471, -52.77, -3.75127
4.00743, 5, 4.41293, 16.9671, 33.9575, 5.47806, -53.3549, -3.46419
4.01567, 5, 4.10594, 17.0974, 34.0695, 5.05778, -53.94, -3.18374
4.02351, 5, 3.79967, 17.2316, 34.1765, 4.64414, -54.5255, -2.91
4.03135, 5, 3.49429, 17.3701, 34.2785, 4.23656, -55.1122, -2.64263
4.0403, 5, 3.18913, 17.513, 34.3752, 3.83525, -55.6997, -2.38168
4.04741, 5, 2.88517, 17.6593, 34.4667, 3.43949, -56.2886, -2.12633
4.05632, 5, 2.58498, 17.8075, 34.5532, 3.04946, -56.877, -1.87714
4.06447, 5, 2.29073, 17.9564, 34.6346, 2.66671, -57.462, -1.63465
4.07162, 5, 2.00339, 18.1049, 34.7106, 2.29338, -58.0405, -1.40032
4.07973, 5, 1.72392, 18.2516, 34.7811, 1.93279, -58.6081, -1.17564
4.08853, 5, 1.45527, 18.3947, 34.8454, 1.58907, -59.156, -0.962747
4.09584, 5, 1.19966, 18.5326, 34.9026, 1.26695, -59.6761, -0.764821
4.10442, 5, 0.955814, 18.6664, 34.9518, 0.969729, -60.1607, -0.584825
4.11267, 5, 0.719703, 18.7981, 34.9925, 0.698117, -60.6037, -0.426351
4.12003, 6, 0.487157, 18.9288, 35.0252, 0.449692, -61.007, -0.291724
4.12792, 6, 0.371469, 19.0583, 35.0517, 0.217033, -61.3773, -0.181151
4.13665, 6, 0.140094, 19.1227, 35.0633, 0.103847, -61.5534, -0.134799
4.14388, 6, -0.0932318, 19.2525, 35.0842, -0.1226, -61.8974, -0.058732
4.15234, 6, -0.449158, 19.45, 35.1117, -0.481287, -62.4191, 0.0231051
4.15937, 6, -0.569384, 19.5165, 35.1204, -0.609921, -62.6015, 0.0435019
4.1673, 6, -0.811732, 19.6504, 35.138, -0.883861, -62.9854, 0.0773035
4.1753, 6, -1.05733, 19.7876, 35.1551, -1.18052, -63.3985, 0.104659
4.18349, 6, -1.31018, 19.9307, 35.1706, -1.4968, -63.8394, 0.128075
4.19268, 6, -1.7093, 20.1596, 35.1893, -1.99967, -64.5419, 0.15828
4.1993, 6, -1.84804, 20.24, 35.1937, -2.17243, -64.7843, 0.16712
4.20952, 6, -2.28067, 20.4949, 35.2004, -2.69863, -65.5261, 0.190199
4.21531, 6, -2.43, 20.5841, 35.2003, -2.87535, -65.7764, 0.196552
4.22482, 6, -2.88895, 20.8609, 35.1927, -3.40552, -66.5311, 0.211466
4.23136, 6, -3.04437, 20.9556, 35.1877, -3.58194, -66.7832, 0.214984
4.2393, 6, -3.35707, 21.1486, 35.1742, -3.93358, -67.2866, 0.219931
4.24889, 6, -3.82849, 21.4464, 35.1451, -4.45793, -68.0406, 0.222871
4.25766, 6, -3.986, 21.5472, 35.1329, -4.63168, -68.5418, 0.222439
4.2633, 6, -4.30191, 21.7499, 35.105, -4.97804, -68.7924, 0.221083
4.27229, 6, -4.61813, 21.9549, 35.072, -5.32291, -69.2931, 0.215753
4.27937, 6, -4.93307, 22.1626, 35.0341, -5.66585, -69.7926, 0.207702
4.28834, 6, -5.24639, 22.3717, 34.9913, -6.00716, -70.2913, 0.196892
4.29631, 6, -5.55817, 22.5822, 34.9437, -6.34666, -70.788, 0.183287
4.30336, 6, -5.8688, 22.7953, 34.8913, -6.68432, -71.283, 0.167403
4.3113, 6, -6.17932, 23.0114, 34.8339, -7.02077, -71.7767, 0.14911
4.31929, 6, -6.48929, 23.2298, 34.7716, -7.35583, -72.2691, 0.128847
4.32737, 6, -6.79854, 23.4513, 34.7043, -7.68929, -72.7601, 0.106219
4.3353, 6, -7.10793, 23.6763, 34.632, -8.02116, -73.2494, 0.0810384
4.3433, 6, -7.41852, 23.9037, 34.5549, -8.35139, -73.7369, 0.0532005
4.35137, 6, -7.73012, 24.1339, 34.4729, -8.6803, -74.2227, 0.0229087
4.35931, 6, -8.04193, 24.3675, 34.386, -9.00772, -74.7065, -0.0093205
4.36736, 6, -8.35258, 24.6036, 34.2943, -9.33359, -75.1885, -0.0430441
4.37541, 6, -8.66099, 24.8416, 34.1977, -9.65823, -75.6682, -0.0786194
4.38329, 6, -8.96787, 25.082, 34.0963, -9.9812, -76.1461, -0.116574
4.39129, 6, -9.27413, 25.3245, 33.9898, -10.303, -76.6221, -0.156708
4.39937, 6, -9.5797, 25.569, 33.8783, -10.6237, -77.0964, -0.198208
4.40731, 6, -9.88529, 25.8164, 33.7616, -10.943, -77.5685, -0.240786
4.4153, 6, -10.1919, 26.066, 33.6402, -11.2609, -78.0381, -0.285123
4.42337, 6, -10.4995, 26.3169, 33.514, -11.5773, -78.5052, -0.331655
4.4313, 6, -10.8076, 26.5699, 33.3829, -11.8923, -78.9697, -0.379699
4.43939, 6, -11.1149, 26.8244, 33.2467, -12.2063, -79.4322, -0.428455
4.44737, 6, -11.4196, 27.0807, 33.1056, -12.5188, -79.8925, -0.479082
4.45554, 6, -11.7221, 27.3397, 32.9599, -12.8301, -80.3508, -0.531334
4.46337, 6, -12.0233, 27.6003, 32.8093, -13.1401, -80.8065, -0.584346
4.47145, 6, -12.3237, 27.8626, 32.6537, -13.4488, -81.2594, -0.638324
4.47969, 6, -12.6235, 28.1274, 32.4933, -13.7563, -81.7094, -0.694276
4.4874, 6, -12.9231, 28.3937, 32.3285, -14.0628, -82.1568, -0.751209
4.49547, 6, -13.2225, 28.6619, 32.1592, -14.368, -82.6014, -0.808535
4.50341, 6, -13.5223, 28.9324, 31.9844, -14.6719, -83.0437, -0.8677
4.51178, 6, -13.8228, 29.2038, 31.804, -14.9745, -83.4831, -0.927875
4.51954, 6, -14.1219, 29.4771, 31.6194, -15.2759, -83.9199, -0.988302
4.52735, 6, -14.4183, 29.7515, 31.4302, -15.5761, -84.3538, -1.05027
4.53537, 6, -14.7121, 30.0273, 31.2355, -15.875, -84.7848, -1.11317
4.54349, 6, -15.0033, 30.3053, 31.0359, -16.1724, -85.2126, -1.17607
4.55142, 6, -15.2919, 30.584, 30.8325, -16.4686, -85.6375, -1.24031
4.56008, 6, -15.5781, 30.863, 30.6244, -16.7632, -86.0588, -1.30499
4.56833, 6, -15.8614, 31.1415, 30.4117, -17.0556, -86.4761, -1.36919
4.57563, 6, -16.1398, 31.417, 30.197, -17.3453, -86.8882, -1.43424
4.58373, 6, -16.4117, 31.6888, 29.9811, -17.6307, -87.2934, -1.49901
4.59187, 6, -16.6754, 31.9538, 29.7653, -17.9095, -87.6888, -1.56243
4.60046, 6, -16.9289, 32.2093, 29.5531, -18.1792, -88.0703, -1.62517
4.60789, 6, -17.1693, 32.4541, 29.3464, -18.4365, -88.4331, -1.68475
4.61639, 6, -17.3942, 32.6856, 29.1476, -18.6778, -88.7729, -1.74098
4.62391, 6, -17.603, 32.9013, 28.9608, -18.9004, -89.0859, -1.79396
4.63191, 6, -17.7947, 33.101, 28.7884, -19.1019, -89.3688, -1.8425
4.64036, 6, -17.968, 33.283, 28.6312, -19.2803, -89.6191, -1.88534
4.64731, 6, -18.0475, 33.3664, 28.559, -19.3607, -89.7319, -1.90458
4.65632, 6, -18.256, 33.5846, 28.3708, -19.5663, -90.0205, -1.9544
4.66337, 6, -18.3155, 33.6469, 28.3175, -19.6233, -90.1005, -1.96852
4.67128, 6, -18.4198, 33.7562, 28.2245, -19.7209, -90.2372, -1.99293
4.67928, 6, -18.5061, 33.846, 28.1491, -19.7973, -90.3452, -2.01243
4.68887, 6, -18.6058, 33.9487, 28.0657, -19.8785, -90.4592, -2.03306
4.69669, 6, -18.6556, 33.9992, 28.0267, -19.9132, -90.5085, -2.04187
4.70327, 6, -18.6759, 34.0196, 28.0115, -19.9261, -90.5268, -2.04514
4.71353, 6, -18.721, 34.0646, 27.9798, -19.9512, -90.5622, -2.05132
4.72084, 6, -18.7412, 34.0843, 27.9671, -19.9599, -90.5743, -2.05354
4.72879, 6, -18.7552, 34.098, 27.9589, -19.9644, -90.5807, -2.05469
4.73728, 6, -18.764, 34.1074, 27.9539, -19.9668, -90.5839, -2.05528
4.74324, 7, -18.767, 34.1108, 27.9522, -19.9675, -90.5848, -2.05547
4.75286, 7, -18.7709, 34.1173, 27.9487, -19.9685, -90.5861, -2.05569
4.75935, 7, -18.7727, 34.1187, 27.948, -19.9687, -90.5863, -2.05571
4.76728, 7, -18.7735, 34.121, 27.9467, -19.9688, -90.5865, -2.05576
4.77627, 7, -18.7739, 34.123, 27.9459, -19.9689, -90.5866, -2.0558
4.78336, 7, -18.7741, 34.1247, 27.9453, -19.9689, -90.5867, -2.05584
4.79128, 7, -18.7741, 34.126, 27.9448, -19.969, -90.5867, -2.05587
4.79931, 7, -18.7742, 34.1272, 27.9444, -19.969, -90.5867, -2.05587
4.80736, 7, -18.7743, 34.1283, 27.9441, -19.969, -90.5867, -2.05587
4.81532, 7, -18.7743, 34.1291, 27.9438, -19.969, -90.5867, -2.05581
4.82328, 7, -18.7743, 34.1298, 27.9436, -19.969, -90.5866, -2.0558
4.83135, 7, -18.7743, 34.1303, 27.9435, -19.969, -90.5866, -2.0558
4.83928, 7, -18.7742, 34.1306, 27.9434, -19.969, -90.5866, -2.05574
4.84727, 7, -18.7742, 34.1309, 27.9434, -19.9689, -90.5866, -2.05569
4.85536, 7, -18.7741, 34.131, 27.9433, -19.9689, -90.5866, -2.05569
4.86329, 7, -18.774, 34.131, 27.9432, -19.9689, -90.5866, -2.05572
