hehonglu123/ABB_Primitive_Study/realrobot/movel_30_ori/curve_exe_v500_z1.csv
timestamp, cmd_num, J1, J2, J3, J4, J5, J6
0.006483, -1, -18.7723, 34.1328, 27.9417, -19.968, -90.585, -2.05547
0.008344, -1, -18.7723, 34.1328, 27.9417, -19.968, -90.585, -2.05547
0.013637, -1, -18.7723, 34.1328, 27.9417, -19.968, -90.585, -2.05548
0.016395, -1, -18.7723, 34.1328, 27.9417, -19.968, -90.585, -2.05548
0.042179, -1, -18.7723, 34.1328, 27.9417, -19.968, -90.585, -2.05542
0.043429, -1, -18.7723, 34.1328, 27.9417, -19.968, -90.585, -2.05542
0.044679, -1, -18.7723, 34.1328, 27.9417, -19.968, -90.585, -2.05542
0.047231, -1, -18.7723, 34.1328, 27.9417, -19.968, -90.5849, -2.05541
0.055216, -1, -18.7723, 34.1328, 27.9417, -19.968, -90.5849, -2.05537
0.063349, -1, -18.7718, 34.1327, 27.9417, -19.968, -90.5849, -2.05544
0.071209, -1, -18.7694, 34.1319, 27.9418, -19.968, -90.5849, -2.05551
0.079259, -1, -18.764, 34.1298, 27.9419, -19.9675, -90.5844, -2.05556
0.087269, -1, -18.7549, 34.1257, 27.9422, -19.9653, -90.582, -2.05574
0.095202, -1, -18.7412, 34.1188, 27.9424, -19.9581, -90.5751, -2.05686
0.103204, -1, -18.7202, 34.1081, 27.9425, -19.9432, -90.5601, -2.06207
0.11128, -1, -18.6899, 34.0926, 27.9422, -19.9166, -90.5328, -2.07388
0.119202, -1, -18.649, 34.072, 27.9408, -19.873, -90.4871, -2.09388
0.127207, -1, -18.5959, 34.045, 27.9376, -19.8068, -90.4184, -2.12435
0.135278, -1, -18.5293, 34.0113, 27.932, -19.7149, -90.3218, -2.16796
0.143245, -1, -18.4486, 33.9705, 27.9233, -19.5927, -90.1935, -2.2267
0.151286, -1, -18.354, 33.923, 27.9111, -19.4391, -90.0314, -2.29955
0.159375, -1, -18.2458, 33.8686, 27.8955, -19.2539, -89.8356, -2.38846
0.167361, -1, -18.1238, 33.8075, 27.877, -19.0396, -89.609, -2.49039
0.175312, -1, -17.9885, 33.7398, 27.8557, -18.8004, -89.3553, -2.60473
0.183374, -1, -17.8412, 33.6662, 27.8327, -18.5413, -89.0799, -2.7286
0.191403, -1, -17.6834, 33.5873, 27.8086, -18.2675, -88.7888, -2.85947
0.199207, -1, -17.5161, 33.5036, 27.784, -17.9838, -88.4872, -2.99543
0.207383, -1, -17.3408, 33.4161, 27.7591, -17.6938, -88.1786, -3.13458
0.21524, -1, -17.16, 33.3258, 27.734, -17.4, -87.8663, -3.27568
0.223277, -1, -16.9754, 33.2336, 27.7088, -17.1039, -87.5514, -3.41792
0.231403, -1, -16.7882, 33.1406, 27.6838, -16.8066, -87.235, -3.56055
0.239401, -1, -16.5993, 33.047, 27.6588, -16.5081, -86.9175, -3.70355
0.247607, -1, -16.4095, 32.9532, 27.6337, -16.209, -86.599, -3.84674
0.255629, -1, -16.2195, 32.8594, 27.6085, -15.9092, -86.2797, -3.99018
0.264207, -1, -16.0296, 32.7656, 27.5835, -15.6082, -85.9598, -4.1341
0.271742, -1, -15.84, 32.6719, 27.5585, -15.3071, -85.6394, -4.27802
0.280338, -1, -15.6512, 32.5782, 27.5333, -15.0056, -85.3185, -4.42262
0.28772, -1, -15.4626, 32.4844, 27.508, -14.7035, -84.9972, -4.56736
0.296289, -1, -15.2744, 32.3904, 27.4828, -14.4013, -84.6755, -4.71193
0.303777, -1, -15.0867, 32.2961, 27.4576, -14.0986, -84.3533, -4.85693
0.312293, -1, -14.899, 32.2014, 27.4323, -13.7952, -84.031, -5.00195
0.319881, -1, -14.805, 32.1539, 27.4196, -13.4921, -83.7084, -5.14711
0.328343, -1, -14.5216, 32.0112, 27.3812, -13.1886, -83.3854, -5.29255
0.335244, -1, -14.4266, 31.9635, 27.3684, -13.0368, -83.2239, -5.36523
0.344255, -1, -14.1399, 31.8203, 27.3301, -12.5814, -82.7388, -5.58389
0.35121, -1, -14.0439, 31.7725, 27.3174, -12.4294, -82.577, -5.65679
0.360356, -1, -13.7554, 31.6292, 27.2789, -11.9729, -82.0911, -5.87515
0.367191, -1, -13.6589, 31.5814, 27.2661, -11.8207, -81.929, -5.94799
0.37659, -1, -13.3687, 31.4382, 27.2276, -11.3643, -81.4431, -6.16634
0.38453, -1, -13.1749, 31.3429, 27.2021, -11.0599, -81.119, -6.31212
0.391195, -1, -13.0783, 31.2953, 27.1892, -10.9078, -80.957, -6.38493
0.400695, -1, -12.7895, 31.1526, 27.151, -10.4511, -80.4717, -6.60354
0.408679, -1, -12.5976, 31.0575, 27.1255, -10.1468, -80.1482, -6.74945
0.416792, -1, -12.4065, 30.9624, 27.0999, -9.84274, -79.8248, -6.89517
0.424763, -1, -12.2165, 30.8673, 27.0742, -9.53867, -79.5014, -7.04062
0.432758, -1, -12.1217, 30.7721, 27.0487, -9.23486, -79.1779, -7.18612
0.441671, -1, -11.8383, 30.6768, 27.0231, -8.93127, -78.8546, -7.33142
0.447233, -1, -11.744, 30.6291, 27.0104, -8.77944, -78.6929, -7.40405
0.45618, -1, -11.5551, 30.5339, 26.9849, -8.47615, -78.3699, -7.54926
0.464232, -1, -11.3659, 30.4388, 26.9593, -8.17344, -78.0478, -7.69436
0.471184, -1, -11.1763, 30.3439, 26.9338, -7.87105, -77.7259, -7.83926
0.479264, -1, -10.9864, 30.2491, 26.9083, -7.56914, -77.4045, -7.98386
0.48725, -1, -10.7961, 30.1546, 26.883, -7.26789, -77.084, -8.12803
0.495198, -1, -10.6056, 30.0604, 26.8577, -6.96668, -76.7637, -8.27192
0.503294, -1, -10.4148, 29.9662, 26.8323, -6.66612, -76.4438, -8.41558
0.511185, -1, -10.224, 29.8722, 26.8072, -6.36636, -76.1244, -8.55904
0.51921, -1, -10.0339, 29.7785, 26.782, -6.06696, -75.8057, -8.70224
0.527251, -1, -9.84451, 29.685, 26.757, -5.76817, -75.4874, -8.84541
0.535189, -1, -9.65598, 29.5916, 26.7318, -5.46992, -75.17, -8.98826
0.543208, -1, -9.46832, 29.4984, 26.7068, -5.1721, -74.8534, -9.13052
0.551316, -1, -9.28169, 29.4054, 26.6818, -4.87527, -74.5376, -9.27255
0.559195, -1, -9.09608, 29.3124, 26.6569, -4.5792, -74.2226, -9.41413
0.567199, -1, -8.91122, 29.2196, 26.6319, -4.28365, -73.9081, -9.55541
0.575253, -1, -8.72721, 29.1269, 26.6071, -3.98931, -73.5947, -9.69645
0.58323, -1, -8.54374, 29.0345, 26.5823, -3.6955, -73.2819, -9.83699
0.591195, -1, -8.36044, 28.9425, 26.5577, -3.40244, -72.9702, -9.97749
0.599257, -1, -8.17741, 28.8508, 26.533, -3.11054, -72.6595, -10.1174
0.607186, -1, -7.99433, 28.7594, 26.5084, -2.81937, -72.3495, -10.2567
0.615841, -1, -7.81122, 28.6684, 26.4839, -2.52911, -72.0405, -10.3955
0.62425, -1, -7.6283, 28.5777, 26.4596, -2.23996, -71.7324, -10.5339
0.631185, -1, -7.44567, 28.4873, 26.4355, -1.95145, -71.4252, -10.6715
0.639993, -1, -7.26325, 28.3972, 26.4113, -1.66378, -71.1192, -10.8091
0.648241, -1, -7.08141, 28.3075, 26.3871, -1.37732, -70.8142, -10.9462
0.655282, -1, -6.90039, 28.2181, 26.3631, -1.09183, -70.5103, -11.0829
0.66335, -1, -6.72045, 28.1289, 26.3393, -0.807374, -70.2075, -11.2192
0.671331, -1, -6.54152, 28.04, 26.3155, -0.524128, -69.9063, -11.3548
0.679289, -1, -6.36373, 27.9514, 26.2916, -0.241784, -69.606, -11.4899
0.688126, -1, -6.18713, 27.8631, 26.2678, 0.0397262, -69.3066, -11.6246
0.695257, -1, -6.01151, 27.7751, 26.2443, 0.320021, -69.0084, -11.7586
0.703189, -1, -5.83697, 27.6874, 26.2209, 0.599216, -68.7111, -11.8923
0.712094, -1, -5.66323, 27.5999, 26.1974, 0.877374, -68.4149, -12.0256
0.719357, -1, -5.48997, 27.513, 26.174, 1.15426, -68.1198, -12.1583
0.72728, -1, -5.31711, 27.4264, 26.1508, 1.43007, -67.826, -12.2906
0.7362, -1, -5.14449, 27.3402, 26.1276, 1.70498, -67.5335, -12.4222
0.74348, -1, -4.97214, 27.2543, 26.1047, 1.97871, -67.2424, -12.5532
0.751573, -1, -4.80007, 27.169, 26.0817, 2.25102, -66.9524, -12.6832
0.760496, -1, -4.62855, 27.0839, 26.0588, 2.5223, -66.6639, -12.813
0.767739, -1, -4.45753, 26.9993, 26.0361, 2.79225, -66.3766, -12.9421
0.776282, -1, -4.28672, 26.9149, 26.0134, 3.06092, -66.0904, -13.0707
0.783697, -1, -4.11656, 26.8309, 25.991, 3.32875, -65.8055, -13.1986
0.791794, -1, -3.94736, 26.7472, 25.9685, 3.59541, -65.5217, -13.3266
0.800344, -1, -3.77948, 26.6639, 25.9461, 3.86063, -65.2392, -13.4537
0.807731, -1, -3.61283, 26.5809, 25.924, 4.12493, -64.9577, -13.58
0.816276, -1, -3.44725, 26.4982, 25.9017, 4.38801, -64.6777, -13.7058
0.82373, -1, -3.36487, 26.457, 25.8906, 4.51893, -64.5382, -13.7683
0.832189, -1, -3.11922, 26.3339, 25.8576, 4.91045, -64.1215, -13.9554
0.839268, -1, -3.0379, 26.293, 25.8466, 5.04047, -63.9832, -14.0176
0.848301, -1, -2.79544, 26.171, 25.8139, 5.42862, -63.5704, -14.2033
0.855188, -1, -2.71503, 26.1305, 25.8031, 5.55737, -63.4334, -14.2648
0.865231, -1, -2.47449, 26.0098, 25.7708, 5.94179, -63.0243, -14.4491
0.871176, -1, -2.39441, 25.9698, 25.7601, 6.06931, -62.8885, -14.5101
0.880529, -1, -2.15474, 25.8502, 25.7279, 6.44991, -62.4832, -14.6924
0.887243, -1, -2.07501, 25.8106, 25.7173, 6.57626, -62.3486, -14.7529
0.896694, -1, -1.83662, 25.6923, 25.6855, 6.95385, -61.9469, -14.9333
0.904666, -1, -1.67838, 25.6139, 25.6646, 7.20395, -61.6804, -15.0527
0.911219, -1, -1.59939, 25.5748, 25.6542, 7.32853, -61.5477, -15.1123
0.920783, -1, -1.36284, 25.4579, 25.6227, 7.70081, -61.1509, -15.2905
0.928724, -1, -1.20595, 25.3805, 25.6021, 7.94747, -60.8879, -15.4086
0.935248, -1, -1.12784, 25.3419, 25.5918, 8.07045, -60.7569, -15.4674
0.94496, -1, -0.894957, 25.2266, 25.5609, 8.4379, -60.3659, -15.6436
0.952165, -1, -0.818052, 25.1883, 25.5507, 8.55991, -60.2362, -15.7019
0.959234, -1, -0.665026, 25.112, 25.5302, 8.8029, -59.9775, -15.8181
0.968206, -1, -0.512987, 25.036, 25.5097, 9.04466, -59.7202, -15.934
0.976152, -1, -0.362097, 24.9604, 25.4895, 9.2853, -59.4645, -16.0491
0.984154, -1, -0.212285, 24.8853, 25.4693, 9.52501, -59.2099, -16.1639
0.991174, -1, -0.0635067, 24.8104, 25.4494, 9.76342, -58.9562, -16.2782
0.999181, -1, 0.0844711, 24.7359, 25.4296, 10.0007, -58.7036, -16.3919
1.00722, -1, 0.231873, 24.6617, 25.4096, 10.2371, -58.452, -16.5052
1.01525, -1, 0.379073, 24.5879, 25.3897, 10.4724, -58.2014, -16.618
1.02316, -1, 0.526221, 24.5144, 25.37, 10.7065, -57.9518, -16.7304
1.03118, -1, 0.673164, 24.4412, 25.3504, 10.9396, -57.7032, -16.8421
1.03923, -1, 0.819824, 24.3683, 25.3309, 11.1717, -57.4558, -16.953
1.04719, -1, 0.966053, 24.2957, 25.3116, 11.4026, -57.2096, -17.0636
1.05517, -1, 1.11165, 24.2234, 25.2921, 11.6325, -56.9647, -17.1734
1.06323, -1, 1.25687, 24.1516, 25.2729, 11.8615, -56.721, -17.2828
1.07118, -1, 1.40157, 24.0799, 25.2537, 12.0895, -56.4784, -17.3917
1.07916, -1, 1.54571, 24.0087, 25.2346, 12.3166, -56.2373, -17.5001
1.08728, -1, 1.68933, 23.9378, 25.2157, 12.5424, -55.9969, -17.6083
1.09516, -1, 1.83201, 23.8672, 25.1969, 12.7673, -55.7578, -17.7158
1.10317, -1, 1.97354, 23.797, 25.178, 12.9912, -55.5196, -17.8231
1.11124, -1, 2.11414, 23.7271, 25.1593, 13.214, -55.2825, -17.9299
1.11917, -1, 2.25383, 23.6575, 25.1407, 13.4357, -55.0464, -18.0359
1.12724, -1, 2.39248, 23.5882, 25.1221, 13.6566, -54.8111, -18.1418
1.13517, -1, 2.53026, 23.5191, 25.1037, 13.8767, -54.5767, -18.2468
1.1432, -1, 2.66707, 23.4503, 25.0854, 14.0958, -54.3432, -18.3516
1.15127, -1, 2.80287, 23.3819, 25.067, 14.3137, -54.1109, -18.4558
1.15925, -1, 2.93807, 23.3137, 25.0488, 14.5309, -53.8797, -18.5598
1.16731, -1, 3.07293, 23.2457, 25.0305, 14.7473, -53.6496, -18.6633
1.17538, -1, 3.20771, 23.178, 25.0124, 14.9623, -53.4205, -18.7662
1.18327, -1, 3.34254, 23.1107, 24.9945, 15.1767, -53.1923, -18.8692
1.19127, -1, 3.47715, 23.0436, 24.9766, 15.3902, -52.9651, -18.9715
1.19937, -1, 3.61148, 22.9769, 24.9587, 15.6031, -52.7389, -19.0734
1.20723, -1, 3.74552, 22.9105, 24.941, 15.8149, -52.5135, -19.1744
1.2152, -1, 3.87907, 22.8443, 24.9233, 16.0255, -52.2893, -19.2755
1.22327, -1, 4.01224, 22.7785, 24.9056, 16.2355, -52.0659, -19.3757
1.23124, -1, 4.14502, 22.7129, 24.8881, 16.4446, -51.8433, -19.4756
1.2393, -1, 4.27731, 22.6476, 24.8707, 16.6527, -51.6216, -19.5752
1.24755, -1, 4.40901, 22.5826, 24.8532, 16.8599, -51.4007, -19.6743
1.25548, -1, 4.53996, 22.5177, 24.8359, 17.0665, -51.1808, -19.7732
1.26356, -1, 4.67022, 22.453, 24.8187, 17.2723, -50.9617, -19.8715
1.27165, -1, 4.79974, 22.3886, 24.8014, 17.4772, -50.7434, -19.9699
1.28033, -1, 4.92847, 22.3244, 24.7843, 17.6813, -50.526, -20.0677
1.2877, -1, 5.05644, 22.2604, 24.7673, 17.8846, -50.3096, -20.1653
1.29632, -1, 5.18364, 22.1967, 24.7503, 18.0872, -50.0938, -20.2619
1.30372, -1, 5.31002, 22.1333, 24.7332, 18.2889, -49.879, -20.3587
1.31226, -1, 5.43545, 22.0701, 24.7164, 18.4898, -49.6651, -20.4546
1.31975, -1, 5.49786, 22.0386, 24.708, 18.69, -49.452, -20.5503
1.32827, -1, 5.68422, 21.9447, 24.6827, 18.8896, -49.24, -20.6456
1.3352, -1, 5.74616, 21.9135, 24.6743, 18.9891, -49.1341, -20.6932
1.34425, -1, 5.93186, 21.8204, 24.6496, 19.2863, -48.8184, -20.8351
1.35116, -1, 5.99371, 21.7894, 24.6413, 19.3849, -48.7135, -20.8825
1.3603, -1, 6.17915, 21.6968, 24.6165, 19.6798, -48.4, -21.0236
1.36716, -1, 6.24085, 21.666, 24.6083, 19.7777, -48.2958, -21.0707
1.37638, -1, 6.42567, 21.5741, 24.5836, 20.0702, -47.9843, -21.211
1.38322, -1, 6.48721, 21.5435, 24.5754, 20.1673, -47.8808, -21.2578
1.39255, -1, 6.67118, 21.4522, 24.5511, 20.4576, -47.5717, -21.3965
1.39922, -1, 6.73237, 21.4219, 24.543, 20.5541, -47.4689, -21.4429
1.4087, -1, 6.91529, 21.3314, 24.5187, 20.8424, -47.1616, -21.5805
1.41671, -1, 7.03666, 21.2714, 24.5025, 21.0337, -46.9576, -21.6723
1.42469, -1, 7.15732, 21.2117, 24.4865, 21.2243, -46.7546, -21.763
1.43274, -1, 7.27742, 21.1521, 24.4706, 21.4142, -46.5522, -21.8541
1.44075, -1, 7.33727, 21.1224, 24.4547, 21.6036, -46.3507, -21.9443
1.44879, -1, 7.45654, 21.0634, 24.4469, 21.7921, -46.15, -22.0347
1.45671, -1, 7.57519, 21.0044, 24.4312, 21.8861, -46.0499, -22.0797
1.46416, -1, 7.69348, 20.9455, 24.4155, 22.0737, -45.8504, -22.1695
1.47214, -1, 7.81122, 20.8869, 24.3997, 22.2606, -45.6516, -22.2591
1.48019, -1, 7.92841, 20.8284, 24.384, 22.4471, -45.4535, -22.3483
1.48815, -1, 8.04502, 20.77, 24.3684, 22.6328, -45.2563, -22.4372
1.49521, -1, 8.16103, 20.7119, 24.3528, 22.8177, -45.0599, -22.5255
1.50315, -1, 8.27649, 20.6539, 24.3374, 23.0021, -44.8639, -22.6139
1.51121, -1, 8.39166, 20.5961, 24.3221, 23.1857, -44.6684, -22.7014
1.51922, -1, 8.50649, 20.5385, 24.3067, 23.3689, -44.4735, -22.789
1.52715, -1, 8.6208, 20.4813, 24.2912, 23.5512, -44.2791, -22.8759
1.53518, -1, 8.73451, 20.4242, 24.276, 23.7329, -44.0854, -22.9632
1.54322, -1, 8.84803, 20.3674, 24.2608, 23.914, -43.8922, -23.0497
1.55122, -1, 8.96126, 20.3107, 24.2456, 24.0948, -43.6998, -23.1363
1.55999, -1, 9.07428, 20.2542, 24.2306, 24.2749, -43.5082, -23.2221
1.56821, -1, 9.18739, 20.1979, 24.2157, 24.4543, -43.3172, -23.3084
1.57614, -1, 9.30044, 20.1417, 24.2007, 24.633, -43.1268, -23.394
1.58416, -1, 9.41332, 20.0858, 24.1856, 24.8111, -42.937, -23.4795
1.5912, -1, 9.52581, 20.0299, 24.1707, 24.989, -42.7479, -23.5645
1.59915, -1, 9.63782, 19.9743, 24.1558, 25.1661, -42.5592, -23.6491
1.60792, -1, 9.74937, 19.9187, 24.141, 25.3426, -42.3715, -23.7338
1.61626, -1, 9.86068, 19.8633, 24.1262, 25.5186, -42.184, -23.8177
1.62315, -1, 9.97167, 19.8082, 24.1116, 25.6941, -41.9973, -23.9017
1.63199, -1, 10.0823, 19.7533, 24.0971, 25.8693, -41.8113, -23.9849
1.64021, -1, 10.1925, 19.6987, 24.0824, 26.0439, -41.6258, -24.0685
1.64718, -1, 10.3024, 19.6441, 24.0677, 26.2177, -41.4408, -24.1512
1.65656, -1, 10.4117, 19.5898, 24.0532, 26.3909, -41.2562, -24.2344
1.66323, -1, 10.5205, 19.5356, 24.0387, 26.5638, -41.0723, -24.3168
1.67137, -1, 10.6289, 19.4816, 24.0242, 26.7362, -40.8888, -24.3996
1.67957, -1, 10.737, 19.4277, 24.0099, 26.9079, -40.7061, -24.482
1.68726, -1, 10.8447, 19.374, 23.9957, 27.079, -40.5236, -24.5639
1.69533, -1, 10.952, 19.3204, 23.9815, 27.2495, -40.3418, -24.646
1.70372, -1, 11.0589, 19.2669, 23.9671, 27.4198, -40.1606, -24.727
1.7113, -1, 11.1654, 19.2136, 23.9527, 27.5896, -39.9798, -24.8087
1.71925, -1, 11.2716, 19.1605, 23.9386, 27.7588, -39.7999, -24.8893
1.72873, -1, 11.3774, 19.1075, 23.9244, 27.9275, -39.6202, -24.9703
1.73541, -1, 11.4827, 19.0547, 23.9102, 28.0955, -39.4412, -25.0506
1.74337, -1, 11.5878, 19.0021, 23.8963, 28.2632, -39.2627, -25.1309
1.75215, -1, 11.6926, 18.9497, 23.8824, 28.4306, -39.0845, -25.2111
1.75951, -1, 11.7973, 18.8975, 23.8684, 28.5974, -38.907, -25.2908
1.76765, -1, 11.9019, 18.8454, 23.8544, 28.7636, -38.7301, -25.3708
1.7779, -1, 12.0063, 18.7934, 23.8404, 28.9293, -38.5534, -25.4499
1.78404, -1, 12.1105, 18.7415, 23.8265, 29.0946, -38.3776, -25.5297
1.79256, -1, 12.2147, 18.6897, 23.8127, 29.2597, -38.2022, -25.6086
1.79968, -1, 12.3185, 18.6381, 23.7989, 29.4244, -38.0275, -25.6876
1.80824, -1, 12.4221, 18.5866, 23.7852, 29.5884, -37.8532, -25.7664
1.81654, -1, 12.4738, 18.5608, 23.7716, 29.7519, -37.6793, -25.8443
1.82369, -1, 12.577, 18.5095, 23.7648, 29.8335, -37.5058, -25.9228
1.83243, -1, 12.7314, 18.4328, 23.7442, 30.0776, -37.3325, -26.0001
1.83914, -1, 12.7826, 18.4073, 23.7373, 30.1589, -37.2462, -26.039
1.8472, -1, 12.8849, 18.3565, 23.7237, 30.3209, -37.0737, -26.1167
1.85623, -1, 13.0375, 18.2807, 23.7034, 30.563, -36.8157, -26.2319
1.86313, -1, 13.0882, 18.2555, 23.6966, 30.6434, -36.7299, -26.2707
1.87119, -1, 13.1893, 18.2052, 23.6831, 30.804, -36.5589, -26.3472
1.88073, -1, 13.3405, 18.13, 23.6631, 31.0444, -36.3031, -26.4623
1.88715, -1, 13.3907, 18.105, 23.6565, 31.1243, -36.218, -26.5004
1.89522, -1, 13.4909, 18.055, 23.6431, 31.2836, -36.0481, -26.5762
1.90468, -1, 13.6409, 17.9801, 23.623, 31.5219, -35.7945, -26.6909
1.91356, -1, 13.7406, 17.9304, 23.6097, 31.68, -35.6258, -26.7665
1.91918, -1, 13.7904, 17.9055, 23.6031, 31.7591, -35.5417, -26.8046
1.92891, -1, 13.9395, 17.831, 23.5832, 31.9958, -35.2902, -26.9175
1.93751, -1, 14.0387, 17.7815, 23.5699, 32.1529, -35.1228, -26.9929
1.94322, -1, 14.0882, 17.7568, 23.5633, 32.2314, -35.0393, -27.0306
1.95296, -1, 14.187, 17.6831, 23.5438, 32.4659, -34.7899, -27.1423
1.96013, -1, 14.2854, 17.6586, 23.5372, 32.544, -34.7069, -27.1798
1.9672, -1, 14.3834, 17.6097, 23.5241, 32.7, -34.5413, -27.2542
1.97513, -1, 14.4811, 17.561, 23.5109, 32.8556, -34.376, -27.328
1.98315, -1, 14.5785, 17.5124, 23.4979, 33.0107, -34.2109, -27.4026
1.9912, -1, 14.6754, 17.464, 23.485, 33.1653, -34.0463, -27.4763
1.99913, -1, 14.7721, 17.4157, 23.472, 33.3197, -33.8818, -27.5503
2.00713, -1, 14.8686, 17.3675, 23.4591, 33.4736, -33.7181, -27.6241
2.01525, -1, 14.9649, 17.3193, 23.4464, 33.6272, -33.5545, -27.6975
2.02315, -1, 15.061, 17.2711, 23.4336, 33.7804, -33.3913, -27.7713
2.03114, -1, 15.157, 17.2231, 23.4208, 33.9332, -33.2284, -27.8443
2.03915, -1, 15.2528, 17.1751, 23.4078, 34.0855, -33.0662, -27.9176
2.04713, -1, 15.3487, 17.1272, 23.395, 34.2375, -32.9042, -27.9905
2.0552, -1, 15.4444, 17.0794, 23.3822, 34.3893, -32.7429, -28.0627
2.06313, -1, 15.5401, 17.0317, 23.3694, 34.5408, -32.5818, -28.1356
2.07113, -1, 15.6357, 16.9843, 23.3566, 34.6917, -32.4211, -28.2075
2.0792, -1, 15.731, 16.937, 23.3439, 34.8425, -32.2608, -28.2797
2.08719, -1, 15.826, 16.8898, 23.3314, 34.9926, -32.1007, -28.3518
2.09518, -1, 15.9209, 16.843, 23.3189, 35.1425, -31.9412, -28.4228
2.10325, -1, 16.0156, 16.7961, 23.3064, 35.2923, -31.782, -28.4948
2.11113, -1, 16.1098, 16.7495, 23.2937, 35.4417, -31.623, -28.566
2.11914, -1, 16.2037, 16.703, 23.2813, 35.5906, -31.4645, -28.6373
2.1272, -1, 16.2972, 16.6564, 23.2688, 35.7392, -31.3065, -28.7087
2.13513, -1, 16.3906, 16.6099, 23.2564, 35.8875, -31.1485, -28.7792
2.14314, -1, 16.4837, 16.5634, 23.2438, 36.0354, -30.9911, -28.8506
2.15123, -1, 16.5765, 16.5169, 23.2314, 36.1833, -30.8339, -28.9214
2.15922, -1, 16.669, 16.4705, 23.2191, 36.3308, -30.6768, -28.9917
2.16722, -1, 16.7614, 16.4242, 23.2068, 36.4779, -30.5204, -29.0626
2.17529, -1, 16.8537, 16.3779, 23.1944, 36.6245, -30.3641, -29.1323
2.18327, -1, 16.9458, 16.3319, 23.182, 36.7709, -30.2085, -29.2024
2.19123, -1, 17.0378, 16.286, 23.1697, 36.917, -30.0527, -29.2725
2.19932, -1, 17.1295, 16.2403, 23.1574, 37.0628, -29.8975, -29.3418
2.20713, -1, 17.2197, 16.1952, 23.145, 37.2082, -29.7425, -29.4116
2.21516, -1, 17.3066, 16.1517, 23.1325, 37.3529, -29.5887, -29.4804
2.22324, -1, 17.3885, 16.1107, 23.1199, 37.4952, -29.4368, -29.5483
2.23119, -1, 17.465, 16.0726, 23.1075, 37.6331, -29.2898, -29.615
2.23925, -1, 17.536, 16.0377, 23.0954, 37.7631, -29.1509, -29.6771
2.24742, -1, 17.5999, 16.0066, 23.0842, 37.8817, -29.0243, -29.734
2.2554, -1, 17.6564, 15.9791, 23.0743, 37.9852, -28.9134, -29.7843
2.26348, -1, 17.7065, 15.9544, 23.0666, 38.0698, -28.8224, -29.8255
2.27164, -1, 17.7506, 15.9317, 23.0613, 38.1359, -28.7512, -29.8575
2.28022, -1, 17.7885, 15.9121, 23.0581, 38.1827, -28.7002, -29.8803
2.28763, -1, 17.8194, 15.8963, 23.0564, 38.2141, -28.6659, -29.8955
2.29633, -1, 17.844, 15.8843, 23.0556, 38.2337, -28.6444, -29.9049
2.30365, -1, 17.8627, 15.8756, 23.0553, 38.2449, -28.632, -29.91
2.31223, -1, 17.8749, 15.87, 23.0551, 38.2506, -28.6257, -29.9126
2.31998, 2, 17.8814, 15.8669, 23.055, 38.2535, -28.6226, -29.914
2.3283, 2, 17.8843, 15.8655, 23.055, 38.2547, -28.6212, -29.9146
2.33513, 2, 17.885, 15.8651, 23.055, 38.2551, -28.6208, -29.9148
2.34417, 2, 17.8849, 15.8645, 23.055, 38.2556, -28.6202, -29.9151
2.35117, 2, 17.8846, 15.8645, 23.055, 38.2557, -28.6201, -29.9151
2.3602, 2, 17.8834, 15.8643, 23.055, 38.2559, -28.6201, -29.9151
2.36717, 2, 17.8832, 15.8643, 23.055, 38.2559, -28.62, -29.9151
2.37639, 2, 17.8829, 15.8642, 23.055, 38.2559, -28.62, -29.9151
2.38312, 2, 17.8828, 15.8642, 23.055, 38.2559, -28.62, -29.9151
2.39117, 2, 17.8829, 15.8639, 23.055, 38.2559, -28.6199, -29.9151
2.40059, 2, 17.8832, 15.8635, 23.055, 38.2559, -28.62, -29.9151
2.40711, 2, 17.8834, 15.8633, 23.055, 38.2559, -28.62, -29.9151
2.41518, 2, 17.8838, 15.863, 23.055, 38.2559, -28.62, -29.9152
2.42468, 2, 17.8847, 15.8627, 23.055, 38.2559, -28.62, -29.9152
2.43296, 2, 17.8857, 15.8626, 23.055, 38.2559, -28.62, -29.9152
2.43919, 2, 17.8861, 15.8626, 23.055, 38.2559, -28.62, -29.9152
2.44872, 2, 17.8867, 15.8626, 23.055, 38.2559, -28.6201, -29.9152
2.45703, 2, 17.8873, 15.8626, 23.055, 38.2559, -28.6201, -29.9152
2.46318, 2, 17.8874, 15.8626, 23.055, 38.2559, -28.6201, -29.9152
2.47217, 2, 17.8876, 15.8626, 23.055, 38.2559, -28.6201, -29.9152
2.48011, 2, 17.8876, 15.8626, 23.055, 38.2559, -28.6201, -29.9152
2.48719, 2, 17.8877, 15.8627, 23.055, 38.2559, -28.6201, -29.9152
2.49512, 2, 17.8877, 15.8626, 23.055, 38.2559, -28.6202, -29.9152
2.50311, 2, 17.8877, 15.8626, 23.055, 38.2559, -28.6202, -29.9152
2.51118, 2, 17.8875, 15.8625, 23.055, 38.2559, -28.6202, -29.9151
2.51917, 2, 17.8873, 15.8624, 23.055, 38.2559, -28.6202, -29.9151
2.52712, 2, 17.8871, 15.8623, 23.055, 38.2559, -28.6202, -29.9151
2.53616, 2, 17.887, 15.8623, 23.055, 38.2559, -28.6203, -29.9152
2.54417, 2, 17.8869, 15.8623, 23.055, 38.2559, -28.6203, -29.9152
2.55211, 2, 17.8869, 15.8623, 23.055, 38.2559, -28.6203, -29.9151
2.55919, 2, 17.8869, 15.8623, 23.055, 38.2559, -28.6203, -29.9151
2.56712, 2, 17.8869, 15.8623, 23.055, 38.2559, -28.6202, -29.9151
2.57511, 2, 17.8869, 15.8624, 23.055, 38.2559, -28.6203, -29.9151
2.58413, 2, 17.8869, 15.8624, 23.055, 38.2559, -28.6203, -29.9151
2.59217, 2, 17.8869, 15.8624, 23.055, 38.2559, -28.6203, -29.9151
2.59918, 2, 17.8869, 15.8624, 23.055, 38.2559, -28.6204, -29.9151
2.60718, 2, 17.8869, 15.8624, 23.055, 38.2559, -28.6204, -29.9151
2.61511, 2, 17.8869, 15.8623, 23.055, 38.2559, -28.6205, -29.9151
2.62311, 2, 17.8869, 15.8623, 23.055, 38.2559, -28.6205, -29.9151
2.63119, 2, 17.8869, 15.8623, 23.055, 38.2559, -28.6204, -29.915
2.63913, 2, 17.8869, 15.8623, 23.055, 38.2559, -28.6205, -29.9151
2.64712, 2, 17.8868, 15.8623, 23.055, 38.2559, -28.6205, -29.9151
2.65613, 2, 17.8868, 15.8623, 23.055, 38.2559, -28.6205, -29.9151
2.66319, 2, 17.8867, 15.8623, 23.055, 38.2559, -28.6205, -29.915
2.6712, 2, 17.8868, 15.8623, 23.055, 38.2559, -28.6205, -29.9151
2.67928, 2, 17.8868, 15.8624, 23.055, 38.2559, -28.6205, -29.9151
2.68726, 2, 17.8867, 15.8624, 23.055, 38.2559, -28.6205, -29.9151
2.69522, 2, 17.8867, 15.8624, 23.055, 38.2559, -28.6206, -29.9151
2.70331, 2, 17.8867, 15.8624, 23.055, 38.2559, -28.6206, -29.9151
2.71112, 2, 17.8867, 15.8624, 23.055, 38.2559, -28.6206, -29.915
2.71916, 2, 17.8867, 15.8624, 23.055, 38.2558, -28.6206, -29.9151
2.72727, 2, 17.8867, 15.8624, 23.055, 38.2559, -28.6207, -29.915
2.73518, 2, 17.8867, 15.8624, 23.055, 38.2558, -28.6207, -29.9151
2.74322, 2, 17.8866, 15.8624, 23.055, 38.2558, -28.6207, -29.9151
2.75171, 2, 17.8866, 15.8624, 23.055, 38.2558, -28.6207, -29.915
2.76021, 2, 17.8866, 15.8624, 23.055, 38.2558, -28.6208, -29.915
2.76746, 2, 17.8866, 15.8624, 23.055, 38.2558, -28.6208, -29.915
2.77565, 2, 17.8866, 15.8624, 23.055, 38.2558, -28.6208, -29.915
2.7843, 2, 17.8866, 15.8624, 23.055, 38.2557, -28.6208, -29.915
2.79158, 2, 17.8865, 15.8624, 23.055, 38.2557, -28.6208, -29.9151
2.80021, 2, 17.8865, 15.8624, 23.055, 38.2557, -28.6208, -29.915
2.80764, 2, 17.8865, 15.8624, 23.055, 38.2557, -28.6208, -29.915
2.81621, 2, 17.8865, 15.8624, 23.055, 38.2557, -28.6208, -29.915
2.82386, 2, 17.8864, 15.8624, 23.055, 38.2557, -28.6208, -29.915
2.83229, 2, 17.8864, 15.8624, 23.055, 38.2557, -28.6208, -29.915
2.83911, 2, 17.8864, 15.8624, 23.055, 38.2557, -28.6208, -29.915
2.84842, 2, 17.8863, 15.8624, 23.055, 38.2558, -28.6209, -29.915
2.85516, 2, 17.8863, 15.8624, 23.055, 38.2558, -28.6208, -29.915
2.86422, 2, 17.8862, 15.8624, 23.055, 38.2557, -28.6209, -29.915
2.87116, 2, 17.8862, 15.8624, 23.055, 38.2557, -28.6209, -29.915
2.88039, 2, 17.8861, 15.8624, 23.055, 38.2557, -28.6209, -29.915
2.8871, 2, 17.8861, 15.8624, 23.055, 38.2557, -28.6209, -29.915
2.89685, 2, 17.886, 15.8624, 23.055, 38.2557, -28.6209, -29.915
2.90457, 2, 17.886, 15.8625, 23.055, 38.2556, -28.6209, -29.915
2.91115, 2, 17.886, 15.8625, 23.055, 38.2556, -28.6209, -29.915
2.92072, 2, 17.8859, 15.8625, 23.055, 38.2557, -28.621, -29.915
2.92864, 2, 17.8858, 15.8625, 23.055, 38.2557, -28.621, -29.915
2.93667, 2, 17.8858, 15.8624, 23.055, 38.2556, -28.621, -29.915
2.94491, 2, 17.8857, 15.8624, 23.055, 38.2556, -28.621, -29.915
2.95271, 2, 17.8857, 15.8624, 23.055, 38.2556, -28.621, -29.915
2.9607, 2, 17.8857, 15.8624, 23.055, 38.2556, -28.621, -29.915
2.9681, 2, 17.8856, 15.8624, 23.055, 38.2556, -28.621, -29.915
2.9751, 2, 17.8856, 15.8624, 23.055, 38.2556, -28.621, -29.915
2.9831, 2, 17.8855, 15.8624, 23.055, 38.2556, -28.621, -29.915
2.99209, 2, 17.8855, 15.8624, 23.055, 38.2556, -28.6211, -29.915
2.9991, 2, 17.8854, 15.8625, 23.055, 38.2556, -28.6211, -29.915
3.0071, 2, 17.8853, 15.8625, 23.055, 38.2556, -28.6211, -29.915
3.0161, 2, 17.8853, 15.8625, 23.055, 38.2555, -28.621, -29.915
3.02416, 2, 17.8852, 15.8625, 23.055, 38.2555, -28.6211, -29.915
3.03209, 2, 17.8852, 15.8625, 23.055, 38.2555, -28.6211, -29.915
3.04014, 2, 17.8851, 15.8625, 23.055, 38.2555, -28.6211, -29.915
3.0471, 2, 17.8851, 15.8625, 23.055, 38.2555, -28.6211, -29.9151
3.0551, 2, 17.885, 15.8625, 23.055, 38.2554, -28.6211, -29.915
3.06411, 2, 17.885, 15.8625, 23.055, 38.2555, -28.6211, -29.915
3.07216, 2, 17.8849, 15.8625, 23.055, 38.2555, -28.6211, -29.915
3.08009, 2, 17.8849, 15.8625, 23.055, 38.2554, -28.6211, -29.915
3.08809, 2, 17.8848, 15.8625, 23.055, 38.2554, -28.6212, -29.915
3.0971, 2, 17.8847, 15.8625, 23.055, 38.2554, -28.6212, -29.9149
3.1041, 2, 17.8847, 15.8625, 23.055, 38.2554, -28.6212, -29.9149
3.11117, 2, 17.8847, 15.8625, 23.055, 38.2554, -28.6212, -29.9149
3.11911, 2, 17.8846, 15.8625, 23.055, 38.2554, -28.6211, -29.9149
3.1271, 2, 17.8846, 15.8625, 23.055, 38.2553, -28.6212, -29.9149
3.13517, 2, 17.8845, 15.8625, 23.055, 38.2553, -28.6212, -29.9149
3.14311, 2, 17.8845, 15.8625, 23.055, 38.2553, -28.6212, -29.9149
3.15111, 2, 17.8844, 15.8625, 23.055, 38.2553, -28.6212, -29.9149
3.16013, 2, 17.8844, 15.8625, 23.055, 38.2553, -28.6212, -29.9149
3.16718, 2, 17.8843, 15.8625, 23.055, 38.2552, -28.6212, -29.9149
3.17519, 2, 17.8843, 15.8625, 23.055, 38.2552, -28.6212, -29.9149
3.18326, 2, 17.8842, 15.8625, 23.055, 38.2552, -28.6213, -29.9149
3.19124, 2, 17.8842, 15.8625, 23.055, 38.2552, -28.6212, -29.9149
3.19921, 2, 17.8841, 15.8625, 23.055, 38.2552, -28.6213, -29.9149
3.20728, 2, 17.8841, 15.8625, 23.055, 38.2552, -28.6213, -29.9149
3.2151, 2, 17.8841, 15.8625, 23.055, 38.2552, -28.6212, -29.9149
3.22313, 2, 17.884, 15.8625, 23.055, 38.2551, -28.6212, -29.9149
3.2312, 2, 17.884, 15.8625, 23.055, 38.2551, -28.6213, -29.9149
3.23917, 2, 17.884, 15.8626, 23.055, 38.2551, -28.6213, -29.9149
3.24722, 2, 17.884, 15.8625, 23.055, 38.2551, -28.6213, -29.9149
3.25568, 2, 17.884, 15.8625, 23.055, 38.255, -28.6214, -29.9149
3.26334, 2, 17.8839, 15.8625, 23.055, 38.255, -28.6213, -29.9149
3.27145, 2, 17.8839, 15.8625, 23.055, 38.255, -28.6213, -29.9149
3.2799, 2, 17.8839, 15.8625, 23.055, 38.2549, -28.6213, -29.9149
3.28821, 2, 17.8839, 15.8626, 23.055, 38.2549, -28.6214, -29.9149
3.29559, 2, 17.8839, 15.8626, 23.055, 38.2549, -28.6214, -29.9149
3.30421, 2, 17.8839, 15.8626, 23.055, 38.2549, -28.6214, -29.9149
3.31164, 2, 17.8839, 15.8626, 23.055, 38.2549, -28.6214, -29.9149
3.32019, 2, 17.8838, 15.8626, 23.055, 38.2549, -28.6214, -29.9149
3.32823, 2, 17.8838, 15.8626, 23.055, 38.2549, -28.6214, -29.9149
3.33627, 2, 17.8838, 15.8626, 23.055, 38.2549, -28.6214, -29.9149
3.34312, 2, 17.8838, 15.8626, 23.055, 38.2549, -28.6214, -29.9149
3.35219, 2, 17.8838, 15.8626, 23.055, 38.2549, -28.6214, -29.9149
3.35915, 2, 17.8838, 15.8626, 23.055, 38.2549, -28.6214, -29.9149
3.36819, 2, 17.8838, 15.8626, 23.055, 38.2548, -28.6215, -29.9149
3.37511, 2, 17.8837, 15.8626, 23.055, 38.2548, -28.6214, -29.9149
3.38485, 2, 17.8837, 15.8626, 23.055, 38.2548, -28.6214, -29.9149
3.39234, 2, 17.8837, 15.8626, 23.055, 38.2547, -28.6214, -29.9149
3.39911, 2, 17.8837, 15.8626, 23.055, 38.2547, -28.6214, -29.9149
3.40886, 4, 17.8837, 15.8626, 23.055, 38.2547, -28.6214, -29.9149
3.41664, 4, 17.8837, 15.8626, 23.055, 38.2547, -28.6215, -29.9148
3.42466, 4, 17.8837, 15.8626, 23.055, 38.2547, -28.6215, -29.9149
3.4327, 4, 17.8836, 15.8626, 23.055, 38.2546, -28.6214, -29.9149
3.44063, 4, 17.8836, 15.8626, 23.055, 38.2546, -28.6214, -29.9148
3.44864, 4, 17.8836, 15.8626, 23.055, 38.2547, -28.6214, -29.9148
3.45667, 4, 17.8836, 15.8626, 23.055, 38.2547, -28.6214, -29.9148
3.46474, 4, 17.8836, 15.8626, 23.055, 38.2547, -28.6214, -29.9148
3.47295, 4, 17.8836, 15.8626, 23.055, 38.2546, -28.6215, -29.9148
3.4791, 4, 17.8836, 15.8626, 23.055, 38.2546, -28.6215, -29.9148
3.48712, 4, 17.8836, 15.8626, 23.055, 38.2545, -28.6215, -29.9148
3.49613, 4, 17.8835, 15.8626, 23.055, 38.2545, -28.6215, -29.9148
3.50308, 4, 17.8835, 15.8626, 23.055, 38.2545, -28.6215, -29.9148
3.51125, 4, 17.8835, 15.8626, 23.055, 38.2544, -28.6215, -29.9149
3.53744, 4, 17.8835, 15.8627, 23.055, 38.2544, -28.6215, -29.9148
3.53899, 4, 17.8835, 15.8627, 23.055, 38.2544, -28.6215, -29.9148
3.54025, 4, 17.8835, 15.8627, 23.055, 38.2544, -28.6215, -29.9148
3.54425, 4, 17.8835, 15.8627, 23.055, 38.2544, -28.6215, -29.9148
3.55208, 4, 17.8834, 15.8627, 23.055, 38.2544, -28.6215, -29.9148
3.56183, 4, 17.8828, 15.8627, 23.055, 38.2544, -28.6215, -29.9148
3.56807, 4, 17.8818, 15.8627, 23.0551, 38.2543, -28.6215, -29.9147
3.57614, 4, 17.8774, 15.8626, 23.0556, 38.2528, -28.6218, -29.914
3.58409, 4, 17.8692, 15.8624, 23.0575, 38.2458, -28.6236, -29.9101
3.59214, 4, 17.856, 15.8615, 23.0627, 38.2272, -28.6292, -29.8962
3.59909, 4, 17.8357, 15.859, 23.0746, 38.1886, -28.6425, -29.8636
3.60808, 5, 17.8058, 15.8542, 23.0969, 38.1163, -28.6671, -29.8021
3.61614, 5, 17.7655, 15.846, 23.1338, 37.9966, -28.7086, -29.6986
3.62308, 5, 17.7151, 15.8336, 23.1891, 37.8161, -28.773, -29.5418
3.63213, 5, 17.6551, 15.8164, 23.2652, 37.567, -28.8629, -29.3248
3.6391, 5, 17.5851, 15.7948, 23.3625, 37.2484, -28.9806, -29.0461
3.64807, 5, 17.5047, 15.7691, 23.4795, 36.8664, -29.1235, -28.7105
3.65528, 5, 17.4153, 15.74, 23.613, 36.4324, -29.2888, -28.3289
3.66313, 5, 17.3175, 15.7085, 23.7584, 35.9606, -29.4717, -27.9138
3.67124, 5, 17.2106, 15.6757, 23.9115, 35.4667, -29.6667, -27.479
3.6794, 5, 17.0949, 15.6425, 24.0689, 34.9626, -29.8697, -27.0358
3.68725, 5, 16.9722, 15.6093, 24.2279, 34.4562, -30.0776, -26.591
3.69529, 5, 16.8449, 15.5766, 24.3867, 33.9518, -30.289, -26.1488
3.7035, 5, 16.7153, 15.5448, 24.5445, 33.452, -30.503, -25.7116
3.71125, 5, 16.584, 15.514, 24.7021, 32.9569, -30.7192, -25.2793
3.71929, 5, 16.4521, 15.4841, 24.8592, 32.467, -30.9373, -24.8527
3.72791, 5, 16.3201, 15.4552, 25.0149, 31.983, -31.1571, -24.4314
3.73608, 5, 16.1881, 15.4276, 25.1693, 31.5045, -31.3789, -24.0154
3.7432, 5, 16.0563, 15.4014, 25.3231, 31.0313, -31.6025, -23.6053
3.75124, 5, 15.9247, 15.3762, 25.4762, 30.5633, -31.8278, -23.2008
3.75937, 5, 15.793, 15.3521, 25.6282, 30.101, -32.055, -22.8013
3.76753, 5, 15.6612, 15.3293, 25.7787, 29.644, -32.2835, -22.4074
3.77608, 5, 15.5298, 15.3074, 25.9281, 29.1923, -32.5137, -22.0186
3.78417, 5, 15.3983, 15.2868, 26.0769, 28.7458, -32.7455, -21.6353
3.79162, 5, 15.2662, 15.2671, 26.2246, 28.3045, -32.9789, -21.2576
3.80021, 5, 15.1336, 15.2483, 26.371, 27.8684, -33.2136, -20.8848
3.80765, 5, 15, 15.2306, 26.5162, 27.437, -33.4497, -20.5175
3.81624, 5, 14.8654, 15.2139, 26.6603, 27.0104, -33.6873, -20.1552
3.82371, 5, 14.7301, 15.1981, 26.8035, 26.589, -33.9265, -19.7972
3.83225, 5, 14.5941, 15.1833, 26.9455, 26.1725, -34.1669, -19.4444
3.83906, 5, 14.5258, 15.1764, 27.0161, 25.9659, -34.2876, -19.2699
3.8481, 5, 14.3199, 15.1575, 27.226, 25.3534, -34.6521, -18.7534
3.85506, 5, 14.2512, 15.1518, 27.2955, 25.1516, -34.7743, -18.5836
3.86438, 5, 14.0442, 15.136, 27.5025, 24.5529, -35.1429, -18.081
3.87113, 5, 13.9751, 15.1312, 27.571, 24.3556, -35.2665, -17.9157
3.88038, 5, 13.7676, 15.1191, 27.7744, 23.77, -35.6388, -17.4266
3.88705, 5, 13.6985, 15.1156, 27.8417, 23.577, -35.7635, -17.2658
3.89654, 5, 13.4914, 15.107, 28.0418, 23.0043, -36.1395, -16.7906
3.90306, 5, 13.4224, 15.1046, 28.108, 22.8156, -36.2653, -16.6342
3.91267, 5, 13.2158, 15.0992, 28.3047, 22.2554, -36.6445, -16.1718
3.92094, 5, 13.0781, 15.097, 28.4343, 21.8873, -36.8988, -15.869
3.92863, 5, 12.9402, 15.0958, 28.5627, 21.523, -37.1542, -15.5698
3.93664, 5, 12.802, 15.0955, 28.6902, 21.1627, -37.4107, -15.2746
3.94467, 5, 12.6631, 15.0959, 28.8165, 20.8064, -37.6683, -14.9834
3.95267, 5, 12.5933, 15.0973, 28.9417, 20.4535, -37.9272, -14.6963
3.96082, 5, 12.4533, 15.0985, 29.0038, 20.2785, -38.057, -14.4127
3.96876, 5, 12.3125, 15.1016, 29.1271, 19.7591, -38.4481, -14.1328
3.97607, 5, 12.171, 15.1058, 29.2492, 19.5878, -38.579, -13.9942
3.98414, 5, 12.0289, 15.1113, 29.3701, 19.2481, -38.8413, -13.7199
3.99207, 5, 11.8864, 15.1179, 29.4899, 18.9118, -39.1047, -13.4494
4.00007, 5, 11.7435, 15.1254, 29.6086, 18.579, -39.3689, -13.182
4.0081, 5, 11.6001, 15.1339, 29.7261, 18.2498, -39.6338, -12.9184
4.01505, 5, 11.4565, 15.144, 29.8423, 17.9238, -39.8998, -12.6582
4.0242, 5, 11.3129, 15.1552, 29.9573, 17.6014, -40.1668, -12.402
4.03194, 5, 11.1691, 15.1675, 30.0712, 17.2821, -40.4346, -12.1488
4.03905, 5, 11.0253, 15.181, 30.184, 16.9658, -40.703, -11.8991
4.0481, 5, 10.8814, 15.1956, 30.2957, 16.653, -40.9726, -11.6527
4.05611, 5, 10.7375, 15.2117, 30.4062, 16.3432, -41.2429, -11.4098
4.06406, 5, 10.5936, 15.2288, 30.5153, 16.0366, -41.514, -11.1699
4.07208, 5, 10.45, 15.2471, 30.6232, 15.7333, -41.786, -10.9328
4.08012, 5, 10.3064, 15.2667, 30.7299, 15.4326, -42.059, -10.6988
4.08806, 5, 10.1626, 15.2875, 30.8356, 15.1351, -42.3328, -10.4682
4.09771, 5, 10.0185, 15.3093, 30.9402, 14.8406, -42.6073, -10.128
4.10411, 5, 9.8742, 15.3323, 31.0436, 14.5489, -42.8824, -10.0159
4.11207, 5, 9.72916, 15.3566, 31.1456, 14.2601, -43.1583, -9.79393
4.11979, 5, 9.58343, 15.3818, 31.2462, 13.9741, -43.435, -9.57471
4.12812, 5, 9.43727, 15.4081, 31.3457, 13.6905, -43.7122, -9.35846
4.1361, 5, 9.29045, 15.4355, 31.444, 13.4097, -43.9899, -9.14504
4.14826, 5, 9.06925, 15.4788, 31.5896, 12.9934, -44.4077, -8.8297
4.15113, 5, 8.99534, 15.4939, 31.6376, 12.8559, -44.5473, -8.72589
4.15909, 5, 8.84724, 15.5248, 31.7324, 12.5829, -44.8268, -8.52034
4.16732, 5, 8.69893, 15.5567, 31.8258, 12.3124, -45.1073, -8.31725
4.17515, 5, 8.55063, 15.5898, 31.9179, 12.0442, -45.3886, -8.11709
4.18317, 5, 8.40223, 15.6241, 32.0088, 11.7786, -45.6704, -7.91942
4.19122, 5, 8.25367, 15.6595, 32.0987, 11.5155, -45.9528, -7.72406
4.19921, 5, 8.10501, 15.696, 32.1876, 11.2547, -46.2355, -7.53114
4.20716, 5, 7.95642, 15.7336, 32.2753, 10.9961, -46.5188, -7.34084
4.21523, 5, 7.80774, 15.7724, 32.3615, 10.7398, -46.8025, -7.15284
4.2231, 5, 7.65913, 15.8122, 32.4463, 10.4859, -47.0866, -6.96741
4.23109, 5, 7.51083, 15.8531, 32.5297, 10.234, -47.3711, -6.78416
4.23917, 5, 7.36237, 15.8952, 32.6121, 9.98414, -47.6563, -6.60293
4.24718, 5, 7.21392, 15.9384, 32.6933, 9.73664, -47.942, -6.424
4.25522, 5, 7.0653, 15.9828, 32.7736, 9.49118, -48.2281, -6.24709
4.26334, 5, 6.91636, 16.0283, 32.8525, 9.24789, -48.5147, -6.07271
4.2714, 5, 6.76707, 16.0751, 32.9301, 9.00673, -48.802, -5.90036
4.27944, 5, 6.61743, 16.1229, 33.0063, 8.76777, -49.0898, -5.73035
4.28752, 5, 6.46726, 16.1717, 33.0812, 8.53068, -49.378, -5.56216
4.29558, 5, 6.31657, 16.2218, 33.1548, 8.29575, -49.6667, -5.3959
4.30418, 5, 6.16552, 16.273, 33.2274, 8.06279, -49.9554, -5.23171
4.31163, 5, 6.01414, 16.3253, 33.2987, 7.83179, -50.2444, -5.06937
4.32023, 5, 5.86248, 16.3786, 33.3687, 7.60249, -50.5337, -4.90928
4.32763, 5, 5.78664, 16.4329, 33.4376, 7.37519, -50.8235, -4.75109
4.33611, 5, 5.55895, 16.4883, 33.505, 7.14991, -51.1137, -4.59489
4.34306, 5, 5.48296, 16.5163, 33.5383, 7.03787, -51.2588, -4.51749
4.35209, 5, 5.25485, 16.6021, 33.6363, 6.70417, -51.695, -4.28755
4.3591, 5, 5.17875, 16.6312, 33.6683, 6.5938, -51.8405, -4.21189
4.36715, 5, 5.02645, 16.6903, 33.7313, 6.37441, -52.1317, -4.06188
4.37615, 5, 4.79828, 16.7811, 33.8234, 6.04853, -52.5692, -3.84029
4.38311, 5, 4.72231, 16.8118, 33.8534, 5.94065, -52.7152, -3.76745
4.39104, 5, 4.57037, 16.8743, 33.9126, 5.72631, -53.0076, -3.62306
4.40036, 5, 4.34272, 16.9702, 33.999, 5.40801, -53.4463, -3.40967
4.40709, 5, 4.26701, 17.0027, 34.0272, 5.30279, -53.5926, -3.33934
4.41504, 5, 4.11557, 17.0684, 34.0828, 5.09338, -53.8854, -3.1999
4.42459, 5, 3.8882, 17.1691, 34.1636, 4.78216, -54.3248, -2.99381
4.43333, 5, 3.73651, 17.2374, 34.2158, 4.57688, -54.6179, -2.85837
4.43906, 5, 3.66051, 17.2719, 34.2415, 4.47475, -54.7645, -2.79128
4.44863, 5, 3.43186, 17.377, 34.3164, 4.17055, -55.2047, -2.59253
4.45745, 5, 3.35546, 17.4125, 34.3647, 3.96969, -55.4983, -2.46223
4.46304, 5, 3.20226, 17.4843, 34.3883, 3.8699, -55.6453, -2.39752
4.47261, 5, 3.04866, 17.5572, 34.4348, 3.67127, -55.9394, -2.26915
4.48004, 5, 2.89491, 17.6311, 34.4799, 3.47401, -56.2337, -2.1422
4.48704, 5, 2.74106, 17.7061, 34.5236, 3.27807, -56.5282, -2.0166
4.49502, 5, 2.58688, 17.7822, 34.5661, 3.08351, -56.8227, -1.89255
4.50405, 5, 2.43273, 17.8593, 34.6074, 2.89041, -57.1172, -1.76977
4.51106, 5, 2.27864, 17.9374, 34.6474, 2.69866, -57.4115, -1.64877
4.52005, 5, 2.12441, 18.0165, 34.6861, 2.50806, -57.7058, -1.52908
4.52809, 5, 1.97035, 18.0967, 34.7235, 2.31885, -58, -1.41064
4.53512, 5, 1.81651, 18.1778, 34.7596, 2.13107, -58.2945, -1.29397
4.54311, 5, 1.66271, 18.2599, 34.7944, 1.9447, -58.589, -1.17838
4.55214, 5, 1.50923, 18.3429, 34.8277, 1.75955, -58.8836, -1.0637
4.56006, 5, 1.35611, 18.4269, 34.8599, 1.57535, -59.1784, -0.950679
4.5681, 5, 1.2037, 18.5118, 34.8908, 1.39262, -59.4734, -0.838609
4.57603, 5, 1.05269, 18.5971, 34.9204, 1.21135, -59.7681, -0.727903
4.58405, 5, 0.903373, 18.6825, 34.9487, 1.03159, -60.0622, -0.618739
4.59303, 5, 0.754792, 18.7678, 34.9757, 0.853842, -60.3547, -0.511423
4.60005, 5, 0.605385, 18.8531, 35.0008, 0.678087, -60.6442, -0.407569
4.60904, 5, 0.454744, 18.9383, 35.0241, 0.504486, -60.9294, -0.309107
4.61509, 6, 0.303114, 19.0235, 35.0458, 0.332214, -61.2088, -0.219956
4.62303, 6, 0.150909, 19.1087, 35.0658, 0.160072, -61.482, -0.141554
4.63206, 6, -0.00204687, 19.1938, 35.0844, -0.0130434, -61.7492, -0.076915
4.64017, 6, -0.155677, 19.2788, 35.1016, -0.188278, -62.0111, -0.0253083
4.64703, 6, -0.308794, 19.3636, 35.1174, -0.366093, -62.2692, 0.0145151
4.65654, 6, -0.460973, 19.4481, 35.1321, -0.546455, -62.5251, 0.0443923
4.66404, 6, -0.612957, 19.5324, 35.1458, -0.728654, -62.7798, 0.0671001
4.67204, 6, -0.765709, 19.6168, 35.158, -0.912044, -63.0344, 0.0854149
4.68083, 6, -0.919433, 19.7016, 35.1688, -1.09567, -63.289, 0.100914
4.68715, 6, -1.07426, 19.7871, 35.1784, -1.27895, -63.5437, 0.114831
4.69522, 6, -1.22962, 19.8734, 35.187, -1.46169, -63.7982, 0.127302
4.70355, 6, -1.38514, 19.9606, 35.1945, -1.64405, -64.0526, 0.138743
4.7111, 6, -1.54067, 20.0486, 35.2007, -1.826, -64.3069, 0.149279
4.71927, 6, -1.69589, 20.1374, 35.2059, -2.00753, -64.5611, 0.158969
4.72851, 6, -1.85048, 20.2271, 35.2099, -2.1884, -64.8149, 0.167959
4.7354, 6, -2.00501, 20.3178, 35.2126, -2.36875, -65.0688, 0.176155
4.74316, 6, -2.1596, 20.4093, 35.2141, -2.54856, -65.3223, 0.183653
4.75268, 6, -2.31434, 20.5017, 35.2148, -2.72797, -65.5758, 0.190561
4.76009, 6, -2.46951, 20.5948, 35.2144, -2.90672, -65.8291, 0.196694
4.76733, 6, -2.625, 20.6887, 35.2129, -3.08486, -66.0822, 0.202246
4.77685, 6, -2.7806, 20.7833, 35.2102, -3.26245, -66.3353, 0.206997
4.78407, 6, -2.93649, 20.8786, 35.2063, -3.43975, -66.5882, 0.211031
4.79153, 6, -3.09274, 20.9744, 35.2012, -3.61668, -66.841, 0.214343
4.80122, 6, -3.2493, 21.071, 35.1948, -3.793, -67.0935, 0.216876
4.80768, 6, -3.40622, 21.1684, 35.1871, -3.96874, -67.3457, 0.218686
4.8162, 6, -3.5634, 21.2665, 35.1781, -4.14396, -67.5977, 0.219828
4.82435, 6, -3.72036, 21.3651, 35.168, -4.31877, -67.8495, 0.220471
4.83188, 6, -3.87731, 21.4646, 35.1567, -4.49335, -68.1008, 0.220728
4.84027, 6, -4.03418, 21.5647, 35.1442, -4.66726, -68.3516, 0.220788
4.84703, 6, -4.11255, 21.6149, 35.1374, -4.75401, -68.477, 0.220774
4.85615, 6, -4.34764, 21.7668, 35.1153, -5.01353, -68.8532, 0.220188
4.86302, 6, -4.42598, 21.8178, 35.1074, -5.09973, -68.9784, 0.2197
4.87288, 6, -4.66022, 21.9722, 35.0818, -5.35815, -69.3534, 0.216786
4.88057, 6, -4.81577, 22.0759, 35.063, -5.52972, -69.6034, 0.21353
4.88702, 6, -4.89341, 22.128, 35.0532, -5.61529, -69.7283, 0.211536
4.89709, 6, -5.12561, 22.2855, 35.0219, -5.87146, -70.1025, 0.204217
4.90448, 6, -5.28009, 22.3912, 34.9995, -6.04183, -70.3515, 0.198349
4.91103, 6, -5.35737, 22.4443, 34.9879, -6.12689, -70.4759, 0.195083
4.92132, 6, -5.58957, 22.6049, 34.951, -6.38141, -70.8483, 0.184352
5.06253, 6, -8.31183, 24.5842, 34.3167, -9.28516, -75.1278, -0.0406945
5.06383, 6, -8.31183, 24.5842, 34.3167, -9.28516, -75.1278, -0.0406945
5.06751, 6, -8.38834, 24.6434, 34.293, -9.36645, -75.2481, -0.0494115
5.06879, 6, -8.38834, 24.6434, 34.293, -9.36645, -75.2481, -0.0494115
5.07084, 6, -8.46486, 24.7028, 34.2691, -9.44763, -75.3681, -0.0582261
5.07203, 6, -8.46486, 24.7028, 34.2691, -9.44763, -75.3681, -0.0582261
5.07422, 6, -8.54143, 24.7624, 34.2448, -9.52883, -75.4882, -0.0671177
5.07781, 6, -8.6181, 24.8221, 34.2203, -9.60998, -75.6081, -0.0761054
5.07928, 6, -8.6181, 24.8221, 34.2203, -9.60998, -75.6081, -0.0761054
5.08046, 6, -8.6181, 24.8221, 34.2203, -9.60998, -75.6081, -0.0761054
5.08261, 6, -8.69488, 24.882, 34.1954, -9.69107, -75.7279, -0.0852565
5.08382, 6, -8.69488, 24.882, 34.1954, -9.69107, -75.7279, -0.0852565
5.08565, 6, -8.69488, 24.9421, 34.1702, -9.77205, -75.8475, -0.0945512
5.08702, 6, -8.77174, 24.9421, 34.1702, -9.77205, -75.8475, -0.0945512
5.0883, 6, -8.77174, 24.9421, 34.1702, -9.77205, -75.8475, -0.0945512
5.09197, 6, -8.84865, 25.0023, 34.1447, -9.8528, -75.967, -0.103987
5.0939, 6, -8.92564, 25.0626, 34.119, -9.93341, -76.0863, -0.113616
5.09525, 6, -8.92564, 25.0626, 34.119, -9.93341, -76.0863, -0.113616
5.09642, 6, -8.92564, 25.0626, 34.119, -9.93341, -76.0863, -0.113616
5.09854, 6, -9.00276, 25.1231, 34.0929, -10.014, -76.2055, -0.123432
5.09984, 6, -9.00276, 25.1231, 34.0929, -10.014, -76.2055, -0.123432
5.10103, 6, -9.00276, 25.1231, 34.0929, -10.014, -76.2055, -0.123432
5.10622, 6, -9.15734, 25.2445, 34.0398, -10.1749, -76.4435, -0.143525
5.11101, 6, -9.23467, 25.3053, 34.0128, -10.2551, -76.5624, -0.153811
5.12004, 6, -9.38931, 25.4274, 33.9579, -10.4157, -76.7998, -0.174705
5.12804, 6, -9.54407, 25.5503, 33.9016, -10.5759, -77.0369, -0.195849
5.13609, 6, -9.69875, 25.6738, 33.8441, -10.7358, -77.2734, -0.217023
5.14413, 6, -9.85323, 25.7978, 33.7855, -10.8953, -77.5095, -0.238398
5.15101, 6, -10.0078, 25.9223, 33.7256, -11.0545, -77.7449, -0.260103
5.16002, 6, -10.162, 26.047, 33.6645, -11.2133, -77.9796, -0.282235
5.16803, 6, -10.3159, 26.1723, 33.6022, -11.372, -78.2138, -0.304805
5.17612, 6, -10.4695, 26.298, 33.5387, -11.5302, -78.4474, -0.328199
5.1832, 6, -10.6227, 26.4243, 33.4739, -11.6881, -78.6801, -0.35228
5.19113, 6, -10.7754, 26.5512, 33.4078, -11.8455, -78.9124, -0.376597
5.19919, 6, -10.9274, 26.6785, 33.3406, -12.0026, -79.144, -0.400923
5.20717, 6, -11.0787, 26.8063, 33.272, -12.1596, -79.3751, -0.425289
5.21508, 6, -11.2293, 26.9346, 33.2022, -12.3162, -79.6056, -0.449834
5.22327, 6, -11.3795, 27.0635, 33.1312, -12.4724, -79.8356, -0.474976
5.23104, 6, -11.5297, 27.193, 33.059, -12.6282, -80.0651, -0.500769
5.23906, 6, -11.6799, 27.3231, 32.9856, -12.7837, -80.2941, -0.527129
5.24793, 6, -11.8304, 27.4537, 32.9111, -12.939, -80.5227, -0.553761
5.25608, 6, -11.9812, 27.5846, 32.8354, -13.094, -80.7505, -0.580184
5.26402, 6, -12.1322, 27.7158, 32.7584, -13.2488, -80.9776, -0.606701
5.27209, 6, -12.2835, 27.8477, 32.6801, -13.4029, -81.204, -0.633522
5.28002, 6, -12.4351, 27.98, 32.6005, -13.5568, -81.4297, -0.660834
5.28806, 6, -12.5865, 28.1126, 32.5196, -13.7103, -81.6548, -0.688864
5.29628, 6, -12.7377, 28.2456, 32.4375, -13.8638, -81.879, -0.717403
5.30361, 6, -12.8889, 28.3787, 32.3543, -14.0169, -82.1026, -0.74611
5.31215, 6, -13.0398, 28.5126, 32.27, -14.1698, -82.3253, -0.774645
5.32041, 6, -13.1903, 28.647, 32.1844, -14.3222, -82.5476, -0.803199
5.32757, 6, -13.3405, 28.7818, 32.0976, -14.4744, -82.7691, -0.832253
5.33612, 6, -13.4903, 28.917, 32.0095, -14.6263, -82.9901, -0.861673
5.34465, 6, -13.6396, 29.0525, 31.9201, -14.7781, -83.2103, -0.891866
5.35203, 6, -13.7886, 29.1884, 31.8294, -14.9294, -83.4298, -0.922243
5.35906, 6, -13.8629, 29.2565, 31.7837, -15.005, -83.5393, -0.937393
5.3689, 6, -14.084, 29.4619, 31.6446, -15.231, -83.867, -0.982588
5.3761, 6, -14.2307, 29.5993, 31.5505, -15.3813, -84.0845, -1.01286
5.38313, 6, -14.3038, 29.6682, 31.5031, -15.4563, -84.1931, -1.02824
5.39323, 6, -14.5226, 29.8749, 31.3588, -15.6811, -84.5174, -1.07521
5.39905, 6, -14.5955, 29.9441, 31.31, -15.7559, -84.6253, -1.09107
5.40842, 6, -14.8144, 30.1525, 31.1616, -15.9795, -84.9474, -1.13837
5.415, 6, -14.8874, 30.2222, 31.1115, -16.0538, -85.0545, -1.15405
5.42313, 6, -15.0335, 30.3617, 31.0105, -16.2024, -85.268, -1.18553
5.43262, 6, -15.2533, 30.5716, 30.8571, -16.4245, -85.5868, -1.23323
5.44057, 6, -15.4, 30.7119, 30.7533, -16.5724, -85.7985, -1.26574
5.44934, 6, -15.5468, 30.8528, 30.6482, -16.7199, -86.0094, -1.29828
5.455, 6, -15.6202, 30.9234, 30.5951, -16.7934, -86.1145, -1.31441
5.46455, 6, -15.7668, 31.0647, 30.4878, -16.9403, -86.4288, -1.36257
5.47201, 6, -15.9129, 31.2062, 30.3795, -17.0868, -86.5332, -1.37862
5.479, 6, -16.0587, 31.3477, 30.2701, -17.2332, -86.7415, -1.41109
5.48802, 6, -16.2043, 31.4899, 30.1597, -17.3794, -86.949, -1.44422
5.49603, 6, -16.3496, 31.6328, 30.0479, -17.5252, -87.1557, -1.47752
5.50306, 6, -16.4945, 31.7759, 29.9349, -17.6708, -87.3619, -1.51047
5.511, 6, -16.639, 31.9192, 29.8203, -17.8158, -87.5674, -1.5434
5.52001, 6, -16.7829, 32.0625, 29.7046, -17.9607, -87.7721, -1.57628
5.52803, 6, -16.9259, 32.2063, 29.5879, -18.1051, -87.9762, -1.60993
5.53601, 6, -17.068, 32.3509, 29.47, -18.2496, -88.1793, -1.64371
5.54406, 6, -17.2094, 32.4958, 29.351, -18.3936, -88.3816, -1.67729
5.552, 6, -17.3497, 32.6408, 29.2307, -18.537, -88.5832, -1.71034
5.55997, 6, -17.4883, 32.7849, 29.1095, -18.6801, -88.7838, -1.74361
5.56807, 6, -17.6238, 32.9274, 28.9879, -18.8225, -88.9834, -1.777
5.576, 6, -17.7551, 33.0673, 28.8669, -18.9634, -89.1804, -1.81092
5.58401, 6, -17.8818, 33.2033, 28.7476, -19.1021, -89.3737, -1.8444
5.59207, 6, -18.0034, 33.3335, 28.6315, -19.2363, -89.5609, -1.87661
5.6, 6, -18.1174, 33.4557, 28.5206, -19.3637, -89.7386, -1.90698
5.60899, 6, -18.2233, 33.5687, 28.4168, -19.4819, -89.9037, -1.93527
5.61611, 6, -18.3209, 33.6724, 28.3217, -19.5882, -90.0525, -1.9611
5.62405, 6, -18.4096, 33.7656, 28.2374, -19.6811, -90.1823, -1.98395
5.63201, 6, -18.4875, 33.8468, 28.1649, -19.7589, -90.2914, -2.00353
5.64007, 6, -18.5544, 33.9158, 28.1051, -19.8218, -90.38, -2.01941
5.64807, 6, -18.611, 33.9732, 28.0571, -19.8708, -90.4483, -2.03178
5.65507, 6, -18.6574, 34.0196, 28.0202, -19.9063, -90.499, -2.04068
5.66407, 6, -18.6935, 34.0553, 27.993, -19.9309, -90.5337, -2.04686
5.67197, 6, -18.7202, 34.0813, 27.9739, -19.9471, -90.5565, -2.05077
5.68, 6, -18.74, 34.0997, 27.9611, -19.957, -90.5703, -2.05311
5.68811, 6, -18.7537, 34.1126, 27.9531, -19.9626, -90.578, -2.05446
5.69597, 7, -18.7625, 34.1206, 27.9484, -19.9654, -90.582, -2.05513
5.704, 7, -18.7677, 34.1246, 27.9457, -19.9668, -90.584, -2.05553
5.71207, 7, -18.7696, 34.1265, 27.944, -19.9676, -90.585, -2.05568
5.72, 7, -18.77, 34.1274, 27.943, -19.968, -90.5855, -2.05578
5.72801, 7, -18.7698, 34.1279, 27.9423, -19.9683, -90.5857, -2.05583
5.73607, 7, -18.7697, 34.1283, 27.9419, -19.9684, -90.5859, -2.05585
5.744, 7, -18.7697, 34.129, 27.9418, -19.9684, -90.5859, -2.0558
5.75201, 7, -18.7699, 34.1297, 27.9417, -19.9684, -90.586, -2.0558
5.7601, 7, -18.7703, 34.1307, 27.9417, -19.9685, -90.586, -2.05576
5.76801, 7, -18.7709, 34.1319, 27.9417, -19.9685, -90.5859, -2.0558
5.77601, 7, -18.7716, 34.133, 27.9416, -19.9685, -90.586, -2.0558
5.78407, 7, -18.7723, 34.1339, 27.9416, -19.9685, -90.5859, -2.05582
5.79208, 7, -18.7733, 34.1347, 27.9416, -19.9685, -90.5859, -2.05585
5.79981, 7, -18.7744, 34.1351, 27.9416, -19.9685, -90.586, -2.0559
5.80818, 7, -18.7755, 34.1352, 27.9416, -19.9685, -90.586, -2.05586
5.81619, 7, -18.7763, 34.1353, 27.9415, -19.9685, -90.586, -2.05586
