hehonglu123/ABB_Primitive_Study/realrobot/movec_30_car/curve_exe_v1000_fine.csv
timestamp, cmd_num, J1, J2, J3, J4, J5, J6
0.000385, -1, -11.8225, 27.6361, 43.2526, -10.4213, -101.239, 3.92076
0.00221, -1, -11.8225, 27.6361, 43.2526, -10.4213, -101.239, 3.92076
0.008071, -1, -11.8225, 27.6361, 43.2526, -10.4213, -101.239, 3.92076
0.028876, -1, -11.8225, 27.6361, 43.2526, -10.4212, -101.239, 3.92072
0.030104, -1, -11.8225, 27.6361, 43.2526, -10.4212, -101.239, 3.92072
0.032273, -1, -11.8225, 27.6361, 43.2526, -10.4212, -101.239, 3.92071
0.040048, -1, -11.8225, 27.6361, 43.2526, -10.4212, -101.239, 3.92073
0.046689, -1, -11.8225, 27.6361, 43.2526, -10.4213, -101.239, 3.92074
0.056219, -1, -11.8211, 27.6359, 43.2526, -10.4212, -101.239, 3.92071
0.064127, -1, -11.8173, 27.635, 43.2525, -10.4211, -101.239, 3.92067
0.072984, -1, -11.8098, 27.6324, 43.2516, -10.4196, -101.236, 3.92044
0.078703, -1, -11.8043, 27.6302, 43.2507, -10.4174, -101.232, 3.91978
0.088243, -1, -11.7782, 27.6189, 43.2438, -10.3999, -101.207, 3.90927
0.09707, -1, -11.7494, 27.6064, 43.233, -10.3733, -101.168, 3.89151
0.1027, -1, -11.7307, 27.5985, 43.2249, -10.3532, -101.139, 3.87827
0.112228, -1, -11.685, 27.5796, 43.2022, -10.2969, -101.057, 3.81492
0.121227, -1, -11.5941, 27.5429, 43.147, -10.1621, -100.859, 3.74817
0.127733, -1, -11.5573, 27.5284, 43.1225, -10.1021, -100.77, 3.70655
0.135696, -1, -11.4735, 27.4954, 43.064, -9.95931, -100.559, 3.60804
0.143688, -1, -11.3764, 27.4574, 42.9934, -9.78684, -100.304, 3.48855
0.151687, -1, -11.2667, 27.4147, 42.9121, -9.5879, -100.01, 3.35082
0.159744, -1, -11.145, 27.3674, 42.8218, -9.36734, -99.682, 3.19767
0.167741, -1, -11.0116, 27.3151, 42.7246, -9.13036, -99.3293, 3.03322
0.174884, -1, -10.868, 27.2587, 42.622, -8.88125, -98.9587, 2.86011
0.183748, -1, -10.7166, 27.1993, 42.5155, -8.62338, -98.5749, 2.68127
0.19168, -1, -10.5598, 27.1375, 42.4065, -8.35993, -98.1827, 2.49805
0.199839, -1, -10.3986, 27.0739, 42.296, -8.0925, -97.7843, 2.31211
0.207724, -1, -10.2342, 27.009, 42.1844, -7.8223, -97.3816, 2.12394
0.215694, -1, -10.068, 26.9433, 42.072, -7.55052, -96.9761, 1.93471
0.223724, -1, -9.9005, 26.8771, 41.9588, -7.27708, -96.568, 1.74448
0.23172, -1, -9.73246, 26.8108, 41.8449, -7.00199, -96.158, 1.55314
0.239744, -1, -9.564, 26.7442, 41.7303, -6.72574, -95.7456, 1.3609
0.248686, -1, -9.39544, 26.6775, 41.6154, -6.44838, -95.332, 1.16771
0.25573, -1, -9.22706, 26.6107, 41.5001, -6.1696, -94.9163, 0.97374
0.263684, -1, -9.05846, 26.5435, 41.3845, -5.88971, -94.499, 0.779129
0.272682, -1, -8.88902, 26.4762, 41.2682, -5.60869, -94.0801, 0.583952
0.279789, -1, -8.71869, 26.4086, 41.1513, -5.32635, -93.6594, 0.387789
0.287685, -1, -8.54703, 26.3405, 41.0338, -5.0429, -93.2368, 0.190902
0.295733, -1, -8.37404, 26.2719, 40.916, -4.75858, -92.8123, -0.00697071
0.303725, -1, -8.20008, 26.2028, 40.7977, -4.47302, -92.3859, -0.205396
0.31171, -1, -8.02485, 26.1334, 40.679, -4.18653, -91.9585, -0.404609
0.319759, -1, -7.84841, 26.0637, 40.5598, -3.89916, -91.5296, -0.604444
0.32772, -1, -7.67105, 25.9937, 40.44, -3.61059, -91.0995, -0.805153
0.335715, -1, -7.49298, 25.9235, 40.3197, -3.32106, -90.668, -1.00656
0.343693, -1, -7.3143, 25.8531, 40.1991, -3.0307, -90.2347, -1.20891
0.351734, -1, -7.13533, 25.7827, 40.0782, -2.73924, -89.7999, -1.41134
0.359773, -1, -6.95625, 25.7123, 39.9571, -2.44684, -89.3632, -1.61452
0.368777, -1, -6.77739, 25.6418, 39.8356, -2.15371, -88.9252, -1.81816
0.37669, -1, -6.59853, 25.5711, 39.7137, -1.85951, -88.4869, -2.0225
0.384658, -1, -6.42007, 25.5002, 39.5915, -1.56461, -88.0476, -2.22744
0.391703, -1, -6.24194, 25.429, 39.469, -1.26935, -87.6073, -2.43284
0.39974, -1, -6.06346, 25.3577, 39.3462, -0.973245, -87.166, -2.6385
0.407748, -1, -5.88446, 25.2862, 39.2232, -0.676757, -86.7235, -2.84474
0.415691, -1, -5.70489, 25.2143, 39.0999, -0.37991, -86.2803, -3.05135
0.42375, -1, -5.52454, 25.1423, 38.9764, -0.0821329, -85.8363, -3.25854
0.431708, -1, -5.34318, 25.0701, 38.8527, 0.215847, -85.3914, -3.4659
0.440025, -1, -5.16094, 24.9979, 38.7288, 0.514047, -84.9464, -3.6732
0.447764, -1, -4.97796, 24.9257, 38.6049, 0.812835, -84.5009, -3.88053
0.455769, -1, -4.79431, 24.8535, 38.4806, 1.11158, -84.0549, -4.08831
0.464138, -1, -4.61049, 24.7812, 38.3565, 1.41054, -83.6089, -4.29618
0.471235, -1, -4.42658, 24.709, 38.2323, 1.71003, -83.1623, -4.5045
0.47985, -1, -4.24261, 24.6367, 38.1081, 2.00938, -82.7155, -4.71255
0.488291, -1, -4.05899, 24.5645, 37.9839, 2.30883, -82.2688, -4.9205
0.494666, -1, -3.96733, 24.5285, 37.9218, 2.45857, -82.0452, -5.0245
0.503717, -1, -3.69326, 24.4202, 37.7354, 2.90727, -81.3753, -5.33654
0.512497, -1, -3.51162, 24.3478, 37.6113, 3.20625, -80.9294, -5.54463
0.518662, -1, -3.42101, 24.3117, 37.5492, 3.35579, -80.7067, -5.64855
0.527974, -1, -3.15026, 24.2035, 37.3633, 3.80365, -80.0394, -5.9597
0.536611, -1, -2.97067, 24.1314, 37.2395, 4.10169, -79.5948, -6.16672
0.544055, -1, -2.79126, 24.0595, 37.1159, 4.39928, -79.1506, -6.37365
0.55071, -1, -2.70157, 24.0235, 37.0542, 4.54777, -78.9288, -6.47698
0.560956, -1, -2.43216, 23.9159, 36.8695, 4.99257, -78.2642, -6.78643
0.568153, -1, -2.25198, 23.8444, 36.7468, 5.28846, -77.8234, -6.99209
0.574669, -1, -2.16187, 23.8088, 36.6855, 5.43613, -77.6032, -7.09477
0.584206, -1, -1.89135, 23.7022, 36.502, 5.87768, -76.9445, -7.40205
0.592234, -1, -1.71135, 23.6314, 36.3801, 6.17089, -76.5071, -7.60623
0.600455, -1, -1.53154, 23.5607, 36.2587, 6.46305, -76.0705, -7.80988
0.608254, -1, -1.44169, 23.5255, 36.1376, 6.75446, -75.6353, -8.01251
0.616198, -1, -1.26227, 23.4553, 36.0772, 6.89992, -75.4183, -8.11351
0.624497, -1, -1.08383, 23.3853, 35.9569, 7.18999, -74.9857, -8.31489
0.631672, -1, -0.906699, 23.3156, 35.837, 7.47873, -74.5548, -8.51562
0.638723, -1, -0.730971, 23.246, 35.7175, 7.76645, -74.1256, -8.71554
0.647733, -1, -0.556344, 23.1767, 35.5986, 8.05285, -73.6982, -8.91491
0.655661, -1, -0.382978, 23.1076, 35.4801, 8.338, -73.2726, -9.11318
0.663666, -1, -0.210887, 23.039, 35.3622, 8.6224, -72.8487, -9.31061
0.671677, -1, -0.0401296, 22.9705, 35.2449, 8.90525, -72.427, -9.50698
0.679669, -1, 0.12952, 22.9024, 35.1279, 9.18652, -72.0072, -9.70257
0.687728, -1, 0.298466, 22.8346, 35.0115, 9.46651, -71.5892, -9.89718
0.695672, -1, 0.467209, 22.7673, 34.8958, 9.74478, -71.1736, -10.091
0.703768, -1, 0.635838, 22.7004, 34.7807, 10.0216, -70.7604, -10.2834
0.713225, -1, 0.888385, 22.6006, 34.6094, 10.4348, -70.1444, -10.5703
0.719668, -1, 0.972295, 22.5676, 34.5526, 10.5715, -69.9405, -10.6652
0.727741, -1, 1.13938, 22.5017, 34.4393, 10.844, -69.5341, -10.8548
0.735666, -1, 1.306, 22.4361, 34.3267, 11.1151, -69.1296, -11.0434
0.744661, -1, 1.47194, 22.3708, 34.2147, 11.3844, -68.7274, -11.231
0.751835, -1, 1.63716, 22.306, 34.1035, 11.6522, -68.3271, -11.4172
0.759666, -1, 1.8015, 22.2415, 33.9929, 11.9187, -67.9291, -11.6024
0.768667, -1, 1.96441, 22.1773, 33.8829, 12.184, -67.5339, -11.7865
0.775725, -1, 2.12565, 22.1136, 33.7735, 12.4473, -67.1412, -11.9696
0.783671, -1, 2.28548, 22.0502, 33.6647, 12.7088, -66.751, -12.1519
0.791671, -1, 2.44412, 21.9872, 33.5565, 12.9691, -66.3632, -12.3329
0.799785, -1, 2.60119, 21.9246, 33.4492, 13.2273, -65.9774, -12.5126
0.807666, -1, 2.75689, 21.8625, 33.3427, 13.4842, -65.594, -12.6911
0.815742, -1, 2.91114, 21.8007, 33.2367, 13.7398, -65.213, -12.8684
0.823679, -1, 3.06418, 21.7392, 33.1312, 13.9935, -64.8343, -13.0446
0.831665, -1, 3.21653, 21.6781, 33.0263, 14.2454, -64.4581, -13.2199
0.839732, -1, 3.36856, 21.6175, 32.9222, 14.4959, -64.0844, -13.3943
0.847664, -1, 3.52016, 21.5573, 32.8189, 14.7447, -63.7131, -13.5673
0.855727, -1, 3.67132, 21.4974, 32.7164, 14.992, -63.344, -13.7391
0.863673, -1, 3.8219, 21.438, 32.6144, 15.2376, -62.9775, -13.9098
0.871755, -1, 3.9715, 21.3788, 32.5129, 15.4818, -62.6134, -14.0794
0.879747, -1, 4.12055, 21.3202, 32.4119, 15.7244, -62.2517, -14.248
0.887664, -1, 4.26906, 21.2619, 32.3117, 15.9651, -61.8921, -14.4158
0.895666, -1, 4.41672, 21.2041, 32.2123, 16.2044, -61.5347, -14.5823
0.903742, -1, 4.56342, 21.1467, 32.1138, 16.4422, -61.1796, -14.7474
0.91166, -1, 4.70915, 21.0897, 32.0159, 16.6782, -60.8266, -14.9116
0.919666, -1, 4.85334, 21.0331, 31.9184, 16.9128, -60.4764, -15.0745
0.927745, -1, 4.99591, 20.9766, 31.8214, 17.146, -60.1285, -15.2366
0.935685, -1, 5.13748, 20.9205, 31.7249, 17.3777, -59.7827, -15.3976
0.943713, -1, 5.27781, 20.8647, 31.6292, 17.6079, -59.4398, -15.5577
0.951818, -1, 5.4167, 20.8092, 31.5344, 17.8365, -59.0988, -15.7169
0.95976, -1, 5.55431, 20.754, 31.4402, 18.0639, -58.7597, -15.8749
0.967768, -1, 5.69067, 20.6993, 31.3466, 18.2898, -58.4228, -16.032
0.97584, -1, 5.82583, 20.6448, 31.2533, 18.514, -58.0878, -16.1881
0.983777, -1, 5.96037, 20.5907, 31.1604, 18.7371, -57.7546, -16.3433
0.991667, -1, 6.09471, 20.537, 31.0681, 18.9588, -57.4235, -16.4976
0.99974, -1, 6.22876, 20.4838, 30.9767, 19.179, -57.0947, -16.651
1.0077, -1, 6.36256, 20.431, 30.886, 19.3979, -56.7682, -16.8033
1.01569, -1, 6.49592, 20.3784, 30.796, 19.6154, -56.4436, -16.9545
1.02385, -1, 6.62865, 20.3263, 30.7064, 19.8316, -56.1214, -17.1047
1.03179, -1, 6.76062, 20.2743, 30.617, 20.0463, -55.8011, -17.2538
1.03994, -1, 6.89197, 20.2226, 30.528, 20.2595, -55.4826, -17.4023
1.04804, -1, 7.02276, 20.1712, 30.4398, 20.4716, -55.166, -17.5498
1.05464, -1, 7.08794, 20.1456, 30.3959, 20.5774, -55.0083, -17.6232
1.06407, -1, 7.28205, 20.0692, 30.2652, 20.8926, -54.5377, -17.8425
1.07065, -1, 7.34609, 20.0439, 30.222, 20.997, -54.3819, -17.915
1.08016, -1, 7.53686, 19.9683, 30.0929, 21.3082, -53.9169, -18.1312
1.08827, -1, 7.66284, 19.9183, 30.0072, 21.5141, -53.6098, -18.2743
1.09627, -1, 7.78792, 19.8686, 29.922, 21.719, -53.3043, -18.4166
1.10425, -1, 7.91211, 19.8193, 29.8372, 21.9224, -53.0004, -18.5581
1.11229, -1, 7.9739, 19.7704, 29.7531, 22.1249, -52.6984, -18.6989
1.12016, -1, 8.09691, 19.7461, 29.7113, 22.2257, -52.5481, -18.7689
1.12766, -1, 8.21895, 19.6976, 29.6282, 22.4266, -52.2487, -18.9087
1.1357, -1, 8.34003, 19.6494, 29.5455, 22.6263, -51.951, -19.0474
1.14367, -1, 8.46038, 19.6014, 29.4632, 22.8246, -51.6549, -19.1853
1.15165, -1, 8.57996, 19.5537, 29.3813, 23.0218, -51.3606, -19.3223
1.15965, -1, 8.6989, 19.5062, 29.2997, 23.218, -51.0679, -19.4585
1.16765, -1, 8.8173, 19.4589, 29.2186, 23.413, -50.7766, -19.5939
1.1757, -1, 8.93532, 19.4119, 29.138, 23.6069, -50.4869, -19.7287
1.18366, -1, 9.05285, 19.365, 29.0579, 23.7997, -50.199, -19.8628
1.19166, -1, 9.16995, 19.3184, 28.9782, 23.9915, -49.9127, -19.9963
1.1997, -1, 9.28666, 19.2721, 28.8991, 24.1824, -49.6279, -20.1292
1.20774, -1, 9.40306, 19.2261, 28.8204, 24.3721, -49.3447, -20.261
1.21576, -1, 9.51893, 19.1805, 28.7421, 24.5608, -49.0632, -20.3923
1.22373, -1, 9.63405, 19.135, 28.6641, 24.7484, -48.7835, -20.5227
1.23166, -1, 9.74869, 19.0899, 28.5866, 24.9352, -48.505, -20.6524
1.23966, -1, 9.86273, 19.0452, 28.5092, 25.1211, -48.2278, -20.7815
1.24771, -1, 9.97613, 19.0006, 28.4324, 25.3058, -47.9519, -20.9102
1.2567, -1, 10.0889, 18.9563, 28.356, 25.4897, -47.6775, -21.0382
1.26367, -1, 10.201, 18.9121, 28.2802, 25.6726, -47.4043, -21.1655
1.27172, -1, 10.3125, 18.8681, 28.2047, 25.855, -47.1323, -21.2922
1.27964, -1, 10.4234, 18.8243, 28.1296, 26.0362, -46.8617, -21.4181
1.28766, -1, 10.5336, 18.7805, 28.0547, 26.2163, -46.5927, -21.5432
1.29571, -1, 10.6431, 18.737, 27.9802, 26.3956, -46.3252, -21.6678
1.30367, -1, 10.7521, 18.6937, 27.9059, 26.5741, -46.0589, -21.7918
1.31181, -1, 10.8604, 18.6506, 27.8321, 26.7518, -45.7942, -21.9152
1.31965, -1, 10.968, 18.6077, 27.7587, 26.9285, -45.5306, -22.038
1.32766, -1, 11.0749, 18.565, 27.6857, 27.1044, -45.2684, -22.1602
1.33644, -1, 11.1814, 18.5225, 27.6131, 27.2792, -45.0076, -22.2822
1.34365, -1, 11.2875, 18.4804, 27.5408, 27.4535, -44.7477, -22.4033
1.35169, -1, 11.3929, 18.4385, 27.4689, 27.6271, -44.4889, -22.5238
1.36044, -1, 11.4977, 18.3968, 27.3973, 27.7996, -44.2313, -22.6437
1.36765, -1, 11.6019, 18.3553, 27.326, 27.9715, -43.9746, -22.7629
1.37575, -1, 11.7058, 18.3142, 27.2551, 28.1422, -43.7192, -22.8816
1.38445, -1, 11.8093, 18.2731, 27.1843, 28.3124, -43.4652, -23
1.39165, -1, 11.9126, 18.2322, 27.1139, 28.482, -43.2124, -23.1178
1.39972, -1, 12.0156, 18.1915, 27.0438, 28.6507, -42.9606, -23.2351
1.40922, -1, 12.1185, 18.1508, 26.9741, 28.8185, -42.7101, -23.352
1.41565, -1, 12.2211, 18.1103, 26.9048, 28.9857, -42.4605, -23.4685
1.42372, -1, 12.3231, 18.0699, 26.8357, 29.1522, -42.212, -23.5841
1.43173, -1, 12.4246, 18.0296, 26.767, 29.3182, -41.9649, -23.6994
1.43967, -1, 12.5256, 17.9895, 26.6984, 29.4833, -41.7188, -23.8138
1.44778, -1, 12.6263, 17.9497, 26.6301, 29.6477, -41.4736, -23.9279
1.45588, -1, 12.7267, 17.91, 26.5621, 29.8113, -41.2294, -24.0416
1.46375, -1, 12.8264, 17.8706, 26.4944, 29.9742, -40.9863, -24.1546
1.47181, -1, 12.9257, 17.8313, 26.4271, 30.1366, -40.7441, -24.2675
1.48013, -1, 13.0245, 17.7922, 26.36, 30.2981, -40.5029, -24.3798
1.48775, -1, 13.1229, 17.7533, 26.2933, 30.4591, -40.2626, -24.4918
1.49583, -1, 13.2206, 17.7146, 26.2269, 30.6192, -40.0235, -24.6035
1.5043, -1, 13.3177, 17.676, 26.1607, 30.7786, -39.7853, -24.7143
1.51167, -1, 13.4145, 17.6376, 26.0949, 30.9376, -39.5481, -24.8248
1.51976, -1, 13.5111, 17.5993, 26.0291, 31.096, -39.3119, -24.9348
1.52864, -1, 13.6074, 17.5613, 25.9637, 31.2535, -39.0766, -25.0443
1.53578, -1, 13.7032, 17.5233, 25.8984, 31.4105, -38.8424, -25.1537
1.54436, -1, 13.7987, 17.4854, 25.8334, 31.5668, -38.609, -25.2624
1.55281, -1, 13.8937, 17.4477, 25.7687, 31.7225, -38.3766, -25.3709
1.55997, -1, 13.9885, 17.4101, 25.7043, 31.8778, -38.1455, -25.4789
1.56815, -1, 14.0831, 17.3726, 25.6402, 32.0325, -37.9151, -25.5867
1.57698, -1, 14.1772, 17.3353, 25.5763, 32.1863, -37.6856, -25.6939
1.58415, -1, 14.271, 17.298, 25.5126, 32.3397, -37.4567, -25.8005
1.59251, -1, 14.3642, 17.2609, 25.4493, 32.4924, -37.2286, -25.9069
1.60118, -1, 14.457, 17.2241, 25.3861, 32.6447, -37.0015, -26.0124
1.60827, -1, 14.5493, 17.1873, 25.3231, 32.7966, -36.7749, -26.1179
1.6163, -1, 14.5953, 17.169, 25.2604, 32.9478, -36.5493, -26.2227
1.62364, -1, 14.6869, 17.1325, 25.2291, 33.0232, -36.4369, -26.2752
1.63163, -1, 14.7782, 17.0962, 25.1667, 33.1734, -36.2126, -26.3794
1.63968, -1, 14.8693, 17.0599, 25.1046, 33.3231, -35.9891, -26.4836
1.64763, -1, 14.9602, 17.0238, 25.0426, 33.4723, -35.7664, -26.5871
1.65469, -1, 15.0508, 16.9879, 24.981, 33.6211, -35.5446, -26.6908
1.66369, -1, 15.141, 16.9521, 24.9195, 33.7693, -35.3236, -26.7937
1.67163, -1, 15.231, 16.9163, 24.8584, 33.9169, -35.1034, -26.8963
1.67864, -1, 15.3209, 16.8808, 24.7974, 34.0638, -34.8841, -26.9985
1.68764, -1, 15.4105, 16.8454, 24.7366, 34.2102, -34.6657, -27.1001
1.69563, -1, 15.5, 16.8101, 24.6759, 34.3564, -34.4479, -27.2016
1.7037, -1, 15.5893, 16.7749, 24.6155, 34.5021, -34.2306, -27.3024
1.71171, -1, 15.6782, 16.7399, 24.5552, 34.6471, -34.0141, -27.4034
1.71963, -1, 15.7668, 16.705, 24.4951, 34.7917, -33.7983, -27.5037
1.72774, -1, 15.855, 16.6701, 24.4354, 34.9357, -33.5833, -27.604
1.73563, -1, 15.943, 16.6353, 24.3757, 35.0791, -33.3686, -27.704
1.74365, -1, 16.0306, 16.6007, 24.3164, 35.2222, -33.1549, -27.8038
1.75263, -1, 16.1178, 16.5661, 24.2572, 35.365, -32.9421, -27.903
1.75962, -1, 16.2045, 16.5316, 24.1982, 35.5072, -32.7301, -28.002
1.76763, -1, 16.291, 16.4973, 24.1395, 35.6489, -32.5187, -28.1005
1.7757, -1, 16.3772, 16.4632, 24.0809, 35.7901, -32.308, -28.1985
1.78365, -1, 16.463, 16.429, 24.0224, 35.9308, -32.0979, -28.2964
1.79168, -1, 16.5483, 16.395, 23.9641, 36.0712, -31.8886, -28.3935
1.79964, -1, 16.6335, 16.3611, 23.906, 36.2113, -31.6799, -28.4909
1.80763, -1, 16.7185, 16.3274, 23.848, 36.351, -31.4719, -28.5879
1.81569, -1, 16.8033, 16.2937, 23.7904, 36.4901, -31.2646, -28.6847
1.82363, -1, 16.8881, 16.2603, 23.7328, 36.6286, -31.0577, -28.7809
1.83163, -1, 16.9725, 16.2269, 23.6755, 36.7667, -30.8515, -28.8774
1.83971, -1, 17.0567, 16.1935, 23.6184, 36.9045, -30.6458, -28.973
1.84763, -1, 17.1404, 16.1604, 23.5615, 37.042, -30.4409, -29.0689
1.85573, -1, 17.2232, 16.1275, 23.5047, 37.1788, -30.2367, -29.1637
1.8637, -1, 17.3037, 16.0956, 23.4482, 37.315, -30.0334, -29.2586
1.87163, -1, 17.3811, 16.065, 23.3922, 37.4498, -29.832, -29.352
1.87973, -1, 17.4544, 16.0364, 23.3373, 37.5815, -29.635, -29.444
1.8877, -1, 17.5228, 16.0103, 23.2845, 37.7082, -29.4454, -29.5319
1.89562, -1, 17.5854, 15.9867, 23.2349, 37.8267, -29.2682, -29.6148
1.90363, -1, 17.6413, 15.9659, 23.1901, 37.9336, -29.1077, -29.689
1.91169, -1, 17.691, 15.9474, 23.1516, 38.0254, -28.9697, -29.7535
1.91965, -1, 17.7348, 15.9299, 23.1205, 38.1, -28.8573, -29.8061
1.92764, -1, 17.773, 15.9138, 23.0968, 38.157, -28.7712, -29.8462
1.9357, -1, 17.8052, 15.8999, 23.0799, 38.1965, -28.7101, -29.8747
1.94367, -1, 17.8315, 15.8886, 23.069, 38.2229, -28.6701, -29.8932
1.95179, -1, 17.8528, 15.8794, 23.0625, 38.2388, -28.6459, -29.9043
1.95979, -1, 17.8684, 15.8726, 23.0589, 38.2476, -28.6324, -29.9103
1.96772, -1, 17.8781, 15.8686, 23.0571, 38.252, -28.6257, -29.9131
1.97569, 2, 17.8829, 15.8665, 23.0561, 38.254, -28.6225, -29.9145
1.98381, 2, 17.885, 15.8655, 23.0556, 38.255, -28.621, -29.9152
1.99173, 2, 17.8856, 15.865, 23.0553, 38.2555, -28.6203, -29.9155
1.99965, 2, 17.885, 15.8648, 23.0552, 38.2557, -28.62, -29.9156
2.00771, 2, 17.8842, 15.8647, 23.0552, 38.2558, -28.6198, -29.9157
2.01569, 2, 17.8835, 15.8647, 23.0551, 38.2559, -28.6198, -29.9157
2.02366, 2, 17.8832, 15.8646, 23.0551, 38.2559, -28.6197, -29.9157
2.03179, 2, 17.883, 15.8645, 23.055, 38.2559, -28.6197, -29.9157
2.03984, 2, 17.883, 15.8643, 23.0549, 38.2559, -28.6198, -29.9158
2.04812, 2, 17.8831, 15.864, 23.0549, 38.2559, -28.6197, -29.9158
2.05463, 2, 17.8832, 15.8639, 23.0548, 38.2559, -28.6197, -29.9157
2.06404, 2, 17.8837, 15.8635, 23.0548, 38.2559, -28.6198, -29.9157
2.07204, 2, 17.8841, 15.8633, 23.0547, 38.2559, -28.6198, -29.9157
2.0786, 2, 17.8843, 15.8632, 23.0547, 38.256, -28.6198, -29.9157
2.08822, 2, 17.8855, 15.8631, 23.0546, 38.2559, -28.6198, -29.9158
2.09618, 2, 17.886, 15.8631, 23.0546, 38.2559, -28.6198, -29.9157
2.10422, 2, 17.8866, 15.8631, 23.0546, 38.2559, -28.6199, -29.9157
2.11227, 2, 17.8868, 15.8631, 23.0546, 38.2559, -28.6199, -29.9158
2.12018, 2, 17.887, 15.8631, 23.0546, 38.2559, -28.6199, -29.9158
2.12822, 2, 17.8871, 15.8631, 23.0546, 38.2559, -28.6199, -29.9157
2.13562, 2, 17.8872, 15.8631, 23.0546, 38.2558, -28.6199, -29.9157
2.14362, 2, 17.8872, 15.8631, 23.0546, 38.2559, -28.6199, -29.9157
2.15166, 2, 17.8873, 15.8631, 23.0546, 38.2559, -28.62, -29.9157
2.15963, 2, 17.8872, 15.8631, 23.0546, 38.2559, -28.62, -29.9157
2.16761, 2, 17.8872, 15.863, 23.0546, 38.2559, -28.62, -29.9157
2.17567, 2, 17.887, 15.863, 23.0546, 38.256, -28.62, -29.9157
2.18362, 2, 17.8869, 15.8629, 23.0546, 38.2559, -28.6201, -29.9157
2.19162, 2, 17.8867, 15.8629, 23.0546, 38.2559, -28.6201, -29.9157
2.19967, 2, 17.8867, 15.8629, 23.0546, 38.2559, -28.6201, -29.9157
2.20762, 2, 17.8866, 15.8629, 23.0546, 38.2559, -28.6202, -29.9157
2.2157, 2, 17.8866, 15.8629, 23.0546, 38.2558, -28.6201, -29.9157
2.22368, 2, 17.8866, 15.8629, 23.0546, 38.2559, -28.6202, -29.9157
2.23162, 2, 17.8866, 15.8629, 23.0546, 38.2559, -28.6202, -29.9157
2.23962, 2, 17.8866, 15.8629, 23.0546, 38.2559, -28.6202, -29.9156
2.24911, 2, 17.8866, 15.8629, 23.0546, 38.2559, -28.6202, -29.9156
2.25562, 2, 17.8866, 15.8629, 23.0546, 38.2559, -28.6202, -29.9157
2.26462, 2, 17.8866, 15.8629, 23.0546, 38.2559, -28.6202, -29.9156
2.27168, 2, 17.8866, 15.8629, 23.0546, 38.2559, -28.6202, -29.9157
2.27962, 2, 17.8866, 15.8629, 23.0546, 38.2559, -28.6202, -29.9156
2.28761, 2, 17.8866, 15.8629, 23.0546, 38.2559, -28.6203, -29.9156
2.29567, 2, 17.8866, 15.8629, 23.0546, 38.2559, -28.6203, -29.9156
2.30362, 2, 17.8865, 15.8629, 23.0546, 38.2559, -28.6203, -29.9156
2.31162, 2, 17.8865, 15.8629, 23.0546, 38.2559, -28.6203, -29.9156
2.31969, 2, 17.8864, 15.8629, 23.0546, 38.2559, -28.6204, -29.9156
2.32763, 2, 17.8865, 15.8629, 23.0546, 38.2559, -28.6204, -29.9156
2.33561, 2, 17.8864, 15.8629, 23.0546, 38.2558, -28.6205, -29.9156
2.34368, 2, 17.8864, 15.8629, 23.0546, 38.2559, -28.6205, -29.9156
2.35162, 2, 17.8864, 15.8629, 23.0546, 38.2559, -28.6205, -29.9156
2.35962, 2, 17.8864, 15.8629, 23.0546, 38.2559, -28.6205, -29.9155
2.36771, 2, 17.8864, 15.8629, 23.0546, 38.2559, -28.6205, -29.9155
2.37561, 2, 17.8864, 15.8629, 23.0546, 38.2559, -28.6205, -29.9156
2.3837, 2, 17.8863, 15.8629, 23.0546, 38.2559, -28.6205, -29.9156
2.39168, 2, 17.8863, 15.8629, 23.0546, 38.2558, -28.6206, -29.9156
2.39962, 2, 17.8863, 15.8629, 23.0546, 38.2558, -28.6206, -29.9156
2.40761, 2, 17.8863, 15.8629, 23.0546, 38.2558, -28.6206, -29.9156
2.41574, 2, 17.8863, 15.8629, 23.0546, 38.2559, -28.6206, -29.9156
2.42362, 2, 17.8863, 15.8629, 23.0546, 38.2558, -28.6206, -29.9156
2.43162, 2, 17.8863, 15.8629, 23.0546, 38.2559, -28.6206, -29.9156
2.43969, 2, 17.8863, 15.8629, 23.0546, 38.2559, -28.6206, -29.9155
2.44765, 2, 17.8862, 15.8629, 23.0546, 38.2558, -28.6206, -29.9155
2.45569, 2, 17.8862, 15.8629, 23.0546, 38.2558, -28.6206, -29.9155
2.46377, 2, 17.8862, 15.8629, 23.0546, 38.2558, -28.6207, -29.9155
2.47171, 2, 17.8862, 15.8629, 23.0546, 38.2558, -28.6207, -29.9155
2.47972, 2, 17.8861, 15.8629, 23.0546, 38.2558, -28.6207, -29.9155
2.48779, 2, 17.8861, 15.8629, 23.0546, 38.2558, -28.6207, -29.9155
2.49567, 2, 17.8861, 15.8629, 23.0546, 38.2558, -28.6208, -29.9155
2.50361, 2, 17.886, 15.8629, 23.0546, 38.2558, -28.6208, -29.9155
2.51187, 2, 17.886, 15.8629, 23.0546, 38.2558, -28.6208, -29.9155
2.51966, 2, 17.8859, 15.8629, 23.0546, 38.2557, -28.6208, -29.9155
2.52765, 2, 17.8859, 15.8629, 23.0546, 38.2557, -28.6208, -29.9155
2.53581, 2, 17.8859, 15.8629, 23.0546, 38.2557, -28.6208, -29.9155
2.54405, 2, 17.8858, 15.8629, 23.0546, 38.2557, -28.6208, -29.9155
2.55064, 2, 17.8858, 15.8629, 23.0546, 38.2557, -28.6208, -29.9155
2.56035, 2, 17.8857, 15.8629, 23.0546, 38.2556, -28.6208, -29.9155
2.56816, 2, 17.8857, 15.8629, 23.0546, 38.2556, -28.6208, -29.9155
2.57604, 2, 17.8857, 15.8629, 23.0546, 38.2557, -28.6208, -29.9155
2.58265, 2, 17.8856, 15.8629, 23.0546, 38.2557, -28.6208, -29.9155
2.59254, 2, 17.8855, 15.8629, 23.0546, 38.2556, -28.6209, -29.9154
2.60017, 2, 17.8855, 15.8629, 23.0546, 38.2556, -28.6209, -29.9154
2.60838, 2, 17.8855, 15.8629, 23.0546, 38.2556, -28.6209, -29.9154
2.61645, 2, 17.8854, 15.8629, 23.0546, 38.2556, -28.6209, -29.9154
2.62411, 2, 17.8854, 15.8629, 23.0546, 38.2556, -28.621, -29.9154
2.63233, 2, 17.8854, 15.8629, 23.0546, 38.2556, -28.621, -29.9153
2.64052, 2, 17.8853, 15.8629, 23.0546, 38.2555, -28.621, -29.9153
2.64759, 2, 17.8853, 15.8629, 23.0546, 38.2555, -28.621, -29.9152
2.65564, 2, 17.8852, 15.8629, 23.0546, 38.2555, -28.621, -29.9152
2.6636, 2, 17.8852, 15.8629, 23.0546, 38.2555, -28.6211, -29.9151
2.6716, 2, 17.8852, 15.8629, 23.0546, 38.2555, -28.6211, -29.9152
2.67966, 2, 17.8851, 15.8629, 23.0546, 38.2555, -28.6211, -29.9151
2.6876, 2, 17.885, 15.8629, 23.0546, 38.2555, -28.6211, -29.9152
2.6956, 2, 17.885, 15.8629, 23.0546, 38.2555, -28.6211, -29.9152
2.70365, 2, 17.8849, 15.8629, 23.0546, 38.2555, -28.6211, -29.9151
2.7116, 2, 17.8849, 15.8629, 23.0546, 38.2554, -28.6212, -29.9151
2.7197, 2, 17.8848, 15.8629, 23.0546, 38.2554, -28.6211, -29.9151
2.72767, 2, 17.8848, 15.8629, 23.0546, 38.2554, -28.6212, -29.915
2.73559, 2, 17.8848, 15.8629, 23.0546, 38.2554, -28.6212, -29.915
2.7436, 2, 17.8847, 15.8629, 23.0546, 38.2554, -28.6212, -29.9151
2.75166, 2, 17.8846, 15.863, 23.0546, 38.2554, -28.6212, -29.915
2.75961, 2, 17.8846, 15.8629, 23.0546, 38.2554, -28.6212, -29.9151
2.76759, 2, 17.8845, 15.8629, 23.0546, 38.2554, -28.6212, -29.915
2.77566, 2, 17.8845, 15.8629, 23.0546, 38.2553, -28.6212, -29.915
2.7836, 2, 17.8844, 15.8629, 23.0546, 38.2553, -28.6212, -29.915
2.79259, 2, 17.8844, 15.8629, 23.0546, 38.2553, -28.6213, -29.915
2.79967, 2, 17.8843, 15.863, 23.0546, 38.2552, -28.6213, -29.9149
2.8076, 2, 17.8843, 15.8629, 23.0546, 38.2553, -28.6213, -29.9149
2.81562, 2, 17.8843, 15.8629, 23.0546, 38.2552, -28.6213, -29.9149
2.82366, 2, 17.8842, 15.8629, 23.0546, 38.2552, -28.6213, -29.9149
2.83159, 2, 17.8842, 15.8629, 23.0546, 38.2552, -28.6213, -29.9149
2.83961, 2, 17.8841, 15.8629, 23.0546, 38.2552, -28.6213, -29.9149
2.84766, 2, 17.8841, 15.8629, 23.0546, 38.2552, -28.6213, -29.9149
2.85559, 2, 17.884, 15.8629, 23.0546, 38.2552, -28.6213, -29.9149
2.86359, 2, 17.884, 15.863, 23.0546, 38.2552, -28.6213, -29.9149
2.87166, 2, 17.8839, 15.863, 23.0546, 38.2552, -28.6213, -29.9148
2.87964, 2, 17.8839, 15.863, 23.0546, 38.2552, -28.6213, -29.9148
2.88771, 2, 17.8839, 15.863, 23.0546, 38.2552, -28.6213, -29.9148
2.89565, 2, 17.8838, 15.863, 23.0546, 38.2552, -28.6213, -29.9148
2.90359, 2, 17.8838, 15.863, 23.0546, 38.2551, -28.6213, -29.9148
2.91159, 2, 17.8838, 15.863, 23.0546, 38.2551, -28.6214, -29.9148
2.91967, 2, 17.8837, 15.863, 23.0546, 38.2551, -28.6214, -29.9149
2.92761, 2, 17.8837, 15.863, 23.0546, 38.2551, -28.6214, -29.9148
2.93559, 2, 17.8837, 15.863, 23.0546, 38.255, -28.6214, -29.9148
2.94367, 2, 17.8837, 15.863, 23.0546, 38.255, -28.6214, -29.9148
2.95163, 2, 17.8837, 15.863, 23.0546, 38.255, -28.6213, -29.9149
2.95969, 2, 17.8837, 15.863, 23.0546, 38.2549, -28.6214, -29.9148
2.96774, 2, 17.8837, 15.863, 23.0546, 38.2549, -28.6214, -29.9148
2.97587, 2, 17.8837, 15.863, 23.0546, 38.2549, -28.6215, -29.9147
2.98419, 2, 17.8836, 15.863, 23.0546, 38.2549, -28.6214, -29.9147
2.9918, 2, 17.8836, 15.863, 23.0546, 38.2549, -28.6214, -29.9148
2.99974, 2, 17.8836, 15.863, 23.0546, 38.2549, -28.6214, -29.9148
3.008, 2, 17.8836, 15.863, 23.0546, 38.2549, -28.6214, -29.9147
3.01569, 2, 17.8836, 15.863, 23.0546, 38.2549, -28.6214, -29.9147
3.02362, 2, 17.8836, 15.863, 23.0546, 38.2548, -28.6215, -29.9147
3.03163, 2, 17.8836, 15.863, 23.0546, 38.2548, -28.6215, -29.9147
3.0398, 2, 17.8836, 15.863, 23.0546, 38.2548, -28.6215, -29.9147
3.0478, 4, 17.8836, 15.863, 23.0546, 38.2548, -28.6215, -29.9146
3.19973, 4, 17.8834, 15.863, 23.0546, 38.2545, -28.6216, -29.9147
3.20171, 4, 17.8834, 15.863, 23.0546, 38.2545, -28.6216, -29.9146
3.20309, 4, 17.8834, 15.863, 23.0546, 38.2545, -28.6216, -29.9146
3.20555, 4, 17.8834, 15.863, 23.0546, 38.2545, -28.6216, -29.9146
3.20679, 4, 17.8833, 15.8631, 23.0546, 38.2545, -28.6216, -29.9146
3.20796, 4, 17.8833, 15.8631, 23.0546, 38.2545, -28.6216, -29.9146
3.20997, 4, 17.8832, 15.8631, 23.0546, 38.2545, -28.6216, -29.9146
3.21323, 4, 17.8828, 15.8633, 23.0546, 38.2545, -28.6216, -29.9146
3.21472, 4, 17.8828, 15.8633, 23.0546, 38.2545, -28.6216, -29.9146
3.21591, 4, 17.8828, 15.8633, 23.0546, 38.2545, -28.6216, -29.9146
3.21791, 4, 17.882, 15.8638, 23.0546, 38.2544, -28.6216, -29.9146
3.2191, 4, 17.882, 15.8638, 23.0546, 38.2544, -28.6216, -29.9146
3.22097, 4, 17.882, 15.8638, 23.0546, 38.2544, -28.6216, -29.9146
3.22234, 4, 17.8807, 15.8647, 23.0545, 38.2542, -28.6216, -29.9146
3.22374, 4, 17.8807, 15.8647, 23.0545, 38.2542, -28.6216, -29.9146
3.22611, 4, 17.8786, 15.8662, 23.0542, 38.2536, -28.6216, -29.9143
3.22741, 4, 17.8786, 15.8662, 23.0542, 38.2536, -28.6216, -29.9143
3.23003, 4, 17.8756, 15.8686, 23.0536, 38.2522, -28.6218, -29.9136
3.23129, 4, 17.8756, 15.8686, 23.0536, 38.2522, -28.6218, -29.9136
3.23314, 4, 17.8717, 15.8722, 23.0526, 38.2495, -28.6223, -29.9118
3.23453, 4, 17.8717, 15.8722, 23.0526, 38.2495, -28.6223, -29.9118
3.23579, 4, 17.8717, 15.8722, 23.0526, 38.2495, -28.6223, -29.9118
3.2417, 4, 17.861, 15.8843, 23.0487, 38.2381, -28.6242, -29.9025
3.24302, 4, 17.861, 15.8843, 23.0487, 38.2381, -28.6242, -29.9025
3.24759, 4, 17.8537, 15.8933, 23.0455, 38.2282, -28.6262, -29.893
3.2559, 4, 17.834, 15.9184, 23.0352, 38.1956, -28.6333, -29.8606
3.26445, 5, 17.8059, 15.9547, 23.0182, 38.1377, -28.6462, -29.8024
3.27158, 5, 17.7683, 16.003, 22.9925, 38.0443, -28.6673, -29.7077
3.27959, 5, 17.7197, 16.0657, 22.9558, 37.9057, -28.6988, -29.5667
3.28837, 5, 17.6583, 16.1456, 22.9063, 37.7123, -28.744, -29.3696
3.29557, 5, 17.5823, 16.245, 22.8423, 37.4571, -28.8051, -29.1091
3.30358, 5, 17.4913, 16.3648, 22.7628, 37.1347, -28.8839, -28.7794
3.31236, 5, 17.3846, 16.505, 22.6674, 36.7433, -28.9826, -28.379
3.31958, 5, 17.2621, 16.6661, 22.5561, 36.2836, -29.1013, -27.9096
3.32759, 5, 17.124, 16.8474, 22.4301, 35.7596, -29.241, -27.3746
3.33566, 5, 16.9719, 17.0463, 22.2913, 35.1792, -29.4007, -26.7817
3.34359, 5, 16.8072, 17.2588, 22.1421, 34.5509, -29.5799, -26.1413
3.35162, 5, 16.6309, 17.4844, 21.9842, 33.8844, -29.7761, -25.4659
3.36036, 5, 16.4442, 17.7226, 21.8198, 33.1925, -29.9876, -24.7655
3.36759, 5, 16.2488, 17.9705, 21.6516, 32.4847, -30.2123, -24.0506
3.37563, 5, 16.0466, 18.2258, 21.4814, 31.7699, -30.448, -23.3323
3.38501, 5, 15.8384, 18.4865, 21.3106, 31.0554, -30.6929, -22.6162
3.39168, 5, 15.6252, 18.7497, 21.1402, 30.3438, -30.9456, -21.9066
3.39964, 5, 15.4085, 19.0142, 20.9719, 29.6398, -31.2053, -21.2089
3.40758, 5, 15.1901, 19.2784, 20.806, 28.9445, -31.472, -20.5229
3.4156, 5, 14.9705, 19.5406, 20.6417, 28.2582, -31.7451, -19.8482
3.42364, 5, 14.7495, 19.8018, 20.4794, 27.5813, -32.0242, -19.1873
3.43161, 5, 14.5271, 20.0614, 20.3198, 26.9128, -32.3091, -18.5394
3.43977, 5, 14.3036, 20.3182, 20.1628, 26.2548, -32.5998, -17.9039
3.44759, 5, 14.0793, 20.5733, 20.0079, 25.6064, -32.8959, -17.282
3.45564, 5, 13.8541, 20.8262, 19.8554, 24.9679, -33.1973, -16.6741
3.4639, 5, 13.6282, 21.077, 19.7058, 24.3393, -33.5038, -16.0792
3.47167, 5, 13.4021, 21.3271, 19.5589, 23.7188, -33.8155, -15.4971
3.47967, 5, 13.1765, 21.5759, 19.4144, 23.1087, -34.1321, -14.9284
3.48814, 5, 12.9509, 21.8226, 19.2724, 22.5082, -34.4534, -14.373
3.49508, 5, 12.8378, 21.9454, 19.2024, 21.9165, -34.7796, -13.8302
3.50358, 5, 12.4976, 22.3113, 18.9967, 21.3347, -35.1102, -13.3
3.51234, 5, 12.2706, 22.5522, 18.863, 20.762, -35.4451, -12.783
3.5196, 5, 12.0431, 22.7918, 18.732, 20.1972, -35.7842, -12.2791
3.52785, 5, 11.8143, 23.0298, 18.6037, 19.6421, -36.1271, -11.7878
3.53649, 5, 11.5836, 23.2652, 18.478, 19.0957, -36.4737, -11.309
3.54371, 5, 11.3513, 23.4989, 18.3551, 18.5574, -36.8242, -10.8418
3.55179, 5, 11.1178, 23.7309, 18.2349, 18.0281, -37.1783, -10.3874
3.56083, 5, 10.8829, 23.9603, 18.1175, 17.5072, -37.5361, -9.94491
3.56792, 5, 10.6467, 24.188, 18.0028, 16.9937, -37.8973, -9.51418
3.57643, 5, 10.4104, 24.4143, 17.8907, 16.4883, -38.2619, -9.09529
3.58491, 5, 10.1748, 24.638, 17.7813, 15.991, -38.6297, -8.68768
3.59209, 5, 9.9399, 24.859, 17.6747, 15.5007, -39.0003, -8.29174
3.60017, 5, 9.70498, 25.0782, 17.571, 15.0183, -39.3735, -7.90752
3.60814, 5, 9.47016, 25.2951, 17.4702, 14.5431, -39.7492, -7.53409
3.61615, 5, 9.2352, 25.5096, 17.3724, 14.0748, -40.1278, -7.1718
3.62453, 5, 8.99985, 25.7225, 17.2774, 13.6129, -40.5085, -6.82017
3.63156, 5, 8.88195, 25.8286, 17.2308, 13.3844, -40.6997, -6.64823
3.63958, 5, 8.64553, 26.0388, 17.1399, 12.9322, -41.0842, -6.31186
3.64761, 5, 8.40815, 26.2459, 17.0519, 12.4867, -41.4704, -5.98613
3.65557, 5, 8.16909, 26.4508, 16.967, 12.0471, -41.8588, -5.67061
3.66357, 5, 7.92772, 26.6537, 16.8853, 11.6137, -42.2491, -5.36477
3.67161, 5, 7.68438, 26.8535, 16.8065, 11.186, -42.6413, -5.06876
3.67956, 5, 7.44078, 27.0507, 16.7306, 10.7641, -43.0349, -4.78246
3.68757, 5, 7.19798, 27.246, 16.6574, 10.3476, -43.4303, -4.50562
3.69564, 5, 6.95585, 27.4392, 16.5872, 9.93611, -43.827, -4.23823
3.70357, 5, 6.71406, 27.6293, 16.5201, 9.53005, -44.225, -3.97976
3.71157, 5, 6.4724, 27.8168, 16.4561, 9.12918, -44.6244, -3.73084
3.71961, 5, 6.23038, 28.0025, 16.3952, 8.73328, -45.025, -3.4911
3.72757, 5, 5.98783, 28.1857, 16.3374, 8.34196, -45.4273, -3.25992
3.73558, 5, 5.74496, 28.3657, 16.2826, 7.95547, -45.8304, -3.03743
3.74255, 5, 5.50143, 28.5431, 16.231, 7.57322, -46.2345, -2.82348
3.75156, 5, 5.25646, 28.7186, 16.1824, 7.19548, -46.6391, -2.618
3.76058, 5, 5.00909, 28.8914, 16.1371, 6.82139, -47.0443, -2.42101
3.76763, 5, 4.76015, 29.0608, 16.095, 6.45113, -47.45, -2.23151
3.7766, 5, 4.51075, 29.2273, 16.056, 6.08464, -47.8564, -2.04999
3.78356, 5, 4.26172, 29.3916, 16.0204, 5.72188, -48.2633, -1.87606
3.79171, 5, 4.01341, 29.5532, 15.988, 5.36254, -48.6708, -1.70987
3.79956, 5, 3.76612, 29.7114, 15.9588, 5.00648, -49.0786, -1.55131
3.80756, 5, 3.51936, 29.8666, 15.9331, 4.65388, -49.4865, -1.40027
3.81564, 5, 3.27236, 30.0193, 15.9108, 4.30431, -49.8942, -1.25675
3.82356, 5, 3.02596, 30.1689, 15.892, 3.95782, -50.3017, -1.11978
3.8316, 5, 2.78199, 30.3145, 15.8769, 3.61459, -50.7088, -0.990463
3.83957, 5, 2.5411, 30.4555, 15.8655, 3.27488, -51.1144, -0.868124
3.84756, 5, 2.30339, 30.5915, 15.8576, 2.93977, -51.5175, -0.753402
3.85564, 5, 2.06949, 30.7218, 15.8533, 2.61148, -51.9154, -0.646257
3.86356, 5, 1.84189, 30.8453, 15.8524, 2.29218, -52.3051, -0.547381
3.87156, 5, 1.62264, 30.9615, 15.8545, 1.98497, -52.6824, -0.457204
3.87962, 5, 1.41332, 31.0701, 15.8591, 1.69321, -53.0424, -0.375887
3.88756, 5, 1.21588, 31.1705, 15.8656, 1.42085, -53.3803, -0.303522
3.89557, 5, 1.03258, 31.2621, 15.8734, 1.17058, -53.6921, -0.2411
3.90363, 5, 0.864526, 31.3448, 15.8817, 0.945116, -53.9746, -0.18701
3.91157, 5, 0.712326, 31.4186, 15.8901, 0.746201, -54.2245, -0.140845
3.91956, 5, 0.576366, 31.4835, 15.8978, 0.574511, -54.4405, -0.102875
3.92763, 5, 0.457431, 31.5397, 15.9044, 0.429996, -54.6234, -0.0726629
3.93558, 5, 0.355918, 31.5874, 15.9099, 0.311113, -54.7738, -0.0487984
3.94356, 5, 0.271501, 31.6268, 15.9143, 0.216702, -54.8943, -0.0305216
3.95164, 5, 0.202344, 31.659, 15.9176, 0.14325, -54.9875, -0.0168361
3.95971, 5, 0.146461, 31.6849, 15.9196, 0.0893511, -55.0566, -0.00694605
3.96765, 5, 0.102447, 31.7053, 15.9207, 0.0511655, -55.1065, -0.000137175
3.97572, 5, 0.0688985, 31.7209, 15.9213, 0.0250383, -55.1401, 0.00426915
3.98375, 5, 0.0442476, 31.7322, 15.9215, 0.00816922, -55.1616, 0.00693822
3.99188, 5, 0.0257624, 31.7403, 15.9216, -0.00183034, -55.1741, 0.00830658
4.0161, 5, -0.00215373, 31.7519, 15.9218, -0.0112779, -55.1858, 0.00928732
4.01745, 5, -0.00215373, 31.7519, 15.9218, -0.0112779, -55.1858, 0.00928732
4.01863, 5, -0.00215373, 31.7519, 15.9218, -0.0112779, -55.1858, 0.00928732
4.02399, 5, -0.00524563, 31.7533, 15.9219, -0.0118653, -55.1865, 0.00939544
4.03215, 5, -0.00685081, 31.7543, 15.922, -0.0121119, -55.1868, 0.00945635
4.04046, 5, -0.00838216, 31.7551, 15.9221, -0.0122168, -55.187, 0.00944019
4.04771, 5, -0.0115602, 31.7558, 15.9223, -0.0123414, -55.1872, 0.00943277
4.05653, 5, -0.0175676, 31.7565, 15.9233, -0.0126033, -55.1881, 0.00959769
4.06615, 6, -0.0270938, 31.7569, 15.9261, -0.0140229, -55.1919, 0.011063
4.07198, 6, -0.04153, 31.7569, 15.9324, -0.0182205, -55.202, 0.0168063
4.07993, 6, -0.0626959, 31.7558, 15.9452, -0.0272219, -55.2226, 0.0293467
4.08879, 6, -0.0923983, 31.7527, 15.9679, -0.0433584, -55.2597, 0.0520545
4.09616, 6, -0.132142, 31.7466, 16.0046, -0.0691892, -55.3193, 0.088387
4.10408, 6, -0.182902, 31.7369, 16.0594, -0.107557, -55.409, 0.141942
4.11289, 6, -0.246429, 31.7227, 16.1364, -0.16242, -55.5356, 0.217395
4.12014, 6, -0.324205, 31.703, 16.2388, -0.233666, -55.7044, 0.316483
4.1282, 6, -0.416816, 31.6774, 16.3688, -0.324116, -55.9203, 0.441277
4.13684, 6, -0.468642, 31.6623, 16.4444, -0.376467, -56.0467, 0.5134
4.1436, 6, -0.583251, 31.6275, 16.6173, -0.494803, -56.3372, 0.676525
4.15155, 6, -0.712494, 31.5866, 16.8197, -0.631158, -56.6771, 0.863568
4.15955, 6, -0.855724, 31.5403, 17.0493, -0.782766, -57.0631, 1.07104
4.16873, 6, -1.09365, 31.4617, 17.4375, -1.03348, -57.7178, 1.41219
4.17556, 6, -1.17849, 31.4337, 17.5772, -1.1215, -57.9531, 1.53148
4.18359, 6, -1.35512, 31.3753, 17.868, -1.30141, -58.4442, 1.77463
4.19155, 6, -1.53963, 31.3147, 18.1721, -1.4845, -58.9574, 2.02018
4.19954, 6, -1.7302, 31.2527, 18.485, -1.6684, -59.4875, 2.26531
4.2076, 6, -1.92495, 31.1897, 18.8046, -1.85136, -60.0286, 2.50706
4.21582, 6, -2.12323, 31.1263, 19.1289, -2.03209, -60.5773, 2.74356
4.22355, 6, -2.32408, 31.0627, 19.4575, -2.20971, -61.1322, 2.9737
4.23154, 6, -2.5256, 30.9988, 19.7889, -2.3842, -61.6924, 3.1968
4.23967, 6, -2.72614, 30.9347, 20.1227, -2.55552, -62.2573, 3.41331
4.24754, 6, -2.92534, 30.8707, 20.4588, -2.72378, -62.8265, 3.62272
4.25556, 6, -3.12296, 30.8067, 20.7978, -2.88897, -63.4, 3.82508
4.26454, 6, -3.31883, 30.7426, 21.1386, -3.05087, -63.977, 4.02043
4.27154, 6, -3.51333, 30.6785, 21.4815, -3.20966, -64.5572, 4.20856
4.27954, 6, -3.70634, 30.6146, 21.8262, -3.36569, -65.1408, 4.38993
4.28767, 6, -3.89824, 30.5507, 22.1737, -3.51903, -65.7283, 4.5645
4.29565, 6, -4.08891, 30.4869, 22.5226, -3.66952, -66.3193, 4.73199
4.30354, 6, -4.27844, 30.4231, 22.8734, -3.81764, -66.9136, 4.89267
4.31161, 6, -4.46653, 30.3597, 23.2254, -3.96298, -67.5105, 5.04663
4.31954, 6, -4.65275, 30.2964, 23.5795, -4.10615, -68.1097, 5.19353
4.32761, 6, -4.8373, 30.2333, 23.9347, -4.24686, -68.7116, 5.33359
4.3356, 6, -5.02022, 30.1707, 24.2918, -4.38552, -69.317, 5.46715
4.34354, 6, -5.20136, 30.1084, 24.6503, -4.5221, -69.9257, 5.59428
4.35179, 6, -5.38087, 30.0465, 25.0105, -4.65659, -70.5367, 5.71458
4.3596, 6, -5.55862, 29.9848, 25.3717, -4.78911, -71.1488, 5.82859
4.36754, 6, -5.7347, 29.9235, 25.734, -4.91973, -71.7631, 5.93604
4.37561, 6, -5.909, 29.8626, 26.0979, -5.04862, -72.3803, 6.03671
4.38368, 6, -6.0819, 29.802, 26.4629, -5.17593, -73, 6.13115
4.39155, 6, -6.25338, 29.7416, 26.8288, -5.30178, -73.6214, 6.21891
4.39962, 6, -6.42355, 29.6817, 27.1955, -5.42596, -74.2445, 6.30009
4.40761, 6, -6.59229, 29.6223, 27.5638, -5.54874, -74.869, 6.37521
4.41554, 6, -6.75965, 29.5632, 27.9327, -5.66996, -75.4955, 6.44327
4.42362, 6, -6.9256, 29.5046, 28.3027, -5.79008, -76.1236, 6.50578
4.43161, 6, -7.09001, 29.4467, 28.6732, -5.90912, -76.7532, 6.56153
4.43954, 6, -7.25282, 29.3892, 29.0447, -6.02703, -77.3851, 6.61047
4.44795, 6, -7.41375, 29.3322, 29.4169, -6.14428, -78.0174, 6.65373
4.45564, 6, -7.57253, 29.2759, 29.7898, -6.26046, -78.6499, 6.69125
4.46369, 6, -7.72906, 29.2201, 30.1636, -6.37589, -79.2837, 6.72264
4.47193, 6, -7.88306, 29.1647, 30.5374, -6.49066, -79.9196, 6.74762
4.4797, 6, -8.03448, 29.11, 30.9118, -6.6046, -80.5568, 6.76633
4.48771, 6, -8.18374, 29.056, 31.2867, -6.71809, -81.1941, 6.77868
4.49628, 6, -8.33085, 29.0024, 31.6624, -6.83112, -81.831, 6.78511
4.50364, 6, -8.47597, 28.9494, 32.0382, -6.94375, -82.4687, 6.78698
4.51155, 6, -8.61917, 28.8969, 32.414, -7.05637, -83.1077, 6.78282
4.52026, 6, -8.76046, 28.8452, 32.7906, -7.1685, -83.7471, 6.77186
4.52765, 6, -8.89979, 28.7939, 33.1673, -7.28057, -84.3867, 6.75444
4.53568, 6, -9.03727, 28.7434, 33.5443, -7.39225, -85.026, 6.73027
4.54465, 6, -9.17317, 28.6935, 33.921, -7.5039, -85.665, 6.69915
4.5517, 6, -9.3075, 28.6442, 34.2984, -7.61558, -86.3043, 6.66171
4.55981, 6, -9.44, 28.5957, 34.6758, -7.72716, -86.9438, 6.61837
4.56797, 6, -9.57077, 28.5477, 35.0532, -7.83922, -87.5832, 6.56878
4.5759, 6, -9.69938, 28.5003, 35.431, -7.95147, -88.2225, 6.51217
4.584, 6, -9.82567, 28.4534, 35.8084, -8.06389, -88.8603, 6.44991
4.59242, 6, -9.94966, 28.4071, 36.186, -8.17663, -89.4968, 6.38162
4.60008, 6, -10.0714, 28.3613, 36.5635, -8.28956, -90.1335, 6.30621
4.60811, 6, -10.1905, 28.3161, 36.9412, -8.40289, -90.7702, 6.22544
4.61617, 6, -10.3068, 28.2713, 37.3181, -8.51681, -91.4062, 6.13773
4.62474, 6, -10.364, 28.227, 37.6948, -8.63136, -92.04, 6.04396
4.63229, 6, -10.5314, 28.1835, 38.0719, -8.74672, -92.6721, 5.94382
4.63953, 6, -10.5858, 28.1619, 38.2603, -8.80473, -92.9877, 5.89138
4.64753, 6, -10.6925, 28.1192, 38.6364, -8.92106, -93.6186, 5.78158
4.65558, 6, -10.7966, 28.0771, 39.0124, -9.03825, -94.2488, 5.66548
4.66361, 6, -10.898, 28.0356, 39.3882, -9.15593, -94.8772, 5.54275
4.67153, 6, -10.9963, 27.9947, 39.763, -9.2747, -95.5028, 5.41399
4.67957, 6, -11.091, 27.9544, 40.1357, -9.39381, -96.1245, 5.27959
4.68753, 6, -11.1814, 27.9146, 40.503, -9.51297, -96.739, 5.14032
4.69553, 6, -11.2676, 27.8759, 40.8624, -9.63097, -97.3409, 4.99788
4.70359, 6, -11.3488, 27.8388, 41.208, -9.74589, -97.9213, 4.85484
4.71153, 6, -11.4245, 27.8038, 41.5356, -9.85576, -98.4714, 4.71415
4.71953, 6, -11.4939, 27.7717, 41.839, -9.95831, -98.9812, 4.57925
4.72761, 6, -11.5565, 27.7428, 42.1145, -10.0517, -99.4416, 4.45333
4.73552, 6, -11.6119, 27.7175, 42.3576, -10.1342, -99.8459, 4.33973
4.74354, 6, -11.6599, 27.6962, 42.5657, -10.2052, -100.191, 4.24083
4.75159, 6, -11.7001, 27.6787, 42.7402, -10.2639, -100.477, 4.15709
4.75953, 6, -11.7328, 27.6649, 42.8819, -10.3105, -100.705, 4.08876
4.76915, 6, -11.7587, 27.6545, 42.9924, -10.3473, -100.881, 4.01399
4.77559, 6, -11.7787, 27.6472, 43.0758, -10.3743, -101.01, 3.99574
4.78354, 6, -11.7932, 27.6422, 43.1361, -10.3933, -101.101, 3.96765
4.79153, 6, -11.8036, 27.639, 43.1777, -10.4058, -101.161, 3.94832
4.79968, 6, -11.811, 27.6373, 43.2052, -10.4135, -101.199, 3.93624
4.80752, 6, -11.8164, 27.6365, 43.2226, -10.4178, -101.221, 3.92906
4.81554, 6, -11.8203, 27.6362, 43.2335, -10.42, -101.232, 3.92503
4.8236, 7, -11.8226, 27.636, 43.2401, -10.4211, -101.238, 3.92303
4.83153, 7, -11.8237, 27.6359, 43.2439, -10.4216, -101.241, 3.92197
4.8396, 7, -11.8243, 27.6359, 43.2463, -10.4218, -101.242, 3.92143
4.84759, 7, -11.8245, 27.6358, 43.2479, -10.422, -101.243, 3.92116
4.85553, 7, -11.8247, 27.6358, 43.2491, -10.4221, -101.243, 3.92092
4.86354, 7, -11.8249, 27.6357, 43.25, -10.4221, -101.243, 3.92086
4.87159, 7, -11.825, 27.6356, 43.2508, -10.4221, -101.243, 3.92081
4.87952, 7, -11.8251, 27.6356, 43.2514, -10.4221, -101.243, 3.92078
4.88753, 7, -11.8254, 27.6356, 43.2519, -10.4222, -101.243, 3.9207
4.89559, 7, -11.8255, 27.6356, 43.2522, -10.4221, -101.243, 3.9207
4.90353, 7, -11.8256, 27.6356, 43.2524, -10.4221, -101.243, 3.9207
4.91152, 7, -11.8256, 27.6357, 43.2526, -10.4221, -101.243, 3.9207
4.91968, 7, -11.8256, 27.6357, 43.2528, -10.4221, -101.243, 3.92064
