hehonglu123/ABB_Primitive_Study/realrobot/movec_30_car/curve_exe_v300_fine.csv
timestamp, cmd_num, J1, J2, J3, J4, J5, J6
0.000636, -1, -11.8222, 27.6356, 43.2538, -10.4214, -101.239, 3.92037
0.005417, -1, -11.8222, 27.6356, 43.2538, -10.4214, -101.239, 3.92041
0.007696, -1, -11.8222, 27.6355, 43.2538, -10.4214, -101.239, 3.92044
0.030605, -1, -11.8222, 27.6356, 43.2538, -10.4213, -101.239, 3.9204
0.031863, -1, -11.8222, 27.6356, 43.2538, -10.4213, -101.239, 3.9204
0.035362, -1, -11.8222, 27.6355, 43.2538, -10.4213, -101.239, 3.92039
0.039561, -1, -11.8222, 27.6355, 43.2538, -10.4213, -101.239, 3.92038
0.047509, -1, -11.8221, 27.6355, 43.2538, -10.4214, -101.239, 3.92039
0.055507, -1, -11.8216, 27.6355, 43.2538, -10.4215, -101.239, 3.92041
0.063561, -1, -11.8193, 27.635, 43.2537, -10.4214, -101.239, 3.92045
0.071497, -1, -11.8139, 27.6332, 43.2532, -10.421, -101.238, 3.92033
0.079508, -1, -11.8044, 27.6294, 43.2516, -10.4182, -101.232, 3.91967
0.08757, -1, -11.7891, 27.6228, 43.2477, -10.409, -101.219, 3.9154
0.095492, -1, -11.7658, 27.6124, 43.2397, -10.3899, -101.191, 3.90274
0.103526, -1, -11.7316, 27.5977, 43.2252, -10.3547, -101.14, 3.8795
0.111558, -1, -11.6862, 27.5788, 43.2022, -10.2985, -101.057, 3.84192
0.119558, -1, -11.6292, 27.5553, 43.1683, -10.2163, -100.936, 3.78595
0.127517, -1, -11.5593, 27.5274, 43.1221, -10.1039, -100.771, 3.70825
0.135557, -1, -11.476, 27.4944, 43.0635, -9.96111, -100.56, 3.60985
0.143495, -1, -11.3791, 27.4564, 42.9928, -9.78864, -100.304, 3.49033
0.152224, -1, -11.2698, 27.4136, 42.9114, -9.58973, -100.01, 3.35266
0.159496, -1, -11.1482, 27.3663, 42.821, -9.36909, -99.6824, 3.19945
0.167506, -1, -11.0149, 27.3139, 42.7236, -9.13216, -99.3297, 3.03489
0.176865, -1, -10.8713, 27.2575, 42.621, -8.88297, -98.959, 2.86186
0.18357, -1, -10.7199, 27.198, 42.5145, -8.62513, -98.5754, 2.68299
0.191685, -1, -10.5631, 27.1362, 42.4054, -8.36154, -98.183, 2.49975
0.199593, -1, -10.4019, 27.0726, 42.2948, -8.09408, -97.7847, 2.31376
0.207916, -1, -10.2375, 27.0077, 42.1832, -7.82395, -97.3821, 2.12549
0.215673, -1, -10.0713, 26.942, 42.0707, -7.55204, -96.9764, 1.93613
0.223552, -1, -9.90382, 26.8758, 41.9575, -7.2785, -96.5683, 1.74581
0.232133, -1, -9.73575, 26.8095, 41.8436, -7.00337, -96.1584, 1.55438
0.23959, -1, -9.56735, 26.7429, 41.729, -6.72706, -95.746, 1.36203
0.247539, -1, -9.39889, 26.6762, 41.6141, -6.44962, -95.3324, 1.16871
0.256296, -1, -9.23062, 26.6093, 41.4988, -6.17078, -94.9167, 0.974721
0.263693, -1, -9.0621, 26.5422, 41.3831, -5.89079, -94.4995, 0.780009
0.271692, -1, -8.89268, 26.4749, 41.2668, -5.60974, -94.0805, 0.584712
0.28048, -1, -8.72231, 26.4072, 41.1499, -5.32731, -93.6597, 0.388373
0.287955, -1, -8.55057, 26.3391, 41.0325, -5.04386, -93.2372, 0.191393
0.295838, -1, -8.37748, 26.2705, 40.9146, -4.75945, -92.8128, -0.00641458
0.304733, -1, -8.20344, 26.2015, 40.7963, -4.47389, -92.3863, -0.204983
0.312061, -1, -8.02815, 26.1321, 40.6776, -4.18731, -91.9589, -0.404269
0.320015, -1, -7.85158, 26.0624, 40.5585, -3.89991, -91.5299, -0.604204
0.328697, -1, -7.67418, 25.9924, 40.4387, -3.61137, -91.1, -0.804976
0.336091, -1, -7.49608, 25.9222, 40.3185, -3.32175, -90.6685, -1.00644
0.344084, -1, -7.40678, 25.887, 40.1979, -3.03133, -90.235, -1.20882
0.352817, -1, -7.22783, 25.8166, 40.1375, -2.88577, -90.0179, -1.41131
0.360061, -1, -7.04869, 25.7462, 40.0165, -2.59372, -89.5821, -1.51285
0.367499, -1, -6.86968, 25.6758, 39.8951, -2.30097, -89.1449, -1.71627
0.375481, -1, -6.69085, 25.6052, 39.7734, -2.00739, -88.7066, -1.92034
0.383484, -1, -6.51218, 25.5344, 39.6514, -1.71263, -88.2679, -2.12495
0.391531, -1, -6.33397, 25.4633, 39.5292, -1.41753, -87.828, -2.33026
0.399499, -1, -6.15566, 25.3921, 39.4065, -1.12188, -87.3872, -2.53587
0.407495, -1, -5.97682, 25.3207, 39.2836, -0.825451, -86.9453, -2.74182
0.415538, -1, -5.79752, 25.249, 39.1605, -0.528893, -86.5024, -2.94812
0.42348, -1, -5.61753, 25.1771, 39.0371, -0.231504, -86.0588, -3.15503
0.432988, -1, -5.34587, 25.0689, 38.8516, 0.215479, -85.3918, -3.46596
0.4395, -1, -5.25482, 25.0328, 38.7897, 0.364501, -85.1693, -3.5696
0.447547, -1, -5.07206, 24.9606, 38.6659, 0.663066, -84.7242, -3.77708
0.455545, -1, -4.88857, 24.8884, 38.5418, 0.961848, -84.2783, -3.98469
0.463479, -1, -4.70474, 24.8162, 38.4177, 1.26053, -83.8324, -4.19239
0.471562, -1, -4.52077, 24.7439, 38.2935, 1.55987, -83.386, -4.40058
0.479476, -1, -4.33675, 24.6717, 38.1694, 1.85935, -82.9392, -4.6088
0.488489, -1, -4.15292, 24.5995, 38.0452, 2.15869, -82.4926, -4.8168
0.495586, -1, -3.96945, 24.5274, 37.921, 2.45831, -82.0454, -5.02488
0.504561, -1, -3.78649, 24.4552, 37.7967, 2.75749, -81.5987, -5.23291
0.511482, -1, -3.60448, 24.3829, 37.6726, 3.0564, -81.1527, -5.44086
0.519544, -1, -3.42315, 24.3107, 37.5485, 3.3555, -80.7069, -5.64885
0.527486, -1, -3.24244, 24.2385, 37.4245, 3.65426, -80.262, -5.85624
0.535478, -1, -3.06253, 24.1664, 37.3008, 3.95244, -79.8174, -6.06349
0.543547, -1, -2.88301, 24.0944, 37.177, 4.25039, -79.373, -6.27041
0.551478, -1, -2.7036, 24.0225, 37.0536, 4.5475, -78.9291, -6.47716
0.55948, -1, -2.52402, 23.9507, 36.9304, 4.84416, -78.4857, -6.68353
0.567507, -1, -2.3439, 23.8792, 36.8075, 5.14048, -78.0439, -6.8896
0.575483, -1, -2.16354, 23.8078, 36.6849, 5.43609, -77.6034, -7.09502
0.583542, -1, -1.98317, 23.7367, 36.5626, 5.73056, -77.164, -7.29987
0.591478, -1, -1.80294, 23.6658, 36.4405, 6.02433, -76.726, -7.50433
0.59949, -1, -1.62298, 23.5951, 36.3188, 6.317, -76.2888, -7.70837
0.607572, -1, -1.44319, 23.5246, 36.1976, 6.60869, -75.853, -7.91153
0.615517, -1, -1.26384, 23.4544, 36.0768, 6.89981, -75.4187, -8.11384
0.623541, -1, -1.08539, 23.3844, 35.9565, 7.18976, -74.9859, -8.31524
0.631548, -1, -0.908131, 23.3147, 35.8366, 7.47857, -74.5551, -8.5159
0.639477, -1, -0.732348, 23.2452, 35.7171, 7.76627, -74.126, -8.71576
0.647684, -1, -0.557704, 23.1759, 35.5982, 8.05276, -73.6984, -8.91526
0.655477, -1, -0.384288, 23.1069, 35.4798, 8.33795, -73.2727, -9.11348
0.663481, -1, -0.212207, 23.0382, 35.3619, 8.62232, -72.8489, -9.31087
0.67173, -1, -0.0413895, 22.9698, 35.2446, 8.90525, -72.4272, -9.50728
0.67961, -1, 0.128257, 22.9017, 35.1276, 9.18639, -72.0075, -9.70288
0.68757, -1, 0.297235, 22.8339, 35.0113, 9.46647, -71.5895, -9.89746
0.695992, -1, 0.466104, 22.7666, 34.8956, 9.74477, -71.1737, -10.0913
0.703576, -1, 0.634747, 22.6996, 34.7805, 10.0216, -70.7606, -10.2837
0.711659, -1, 0.803129, 22.6331, 34.6662, 10.2974, -70.3492, -10.4752
0.72, -1, 0.971195, 22.5669, 34.5524, 10.5715, -69.9406, -10.6654
0.727543, -1, 1.1384, 22.501, 34.4392, 10.844, -69.5341, -10.855
0.735677, -1, 1.30497, 22.4354, 34.3266, 11.115, -69.1297, -11.0435
0.744435, -1, 1.47096, 22.3702, 34.2146, 11.3845, -68.7274, -11.2312
0.751503, -1, 1.63628, 22.3053, 34.1034, 11.6522, -68.3272, -11.4174
0.759613, -1, 1.80062, 22.2409, 33.9929, 11.9188, -67.9291, -11.6026
0.768374, -1, 1.96353, 22.1768, 33.8829, 12.184, -67.534, -11.7868
0.775693, -1, 2.12478, 22.113, 33.7734, 12.4472, -67.1412, -11.97
0.783791, -1, 2.28477, 22.0496, 33.6646, 12.7089, -66.7509, -12.1523
0.792973, -1, 2.44338, 21.9866, 33.5565, 12.969, -66.3632, -12.3332
0.799857, -1, 2.60051, 21.924, 33.4492, 13.2274, -65.9773, -12.513
0.808059, -1, 2.75627, 21.8619, 33.3427, 13.4843, -65.594, -12.6914
0.816027, -1, 2.91052, 21.8001, 33.2367, 13.7399, -65.213, -12.8688
0.824057, -1, 3.06356, 21.7386, 33.1312, 13.9936, -64.8342, -13.0451
0.832074, -1, 3.21593, 21.6776, 33.0263, 14.2454, -64.4581, -13.2203
0.840259, -1, 3.36791, 21.6169, 32.9222, 14.4959, -64.0843, -13.3948
0.848136, -1, 3.51955, 21.5567, 32.8189, 14.7447, -63.713, -13.5678
0.856052, -1, 3.59522, 21.5267, 32.7676, 14.8685, -63.5282, -13.7396
0.863516, -1, 3.74614, 21.4671, 32.6653, 15.115, -63.1605, -13.8251
0.871469, -1, 3.89634, 21.4078, 32.5636, 15.3599, -62.7951, -13.9952
0.879475, -1, 4.04563, 21.3489, 32.4623, 15.6034, -62.4322, -14.1644
0.887523, -1, 4.19446, 21.2905, 32.3617, 15.845, -62.0716, -14.3324
0.895456, -1, 4.34242, 21.2324, 32.2619, 16.0849, -61.7131, -14.4996
0.903502, -1, 4.48959, 21.1748, 32.163, 16.3236, -61.3568, -14.6653
0.911502, -1, 4.63598, 21.1176, 32.0648, 16.5606, -61.0026, -14.83
0.919597, -1, 4.78101, 21.0608, 31.9672, 16.7958, -60.6511, -14.9935
0.927491, -1, 4.92431, 21.0043, 31.8698, 17.0297, -60.3021, -15.1559
0.935505, -1, 5.06642, 20.948, 31.7731, 17.2622, -59.9552, -15.3176
0.943495, -1, 5.20752, 20.892, 31.677, 17.493, -59.6109, -15.4781
0.951472, -1, 5.34715, 20.8364, 31.5818, 17.7225, -59.2689, -15.6379
0.959572, -1, 5.48533, 20.7811, 31.4873, 17.9504, -58.9289, -15.7964
0.967487, -1, 5.62231, 20.7261, 31.3935, 18.1773, -58.5909, -15.9538
0.975469, -1, 5.75807, 20.6715, 31.3, 18.4022, -58.2548, -16.1105
0.984475, -1, 5.89286, 20.6172, 31.2068, 18.6259, -57.9208, -16.2661
0.991475, -1, 6.02724, 20.5633, 31.1142, 18.8482, -57.5887, -16.4209
0.999499, -1, 6.16145, 20.5099, 31.0224, 19.0693, -57.2587, -16.5748
1.00752, -1, 6.29543, 20.4568, 30.9313, 19.2888, -56.9311, -16.7278
1.01547, -1, 6.429, 20.4042, 30.841, 19.507, -56.6055, -16.8795
1.02346, -1, 6.56206, 20.3519, 30.7512, 19.7238, -56.2822, -17.0303
1.03151, -1, 6.6944, 20.2998, 30.6617, 19.9393, -55.9609, -17.1798
1.03948, -1, 6.82608, 20.2479, 30.5726, 20.1532, -55.6415, -17.3286
1.04747, -1, 6.95715, 20.1964, 30.4839, 20.3659, -55.3239, -17.4765
1.05552, -1, 7.08773, 20.1451, 30.3959, 20.5775, -55.0081, -17.6235
1.06348, -1, 7.2174, 20.0942, 30.3087, 20.788, -54.6939, -17.7699
1.07206, -1, 7.3459, 20.0434, 30.2221, 20.9971, -54.3816, -17.9153
1.08053, -1, 7.47335, 19.9929, 30.1359, 21.2049, -54.0713, -18.0597
1.08748, -1, 7.59982, 19.9428, 30.0501, 21.4114, -53.7631, -18.2034
1.09625, -1, 7.72544, 19.8929, 29.9646, 21.6169, -53.4567, -18.346
1.10346, -1, 7.85008, 19.8434, 29.8796, 21.821, -53.152, -18.4879
1.11149, -1, 7.97395, 19.7944, 29.7952, 22.024, -52.8491, -18.6289
1.12026, -1, 8.09695, 19.7456, 29.7114, 22.2259, -52.5479, -18.7692
1.12753, -1, 8.21898, 19.6971, 29.6282, 22.4268, -52.2485, -18.9089
1.13546, -1, 8.34006, 19.6489, 29.5455, 22.6265, -51.9508, -19.0476
1.14426, -1, 8.46037, 19.601, 29.4633, 22.8248, -51.6547, -19.1854
1.15146, -1, 8.57992, 19.5532, 29.3814, 23.022, -51.3604, -19.3225
1.15952, -1, 8.69879, 19.5057, 29.2998, 23.2182, -51.0677, -19.4587
1.16828, -1, 8.81721, 19.4584, 29.2187, 23.4132, -50.7764, -19.5942
1.17557, -1, 8.93522, 19.4114, 29.1381, 23.6071, -50.4867, -19.7291
1.18384, -1, 9.05273, 19.3645, 29.058, 23.7998, -50.1988, -19.8631
1.19292, -1, 9.16992, 19.318, 28.9783, 23.9916, -49.9125, -19.9966
1.19956, -1, 9.28668, 19.2717, 28.8992, 24.1825, -49.6276, -20.1294
1.20789, -1, 9.40309, 19.2257, 28.8205, 24.3723, -49.3445, -20.2612
1.21557, -1, 9.51899, 19.18, 28.7422, 24.5609, -49.0629, -20.3925
1.22364, -1, 9.63421, 19.1346, 28.6642, 24.7486, -48.7831, -20.5229
1.23211, -1, 9.74891, 19.0895, 28.5866, 24.9353, -48.5048, -20.6528
1.23948, -1, 9.86297, 19.0448, 28.5093, 25.1212, -48.2275, -20.7819
1.2475, -1, 9.97637, 19.0002, 28.4324, 25.3059, -47.9517, -20.9105
1.2563, -1, 10.0892, 18.9559, 28.3561, 25.4899, -47.6772, -21.0386
1.26358, -1, 10.2013, 18.9117, 28.2802, 25.6727, -47.404, -21.1658
1.2716, -1, 10.3128, 18.8677, 28.2048, 25.8551, -47.132, -21.2925
1.28048, -1, 10.4237, 18.8239, 28.1297, 26.0364, -46.8614, -21.4184
1.28774, -1, 10.5339, 18.7802, 28.0548, 26.2165, -46.5925, -21.5435
1.29588, -1, 10.6433, 18.7367, 27.9802, 26.3958, -46.3249, -21.6681
1.30478, -1, 10.7522, 18.6934, 27.906, 26.5743, -46.0586, -21.7921
1.31196, -1, 10.8605, 18.6502, 27.8321, 26.752, -45.7938, -21.9155
1.32004, -1, 10.968, 18.6074, 27.7588, 26.9287, -45.5303, -22.0384
1.32893, -1, 11.0749, 18.5647, 27.6858, 27.1045, -45.2682, -22.1607
1.336, -1, 11.1814, 18.5222, 27.6131, 27.2794, -45.0074, -22.2825
1.34465, -1, 11.2875, 18.4801, 27.5408, 27.4537, -44.7474, -22.4037
1.35286, -1, 11.3403, 18.4592, 27.5048, 27.5406, -44.4887, -22.5241
1.35999, -1, 11.4454, 18.4173, 27.4331, 27.7137, -44.3597, -22.5843
1.36749, -1, 11.5499, 18.3757, 27.3617, 27.8859, -44.1025, -22.7037
1.37545, -1, 11.6539, 18.3344, 27.2906, 28.0572, -43.8465, -22.8227
1.38345, -1, 11.7577, 18.2933, 27.2196, 28.2276, -43.5918, -22.9413
1.39259, -1, 11.9128, 18.2319, 27.1139, 28.4822, -43.2122, -23.118
1.39946, -1, 11.9644, 18.2115, 27.0788, 28.5667, -43.0862, -23.1767
1.40751, -1, 12.0673, 18.1708, 27.0089, 28.7349, -42.835, -23.2939
1.41679, -1, 12.2213, 18.11, 26.9048, 28.986, -42.4602, -23.4688
1.42345, -1, 12.2724, 18.0898, 26.8702, 29.0692, -42.3359, -23.5266
1.4315, -1, 12.3741, 18.0495, 26.8013, 29.2355, -42.088, -23.6421
1.43946, -1, 12.4754, 18.0092, 26.7326, 29.4011, -41.8414, -23.7569
1.44747, -1, 12.5763, 17.9693, 26.6642, 29.5659, -41.5958, -23.8714
1.45775, -1, 12.7269, 17.9097, 26.5621, 29.8115, -41.229, -24.042
1.46353, -1, 12.7769, 17.8899, 26.5282, 29.8931, -41.1074, -24.0985
1.47145, -1, 12.8764, 17.8505, 26.4607, 30.0557, -40.8648, -24.2115
1.47951, -1, 12.9754, 17.8113, 26.3935, 30.2177, -40.623, -24.3239
1.48904, -1, 13.0739, 17.7723, 26.3266, 30.3789, -40.3823, -24.4922
1.49544, -1, 13.1718, 17.7335, 26.26, 30.5394, -40.1427, -24.548
1.5036, -1, 13.2692, 17.6949, 26.1938, 30.6992, -39.9039, -24.6592
1.51145, -1, 13.3662, 17.6564, 26.1278, 30.8584, -39.6662, -24.7699
1.51945, -1, 13.4629, 17.6181, 26.062, 31.0172, -39.4296, -24.88
1.52752, -1, 13.5594, 17.58, 25.9964, 31.1752, -39.1939, -24.9898
1.53544, -1, 13.6554, 17.5419, 25.931, 31.3325, -38.9592, -25.0991
1.54344, -1, 13.7511, 17.504, 25.8658, 31.4891, -38.7254, -25.2083
1.5515, -1, 13.8464, 17.4662, 25.801, 31.645, -38.4924, -25.317
1.55946, -1, 13.9414, 17.4286, 25.7365, 31.8004, -38.2607, -25.4252
1.56746, -1, 14.0361, 17.391, 25.6722, 31.9555, -38.0299, -25.5333
1.57558, -1, 14.1306, 17.3537, 25.6082, 32.1096, -37.8, -25.6406
1.58344, -1, 14.2246, 17.3163, 25.5444, 32.2633, -37.5708, -25.7477
1.59144, -1, 14.318, 17.2791, 25.4809, 32.4163, -37.3422, -25.854
1.59951, -1, 14.411, 17.2422, 25.4176, 32.5687, -37.1147, -25.9601
1.60744, -1, 14.5035, 17.2054, 25.3546, 32.721, -36.8878, -26.0656
1.61546, -1, 14.5955, 17.1687, 25.2918, 32.8726, -36.6617, -26.1707
1.6235, -1, 14.6871, 17.1322, 25.2291, 33.0235, -36.4366, -26.2756
1.6315, -1, 14.7784, 17.0958, 25.1667, 33.1736, -36.2122, -26.3798
1.63945, -1, 14.8694, 17.0595, 25.1045, 33.3234, -35.9887, -26.484
1.64751, -1, 14.9603, 17.0235, 25.0426, 33.4726, -35.7661, -26.5875
1.65544, -1, 15.0508, 16.9876, 24.981, 33.6213, -35.5442, -26.6911
1.66344, -1, 15.141, 16.9518, 24.9196, 33.7695, -35.3234, -26.7941
1.67151, -1, 15.2311, 16.916, 24.8584, 33.9171, -35.1031, -26.8967
1.67947, -1, 15.3209, 16.8805, 24.7974, 34.064, -34.8838, -26.999
1.68755, -1, 15.4106, 16.8452, 24.7366, 34.2104, -34.6653, -27.1005
1.69556, -1, 15.5002, 16.8098, 24.676, 34.3566, -34.4476, -27.2022
1.70353, -1, 15.5895, 16.7746, 24.6155, 34.5023, -34.2302, -27.3029
1.7116, -1, 15.6786, 16.7396, 24.5552, 34.6473, -34.0137, -27.4039
1.71955, -1, 15.7671, 16.7047, 24.4952, 34.7919, -33.798, -27.5041
1.72756, -1, 15.8554, 16.6698, 24.4353, 34.9359, -33.5829, -27.6044
1.73563, -1, 15.9434, 16.635, 24.3757, 35.0793, -33.3683, -27.7042
1.74346, -1, 16.031, 16.6004, 24.3163, 35.2224, -33.1546, -27.804
1.75148, -1, 16.1181, 16.5657, 24.2571, 35.3652, -32.9418, -27.9033
1.75985, -1, 16.2049, 16.5312, 24.1981, 35.5075, -32.7297, -28.0022
1.76751, -1, 16.2913, 16.4969, 24.1394, 35.649, -32.5183, -28.1007
1.77567, -1, 16.3773, 16.4628, 24.0808, 35.7903, -32.3076, -28.1987
1.78378, -1, 16.4631, 16.4286, 24.0223, 35.9311, -32.0975, -28.2967
1.79171, -1, 16.5485, 16.3947, 23.964, 36.0714, -31.8882, -28.3939
1.79994, -1, 16.6337, 16.3608, 23.906, 36.2116, -31.6795, -28.4913
1.80855, -1, 16.7187, 16.3271, 23.848, 36.3513, -31.4715, -28.5881
1.81595, -1, 16.8035, 16.2935, 23.7904, 36.4904, -31.2642, -28.6848
1.82458, -1, 16.8883, 16.26, 23.7329, 36.6289, -31.0573, -28.781
1.83204, -1, 16.9727, 16.2266, 23.6755, 36.767, -30.8511, -28.8776
1.84004, -1, 17.0569, 16.1933, 23.6184, 36.9048, -30.6456, -28.973
1.84807, -1, 17.1407, 16.1601, 23.5615, 37.0422, -30.4405, -29.0691
1.85636, -1, 17.1823, 16.1436, 23.5331, 37.1107, -30.2363, -29.1639
1.86394, -1, 17.264, 16.1112, 23.4764, 37.2473, -30.1345, -29.2114
1.87149, -1, 17.3432, 16.0799, 23.4202, 37.383, -29.9319, -29.3055
1.87943, -1, 17.4186, 16.0503, 23.3646, 37.5164, -29.7323, -29.3986
1.88743, -1, 17.4894, 16.0229, 23.3105, 37.646, -29.5385, -29.4887
1.89548, -1, 17.5551, 15.998, 23.2591, 37.7689, -29.3547, -29.5743
1.90343, -1, 17.6143, 15.9759, 23.2117, 37.882, -29.1851, -29.6534
1.91145, -1, 17.667, 15.9564, 23.17, 37.9819, -29.0355, -29.7227
1.91948, -1, 17.7137, 15.9385, 23.135, 38.0649, -28.9098, -29.7816
1.92743, -1, 17.7547, 15.9216, 23.1076, 38.131, -28.811, -29.8278
1.93542, -1, 17.79, 15.9065, 23.0875, 38.1787, -28.7375, -29.8619
1.94538, -1, 17.8316, 15.8885, 23.0689, 38.2231, -28.6701, -29.8934
1.95146, -1, 17.8429, 15.8836, 23.0652, 38.2321, -28.6562, -29.8997
1.95939, -1, 17.8614, 15.8757, 23.0604, 38.244, -28.6381, -29.9079
1.96754, -1, 17.8741, 15.8703, 23.0578, 38.2502, -28.6283, -29.912
1.97542, -1, 17.8811, 15.8673, 23.0564, 38.2532, -28.6237, -29.9141
1.98339, 2, 17.8843, 15.8659, 23.0557, 38.2547, -28.6215, -29.915
1.9915, 2, 17.8856, 15.8652, 23.0553, 38.2553, -28.6204, -29.9155
2.00154, 2, 17.8851, 15.8648, 23.0551, 38.2557, -28.6199, -29.9157
2.00743, 2, 17.8847, 15.8648, 23.0551, 38.2558, -28.6198, -29.9157
2.01549, 2, 17.8839, 15.8647, 23.055, 38.2558, -28.6197, -29.9158
2.02343, 2, 17.8833, 15.8646, 23.055, 38.2559, -28.6197, -29.9158
2.03146, 2, 17.8831, 15.8646, 23.0549, 38.2559, -28.6197, -29.9158
2.03949, 2, 17.883, 15.8645, 23.0549, 38.2559, -28.6197, -29.9158
2.04743, 2, 17.883, 15.8642, 23.0548, 38.2559, -28.6197, -29.9158
2.05543, 2, 17.8832, 15.864, 23.0548, 38.2559, -28.6197, -29.9158
2.06349, 2, 17.8835, 15.8637, 23.0547, 38.2559, -28.6197, -29.9158
2.07145, 2, 17.8839, 15.8634, 23.0547, 38.2559, -28.6197, -29.9158
2.07944, 2, 17.8843, 15.8632, 23.0546, 38.2559, -28.6197, -29.9158
2.08749, 2, 17.8851, 15.8632, 23.0546, 38.2559, -28.6198, -29.9158
2.09542, 2, 17.8858, 15.8631, 23.0546, 38.2559, -28.6197, -29.9158
2.10343, 2, 17.8864, 15.8631, 23.0546, 38.2558, -28.6197, -29.9158
2.1115, 2, 17.8868, 15.8631, 23.0546, 38.2559, -28.6198, -29.9157
2.11944, 2, 17.887, 15.8632, 23.0546, 38.2559, -28.6198, -29.9157
2.12742, 2, 17.8872, 15.8632, 23.0546, 38.2559, -28.6198, -29.9157
2.13555, 2, 17.8873, 15.8632, 23.0546, 38.2559, -28.6198, -29.9157
2.14342, 2, 17.8873, 15.8631, 23.0546, 38.2559, -28.6198, -29.9158
2.15143, 2, 17.8873, 15.8631, 23.0546, 38.2559, -28.6199, -29.9158
2.1595, 2, 17.8873, 15.8631, 23.0546, 38.2559, -28.6199, -29.9158
2.16742, 2, 17.8873, 15.863, 23.0546, 38.2559, -28.6199, -29.9158
2.17542, 2, 17.8871, 15.8629, 23.0545, 38.2559, -28.62, -29.9157
2.18353, 2, 17.8869, 15.8629, 23.0545, 38.2559, -28.62, -29.9158
2.19149, 2, 17.8868, 15.8629, 23.0546, 38.2559, -28.6201, -29.9157
2.19953, 2, 17.8867, 15.8629, 23.0545, 38.2559, -28.6201, -29.9157
2.20761, 2, 17.8867, 15.8629, 23.0546, 38.2559, -28.6201, -29.9157
2.21553, 2, 17.8867, 15.8629, 23.0545, 38.2559, -28.6201, -29.9157
2.22353, 2, 17.8867, 15.8629, 23.0545, 38.2559, -28.6201, -29.9157
2.23162, 2, 17.8867, 15.8629, 23.0546, 38.2559, -28.6201, -29.9157
2.23943, 2, 17.8867, 15.8629, 23.0545, 38.2559, -28.6202, -29.9157
2.24746, 2, 17.8867, 15.8629, 23.0545, 38.2559, -28.6202, -29.9157
2.25553, 2, 17.8867, 15.8629, 23.0545, 38.2559, -28.6202, -29.9157
2.26347, 2, 17.8867, 15.8629, 23.0545, 38.2559, -28.6202, -29.9157
2.27152, 2, 17.8867, 15.8629, 23.0545, 38.2559, -28.6202, -29.9157
2.27998, 2, 17.8867, 15.8629, 23.0545, 38.2559, -28.6202, -29.9157
2.28767, 2, 17.8867, 15.8629, 23.0545, 38.2559, -28.6202, -29.9157
2.29571, 2, 17.8866, 15.8629, 23.0545, 38.2559, -28.6203, -29.9157
2.3043, 2, 17.8866, 15.8629, 23.0545, 38.2558, -28.6203, -29.9156
2.31185, 2, 17.8866, 15.8629, 23.0545, 38.2559, -28.6203, -29.9156
2.31991, 2, 17.8866, 15.8629, 23.0545, 38.2558, -28.6203, -29.9156
2.32854, 2, 17.8865, 15.8629, 23.0545, 38.2559, -28.6203, -29.9156
2.33595, 2, 17.8865, 15.8629, 23.0545, 38.2558, -28.6204, -29.9156
2.34398, 2, 17.8865, 15.8629, 23.0545, 38.2558, -28.6204, -29.9156
2.35228, 2, 17.8865, 15.8629, 23.0546, 38.2558, -28.6205, -29.9156
2.35997, 2, 17.8865, 15.8629, 23.0546, 38.2559, -28.6205, -29.9156
2.36743, 2, 17.8865, 15.8629, 23.0546, 38.2558, -28.6205, -29.9156
2.37648, 2, 17.8865, 15.8629, 23.0545, 38.2558, -28.6205, -29.9156
2.38347, 2, 17.8865, 15.8629, 23.0546, 38.2558, -28.6205, -29.9156
2.39142, 2, 17.8865, 15.8629, 23.0546, 38.2558, -28.6205, -29.9156
2.39946, 2, 17.8865, 15.8629, 23.0546, 38.2558, -28.6205, -29.9156
2.4074, 2, 17.8864, 15.8629, 23.0545, 38.2558, -28.6206, -29.9156
2.41543, 2, 17.8864, 15.8629, 23.0546, 38.2557, -28.6206, -29.9156
2.42346, 2, 17.8864, 15.8629, 23.0546, 38.2557, -28.6206, -29.9156
2.43143, 2, 17.8864, 15.8629, 23.0546, 38.2557, -28.6206, -29.9156
2.44088, 2, 17.8863, 15.8629, 23.0545, 38.2558, -28.6207, -29.9156
2.44936, 2, 17.8863, 15.8629, 23.0545, 38.2558, -28.6207, -29.9155
2.45543, 2, 17.8863, 15.8629, 23.0545, 38.2558, -28.6207, -29.9155
2.4634, 2, 17.8863, 15.8629, 23.0545, 38.2558, -28.6207, -29.9155
2.47321, 2, 17.8862, 15.8629, 23.0545, 38.2557, -28.6208, -29.9155
2.4794, 2, 17.8862, 15.8629, 23.0545, 38.2557, -28.6208, -29.9155
2.48893, 2, 17.8862, 15.8629, 23.0545, 38.2557, -28.6208, -29.9155
2.49548, 2, 17.8862, 15.8629, 23.0545, 38.2557, -28.6208, -29.9155
2.50341, 2, 17.8861, 15.8629, 23.0545, 38.2557, -28.6208, -29.9155
2.51243, 2, 17.8861, 15.8629, 23.0545, 38.2557, -28.6208, -29.9155
2.51947, 2, 17.8861, 15.8629, 23.0546, 38.2557, -28.6209, -29.9155
2.52847, 2, 17.886, 15.8629, 23.0545, 38.2557, -28.6209, -29.9155
2.53542, 2, 17.886, 15.8629, 23.0546, 38.2557, -28.6208, -29.9155
2.54347, 2, 17.8859, 15.8629, 23.0545, 38.2557, -28.6209, -29.9154
2.55142, 2, 17.8859, 15.8629, 23.0545, 38.2557, -28.6209, -29.9154
2.55941, 2, 17.8858, 15.8629, 23.0545, 38.2556, -28.6208, -29.9154
2.56748, 2, 17.8858, 15.8629, 23.0546, 38.2556, -28.6208, -29.9154
2.57548, 2, 17.8857, 15.8629, 23.0546, 38.2556, -28.6209, -29.9153
2.58343, 2, 17.8857, 15.8629, 23.0546, 38.2556, -28.6209, -29.9153
2.59148, 2, 17.8857, 15.8629, 23.0545, 38.2556, -28.621, -29.9154
2.5994, 2, 17.8856, 15.8629, 23.0546, 38.2556, -28.621, -29.9153
2.60741, 2, 17.8856, 15.8629, 23.0546, 38.2556, -28.621, -29.9153
2.61547, 2, 17.8855, 15.8629, 23.0545, 38.2556, -28.6211, -29.9153
2.62342, 2, 17.8855, 15.8629, 23.0546, 38.2556, -28.6211, -29.9152
2.63143, 2, 17.8854, 15.8629, 23.0546, 38.2556, -28.6211, -29.9152
2.63953, 2, 17.8854, 15.8629, 23.0545, 38.2556, -28.6211, -29.9152
2.64741, 2, 17.8854, 15.8629, 23.0545, 38.2556, -28.6212, -29.9152
2.65541, 2, 17.8853, 15.8629, 23.0546, 38.2556, -28.6212, -29.9152
2.66347, 2, 17.8852, 15.8629, 23.0546, 38.2556, -28.6212, -29.9151
2.67142, 2, 17.8852, 15.8629, 23.0546, 38.2556, -28.6212, -29.9151
2.67941, 2, 17.8851, 15.8629, 23.0545, 38.2555, -28.6212, -29.9152
2.68751, 2, 17.8851, 15.8629, 23.0545, 38.2555, -28.6212, -29.9152
2.69549, 2, 17.885, 15.8629, 23.0545, 38.2555, -28.6212, -29.9151
2.70351, 2, 17.885, 15.8629, 23.0545, 38.2555, -28.6212, -29.9151
2.71158, 2, 17.8849, 15.8629, 23.0546, 38.2555, -28.6212, -29.9151
2.71951, 2, 17.8849, 15.8629, 23.0546, 38.2555, -28.6212, -29.9151
2.72752, 2, 17.8848, 15.8629, 23.0546, 38.2555, -28.6212, -29.915
2.73557, 2, 17.8848, 15.8629, 23.0546, 38.2554, -28.6212, -29.915
2.74341, 2, 17.8847, 15.8629, 23.0546, 38.2554, -28.6212, -29.915
2.75147, 2, 17.8846, 15.8629, 23.0546, 38.2554, -28.6212, -29.915
2.7595, 2, 17.8846, 15.8629, 23.0546, 38.2554, -28.6212, -29.915
2.76751, 2, 17.8846, 15.8629, 23.0546, 38.2554, -28.6213, -29.915
2.77569, 2, 17.8845, 15.8629, 23.0546, 38.2554, -28.6212, -29.9149
2.78365, 2, 17.8845, 15.863, 23.0546, 38.2554, -28.6213, -29.9149
2.79173, 2, 17.8844, 15.863, 23.0546, 38.2553, -28.6213, -29.915
2.79975, 2, 17.8843, 15.8629, 23.0546, 38.2553, -28.6214, -29.915
2.80787, 2, 17.8843, 15.8629, 23.0546, 38.2553, -28.6214, -29.915
2.8159, 2, 17.8843, 15.8629, 23.0546, 38.2553, -28.6214, -29.915
2.82458, 2, 17.8842, 15.8629, 23.0546, 38.2553, -28.6214, -29.915
2.83201, 2, 17.8842, 15.8629, 23.0546, 38.2553, -28.6214, -29.9149
2.84057, 2, 17.8842, 15.8629, 23.0545, 38.2552, -28.6214, -29.915
2.84801, 2, 17.8841, 15.8629, 23.0545, 38.2552, -28.6215, -29.915
2.85655, 2, 17.8841, 15.8629, 23.0546, 38.2552, -28.6215, -29.915
2.86401, 2, 17.8841, 15.863, 23.0546, 38.2552, -28.6215, -29.915
2.87142, 2, 17.8841, 15.863, 23.0545, 38.2552, -28.6215, -29.915
2.87944, 2, 17.884, 15.863, 23.0545, 38.2551, -28.6215, -29.915
2.8874, 2, 17.884, 15.863, 23.0545, 38.2552, -28.6215, -29.9149
2.8954, 2, 17.884, 15.863, 23.0546, 38.2551, -28.6215, -29.9149
2.90344, 2, 17.884, 15.863, 23.0546, 38.2552, -28.6215, -29.9149
2.91139, 2, 17.8839, 15.863, 23.0546, 38.2551, -28.6215, -29.9149
2.91941, 2, 17.8839, 15.863, 23.0546, 38.255, -28.6215, -29.9149
2.92744, 2, 17.8839, 15.863, 23.0546, 38.2551, -28.6214, -29.9149
2.93694, 2, 17.8839, 15.863, 23.0546, 38.255, -28.6215, -29.9149
2.94496, 2, 17.8839, 15.863, 23.0545, 38.255, -28.6215, -29.9149
2.95145, 2, 17.8839, 15.863, 23.0545, 38.2549, -28.6215, -29.9149
2.96132, 2, 17.8839, 15.863, 23.0546, 38.2549, -28.6214, -29.9149
2.96739, 2, 17.8839, 15.863, 23.0546, 38.2549, -28.6214, -29.9149
2.97551, 2, 17.8839, 15.863, 23.0546, 38.2549, -28.6215, -29.9149
2.98354, 2, 17.8839, 15.863, 23.0546, 38.2549, -28.6215, -29.9149
2.99138, 2, 17.8838, 15.863, 23.0546, 38.2549, -28.6215, -29.9149
2.99946, 2, 17.8838, 15.863, 23.0546, 38.2549, -28.6215, -29.9149
3.00739, 2, 17.8838, 15.863, 23.0546, 38.2549, -28.6215, -29.9149
3.01539, 2, 17.8838, 15.863, 23.0546, 38.2549, -28.6215, -29.9149
3.02346, 2, 17.8838, 15.863, 23.0545, 38.2549, -28.6215, -29.9149
3.03141, 2, 17.8838, 15.863, 23.0546, 38.2549, -28.6215, -29.9149
3.03937, 2, 17.8838, 15.863, 23.0546, 38.2549, -28.6215, -29.9149
3.04745, 2, 17.8838, 15.863, 23.0546, 38.2548, -28.6215, -29.9149
3.05539, 2, 17.8837, 15.863, 23.0546, 38.2548, -28.6215, -29.9149
3.06335, 4, 17.8837, 15.863, 23.0546, 38.2548, -28.6215, -29.9149
3.07147, 4, 17.8837, 15.863, 23.0546, 38.2547, -28.6215, -29.9149
3.07939, 4, 17.8837, 15.863, 23.0546, 38.2547, -28.6215, -29.9149
3.08752, 4, 17.8837, 15.863, 23.0546, 38.2547, -28.6215, -29.9149
3.09545, 4, 17.8837, 15.863, 23.0546, 38.2547, -28.6215, -29.9149
3.10339, 4, 17.8836, 15.863, 23.0546, 38.2547, -28.6215, -29.9148
3.1114, 4, 17.8836, 15.863, 23.0546, 38.2546, -28.6215, -29.9148
3.11946, 4, 17.8836, 15.863, 23.0546, 38.2546, -28.6215, -29.9148
3.12741, 4, 17.8836, 15.863, 23.0546, 38.2546, -28.6215, -29.9148
3.13538, 4, 17.8836, 15.863, 23.0546, 38.2546, -28.6215, -29.9148
3.1435, 4, 17.8836, 15.863, 23.0546, 38.2546, -28.6215, -29.9148
3.1514, 4, 17.8836, 15.863, 23.0546, 38.2546, -28.6216, -29.9148
3.15939, 4, 17.8836, 15.863, 23.0546, 38.2546, -28.6216, -29.9148
3.1676, 4, 17.8836, 15.863, 23.0546, 38.2546, -28.6215, -29.9147
3.19203, 4, 17.8835, 15.863, 23.0546, 38.2546, -28.6215, -29.9147
3.1933, 4, 17.8835, 15.863, 23.0546, 38.2546, -28.6215, -29.9147
3.19532, 4, 17.8835, 15.863, 23.0546, 38.2545, -28.6215, -29.9147
3.19947, 4, 17.8835, 15.8631, 23.0546, 38.2545, -28.6215, -29.9147
3.20754, 4, 17.8835, 15.8631, 23.0546, 38.2545, -28.6215, -29.9147
3.21626, 4, 17.883, 15.8633, 23.0546, 38.2545, -28.6216, -29.9147
3.22349, 4, 17.8808, 15.8647, 23.0544, 38.2543, -28.6216, -29.9146
3.23152, 4, 17.8757, 15.8686, 23.0536, 38.2522, -28.6218, -29.9134
3.24075, 4, 17.8673, 15.8769, 23.0511, 38.245, -28.623, -29.908
3.24739, 4, 17.8554, 15.891, 23.046, 38.2285, -28.6262, -29.893
3.2555, 4, 17.839, 15.912, 23.037, 38.198, -28.6327, -29.8625
3.26342, 5, 17.8173, 15.9404, 23.0228, 38.1465, -28.6443, -29.8102
3.27145, 5, 17.7912, 15.9752, 23.0026, 38.0675, -28.662, -29.7297
3.28037, 5, 17.7611, 16.0152, 22.9759, 37.9585, -28.6867, -29.6179
3.28759, 5, 17.7269, 16.0607, 22.9424, 37.818, -28.7187, -29.4737
3.29566, 5, 17.688, 16.1128, 22.9027, 37.649, -28.7586, -29.2999
3.30458, 5, 17.6446, 16.1722, 22.8573, 37.4561, -28.8044, -29.1015
3.31186, 5, 17.5972, 16.2386, 22.8076, 37.2453, -28.8546, -28.8837
3.31987, 5, 17.5456, 16.3111, 22.7546, 37.0224, -28.9097, -28.6537
3.32873, 5, 17.4894, 16.3887, 22.6994, 36.793, -28.9665, -28.4167
3.33591, 5, 17.4296, 16.4698, 22.6429, 36.5605, -29.0252, -28.1767
3.34455, 5, 17.3677, 16.5529, 22.586, 36.327, -29.0853, -27.9359
3.35279, 5, 17.3044, 16.6368, 22.5289, 36.0932, -29.1453, -27.695
3.35996, 5, 17.2725, 16.6789, 22.5004, 35.8598, -29.2076, -27.4548
3.36802, 5, 17.2084, 16.7632, 22.4434, 35.7433, -29.2695, -27.2154
3.37682, 5, 17.1441, 16.8474, 22.3865, 35.5108, -29.3008, -27.0961
3.38337, 5, 17.0798, 16.9315, 22.3299, 35.2787, -29.3647, -26.8585
3.39143, 5, 17.0156, 17.0154, 22.2734, 35.0475, -29.4281, -26.6215
3.39938, 5, 16.9515, 17.099, 22.2172, 34.8171, -29.4933, -26.3855
3.40738, 5, 16.8873, 17.1824, 22.1611, 34.5873, -29.5584, -26.1504
3.41543, 5, 16.8229, 17.2655, 22.1052, 34.3581, -29.6246, -25.9168
3.42339, 5, 16.7586, 17.3485, 22.0494, 34.1297, -29.691, -25.6845
3.43145, 5, 16.6943, 17.4315, 21.9939, 33.9022, -29.7581, -25.4529
3.43937, 5, 16.6299, 17.5144, 21.9385, 33.6754, -29.8262, -25.2226
3.44965, 5, 16.5333, 17.6386, 21.8558, 33.3366, -29.9291, -24.8794
3.45542, 5, 16.5011, 17.68, 21.8284, 33.2242, -29.9637, -24.7657
3.465, 5, 16.4041, 17.8042, 21.7466, 32.8882, -30.0683, -24.4258
3.4714, 5, 16.3716, 17.8456, 21.7194, 32.7766, -30.1038, -24.313
3.47944, 5, 16.3065, 17.9282, 21.6654, 32.5538, -30.1744, -24.0881
3.48902, 5, 16.2412, 18.0105, 21.5848, 32.2217, -30.2822, -23.753
3.49537, 5, 16.1759, 18.0928, 21.558, 32.1113, -30.3182, -23.6418
3.50437, 5, 16.1105, 18.1749, 21.5045, 31.8911, -30.3916, -23.4203
3.51242, 5, 16.045, 18.2568, 21.4514, 31.6717, -30.4647, -23.1996
3.51937, 5, 15.9795, 18.3384, 21.3984, 31.4534, -30.5389, -22.9803
3.52751, 5, 15.9138, 18.4198, 21.3456, 31.2359, -30.6133, -22.7622
3.53538, 5, 15.848, 18.5011, 21.293, 31.0191, -30.6888, -22.5455
3.54343, 5, 15.7821, 18.5822, 21.2407, 30.8031, -30.7646, -22.33
3.55139, 5, 15.7162, 18.663, 21.1885, 30.588, -30.841, -22.1155
3.55937, 5, 15.6504, 18.7436, 21.1367, 30.3738, -30.9179, -21.9021
3.56744, 5, 15.5846, 18.8242, 21.0851, 30.1605, -30.9956, -21.69
3.57537, 5, 15.5188, 18.9047, 21.0337, 29.948, -31.0735, -21.4794
3.58337, 5, 15.4529, 18.9851, 20.9827, 29.7365, -31.152, -21.27
3.59147, 5, 15.3868, 19.0654, 20.9318, 29.526, -31.2313, -21.0615
3.59937, 5, 15.3207, 19.1455, 20.8813, 29.3162, -31.311, -20.8543
3.60737, 5, 15.2544, 19.2256, 20.831, 29.1072, -31.3916, -20.6485
3.61543, 5, 15.1882, 19.3055, 20.781, 28.8993, -31.4722, -20.4438
3.62337, 5, 15.1218, 19.3852, 20.7311, 28.6923, -31.5541, -20.2408
3.63142, 5, 15.0555, 19.4647, 20.6815, 28.4861, -31.636, -20.0384
3.63951, 5, 14.9889, 19.544, 20.6321, 28.2805, -31.7188, -19.8372
3.64737, 5, 14.9223, 19.6232, 20.5829, 28.0761, -31.802, -19.6373
3.65544, 5, 14.8555, 19.7021, 20.5339, 27.8726, -31.8858, -19.4384
3.66336, 5, 14.7886, 19.7808, 20.4852, 27.67, -31.9703, -19.241
3.67138, 5, 14.7218, 19.8593, 20.4367, 27.468, -32.0548, -19.0449
3.67944, 5, 14.655, 19.9377, 20.3884, 27.267, -32.1404, -18.8496
3.68739, 5, 14.5881, 20.0159, 20.3404, 27.0669, -32.226, -18.6557
3.69542, 5, 14.5212, 20.094, 20.2927, 26.8677, -32.3121, -18.463
3.70352, 5, 14.4541, 20.1719, 20.2452, 26.6692, -32.399, -18.2714
3.71153, 5, 14.3868, 20.2497, 20.1979, 26.4717, -32.4863, -18.0813
3.71947, 5, 14.3195, 20.3274, 20.1509, 26.2753, -32.5741, -17.8924
3.72755, 5, 14.2522, 20.405, 20.1042, 26.0796, -32.6622, -17.7043
3.73548, 5, 14.1848, 20.4825, 20.0575, 25.885, -32.751, -17.5176
3.74338, 5, 14.1175, 20.5598, 20.0112, 25.691, -32.8403, -17.332
3.75152, 5, 14.0502, 20.637, 19.9651, 25.498, -32.9299, -17.1476
3.75942, 5, 13.9828, 20.7141, 19.9192, 25.3061, -33.0203, -16.9648
3.76741, 5, 13.9153, 20.791, 19.8736, 25.1149, -33.1111, -16.7832
3.77554, 5, 13.8478, 20.8676, 19.8281, 24.9245, -33.2019, -16.6025
3.78351, 5, 13.7803, 20.9439, 19.783, 24.7348, -33.2937, -16.4231
3.79181, 5, 13.7129, 21.0201, 19.738, 24.5463, -33.3856, -16.245
3.79971, 5, 13.6456, 21.096, 19.6933, 24.3588, -33.4779, -16.068
3.80769, 5, 13.5781, 21.1719, 19.6489, 24.1718, -33.5709, -15.8925
3.81585, 5, 13.5105, 21.2474, 19.6046, 23.9857, -33.6642, -15.7183
3.82389, 5, 13.4429, 21.3229, 19.5607, 23.8004, -33.7581, -15.5448
3.83247, 5, 13.3751, 21.3983, 19.5169, 23.616, -33.8524, -15.3726
3.84033, 5, 13.3073, 21.4735, 19.4734, 23.4326, -33.9472, -15.2013
3.84803, 5, 13.2394, 21.5486, 19.4303, 23.2498, -34.0422, -15.0313
3.85594, 5, 13.1714, 21.6236, 19.3872, 23.0679, -34.1378, -14.8627
3.8645, 5, 13.1033, 21.6982, 19.3444, 22.8871, -34.2338, -14.6952
3.87195, 5, 13.0691, 21.7355, 19.3232, 22.797, -34.2819, -14.612
3.87936, 5, 13.0007, 21.8099, 19.2807, 22.6174, -34.3784, -14.446
3.88741, 5, 12.9321, 21.8842, 19.2385, 22.4387, -34.4756, -14.2811
3.89537, 5, 12.8635, 21.9582, 19.1965, 22.2606, -34.5732, -14.1175
3.90336, 5, 12.7948, 22.032, 19.1548, 22.0835, -34.671, -13.955
3.9126, 5, 12.6919, 22.1423, 19.0927, 21.8196, -34.819, -13.7137
3.91936, 5, 12.6576, 22.179, 19.072, 21.732, -34.8685, -13.6339
3.92738, 5, 12.5889, 22.2524, 19.0311, 21.5574, -34.9675, -13.4752
3.93689, 5, 12.4857, 22.362, 18.9702, 21.2969, -35.1172, -13.2388
3.94489, 5, 12.417, 22.4348, 18.9299, 21.1245, -35.2172, -13.0829
3.95286, 5, 12.3481, 22.5075, 18.8899, 20.9528, -35.3179, -12.9279
3.96092, 5, 12.2793, 22.5801, 18.8501, 20.782, -35.4188, -12.7741
3.96894, 5, 12.2106, 22.6525, 18.8106, 20.6117, -35.52, -12.6219
3.97542, 5, 12.1761, 22.6886, 18.7909, 20.5269, -35.5709, -12.5462
3.98528, 5, 12.0726, 22.7967, 18.7321, 20.2737, -35.7238, -12.3207
3.99136, 5, 12.038, 22.8326, 18.7127, 20.1898, -35.7749, -12.2461
4.00036, 5, 11.9688, 22.9044, 18.6741, 20.0224, -35.8775, -12.0975
4.00841, 5, 11.8997, 22.976, 18.6356, 19.8559, -35.9805, -11.9501
4.01537, 5, 11.8305, 23.0473, 18.5974, 19.6899, -36.0837, -11.8039
4.02342, 5, 11.7612, 23.1184, 18.5595, 19.525, -36.1874, -11.6588
4.03137, 5, 11.6919, 23.1893, 18.5217, 19.3609, -36.2912, -11.5149
4.03937, 5, 11.6224, 23.26, 18.4842, 19.1976, -36.3952, -11.3726
4.04742, 5, 11.5528, 23.3305, 18.4471, 19.035, -36.5, -11.231
4.05535, 5, 11.4831, 23.4008, 18.41, 18.8731, -36.6048, -11.0903
4.06337, 5, 11.4134, 23.471, 18.3732, 18.7119, -36.7096, -10.9508
4.07143, 5, 11.3435, 23.541, 18.3368, 18.5517, -36.8154, -10.8123
4.07935, 5, 11.2736, 23.6108, 18.3006, 18.3922, -36.9213, -10.6746
4.08738, 5, 11.2037, 23.6805, 18.2645, 18.2336, -37.0274, -10.5384
4.09544, 5, 11.1337, 23.7501, 18.2289, 18.0754, -37.1341, -10.4032
4.10335, 5, 11.0637, 23.8194, 18.1933, 17.9179, -37.2408, -10.2694
4.11143, 5, 10.9938, 23.8886, 18.158, 17.7613, -37.3479, -10.1366
4.11941, 5, 10.9239, 23.9575, 18.1231, 17.6056, -37.4555, -10.0045
4.12736, 5, 10.854, 24.0263, 18.0883, 17.4505, -37.563, -9.87359
4.13538, 5, 10.7843, 24.0949, 18.0537, 17.2962, -37.6712, -9.74374
4.14342, 5, 10.7143, 24.1633, 18.0194, 17.1424, -37.7797, -9.61473
4.15135, 5, 10.6444, 24.2315, 17.9854, 16.9894, -37.8884, -9.48713
4.15987, 5, 10.5745, 24.2996, 17.9514, 16.837, -37.9977, -9.36047
4.16736, 5, 10.5045, 24.3674, 17.9178, 16.6856, -38.1071, -9.23485
4.17536, 5, 10.4343, 24.4351, 17.8844, 16.5347, -38.2169, -9.11065
4.18436, 5, 10.3642, 24.5026, 17.8513, 16.3846, -38.327, -8.98728
4.32625, 5, 9.1242, 25.6519, 17.3128, 13.8659, -40.2913, -6.99147
4.32905, 5, 9.08859, 25.6838, 17.2985, 13.7967, -40.3486, -6.93914
4.33029, 5, 9.08859, 25.6838, 17.2985, 13.7967, -40.3486, -6.93914
4.33231, 5, 9.05294, 25.7156, 17.2843, 13.7276, -40.4058, -6.88705
4.33351, 5, 9.05294, 25.7156, 17.2843, 13.7276, -40.4058, -6.88705
4.33479, 5, 9.05294, 25.7156, 17.2843, 13.7276, -40.4058, -6.88705
4.33675, 5, 9.01727, 25.7475, 17.2703, 13.6587, -40.4629, -6.83492
4.34, 5, 8.9816, 25.7792, 17.2562, 13.59, -40.5201, -6.78305
4.34148, 5, 8.9816, 25.7792, 17.2562, 13.59, -40.5201, -6.78305
4.34274, 5, 8.9816, 25.7792, 17.2562, 13.59, -40.5201, -6.78305
4.34478, 5, 8.94595, 25.8109, 17.2423, 13.5214, -40.5776, -6.7316
4.34599, 5, 8.94595, 25.8109, 17.2423, 13.5214, -40.5776, -6.7316
4.34874, 5, 8.91027, 25.8426, 17.2284, 13.4529, -40.6351, -6.68022
4.35008, 5, 8.91027, 25.8426, 17.2284, 13.4529, -40.6351, -6.68022
4.35188, 5, 8.91027, 25.8742, 17.2146, 13.3846, -40.6925, -6.62884
4.35575, 5, 8.87454, 25.8742, 17.2146, 13.3846, -40.6925, -6.62884
4.35722, 5, 8.83879, 25.9058, 17.2008, 13.3165, -40.7498, -6.57783
4.35849, 5, 8.83879, 25.9058, 17.2008, 13.3165, -40.7498, -6.57783
4.36044, 5, 8.80303, 25.9373, 17.1871, 13.2485, -40.8074, -6.52722
4.36173, 5, 8.80303, 25.9373, 17.1871, 13.2485, -40.8074, -6.52722
4.36289, 5, 8.80303, 25.9373, 17.1871, 13.2485, -40.8074, -6.52722
4.36512, 5, 8.76723, 25.9688, 17.1734, 13.1806, -40.8651, -6.47668
4.37038, 5, 8.73138, 26.0002, 17.1598, 13.113, -40.9228, -6.42629
4.38136, 5, 8.62399, 26.0942, 17.1197, 12.9106, -41.0959, -6.27676
4.38332, 5, 8.62399, 26.0942, 17.1197, 12.9106, -41.0959, -6.27676
4.39139, 5, 8.5523, 26.1565, 17.0932, 12.7763, -41.2118, -6.17838
4.40131, 5, 8.44471, 26.2497, 17.0538, 12.576, -41.3855, -6.03236
4.40734, 5, 8.40877, 26.2806, 17.0408, 12.5096, -41.4436, -5.98431
4.41654, 5, 8.30083, 26.373, 17.0024, 12.3113, -41.618, -5.84109
4.42334, 5, 8.26481, 26.4037, 16.9897, 12.2455, -41.6763, -5.79414
4.43144, 5, 8.19274, 26.4649, 16.9644, 12.1142, -41.793, -5.70027
4.43935, 5, 8.1206, 26.5258, 16.9395, 11.9834, -41.9098, -5.60738
4.44881, 5, 8.01242, 26.617, 16.9026, 11.7881, -42.0855, -5.46907
4.4554, 5, 7.97641, 26.6473, 16.8905, 11.7233, -42.1442, -5.42364
4.46492, 5, 7.86823, 26.7379, 16.8543, 11.5298, -42.3203, -5.28809
4.47293, 5, 7.79609, 26.798, 16.8305, 11.4014, -42.438, -5.19899
4.4794, 5, 7.76002, 26.828, 16.8188, 11.3374, -42.4968, -5.15438
4.48895, 5, 7.65186, 26.9176, 16.784, 11.1461, -42.6738, -5.02322
4.49536, 5, 7.61587, 26.9473, 16.7726, 11.0825, -42.7328, -4.97966
4.5049, 5, 7.54399, 27.0067, 16.7497, 10.9557, -42.8509, -4.89336
4.51239, 5, 7.4721, 27.0658, 16.7271, 10.8295, -42.9693, -4.80827
4.52033, 5, 7.40008, 27.1247, 16.7048, 10.7039, -43.0876, -4.72388
4.5274, 5, 7.32809, 27.1832, 16.6828, 10.5788, -43.2063, -4.64077
4.53536, 5, 7.25605, 27.2416, 16.6611, 10.4542, -43.3251, -4.55783
4.54334, 5, 7.18394, 27.2997, 16.6396, 10.33, -43.4439, -4.47642
4.55134, 5, 7.11173, 27.3577, 16.6183, 10.2061, -43.5631, -4.39502
4.55934, 5, 7.03937, 27.4155, 16.5974, 10.0828, -43.6818, -4.31518
4.5674, 5, 6.96673, 27.4729, 16.5767, 9.95986, -43.8011, -4.23559
4.57534, 5, 6.89396, 27.5302, 16.5564, 9.83768, -43.9203, -4.15702
4.58334, 5, 6.82096, 27.5872, 16.5362, 9.71572, -44.0396, -4.07943
4.5914, 5, 6.74792, 27.644, 16.5162, 9.59449, -44.1592, -4.00219
4.59936, 5, 6.67479, 27.7005, 16.4966, 9.47353, -44.2785, -3.92664
4.60734, 5, 6.60167, 27.7568, 16.4773, 9.35278, -44.3983, -3.85114
4.61548, 5, 6.52857, 27.8129, 16.4583, 9.23282, -44.518, -3.77711
4.62334, 5, 6.45539, 27.8688, 16.4395, 9.11308, -44.6378, -3.70386
4.63135, 5, 6.38221, 27.9245, 16.421, 8.99412, -44.7579, -3.63085
4.6395, 5, 6.30909, 27.9799, 16.4026, 8.87561, -44.8779, -3.55974
4.64733, 5, 6.236, 28.0351, 16.3847, 8.75742, -44.9985, -3.48854
4.65542, 5, 6.16296, 28.0902, 16.3669, 8.63977, -45.1189, -3.41837
4.66334, 5, 6.09004, 28.145, 16.3495, 8.52233, -45.2398, -3.34916
4.67134, 5, 6.01696, 28.1997, 16.3325, 8.40528, -45.3606, -3.27999
4.67949, 5, 5.94383, 28.2541, 16.3157, 8.28875, -45.4814, -3.21237
4.68734, 5, 5.87064, 28.3082, 16.299, 8.17263, -45.6025, -3.14516
4.69538, 5, 5.79743, 28.3621, 16.2828, 8.05711, -45.7235, -3.07845
4.70361, 5, 5.72412, 28.4156, 16.2668, 7.94185, -45.8449, -3.01327
4.71143, 5, 5.65077, 28.4689, 16.2509, 7.82706, -45.9661, -2.9482
4.71944, 5, 5.57737, 28.522, 16.2354, 7.71245, -46.0875, -2.88396
4.72779, 5, 5.5038, 28.5747, 16.2204, 7.59817, -46.2089, -2.82109
4.73545, 5, 5.43012, 28.6273, 16.2055, 7.48428, -46.3302, -2.75829
4.74345, 5, 5.35635, 28.6796, 16.1907, 7.37079, -46.4519, -2.69648
4.75197, 5, 5.28245, 28.7318, 16.1764, 7.25794, -46.5732, -2.63605
4.76041, 5, 5.20847, 28.7836, 16.1623, 7.14536, -46.695, -2.57555
4.76739, 5, 5.13442, 28.8354, 16.1486, 7.03319, -46.8165, -2.51585
4.77617, 5, 5.06028, 28.887, 16.1351, 6.92122, -46.9379, -2.45763
4.78347, 5, 4.98619, 28.9383, 16.122, 6.80947, -47.0598, -2.39975
4.79158, 5, 4.91211, 28.9894, 16.1094, 6.6981, -47.1811, -2.34201
4.80041, 5, 4.83816, 29.0402, 16.0968, 6.58708, -47.3028, -2.28582
4.80811, 5, 4.76427, 29.0907, 16.0845, 6.47636, -47.4245, -2.22976
4.81634, 5, 4.69043, 29.1409, 16.0723, 6.3662, -47.5462, -2.17397
4.82459, 5, 4.61657, 29.1908, 16.0606, 6.25618, -47.6683, -2.11964
4.83186, 5, 4.54287, 29.2405, 16.0491, 6.14661, -47.7902, -2.0659
4.84043, 5, 4.46928, 29.2898, 16.0379, 6.0372, -47.9124, -2.0122
4.84874, 5, 4.39569, 29.3389, 16.027, 5.92796, -48.0343, -1.95937
4.85611, 5, 4.32205, 29.3878, 16.0165, 5.81928, -48.1563, -1.90803
4.86395, 5, 4.24839, 29.4365, 16.0063, 5.71082, -48.2785, -1.85686
4.87302, 5, 4.1746, 29.4849, 15.9964, 5.60278, -48.4006, -1.80589
4.88035, 5, 4.1007, 29.5331, 15.9868, 5.4952, -48.523, -1.75622
4.88738, 5, 4.06373, 29.5572, 15.9821, 5.44148, -48.584, -1.73173
4.89715, 5, 3.95254, 29.6291, 15.9684, 5.28096, -48.7677, -1.65892
4.90332, 5, 3.91539, 29.6529, 15.9639, 5.22756, -48.829, -1.63476
4.91138, 5, 3.84097, 29.7004, 15.9553, 5.12094, -48.9513, -1.5875
4.91932, 5, 3.76645, 29.7476, 15.9471, 5.01444, -49.0739, -1.54135
4.92737, 5, 3.69179, 29.7945, 15.9391, 4.90839, -49.1963, -1.49548
4.93535, 5, 3.6169, 29.841, 15.9314, 4.80263, -49.3189, -1.44974
4.94332, 5, 3.54201, 29.8872, 15.924, 4.69724, -49.4413, -1.40494
4.95137, 5, 3.46713, 29.9332, 15.9169, 4.59212, -49.5637, -1.36133
4.95932, 5, 3.39224, 29.9789, 15.9099, 4.48723, -49.6861, -1.31835
4.96967, 5, 3.28002, 30.0467, 15.9003, 4.33042, -49.8697, -1.25412
4.97541, 5, 3.24258, 30.0692, 15.8973, 4.27826, -49.931, -1.23309
4.98506, 5, 3.13027, 30.1363, 15.8887, 4.12201, -50.1143, -1.17149
4.99132, 5, 3.09284, 30.1586, 15.886, 4.07008, -50.1755, -1.15126
5.0011, 5, 3.01807, 30.203, 15.8809, 3.96633, -50.2978, -1.11088
5.00732, 5, 2.94335, 30.2472, 15.876, 3.86306, -50.4199, -1.07067
5.01538, 5, 2.86861, 30.2911, 15.8713, 3.76005, -50.5425, -1.03153
5.02433, 5, 2.79389, 30.3349, 15.8669, 3.65739, -50.6643, -0.99338
5.03236, 5, 2.719, 30.3784, 15.8627, 3.55489, -50.7867, -0.955943
5.04033, 5, 2.64402, 30.4215, 15.8589, 3.45247, -50.9088, -0.918738
5.04743, 5, 2.56899, 30.4644, 15.8553, 3.35029, -51.0309, -0.881728
5.05532, 5, 2.49407, 30.5071, 15.8521, 3.24823, -51.1533, -0.845587
5.06333, 5, 2.41899, 30.5493, 15.8492, 3.14648, -51.2753, -0.810605
5.07132, 5, 2.34403, 30.5911, 15.8466, 3.04492, -51.3977, -0.776267
5.07933, 5, 2.26879, 30.6327, 15.8444, 2.94385, -51.5197, -0.742293
5.08738, 5, 2.19337, 30.6738, 15.8426, 2.84294, -51.6418, -0.708527
5.09532, 5, 2.11787, 30.7148, 15.841, 2.74214, -51.7641, -0.675416
5.10333, 5, 2.04235, 30.7555, 15.8397, 2.64184, -51.886, -0.643249
5.11139, 5, 1.96689, 30.7959, 15.8388, 2.54134, -52.0084, -0.612032
5.11933, 5, 1.89152, 30.8361, 15.8381, 2.44102, -52.1304, -0.58152
5.12732, 5, 1.81607, 30.8761, 15.8377, 2.34123, -52.2524, -0.551416
5.13538, 5, 1.74054, 30.9158, 15.8376, 2.24149, -52.3743, -0.521199
5.14334, 5, 1.66498, 30.9554, 15.8375, 2.14208, -52.4962, -0.491814
5.15132, 5, 1.58951, 30.9947, 15.8376, 2.04307, -52.6182, -0.463472
5.15939, 5, 1.51422, 31.0338, 15.8378, 1.94409, -52.7401, -0.436079
5.16732, 5, 1.43914, 31.0727, 15.8382, 1.84533, -52.8622, -0.409293
5.17536, 5, 1.36419, 31.1111, 15.8391, 1.74687, -52.984, -0.382862
5.1834, 5, 1.28919, 31.1492, 15.8403, 1.64848, -53.1059, -0.356649
5.19132, 5, 1.21413, 31.187, 15.8419, 1.55004, -53.2277, -0.330697
5.19941, 5, 1.13904, 31.2245, 15.8438, 1.45206, -53.3493, -0.305341
5.20742, 5, 1.06384, 31.2615, 15.846, 1.35407, -53.4711, -0.281058
5.21541, 5, 0.98856, 31.2983, 15.8484, 1.25642, -53.5925, -0.257487
5.22348, 5, 0.913286, 31.3347, 15.8513, 1.15915, -53.7142, -0.234533
5.23143, 5, 0.837677, 31.3707, 15.8545, 1.0619, -53.8354, -0.212301
5.23944, 5, 0.761897, 31.4065, 15.8582, 0.96486, -53.9569, -0.190359
5.24749, 5, 0.686481, 31.4421, 15.8624, 0.867961, -54.0783, -0.168673
5.25532, 5, 0.612098, 31.4771, 15.8671, 0.771166, -54.199, -0.147241
5.26334, 5, 0.539263, 31.5112, 15.8723, 0.674866, -54.3198, -0.126349
5.27143, 5, 0.46864, 31.5444, 15.8779, 0.579357, -54.4391, -0.10627
5.27943, 5, 0.401411, 31.5756, 15.8842, 0.48565, -54.5568, -0.0873148
5.28746, 5, 0.338946, 31.6042, 15.8912, 0.39542, -54.6705, -0.0694408
5.29558, 5, 0.281736, 31.63, 15.8983, 0.31057, -54.7773, -0.0532113
5.30362, 5, 0.229593, 31.6536, 15.9048, 0.23354, -54.8749, -0.038672
5.31166, 5, 0.183376, 31.6744, 15.9106, 0.16669, -54.9598, -0.0262398
5.31978, 5, 0.142642, 31.6924, 15.9152, 0.111247, -55.0296, -0.0160555
5.32782, 5, 0.106729, 31.7087, 15.9185, 0.0690462, -55.0844, -0.00821635
5.3364, 5, 0.0750891, 31.7229, 15.9202, 0.0383127, -55.1242, -0.00256591
5.34394, 5, 0.0487977, 31.7344, 15.921, 0.0176436, -55.1508, 0.00116206
5.35266, 5, 0.0280069, 31.743, 15.9214, 0.00462557, -55.1672, 0.00336953
5.36064, 5, 0.0119916, 31.7492, 15.9216, -0.00283562, -55.1765, 0.00469439
5.38485, 5, -0.00827425, 31.7567, 15.922, -0.00983238, -55.185, 0.00599285
5.38618, 5, -0.00827425, 31.7567, 15.922, -0.00983238, -55.185, 0.00599285
5.38822, 5, -0.00827425, 31.7567, 15.922, -0.0101102, -55.1853, 0.00603947
5.39259, 5, -0.00962368, 31.7572, 15.9222, -0.0103154, -55.1855, 0.00608199
5.39936, 5, -0.00993166, 31.7574, 15.9224, -0.0104799, -55.1857, 0.00607798
5.40927, 5, -0.0106161, 31.7576, 15.9227, -0.0107361, -55.1859, 0.0062012
5.41531, 5, -0.0113865, 31.7576, 15.9228, -0.0107903, -55.186, 0.00621343
5.42459, 5, -0.0175065, 31.7577, 15.9239, -0.0113033, -55.1871, 0.00663307
5.4313, 5, -0.0211151, 31.7577, 15.9249, -0.0119053, -55.1886, 0.00729358
5.43938, 5, -0.0309121, 31.7576, 15.9291, -0.0147208, -55.1951, 0.0111613
5.4488, 5, -0.0538711, 31.756, 15.9447, -0.0260253, -55.2202, 0.0269745
5.45532, 6, -0.0641034, 31.7547, 15.9536, -0.0324474, -55.2347, 0.0362014
5.46485, 6, -0.102433, 31.7474, 15.9952, -0.0623979, -55.3034, 0.0786872
5.4729, 6, -0.133591, 31.7396, 16.0373, -0.0922758, -55.3728, 0.120922
5.48305, 6, -0.168787, 31.7291, 16.0913, -0.131445, -55.4631, 0.175182
5.4889, 6, -0.208785, 31.7162, 16.1565, -0.178982, -55.5719, 0.241117
5.49688, 6, -0.23046, 31.709, 16.1927, -0.204626, -55.6966, 0.315193
5.50576, 6, -0.276531, 31.6932, 16.2709, -0.259975, -55.7639, 0.35493
5.51134, 6, -0.326341, 31.6762, 16.355, -0.320245, -55.9054, 0.438614
5.5203, 6, -0.38034, 31.6585, 16.4431, -0.381652, -56.0539, 0.524537
5.52737, 6, -0.438354, 31.6405, 16.533, -0.445141, -56.206, 0.612398
5.5353, 6, -0.49937, 31.6221, 16.6244, -0.507788, -56.3604, 0.699786
5.5433, 6, -0.562075, 31.6036, 16.7167, -0.570907, -56.5159, 0.787715
5.55137, 6, -0.625496, 31.5853, 16.8095, -0.633748, -56.6723, 0.874373
5.55931, 6, -0.689346, 31.5668, 16.9028, -0.695823, -56.8292, 0.960942
5.5673, 6, -0.753257, 31.5482, 16.9963, -0.758301, -56.9866, 1.04663
5.57536, 6, -0.817253, 31.5296, 17.09, -0.819327, -57.1444, 1.13191
5.5833, 6, -0.881126, 31.511, 17.1838, -0.881424, -57.3028, 1.21651
5.5913, 6, -0.944794, 31.4922, 17.278, -0.94208, -57.4615, 1.30016
5.59938, 6, -1.00847, 31.4735, 17.3726, -1.00323, -57.6203, 1.38356
5.60732, 6, -1.07197, 31.4549, 17.4675, -1.06353, -57.7797, 1.46569
5.61542, 6, -1.13529, 31.4359, 17.5629, -1.12323, -57.9394, 1.54755
5.6233, 6, -1.19833, 31.417, 17.6584, -1.18342, -58.0997, 1.62817
5.63134, 6, -1.26112, 31.398, 17.754, -1.24202, -58.2605, 1.70872
5.63938, 6, -1.32366, 31.3788, 17.8495, -1.30142, -58.4218, 1.78785
5.64732, 6, -1.38584, 31.3597, 17.9455, -1.35939, -58.5833, 1.86661
5.6553, 6, -1.44776, 31.3406, 18.0418, -1.41738, -58.7455, 1.94475
5.66337, 6, -1.50971, 31.3215, 18.1385, -1.47549, -58.908, 2.02169
5.6713, 6, -1.57147, 31.3023, 18.2357, -1.53202, -59.0709, 2.09875
5.67938, 6, -1.63311, 31.2831, 18.3329, -1.58956, -59.2345, 2.17443
5.68736, 6, -1.69453, 31.2639, 18.4302, -1.64562, -59.3985, 2.25028
5.6953, 6, -1.75585, 31.2446, 18.5275, -1.70166, -59.5631, 2.32513
5.7034, 6, -1.81708, 31.2255, 18.6251, -1.75821, -59.728, 2.39896
5.71138, 6, -1.87828, 31.2063, 18.7232, -1.81318, -59.8931, 2.47304
5.7194, 6, -1.93966, 31.187, 18.8216, -1.86907, -60.0587, 2.54537
5.72747, 6, -2.0012, 31.1678, 18.9204, -1.92394, -60.2245, 2.61784
5.73541, 6, -2.0627, 31.1486, 19.0193, -1.97814, -60.3907, 2.6894
5.74341, 6, -2.12424, 31.1292, 19.118, -2.03321, -60.5573, 2.75977
5.75148, 6, -2.18559, 31.1099, 19.2169, -2.08668, -60.7242, 2.83022
5.75932, 6, -2.24696, 31.0906, 19.3161, -2.14048, -60.8913, 2.89914
5.76733, 6, -2.30822, 31.0712, 19.4158, -2.19404, -61.059, 2.96786
5.7757, 6, -2.36936, 31.0518, 19.5158, -2.24614, -61.2267, 3.03627
5.78335, 6, -2.43046, 31.0324, 19.616, -2.29902, -61.3951, 3.10303
5.79141, 6, -2.49139, 31.0129, 19.7163, -2.35133, -61.5636, 3.16993
5.79958, 6, -2.5522, 30.9933, 19.8164, -2.4028, -61.7327, 3.2359
5.80756, 6, -2.61284, 30.9739, 19.9168, -2.45508, -61.9022, 3.30112
5.81571, 6, -2.67318, 30.9545, 20.0175, -2.50607, -62.0718, 3.36661
5.82421, 6, -2.7334, 30.935, 20.1186, -2.55678, -62.2419, 3.43079
5.83175, 6, -2.79329, 30.9156, 20.2201, -2.60825, -62.4124, 3.49398
5.83986, 6, -2.85306, 30.8962, 20.3217, -2.65837, -62.5834, 3.55758
5.84847, 6, -2.9128, 30.8767, 20.4232, -2.70858, -62.7547, 3.61981
5.85589, 6, -2.97232, 30.8574, 20.5248, -2.75922, -62.9262, 3.68131
5.86441, 6, -3.03166, 30.8381, 20.6266, -2.80839, -63.0983, 3.74294
5.87216, 6, -3.06131, 30.8284, 20.6776, -2.85783, -63.2705, 3.80322
5.87981, 6, -3.12043, 30.8089, 20.78, -2.88289, -63.3568, 3.8331
5.88831, 6, -3.20898, 30.7799, 20.9341, -2.95589, -63.6162, 3.92236
5.89531, 6, -3.2385, 30.7702, 20.9855, -2.98, -63.7028, 3.95184
5.90328, 6, -3.29743, 30.7506, 21.0883, -3.02898, -63.8763, 4.00951
5.91237, 6, -3.3857, 30.7214, 21.2425, -3.10031, -64.1372, 4.09573
5.91929, 6, -3.41509, 30.7117, 21.294, -3.12391, -64.2243, 4.12428
5.92729, 6, -3.47381, 30.6922, 21.3972, -3.172, -64.3986, 4.18015
5.93657, 6, -3.56166, 30.663, 21.5529, -3.24215, -64.6607, 4.26309
5.94332, 6, -3.59085, 30.6533, 21.6049, -3.26536, -64.7482, 4.29065
5.9513, 6, -3.64914, 30.6339, 21.7089, -3.31266, -64.9234, 4.34485
5.9608, 6, -3.73643, 30.6049, 21.8648, -3.38186, -65.187, 4.42493
5.96923, 6, -3.79439, 30.5856, 21.9688, -3.42784, -65.3629, 4.47835
5.97535, 6, -3.82335, 30.5759, 22.021, -3.45124, -65.4511, 4.50469
5.98489, 6, -3.91008, 30.547, 22.178, -3.51965, -65.7158, 4.58171
5.99294, 6, -3.9389, 30.5277, 22.2831, -3.56486, -65.8927, 4.63279
5.99935, 6, -3.99645, 30.5181, 22.3356, -3.58794, -65.9812, 4.65829
6.00891, 6, -4.0539, 30.4987, 22.4406, -3.63355, -66.1585, 4.73315
6.0163, 6, -4.11109, 30.4795, 22.5455, -3.67776, -66.3361, 4.75759
6.02341, 6, -4.16815, 30.4603, 22.6505, -3.72246, -66.5141, 4.8064
6.03233, 6, -4.225, 30.4409, 22.7558, -3.76746, -66.6926, 4.85494
6.04028, 6, -4.2817, 30.4217, 22.8615, -3.8111, -66.8712, 4.90234
6.04729, 6, -4.33828, 30.4026, 22.9675, -3.8549, -67.0499, 4.94891
6.05529, 6, -4.39466, 30.3834, 23.0735, -3.89925, -67.2288, 4.99508
6.06337, 6, -4.45088, 30.3643, 23.1793, -3.94231, -67.4081, 5.04114
6.07129, 6, -4.50692, 30.3453, 23.2852, -3.98488, -67.5877, 5.08613
6.07929, 6, -4.56272, 30.3262, 23.3914, -4.02825, -67.7675, 5.12999
6.08736, 6, -4.61842, 30.3071, 23.498, -4.07121, -67.9476, 5.1735
6.09529, 6, -4.67375, 30.2882, 23.6049, -4.11319, -68.1276, 5.21698
6.10328, 6, -4.72891, 30.2692, 23.7119, -4.15564, -68.3079, 5.25974
6.11139, 6, -4.78411, 30.2502, 23.8187, -4.19823, -68.4884, 5.30119
6.11929, 6, -4.83922, 30.2313, 23.9254, -4.23964, -68.6694, 5.34215
6.12728, 6, -4.89422, 30.2124, 24.0323, -4.28102, -68.8506, 5.38298
6.13546, 6, -4.94931, 30.1934, 24.1396, -4.32317, -69.032, 5.42332
6.14329, 6, -5.00419, 30.1746, 24.2473, -4.36455, -69.2137, 5.46269
6.15131, 6, -5.05898, 30.1558, 24.3551, -4.40526, -69.3956, 5.5012
6.15936, 6, -5.11375, 30.1369, 24.4627, -4.44663, -69.5778, 5.53947
6.16728, 6, -5.16832, 30.1181, 24.5702, -4.48799, -69.7604, 5.5777
6.17535, 6, -5.22277, 30.0995, 24.6778, -4.52825, -69.9432, 5.61544
6.18329, 6, -5.27724, 30.0807, 24.7857, -4.56837, -70.1262, 5.65206
6.19135, 6, -5.33157, 30.0619, 24.894, -4.60927, -70.3095, 5.68779
6.19936, 6, -5.38575, 30.0434, 25.0026, -4.64944, -70.4928, 5.72291
6.20816, 6, -5.43975, 30.0248, 25.1109, -4.68873, -70.6763, 5.75781
6.21537, 6, -5.49347, 30.0061, 25.2192, -4.72863, -70.8601, 5.79262
6.22343, 6, -5.54702, 29.9876, 25.3276, -4.76868, -71.044, 5.82647
6.23219, 6, -5.60037, 29.9691, 25.4361, -4.80765, -71.2281, 5.85934
6.23939, 6, -5.65352, 29.9505, 25.545, -4.84626, -71.4123, 5.89145
6.24752, 6, -5.70659, 29.932, 25.6543, -4.88557, -71.5966, 5.92336
6.25621, 6, -5.75951, 29.9138, 25.7634, -4.92473, -71.7813, 5.95515
6.26329, 6, -5.81217, 29.8953, 25.8724, -4.96301, -71.9663, 5.98624
6.27138, 6, -5.8647, 29.8769, 25.9815, -5.00133, -72.1514, 6.01642
6.28023, 6, -5.917, 29.8586, 26.0907, -5.04033, -72.3366, 6.04563
6.28745, 6, -5.96922, 29.8403, 26.2001, -5.07867, -72.5221, 6.07422
6.29547, 6, -6.02136, 29.822, 26.3099, -5.11606, -72.7079, 6.1024
6.30435, 6, -6.07336, 29.8039, 26.4197, -5.15385, -72.8938, 6.13045
6.31166, 6, -6.12524, 29.7857, 26.5294, -5.19236, -73.0799, 6.15808
6.31963, 6, -6.17707, 29.7675, 26.639, -5.23007, -73.2662, 6.18504
6.32771, 6, -6.2287, 29.7493, 26.7487, -5.26718, -73.4526, 6.21099
6.33584, 6, -6.28022, 29.7314, 26.8587, -5.30496, -73.6393, 6.23625
6.34443, 6, -6.33173, 29.7133, 26.969, -5.34299, -73.8259, 6.26052
6.35183, 6, -6.38303, 29.6954, 27.0794, -5.38006, -74.0128, 6.28448
6.35993, 6, -6.43406, 29.6776, 27.1896, -5.41666, -74.1999, 6.3083
6.36852, 6, -6.48503, 29.6598, 27.2998, -5.45381, -74.3873, 6.33171
6.37585, 6, -6.51045, 29.6508, 27.355, -5.47262, -74.5747, 6.35469
6.38399, 6, -6.561, 29.6329, 27.4653, -5.5096, -74.7625, 6.37701
6.39237, 6, -6.63654, 29.6064, 27.6314, -5.56392, -74.9503, 6.39838
6.39927, 6, -6.6617, 29.5975, 27.6868, -5.5822, -75.0443, 6.40878
6.4073, 6, -6.71194, 29.5798, 27.7976, -5.61918, -75.2322, 6.42906
6.41527, 6, -6.76191, 29.5622, 27.9083, -5.65536, -75.4203, 6.44862
6.42532, 6, -6.83668, 29.5358, 28.0744, -5.70869, -75.7028, 6.47732
6.43127, 6, -6.86153, 29.5269, 28.1298, -5.72665, -75.7969, 6.4867
6.43929, 6, -6.911, 29.5093, 28.2409, -5.76307, -75.9854, 6.50546
6.44863, 6, -6.98498, 29.4833, 28.4078, -5.81665, -76.2682, 6.53248
6.45528, 6, -7.00952, 29.4746, 28.4633, -5.83429, -76.3625, 6.54126
6.46483, 6, -7.08279, 29.4484, 28.6301, -5.88786, -76.6459, 6.56598
6.47282, 6, -7.13153, 29.4312, 28.7414, -5.92378, -76.8351, 6.58169
6.47929, 6, -7.15583, 29.4225, 28.7971, -5.94137, -76.9298, 6.5893
6.48883, 6, -7.22835, 29.3965, 28.9644, -5.99359, -77.2142, 6.61078
6.49533, 6, -7.25238, 29.3879, 29.0203, -6.0112, -77.3089, 6.61769
6.50493, 6, -7.30038, 29.3709, 29.1877, -6.06475, -77.5935, 6.63784
6.51226, 6, -7.34823, 29.354, 29.2435, -6.08233, -77.6884, 6.6443
6.51935, 6, -7.39594, 29.3368, 29.3551, -6.117, -77.8783, 6.65685
6.52832, 6, -7.44351, 29.3198, 29.4668, -6.15176, -78.0682, 6.66917
6.53527, 6, -7.49091, 29.3029, 29.5787, -6.18725, -78.2582, 6.6809
6.54333, 6, -7.53809, 29.286, 29.6907, -6.22235, -78.4484, 6.69232
6.55127, 6, -7.58523, 29.2691, 29.8026, -6.25669, -78.6382, 6.70324
6.55933, 6, -7.63223, 29.2524, 29.9145, -6.29105, -78.8284, 6.71355
6.56734, 6, -7.67897, 29.2357, 30.0265, -6.32621, -79.0185, 6.72339
6.57528, 6, -7.72569, 29.2189, 30.1385, -6.36123, -79.2087, 6.73251
6.58333, 6, -7.77228, 29.2021, 30.2508, -6.3954, -79.3992, 6.74094
6.59126, 6, -7.81856, 29.1855, 30.3632, -6.42945, -79.5897, 6.74867
6.59927, 6, -7.8646, 29.169, 30.4753, -6.46401, -79.7803, 6.75582
6.60733, 6, -7.91053, 29.1524, 30.5875, -6.49874, -79.9713, 6.76211
6.61529, 6, -7.95615, 29.1359, 30.6996, -6.53252, -80.1623, 6.76791
6.62327, 6, -8.00159, 29.1195, 30.812, -6.56609, -80.3534, 6.77324
6.63134, 6, -8.04698, 29.1033, 30.9245, -6.60007, -80.5447, 6.77796
6.63927, 6, -8.09231, 29.0869, 31.0371, -6.63457, -80.7361, 6.78217
6.64727, 6, -8.13737, 29.0708, 31.1495, -6.66832, -80.9273, 6.78567
6.65536, 6, -8.18235, 29.0548, 31.2618, -6.70172, -81.1187, 6.78867
6.66326, 6, -8.22723, 29.0386, 31.3743, -6.73543, -81.31, 6.79117
6.67127, 6, -8.27181, 29.0223, 31.4868, -6.76983, -81.5012, 6.79313
6.67933, 6, -8.31627, 29.0063, 31.5996, -6.80378, -81.6927, 6.79461
6.68726, 6, -8.36067, 28.9906, 31.7124, -6.83708, -81.884, 6.79553
6.69538, 6, -8.40492, 28.9746, 31.825, -6.87054, -82.0753, 6.79604
6.7033, 6, -8.44886, 28.9587, 31.9375, -6.90474, -82.2666, 6.79627
6.71138, 6, -8.49254, 28.943, 32.0501, -6.93885, -82.4581, 6.79638
6.7194, 6, -8.53615, 28.9273, 32.1629, -6.9722, -82.6497, 6.79639
6.72738, 6, -8.57958, 28.9115, 32.2759, -7.00562, -82.8413, 6.79633
6.73536, 6, -8.62275, 28.8958, 32.3888, -7.03971, -83.0329, 6.79606
6.74344, 6, -8.66567, 28.8804, 32.5016, -7.07407, -83.2245, 6.79555
6.75144, 6, -8.70845, 28.865, 32.6143, -7.1075, -83.4163, 6.7942
6.75927, 6, -8.75095, 28.8495, 32.7272, -7.14062, -83.6081, 6.79156
6.76741, 6, -8.79318, 28.834, 32.8401, -7.17425, -83.8, 6.78825
6.7753, 6, -8.83532, 28.8188, 32.9533, -7.20829, -83.9918, 6.78404
6.78332, 6, -8.87731, 28.8036, 33.0664, -7.24188, -84.1837, 6.77906
6.79182, 6, -8.91905, 28.7883, 33.1793, -7.27502, -84.3756, 6.77317
6.7994, 6, -8.96065, 28.773, 33.2921, -7.30851, -84.5676, 6.76655
6.80746, 6, -9.00221, 28.7579, 33.405, -7.34258, -84.7596, 6.75936
6.8157, 6, -9.04364, 28.7429, 33.5181, -7.3762, -84.9516, 6.75142
6.82433, 6, -9.08486, 28.7279, 33.6313, -7.40912, -85.1435, 6.74282
6.83166, 6, -9.12588, 28.7128, 33.7445, -7.44194, -85.3354, 6.73347
6.84013, 6, -9.16687, 28.698, 33.8575, -7.47572, -85.5274, 6.72336
6.84779, 6, -9.20764, 28.6833, 33.9705, -7.50954, -85.7192, 6.71256
6.85636, 6, -9.24808, 28.6684, 34.0836, -7.54269, -85.9111, 6.70096
6.86404, 6, -9.28827, 28.6535, 34.1967, -7.57571, -86.1031, 6.6886
6.87184, 6, -9.30834, 28.6389, 34.3101, -7.60927, -86.2949, 6.67589
6.88038, 6, -9.36824, 28.6245, 34.4233, -7.64318, -86.4867, 6.66267
6.88726, 6, -9.38806, 28.6173, 34.4799, -7.65987, -86.5826, 6.65584
6.89525, 6, -9.42748, 28.6027, 34.593, -7.69286, -86.7743, 6.64193
6.90429, 6, -9.48646, 28.5809, 34.7626, -7.74268, -87.062, 6.62032
6.91126, 6, -9.50604, 28.5737, 34.8192, -7.75975, -87.1579, 6.613
6.91925, 6, -9.54502, 28.5594, 34.9325, -7.79374, -87.3498, 6.59817
6.92852, 6, -9.60301, 28.5379, 35.1024, -7.84374, -87.6376, 6.57467
6.93536, 6, -9.6223, 28.5307, 35.159, -7.86038, -87.7336, 6.56645
6.94333, 6, -9.66063, 28.5165, 35.2721, -7.89422, -87.9255, 6.54949
6.95269, 6, -9.71764, 28.4954, 35.4418, -7.94544, -88.2132, 6.52271
6.96078, 6, -9.75539, 28.4813, 35.555, -7.97874, -88.4049, 6.50388
6.96882, 6, -9.79301, 28.4671, 35.6685, -8.01201, -88.5966, 6.48468
6.97685, 6, -9.8303, 28.4532, 35.7818, -8.046, -88.7881, 6.46528
6.98522, 6, -9.86731, 28.4393, 35.8949, -8.08023, -88.9796, 6.4456
6.99133, 6, -9.88576, 28.4324, 35.9515, -8.09699, -89.0751, 6.43563
7.00086, 6, -9.94103, 28.4114, 36.1211, -8.14704, -89.3617, 6.40469
7.00894, 6, -9.95938, 28.4045, 36.1778, -8.16383, -89.4572, 6.38336
7.01525, 6, -9.99584, 28.3908, 36.2911, -8.19805, -89.6481, 6.37239
7.02425, 6, -10.0321, 28.3772, 36.4044, -8.23211, -89.8391, 6.34989
7.03225, 6, -10.0682, 28.3637, 36.5176, -8.26555, -90.0301, 6.32653
7.03925, 6, -10.1041, 28.35, 36.6307, -8.29896, -90.221, 6.30269
7.04725, 6, -10.1398, 28.3364, 36.7438, -8.33301, -90.412, 6.27836
7.05537, 6, -10.1752, 28.3229, 36.8568, -8.36743, -90.6029, 6.25392
7.06326, 6, -10.2105, 28.3095, 36.9701, -8.4011, -90.7938, 6.22922
7.07125, 6, -10.2456, 28.296, 37.0834, -8.43463, -90.9847, 6.20382
7.07937, 6, -10.2804, 28.2826, 37.1966, -8.4688, -91.1757, 6.1778
7.08724, 6, -10.3149, 28.2693, 37.3096, -8.5035, -91.3664, 6.15073
7.09525, 6, -10.3492, 28.2562, 37.4225, -8.53761, -91.5571, 6.12285
7.10338, 6, -10.3833, 28.2431, 37.5356, -8.5713, -91.7476, 6.09487
7.11125, 6, -10.4173, 28.2299, 37.6488, -8.60546, -91.9379, 6.06659
7.11927, 6, -10.4511, 28.2169, 37.7619, -8.64044, -92.128, 6.03783
7.12738, 6, -10.4845, 28.2041, 37.8749, -8.67507, -92.3179, 6.00823
7.13525, 6, -10.5177, 28.1912, 37.9879, -8.70912, -92.5078, 5.97783
7.14326, 6, -10.5507, 28.1783, 38.1007, -8.74366, -92.6973, 5.94657
7.15137, 6, -10.5836, 28.1653, 38.2137, -8.77902, -92.8868, 5.915
7.15926, 6, -10.6162, 28.1524, 38.3268, -8.81406, -93.0762, 5.88339
7.16725, 6, -10.6484, 28.1398, 38.4398, -8.84843, -93.2655, 5.85115
7.17532, 6, -10.6805, 28.1272, 38.5526, -8.8831, -93.4547, 5.81821
7.18326, 6, -10.7123, 28.1145, 38.6653, -8.91854, -93.6438, 5.7841
7.19125, 6, -10.7441, 28.1017, 38.778, -8.95389, -93.8329, 5.74953
7.19944, 6, -10.7755, 28.0891, 38.8909, -8.98855, -94.0218, 5.71481
7.20728, 6, -10.8067, 28.0767, 39.0038, -9.02334, -94.2108, 5.67984
7.2153, 6, -10.8378, 28.0643, 39.1165, -9.05899, -94.3996, 5.64424
7.22349, 6, -10.8687, 28.0519, 39.2292, -9.09463, -94.5882, 5.60758
7.2314, 6, -10.8994, 28.0394, 39.3419, -9.12948, -94.7766, 5.56994
7.23935, 6, -10.9297, 28.027, 39.4544, -9.16432, -94.9649, 5.53219
7.24742, 6, -10.9599, 28.0148, 39.567, -9.20001, -95.1531, 5.49425
7.25535, 6, -10.9898, 28.0028, 39.6798, -9.23601, -95.3412, 5.4557
7.26327, 6, -11.0196, 27.9907, 39.7924, -9.27134, -95.5289, 5.41606
7.27132, 6, -11.0492, 27.9784, 39.9049, -9.30678, -95.7165, 5.37601
7.27928, 6, -11.0785, 27.9663, 40.0173, -9.34301, -95.904, 5.33588
7.28733, 6, -11.1075, 27.9543, 40.1297, -9.37937, -96.0913, 5.29531
7.29539, 6, -11.1362, 27.9423, 40.2422, -9.41493, -96.2784, 5.25388
7.3034, 6, -11.1647, 27.9304, 40.3547, -9.45064, -96.4654, 5.2114
7.31155, 6, -11.1931, 27.9184, 40.4671, -9.4872, -96.6521, 5.16876
7.31966, 6, -11.2213, 27.9065, 40.5794, -9.52401, -96.8387, 5.12596
7.32763, 6, -11.249, 27.8947, 40.6917, -9.56011, -97.0249, 5.08248
7.33577, 6, -11.2765, 27.8831, 40.8039, -9.59637, -97.211, 5.03793
7.34439, 6, -11.3038, 27.8714, 40.9161, -9.6335, -97.3971, 4.99291
7.35177, 6, -11.3309, 27.8597, 41.0284, -9.6707, -97.583, 4.94774
7.36034, 6, -11.3578, 27.848, 41.1406, -9.70711, -97.7688, 4.90214
7.36786, 6, -11.3845, 27.8366, 41.2527, -9.74376, -97.9543, 4.85526
7.37635, 6, -11.4108, 27.8251, 41.3647, -9.78131, -98.1398, 4.80784
7.38398, 6, -11.4239, 27.8136, 41.4767, -9.81887, -98.3251, 4.76054
7.39243, 6, -11.4627, 27.802, 41.5888, -9.85572, -98.5102, 4.71229
7.39923, 6, -11.4755, 27.7962, 41.6448, -9.87419, -98.6026, 4.6876
7.40833, 6, -11.5139, 27.7791, 41.8126, -9.93082, -98.8795, 4.61301
7.41523, 6, -11.5266, 27.7734, 41.8684, -9.94975, -98.9716, 4.58816
7.42441, 6, -11.5639, 27.7566, 42.0362, -10.0053, -99.2477, 4.51225
7.43128, 6, -11.5762, 27.7509, 42.092, -10.0239, -99.3397, 4.48635
7.43923, 6, -11.6007, 27.7395, 42.2036, -10.0619, -99.5234, 4.43433
7.44725, 6, -11.6244, 27.7282, 42.3152, -10.1001, -99.7066, 4.38213
7.45665, 6, -11.6586, 27.7114, 42.4808, -10.156, -99.9792, 4.30265
7.46324, 6, -11.6697, 27.7059, 42.5352, -10.1747, -100.069, 4.27612
7.47124, 6, -11.6909, 27.695, 42.6421, -10.2122, -100.246, 4.22415
7.4808, 6, -11.7203, 27.679, 42.7943, -10.2655, -100.499, 4.14844
7.48885, 6, -11.7381, 27.6692, 42.8876, -10.2979, -100.655, 4.10066
7.49686, 6, -11.7541, 27.6605, 42.9718, -10.3275, -100.796, 4.05777
7.50484, 6, -11.7613, 27.6532, 43.045, -10.3538, -100.918, 4.0205
7.51301, 6, -11.7744, 27.6471, 43.1058, -10.3753, -101.018, 3.98978
7.51923, 6, -11.7856, 27.6447, 43.1313, -10.3842, -101.06, 3.97688
7.5273, 6, -11.7949, 27.6409, 43.1731, -10.3985, -101.128, 3.95588
7.53525, 6, -11.8026, 27.6383, 43.2034, -10.4083, -101.175, 3.94114
7.54324, 6, -11.8089, 27.6369, 43.2239, -10.4144, -101.205, 3.9316
7.5513, 6, -11.8139, 27.6362, 43.2371, -10.4179, -101.222, 3.92594
7.55919, 7, -11.8176, 27.6359, 43.2449, -10.4198, -101.232, 3.92301
7.56723, 7, -11.82, 27.6358, 43.249, -10.4207, -101.236, 3.92159
7.5753, 7, -11.8213, 27.6357, 43.251, -10.4212, -101.239, 3.92092
7.58324, 7, -11.822, 27.6357, 43.2521, -10.4214, -101.24, 3.92053
7.59123, 7, -11.8224, 27.6357, 43.2527, -10.4215, -101.24, 3.92032
7.59929, 7, -11.8226, 27.6357, 43.2532, -10.4216, -101.241, 3.92023
7.60723, 7, -11.8227, 27.6357, 43.2536, -10.4217, -101.241, 3.92015
7.61522, 7, -11.8228, 27.6357, 43.254, -10.4217, -101.241, 3.92013
7.62333, 7, -11.8228, 27.6357, 43.2542, -10.4218, -101.241, 3.92013
7.63123, 7, -11.8228, 27.6356, 43.2543, -10.4218, -101.241, 3.9201
7.63923, 7, -11.8229, 27.6356, 43.2544, -10.4218, -101.241, 3.92013
7.64729, 7, -11.8229, 27.6356, 43.2545, -10.4218, -101.241, 3.92011
7.65523, 7, -11.8229, 27.6355, 43.2546, -10.4218, -101.241, 3.92009
