hehonglu123/ABB_Primitive_Study/realrobot/movec_30_car/curve_exe_vmax_fine.csv
timestamp, cmd_num, J1, J2, J3, J4, J5, J6
0.000383, -1, -11.8224, 27.6367, 43.2523, -10.4207, -101.239, 3.92109
0.006546, -1, -11.8224, 27.6367, 43.2523, -10.4207, -101.239, 3.9211
0.008646, -1, -11.8224, 27.6367, 43.2523, -10.4207, -101.239, 3.9211
0.031527, -1, -11.8223, 27.6367, 43.2523, -10.4207, -101.239, 3.92112
0.032768, -1, -11.8223, 27.6367, 43.2523, -10.4207, -101.239, 3.92112
0.035241, -1, -11.8223, 27.6367, 43.2523, -10.4207, -101.239, 3.92113
0.039649, -1, -11.8223, 27.6367, 43.2523, -10.4207, -101.239, 3.92115
0.047718, -1, -11.8223, 27.6367, 43.2523, -10.4207, -101.239, 3.92121
0.05596, -1, -11.8218, 27.6366, 43.2523, -10.4207, -101.239, 3.92115
0.06367, -1, -11.8194, 27.636, 43.2523, -10.4207, -101.239, 3.9211
0.071668, -1, -11.814, 27.634, 43.2519, -10.4201, -101.238, 3.92092
0.080477, -1, -11.8042, 27.6299, 43.2506, -10.4165, -101.232, 3.91938
0.087699, -1, -11.7887, 27.6231, 43.247, -10.4069, -101.219, 3.91308
0.095685, -1, -11.7651, 27.6125, 43.2392, -10.3873, -101.19, 3.89944
0.104473, -1, -11.7305, 27.5976, 43.2251, -10.3518, -101.14, 3.87546
0.111586, -1, -11.6849, 27.5785, 43.2025, -10.2955, -101.057, 3.83732
0.119613, -1, -11.6275, 27.5548, 43.1688, -10.213, -100.936, 3.78088
0.128513, -1, -11.5573, 27.5268, 43.1228, -10.1005, -100.77, 3.7029
0.135643, -1, -11.4736, 27.4936, 43.0643, -9.9577, -100.559, 3.60432
0.143698, -1, -11.3765, 27.4554, 42.9938, -9.78526, -100.304, 3.48471
0.153353, -1, -11.2669, 27.4126, 42.9126, -9.58636, -100.01, 3.34703
0.159901, -1, -11.1451, 27.3651, 42.8223, -9.36579, -99.682, 3.19392
0.167972, -1, -11.0117, 27.3128, 42.7251, -9.12892, -99.3293, 3.02961
0.175997, -1, -10.8681, 27.2563, 42.6226, -8.87975, -98.9586, 2.85667
0.184108, -1, -10.7166, 27.1968, 42.516, -8.62191, -98.575, 2.67801
0.19211, -1, -10.5597, 27.135, 42.4071, -8.35845, -98.1827, 2.49487
0.200099, -1, -10.3984, 27.0713, 42.2965, -8.09106, -97.7842, 2.30896
0.208953, -1, -10.2341, 27.0065, 42.185, -7.82097, -97.3818, 2.12101
0.216122, -1, -10.068, 26.9407, 42.0726, -7.54916, -96.976, 1.93191
0.224171, -1, -9.98434, 26.9076, 41.9594, -7.27576, -96.5679, 1.74181
0.232961, -1, -9.81646, 26.8414, 41.9025, -7.13855, -96.158, 1.55055
0.239568, -1, -9.64825, 26.7748, 41.7882, -6.86272, -95.9519, 1.45463
0.247568, -1, -9.4797, 26.7082, 41.6735, -6.58603, -95.539, 1.26204
0.25563, -1, -9.31129, 26.6414, 41.5583, -6.30798, -95.1243, 1.06855
0.263583, -1, -9.14294, 26.5744, 41.4429, -6.02869, -94.7079, 0.874519
0.27157, -1, -8.97402, 26.5072, 41.3269, -5.74828, -94.2899, 0.679793
0.279617, -1, -8.80416, 26.4398, 41.2103, -5.46662, -93.8699, 0.484204
0.287567, -1, -8.63314, 26.3719, 41.0931, -5.18376, -93.4483, 0.287819
0.295566, -1, -8.46073, 26.3036, 40.9754, -4.89994, -93.0247, 0.0905878
0.303712, -1, -8.28723, 26.2348, 40.8573, -4.61504, -92.5992, -0.107491
0.311564, -1, -8.11267, 26.1656, 40.7389, -4.32897, -92.1722, -0.306219
0.319567, -1, -7.93675, 26.0961, 40.62, -4.04205, -91.7441, -0.505659
0.327699, -1, -7.75976, 26.0263, 40.5005, -3.75415, -91.3145, -0.705878
0.335563, -1, -7.58203, 25.9562, 40.3804, -3.46506, -90.8841, -0.906769
0.343575, -1, -7.40359, 25.8859, 40.26, -3.17514, -90.4515, -1.10873
0.351628, -1, -7.22473, 25.8155, 40.1391, -2.8843, -90.0174, -1.311
0.361138, -1, -7.04559, 25.7451, 40.0181, -2.59238, -89.5817, -1.51379
0.367564, -1, -6.86657, 25.6747, 39.8968, -2.29967, -89.1443, -1.71706
0.375567, -1, -6.68778, 25.6041, 39.775, -2.00612, -88.706, -1.921
0.38455, -1, -6.50909, 25.5334, 39.653, -1.71145, -88.2674, -2.12559
0.391583, -1, -6.33095, 25.4623, 39.5307, -1.41637, -87.8274, -2.33076
0.39956, -1, -6.15271, 25.3911, 39.408, -1.12078, -87.3868, -2.53626
0.407628, -1, -5.97401, 25.3197, 39.2851, -0.824371, -86.9449, -2.74218
0.415564, -1, -5.79475, 25.2482, 39.1619, -0.52785, -86.5019, -2.9484
0.423641, -1, -5.61478, 25.1763, 39.0384, -0.230515, -86.0583, -3.15526
0.431568, -1, -5.43394, 25.1042, 38.9149, 0.0674875, -85.6138, -3.36252
0.439646, -1, -5.25218, 25.032, 38.791, 0.365416, -85.1689, -3.56972
0.447569, -1, -5.06942, 24.9598, 38.6671, 0.663965, -84.7236, -3.77711
0.455558, -1, -4.88597, 24.8877, 38.543, 0.962722, -84.2778, -3.98468
0.463648, -1, -4.70226, 24.8155, 38.4188, 1.26144, -83.832, -4.19233
0.471563, -1, -4.5183, 24.7433, 38.2947, 1.5608, -83.3856, -4.40057
0.47956, -1, -4.33431, 24.671, 38.1705, 1.86021, -82.9388, -4.6087
0.487621, -1, -4.15051, 24.5989, 38.0463, 2.15955, -82.4921, -4.8166
0.495639, -1, -3.96709, 24.5268, 37.9221, 2.45903, -82.045, -5.02467
0.503581, -1, -3.78419, 24.4546, 37.7977, 2.75824, -81.5983, -5.23268
0.51163, -1, -3.60227, 24.3824, 37.6736, 3.0571, -81.1523, -5.44065
0.519566, -1, -3.421, 24.3102, 37.5495, 3.3562, -80.7064, -5.64864
0.527559, -1, -3.24036, 24.238, 37.4255, 3.65485, -80.2616, -5.85603
0.535628, -1, -3.06056, 24.166, 37.3017, 3.95312, -79.817, -6.06322
0.543576, -1, -2.88113, 24.094, 37.1779, 4.25098, -79.3726, -6.27007
0.551581, -1, -2.70169, 24.0221, 37.0544, 4.54813, -78.9286, -6.47681
0.559796, -1, -2.52219, 23.9503, 36.9312, 4.84478, -78.4853, -6.68319
0.567656, -1, -2.34206, 23.8788, 36.8083, 5.14111, -78.0435, -6.88925
0.575922, -1, -2.16167, 23.8075, 36.6857, 5.4366, -77.6029, -7.09462
0.583726, -1, -1.98136, 23.7364, 36.5634, 5.73113, -77.1636, -7.29951
0.591664, -1, -1.80122, 23.6655, 36.4412, 6.02481, -76.7257, -7.50387
0.600113, -1, -1.62131, 23.5948, 36.3196, 6.31752, -76.2885, -7.70793
0.607567, -1, -1.44149, 23.5244, 36.1983, 6.60924, -75.8526, -7.91105
0.615704, -1, -1.26212, 23.4542, 36.0775, 6.90032, -75.4183, -8.11331
0.624446, -1, -1.08374, 23.3843, 35.9571, 7.19036, -74.9855, -8.3147
0.631625, -1, -0.906603, 23.3147, 35.8372, 7.47907, -74.5547, -8.51538
0.639718, -1, -0.730923, 23.2451, 35.7177, 7.7668, -74.1256, -8.71534
0.64853, -1, -0.556345, 23.1758, 35.5988, 8.0532, -73.698, -8.91476
0.655747, -1, -0.382984, 23.1069, 35.4803, 8.33836, -73.2724, -9.11303
0.664428, -1, -0.210944, 23.0382, 35.3623, 8.62271, -72.8486, -9.31037
0.672734, -1, -0.0401837, 22.9698, 35.245, 8.90566, -72.4268, -9.50681
0.680069, -1, 0.129464, 22.9017, 35.128, 9.18681, -72.007, -9.70242
0.688167, -1, 0.298411, 22.8339, 35.0116, 9.4669, -71.5891, -9.89709
0.696919, -1, 0.467207, 22.7666, 34.8959, 9.74509, -71.1735, -10.0909
0.704135, -1, 0.635875, 22.6997, 34.7808, 10.0219, -70.7603, -10.2833
0.712422, -1, 0.804225, 22.6332, 34.6664, 10.2978, -70.349, -10.4748
0.72087, -1, 0.888327, 22.567, 34.5526, 10.5719, -69.9403, -10.6652
0.728185, -1, 1.05593, 22.5011, 34.4393, 10.8443, -69.5339, -10.8548
0.736133, -1, 1.22271, 22.4683, 34.383, 10.9799, -69.3314, -10.9491
0.745096, -1, 1.38907, 22.3704, 34.2147, 11.3847, -68.7272, -11.2309
0.751614, -1, 1.55477, 22.3379, 34.159, 11.5188, -68.5269, -11.3242
0.75961, -1, 1.71957, 22.2733, 34.0481, 11.786, -68.1277, -11.5098
0.767552, -1, 1.8832, 22.209, 33.9378, 12.0519, -67.7309, -11.6946
0.775601, -1, 2.04521, 22.145, 33.828, 12.3162, -67.3372, -11.8782
0.783614, -1, 2.20567, 22.0814, 33.7189, 12.5785, -66.9456, -12.0608
0.791551, -1, 2.36497, 22.0182, 33.6104, 12.8394, -66.5567, -12.2425
0.799599, -1, 2.52274, 21.9554, 33.5027, 13.0987, -66.17, -12.4228
0.807565, -1, 2.67908, 21.8931, 33.3957, 13.3562, -65.7852, -12.602
0.815596, -1, 2.83407, 21.8312, 33.2895, 13.6124, -65.4031, -12.7798
0.823623, -1, 2.98768, 21.7696, 33.1837, 13.8673, -65.0231, -12.9567
0.831638, -1, 3.14034, 21.7083, 33.0785, 14.1199, -64.6457, -13.1323
0.839611, -1, 3.29257, 21.6475, 32.974, 14.371, -64.2708, -13.3073
0.847547, -1, 3.44441, 21.5871, 32.8702, 14.6208, -63.8983, -13.481
0.85592, -1, 3.5958, 21.5271, 32.7674, 14.8687, -63.5281, -13.6533
0.863626, -1, 3.74671, 21.4675, 32.6651, 15.1152, -63.1603, -13.8245
0.872535, -1, 3.89683, 21.4082, 32.5634, 15.3601, -62.795, -13.9946
0.880462, -1, 4.0461, 21.3492, 32.4621, 15.6036, -62.4321, -14.1638
0.887548, -1, 4.19495, 21.2908, 32.3615, 15.8452, -62.0716, -14.3318
0.895564, -1, 4.34299, 21.2327, 32.2617, 16.0851, -61.713, -14.499
0.904407, -1, 4.49015, 21.1751, 32.1628, 16.3238, -61.3567, -14.6647
0.911548, -1, 4.63643, 21.1178, 32.0646, 16.5607, -61.0026, -14.8295
0.919545, -1, 4.78144, 21.0611, 31.967, 16.7959, -60.651, -14.9931
0.928339, -1, 4.92474, 21.0045, 31.8697, 17.0298, -60.3021, -15.1556
0.935545, -1, 5.06682, 20.9482, 31.7729, 17.2623, -59.9552, -15.3172
0.943631, -1, 5.20781, 20.8923, 31.6769, 17.4932, -59.6109, -15.4778
0.952329, -1, 5.34744, 20.8366, 31.5816, 17.7226, -59.2689, -15.6375
0.960585, -1, 5.48561, 20.7813, 31.4872, 17.9505, -58.9289, -15.7961
0.967548, -1, 5.62255, 20.7264, 31.3934, 18.1774, -58.591, -15.9535
0.976331, -1, 5.7583, 20.6718, 31.2999, 18.4023, -58.2549, -16.11
0.983611, -1, 5.89309, 20.6175, 31.2067, 18.6259, -57.9209, -16.2656
0.991542, -1, 6.02748, 20.5636, 31.1141, 18.8482, -57.5888, -16.4204
1.00039, -1, 6.16175, 20.5102, 31.0222, 19.0694, -57.2587, -16.5743
1.00756, -1, 6.29571, 20.4571, 30.9312, 19.2889, -56.9311, -16.7272
1.01555, -1, 6.42931, 20.4044, 30.8409, 19.507, -56.6055, -16.8789
1.02375, -1, 6.56236, 20.3521, 30.751, 19.7239, -56.2821, -17.0298
1.03155, -1, 6.6946, 20.3001, 30.6616, 19.9394, -55.9609, -17.1793
1.03955, -1, 6.82628, 20.2482, 30.5725, 20.1533, -55.6415, -17.3282
1.04763, -1, 6.95736, 20.1967, 30.4838, 20.366, -55.324, -17.476
1.05557, -1, 7.08789, 20.1454, 30.3958, 20.5776, -55.0082, -17.6231
1.0637, -1, 7.21755, 20.0944, 30.3086, 20.7881, -54.6941, -17.7695
1.07301, -1, 7.34601, 20.0437, 30.222, 20.9971, -54.3817, -17.915
1.07964, -1, 7.47346, 19.9932, 30.1359, 21.205, -54.0713, -18.0594
1.088, -1, 7.59991, 19.9431, 30.05, 21.4114, -53.7631, -18.2029
1.09565, -1, 7.72551, 19.8932, 29.9646, 21.6169, -53.4567, -18.3456
1.10373, -1, 7.85013, 19.8437, 29.8796, 21.821, -53.152, -18.4874
1.11216, -1, 7.97393, 19.7947, 29.7951, 22.024, -52.8491, -18.6286
1.11956, -1, 8.09688, 19.7459, 29.7113, 22.2259, -52.548, -18.7688
1.12758, -1, 8.21886, 19.6975, 29.6281, 22.4269, -52.2487, -18.9086
1.13644, -1, 8.33991, 19.6492, 29.5454, 22.6266, -51.9509, -19.0473
1.14369, -1, 8.46024, 19.6013, 29.4631, 22.8248, -51.6549, -19.1852
1.1517, -1, 8.57975, 19.5536, 29.3812, 23.022, -51.3606, -19.3222
1.16058, -1, 8.69867, 19.506, 29.2997, 23.2182, -51.0678, -19.4583
1.1679, -1, 8.81711, 19.4587, 29.2186, 23.4132, -50.7765, -19.5938
1.17597, -1, 8.93523, 19.4117, 29.1379, 23.6071, -50.4867, -19.7286
1.18481, -1, 9.0528, 19.3649, 29.0578, 23.7998, -50.1988, -19.8627
1.19202, -1, 9.16995, 19.3183, 28.9782, 23.9916, -49.9126, -19.9962
1.20015, -1, 9.28677, 19.272, 28.899, 24.1826, -49.6277, -20.1291
1.20889, -1, 9.40323, 19.226, 28.8203, 24.3723, -49.3446, -20.2609
1.21611, -1, 9.51907, 19.1804, 28.742, 24.561, -49.0631, -20.3921
1.22413, -1, 9.63425, 19.135, 28.664, 24.7486, -48.7833, -20.5226
1.23296, -1, 9.69166, 19.1124, 28.6251, 24.8421, -48.5049, -20.6524
1.23954, -1, 9.8061, 19.0675, 28.5477, 25.0285, -48.3662, -20.717
1.24759, -1, 9.91979, 19.0228, 28.4706, 25.2137, -48.0896, -20.8459
1.25553, -1, 10.0329, 18.9784, 28.394, 25.398, -47.8145, -20.9742
1.2626, -1, 10.1453, 18.9341, 28.318, 25.5814, -47.5407, -21.102
1.27159, -1, 10.2571, 18.89, 28.2423, 25.764, -47.268, -21.2291
1.27954, -1, 10.3683, 18.8462, 28.167, 25.9458, -46.9966, -21.3552
1.28755, -1, 10.4788, 18.8023, 28.092, 26.1265, -46.7269, -21.481
1.29557, -1, 10.5886, 18.7587, 28.0173, 26.3062, -46.4586, -21.6057
1.30353, -1, 10.6977, 18.7153, 27.9429, 26.4851, -46.1917, -21.7299
1.31158, -1, 10.8064, 18.6721, 27.8689, 26.6632, -45.9261, -21.8537
1.3211, -1, 10.968, 18.6077, 27.7586, 26.9286, -45.5305, -22.038
1.32753, -1, 11.0215, 18.5863, 27.7221, 27.0166, -45.3992, -22.0991
1.33569, -1, 11.1282, 18.5438, 27.6493, 27.1919, -45.1378, -22.2213
1.34353, -1, 11.2345, 18.5015, 27.5768, 27.3665, -44.8775, -22.3428
1.35153, -1, 11.3403, 18.4595, 27.5047, 27.5404, -44.6181, -22.4635
1.36106, -1, 11.4454, 18.4176, 27.4331, 27.7135, -44.3599, -22.5837
1.36753, -1, 11.5499, 18.3761, 27.3616, 27.8857, -44.1026, -22.7034
1.37555, -1, 11.654, 18.3348, 27.2905, 28.057, -43.8465, -22.8223
1.38358, -1, 11.7578, 18.2937, 27.2196, 28.2275, -43.5919, -22.941
1.39153, -1, 11.8612, 18.2527, 27.149, 28.3974, -43.3386, -23.0589
1.40054, -1, 11.9644, 18.2119, 27.0788, 28.5665, -43.0863, -23.1763
1.40758, -1, 12.0673, 18.1712, 27.009, 28.7348, -42.8351, -23.2936
1.41555, -1, 12.17, 18.1306, 26.9395, 28.9023, -42.5849, -23.4102
1.42359, -1, 12.2723, 18.0902, 26.8703, 29.0691, -42.336, -23.5263
1.43153, -1, 12.374, 18.0498, 26.8014, 29.2354, -42.0882, -23.6418
1.43953, -1, 12.4753, 18.0096, 26.7328, 29.401, -41.8417, -23.7567
1.44759, -1, 12.5762, 17.9697, 26.6643, 29.5658, -41.596, -23.8711
1.45555, -1, 12.6767, 17.9299, 26.5962, 29.7297, -41.3513, -23.9848
1.46354, -1, 12.7766, 17.8903, 26.5283, 29.893, -41.1076, -24.0984
1.47159, -1, 12.8761, 17.851, 26.4608, 30.0556, -40.865, -24.2113
1.47953, -1, 12.9752, 17.8118, 26.3936, 30.2176, -40.6232, -24.3238
1.48753, -1, 13.0738, 17.7727, 26.3267, 30.3789, -40.3825, -24.4362
1.49561, -1, 13.1718, 17.7339, 26.2601, 30.5393, -40.1428, -24.5478
1.5036, -1, 13.2692, 17.6953, 26.1938, 30.6991, -39.9042, -24.6591
1.51153, -1, 13.3662, 17.6568, 26.1278, 30.8584, -39.6664, -24.7697
1.5196, -1, 13.4629, 17.6185, 26.062, 31.0171, -39.4298, -24.8798
1.52753, -1, 13.5592, 17.5803, 25.9964, 31.1751, -39.1941, -24.9897
1.53555, -1, 13.6554, 17.5422, 25.9311, 31.3323, -38.9593, -25.0989
1.54367, -1, 13.7511, 17.5043, 25.8659, 31.4889, -38.7257, -25.208
1.55154, -1, 13.8464, 17.4665, 25.8011, 31.6448, -38.4926, -25.3166
1.55956, -1, 13.9413, 17.4288, 25.7365, 31.8003, -38.2609, -25.4248
1.56773, -1, 14.0359, 17.3912, 25.6723, 31.9553, -38.0301, -25.533
1.57563, -1, 14.1304, 17.3538, 25.6083, 32.1095, -37.8002, -25.6403
1.58362, -1, 14.2243, 17.3164, 25.5445, 32.2632, -37.5711, -25.7474
1.59168, -1, 14.3177, 17.2792, 25.4809, 32.4162, -37.3425, -25.8537
1.59963, -1, 14.4107, 17.2423, 25.4176, 32.5687, -37.1148, -25.9599
1.60764, -1, 14.5033, 17.2055, 25.3546, 32.7208, -36.888, -26.0653
1.61572, -1, 14.5953, 17.1688, 25.2918, 32.8724, -36.662, -26.1703
1.62356, -1, 14.6869, 17.1323, 25.2291, 33.0234, -36.4368, -26.2752
1.63183, -1, 14.7782, 17.096, 25.1667, 33.1736, -36.2125, -26.3793
1.63964, -1, 14.8692, 17.0597, 25.1045, 33.3232, -35.9889, -26.4836
1.64763, -1, 14.9601, 17.0236, 25.0425, 33.4725, -35.7663, -26.5872
1.65586, -1, 15.0508, 16.9877, 24.9809, 33.6212, -35.5444, -26.6908
1.66375, -1, 15.141, 16.9519, 24.9195, 33.7694, -35.3235, -26.7938
1.67189, -1, 15.231, 16.9161, 24.8583, 33.9169, -35.1033, -26.8964
1.68032, -1, 15.3209, 16.8806, 24.7974, 34.0639, -34.8841, -26.9986
1.68794, -1, 15.4105, 16.8452, 24.7366, 34.2103, -34.6656, -27.1003
1.69604, -1, 15.5001, 16.8099, 24.6759, 34.3565, -34.4479, -27.2018
1.70418, -1, 15.5894, 16.7747, 24.6155, 34.5021, -34.2305, -27.3026
1.71205, -1, 15.6783, 16.7397, 24.5552, 34.6472, -34.0141, -27.4036
1.72012, -1, 15.7669, 16.7048, 24.4951, 34.7918, -33.7982, -27.5039
1.72835, -1, 15.8551, 16.6698, 24.4353, 34.9358, -33.5831, -27.6042
1.73608, -1, 15.8992, 16.6524, 24.4054, 35.0076, -33.3685, -27.704
1.74352, -1, 15.987, 16.6178, 24.3459, 35.1508, -33.2615, -27.7541
1.75158, -1, 16.0743, 16.5831, 24.2867, 35.2937, -33.0483, -27.8534
1.75952, -1, 16.1612, 16.5485, 24.2277, 35.4363, -32.8359, -27.9527
1.76752, -1, 16.2479, 16.5141, 24.1688, 35.5782, -32.6242, -28.0512
1.77557, -1, 16.3341, 16.48, 24.1101, 35.7196, -32.4132, -28.1498
1.78351, -1, 16.4201, 16.4458, 24.0515, 35.8606, -32.2029, -28.2475
1.79153, -1, 16.5057, 16.4117, 23.9931, 36.0011, -31.993, -28.3453
1.79952, -1, 16.5909, 16.3778, 23.9349, 36.1414, -31.7842, -28.4424
1.80753, -1, 16.676, 16.3441, 23.877, 36.2813, -31.5757, -28.5398
1.81556, -1, 16.7609, 16.3104, 23.8191, 36.4207, -31.3681, -28.6364
1.82352, -1, 16.8457, 16.2768, 23.7615, 36.5595, -31.161, -28.733
1.83151, -1, 16.9303, 16.2435, 23.7041, 36.6978, -30.9545, -28.8292
1.83965, -1, 17.0146, 16.2101, 23.6469, 36.8357, -30.7486, -28.9253
1.84753, -1, 17.0986, 16.1768, 23.5898, 36.9733, -30.5433, -29.021
1.85552, -1, 17.182, 16.1438, 23.533, 37.1106, -30.3387, -29.1164
1.86507, -1, 17.2637, 16.1113, 23.4763, 37.2471, -30.1348, -29.2586
1.87151, -1, 17.3429, 16.08, 23.42, 37.3828, -29.9322, -29.3055
1.88053, -1, 17.4183, 16.0504, 23.3644, 37.5162, -29.7327, -29.3984
1.88759, -1, 17.4892, 16.0229, 23.3104, 37.6459, -29.5388, -29.4886
1.89551, -1, 17.5549, 15.998, 23.259, 37.7688, -29.355, -29.5743
1.90353, -1, 17.6141, 15.9759, 23.2116, 37.8819, -29.1853, -29.6532
1.91157, -1, 17.6668, 15.9564, 23.1698, 37.9818, -29.0357, -29.7226
1.91951, -1, 17.7135, 15.9385, 23.135, 38.0647, -28.9101, -29.7815
1.92753, -1, 17.7544, 15.9216, 23.1075, 38.1309, -28.8112, -29.8277
1.93558, -1, 17.7897, 15.9065, 23.0874, 38.1786, -28.7376, -29.8618
1.94351, -1, 17.8188, 15.8939, 23.0736, 38.2113, -28.688, -29.885
1.95151, -1, 17.8426, 15.8836, 23.0651, 38.2319, -28.6563, -29.8997
1.95954, -1, 17.8612, 15.8757, 23.0603, 38.2439, -28.6382, -29.9078
1.96752, -1, 17.8739, 15.8703, 23.0577, 38.2502, -28.6285, -29.9119
1.97551, -1, 17.8809, 15.8674, 23.0564, 38.2532, -28.6238, -29.9139
1.98354, 2, 17.8841, 15.8659, 23.0557, 38.2546, -28.6216, -29.9149
1.99151, 2, 17.8855, 15.8652, 23.0553, 38.2553, -28.6206, -29.9154
1.99951, 2, 17.8854, 15.8649, 23.0551, 38.2556, -28.6202, -29.9156
2.00767, 2, 17.8846, 15.8648, 23.0551, 38.2557, -28.62, -29.9157
2.01551, 2, 17.8839, 15.8647, 23.055, 38.2558, -28.6199, -29.9158
2.02351, 2, 17.8833, 15.8647, 23.055, 38.2559, -28.6198, -29.9157
2.03157, 2, 17.8831, 15.8646, 23.0549, 38.2558, -28.6198, -29.9158
2.03951, 2, 17.883, 15.8645, 23.0548, 38.2558, -28.6198, -29.9157
2.04753, 2, 17.883, 15.8643, 23.0548, 38.2558, -28.6198, -29.9157
2.05558, 2, 17.8831, 15.864, 23.0548, 38.2559, -28.6198, -29.9157
2.06355, 2, 17.8835, 15.8637, 23.0547, 38.2559, -28.6198, -29.9157
2.0716, 2, 17.8838, 15.8635, 23.0546, 38.2559, -28.6198, -29.9158
2.07966, 2, 17.8843, 15.8633, 23.0546, 38.2559, -28.6198, -29.9158
2.08763, 2, 17.885, 15.8632, 23.0546, 38.2559, -28.6198, -29.9158
2.09564, 2, 17.8857, 15.8632, 23.0546, 38.2559, -28.6198, -29.9158
2.10368, 2, 17.8863, 15.8631, 23.0545, 38.2559, -28.6198, -29.9158
2.11156, 2, 17.8867, 15.8632, 23.0545, 38.2558, -28.6198, -29.9158
2.11952, 2, 17.8869, 15.8632, 23.0545, 38.2559, -28.6198, -29.9158
2.12762, 2, 17.887, 15.8632, 23.0545, 38.2559, -28.6198, -29.9158
2.13586, 2, 17.8871, 15.8632, 23.0545, 38.2559, -28.6199, -29.9158
2.14358, 2, 17.8872, 15.8632, 23.0545, 38.2559, -28.6199, -29.9157
2.15168, 2, 17.8872, 15.8631, 23.0545, 38.2558, -28.6199, -29.9157
2.16013, 2, 17.8872, 15.8631, 23.0545, 38.2559, -28.62, -29.9158
2.16776, 2, 17.8871, 15.863, 23.0545, 38.2558, -28.62, -29.9157
2.17595, 2, 17.887, 15.863, 23.0545, 38.2559, -28.62, -29.9157
2.18429, 2, 17.8868, 15.8629, 23.0545, 38.2558, -28.62, -29.9157
2.19194, 2, 17.8867, 15.8629, 23.0545, 38.2558, -28.6201, -29.9157
2.20007, 2, 17.8866, 15.8629, 23.0545, 38.2559, -28.6201, -29.9157
2.20848, 2, 17.8866, 15.8629, 23.0545, 38.2558, -28.6201, -29.9157
2.34681, 2, 17.8864, 15.8629, 23.0545, 38.2558, -28.6204, -29.9156
2.34801, 2, 17.8864, 15.8629, 23.0545, 38.2558, -28.6204, -29.9156
2.35004, 2, 17.8864, 15.8629, 23.0545, 38.2558, -28.6204, -29.9156
2.35123, 2, 17.8864, 15.8629, 23.0545, 38.2558, -28.6204, -29.9156
2.35334, 2, 17.8864, 15.8629, 23.0545, 38.2558, -28.6204, -29.9156
2.35468, 2, 17.8864, 15.8629, 23.0545, 38.2558, -28.6204, -29.9156
2.35594, 2, 17.8864, 15.8629, 23.0545, 38.2558, -28.6204, -29.9156
2.35957, 2, 17.8863, 15.8629, 23.0545, 38.2558, -28.6205, -29.9156
2.36164, 2, 17.8863, 15.8629, 23.0545, 38.2559, -28.6205, -29.9156
2.36289, 2, 17.8863, 15.8629, 23.0545, 38.2559, -28.6205, -29.9156
2.36407, 2, 17.8863, 15.8629, 23.0545, 38.2559, -28.6205, -29.9156
2.3663, 2, 17.8864, 15.8629, 23.0545, 38.2558, -28.6205, -29.9156
2.36758, 2, 17.8864, 15.8629, 23.0545, 38.2558, -28.6205, -29.9156
2.36936, 2, 17.8864, 15.8629, 23.0545, 38.2558, -28.6205, -29.9156
2.37078, 2, 17.8864, 15.8629, 23.0545, 38.2558, -28.6205, -29.9156
2.37222, 2, 17.8864, 15.8629, 23.0545, 38.2558, -28.6205, -29.9156
2.37425, 2, 17.8864, 15.8629, 23.0545, 38.2558, -28.6204, -29.9156
2.37549, 2, 17.8864, 15.8629, 23.0545, 38.2558, -28.6204, -29.9156
2.37778, 2, 17.8864, 15.8629, 23.0545, 38.2558, -28.6205, -29.9156
2.37899, 2, 17.8864, 15.8629, 23.0545, 38.2558, -28.6205, -29.9156
2.38027, 2, 17.8864, 15.8629, 23.0545, 38.2558, -28.6205, -29.9156
2.38345, 2, 17.8864, 15.8629, 23.0545, 38.2557, -28.6205, -29.9156
2.39159, 2, 17.8863, 15.8629, 23.0545, 38.2557, -28.6205, -29.9156
2.40057, 2, 17.8863, 15.8629, 23.0545, 38.2557, -28.6205, -29.9156
2.40753, 2, 17.8863, 15.8629, 23.0545, 38.2557, -28.6205, -29.9156
2.41556, 2, 17.8863, 15.8629, 23.0545, 38.2557, -28.6205, -29.9156
2.42349, 2, 17.8863, 15.8629, 23.0545, 38.2557, -28.6205, -29.9156
2.4315, 2, 17.8862, 15.8629, 23.0545, 38.2557, -28.6205, -29.9156
2.43955, 2, 17.8862, 15.8629, 23.0545, 38.2558, -28.6205, -29.9156
2.44751, 2, 17.8862, 15.8629, 23.0545, 38.2557, -28.6206, -29.9156
2.4555, 2, 17.8862, 15.8629, 23.0545, 38.2557, -28.6206, -29.9156
2.46361, 2, 17.8862, 15.8629, 23.0545, 38.2557, -28.6206, -29.9155
2.47149, 2, 17.8861, 15.8629, 23.0545, 38.2557, -28.6206, -29.9155
2.47949, 2, 17.8861, 15.8629, 23.0545, 38.2557, -28.6206, -29.9155
2.48758, 2, 17.8861, 15.8629, 23.0545, 38.2557, -28.6207, -29.9155
2.49549, 2, 17.8861, 15.8629, 23.0545, 38.2557, -28.6207, -29.9155
2.5035, 2, 17.886, 15.8629, 23.0545, 38.2557, -28.6207, -29.9155
2.51163, 2, 17.886, 15.8629, 23.0545, 38.2557, -28.6207, -29.9155
2.51949, 2, 17.8859, 15.8629, 23.0545, 38.2557, -28.6207, -29.9155
2.52751, 2, 17.8859, 15.8629, 23.0545, 38.2557, -28.6207, -29.9155
2.53556, 2, 17.8858, 15.8629, 23.0545, 38.2557, -28.6208, -29.9154
2.54357, 2, 17.8858, 15.8629, 23.0545, 38.2557, -28.6208, -29.9154
2.5515, 2, 17.8857, 15.8629, 23.0545, 38.2557, -28.6208, -29.9154
2.55957, 2, 17.8857, 15.8629, 23.0545, 38.2556, -28.6208, -29.9154
2.56754, 2, 17.8857, 15.8629, 23.0545, 38.2556, -28.6208, -29.9154
2.5756, 2, 17.8856, 15.8629, 23.0545, 38.2556, -28.6209, -29.9154
2.58365, 2, 17.8856, 15.8629, 23.0545, 38.2556, -28.6209, -29.9154
2.59159, 2, 17.8855, 15.8629, 23.0545, 38.2556, -28.6208, -29.9154
2.5996, 2, 17.8855, 15.8629, 23.0545, 38.2556, -28.6209, -29.9153
2.60768, 2, 17.8855, 15.8629, 23.0545, 38.2556, -28.6209, -29.9153
2.61549, 2, 17.8854, 15.8629, 23.0545, 38.2556, -28.621, -29.9153
2.6235, 2, 17.8854, 15.8629, 23.0545, 38.2556, -28.621, -29.9153
2.63159, 2, 17.8853, 15.8629, 23.0545, 38.2556, -28.621, -29.9153
2.63952, 2, 17.8853, 15.8629, 23.0545, 38.2556, -28.621, -29.9152
2.64793, 2, 17.8852, 15.8629, 23.0545, 38.2556, -28.621, -29.9153
2.65571, 2, 17.8852, 15.8629, 23.0545, 38.2556, -28.621, -29.9153
2.66369, 2, 17.8851, 15.8629, 23.0545, 38.2555, -28.6211, -29.9152
2.67186, 2, 17.8851, 15.8629, 23.0545, 38.2555, -28.6211, -29.9152
2.67995, 2, 17.885, 15.8629, 23.0545, 38.2555, -28.6211, -29.9152
2.6879, 2, 17.885, 15.8629, 23.0545, 38.2555, -28.6211, -29.9152
2.69629, 2, 17.8849, 15.8629, 23.0545, 38.2554, -28.6212, -29.9152
2.70406, 2, 17.8848, 15.8629, 23.0545, 38.2555, -28.6211, -29.9151
2.71201, 2, 17.8848, 15.8629, 23.0545, 38.2554, -28.6211, -29.9151
2.72018, 2, 17.8848, 15.8629, 23.0545, 38.2554, -28.6212, -29.9151
2.72812, 2, 17.8847, 15.8629, 23.0545, 38.2554, -28.6212, -29.9151
2.73602, 2, 17.8847, 15.8629, 23.0545, 38.2554, -28.6211, -29.9151
2.74432, 2, 17.8846, 15.8629, 23.0545, 38.2554, -28.6211, -29.915
2.75153, 2, 17.8846, 15.8629, 23.0545, 38.2554, -28.6211, -29.915
2.75948, 2, 17.8845, 15.8629, 23.0545, 38.2553, -28.6212, -29.915
2.7675, 2, 17.8845, 15.8629, 23.0545, 38.2553, -28.6212, -29.915
2.77552, 2, 17.8844, 15.8629, 23.0545, 38.2554, -28.6212, -29.915
2.78348, 2, 17.8844, 15.863, 23.0545, 38.2554, -28.6212, -29.915
2.79149, 2, 17.8843, 15.8629, 23.0545, 38.2554, -28.6212, -29.9149
2.79953, 2, 17.8843, 15.8629, 23.0545, 38.2554, -28.6212, -29.915
2.8075, 2, 17.8842, 15.8629, 23.0545, 38.2553, -28.6213, -29.9149
2.81549, 2, 17.8842, 15.8629, 23.0546, 38.2553, -28.6213, -29.9149
2.82353, 2, 17.8841, 15.8629, 23.0545, 38.2552, -28.6213, -29.9149
2.83305, 2, 17.8841, 15.8629, 23.0546, 38.2552, -28.6213, -29.9149
2.83948, 2, 17.8841, 15.8629, 23.0546, 38.2552, -28.6213, -29.9149
2.84763, 2, 17.884, 15.8629, 23.0545, 38.2552, -28.6213, -29.9149
2.85547, 2, 17.884, 15.863, 23.0545, 38.2552, -28.6213, -29.9149
2.86514, 2, 17.8839, 15.863, 23.0545, 38.2552, -28.6213, -29.9149
2.87155, 2, 17.8839, 15.863, 23.0545, 38.2551, -28.6213, -29.9149
2.88109, 2, 17.8839, 15.863, 23.0545, 38.2552, -28.6213, -29.9149
2.8875, 2, 17.8838, 15.863, 23.0545, 38.2551, -28.6213, -29.9149
2.89554, 2, 17.8838, 15.863, 23.0545, 38.2551, -28.6214, -29.9149
2.90356, 2, 17.8838, 15.863, 23.0546, 38.2551, -28.6214, -29.9149
2.9115, 2, 17.8838, 15.863, 23.0545, 38.2551, -28.6214, -29.9149
2.91954, 2, 17.8838, 15.863, 23.0545, 38.2551, -28.6214, -29.9149
2.92749, 2, 17.8837, 15.863, 23.0546, 38.2551, -28.6214, -29.9149
2.93548, 2, 17.8837, 15.863, 23.0546, 38.255, -28.6214, -29.9149
2.94354, 2, 17.8837, 15.863, 23.0546, 38.255, -28.6214, -29.9149
2.95148, 2, 17.8837, 15.863, 23.0546, 38.255, -28.6214, -29.9149
2.95948, 2, 17.8837, 15.863, 23.0546, 38.2549, -28.6214, -29.9149
2.96759, 2, 17.8837, 15.863, 23.0545, 38.2549, -28.6214, -29.9149
2.97547, 2, 17.8837, 15.863, 23.0545, 38.2549, -28.6214, -29.9149
2.98361, 2, 17.8837, 15.863, 23.0545, 38.2549, -28.6214, -29.9149
2.99154, 2, 17.8836, 15.863, 23.0545, 38.2549, -28.6214, -29.9149
2.99947, 2, 17.8836, 15.863, 23.0545, 38.2549, -28.6214, -29.9149
3.00749, 2, 17.8836, 15.863, 23.0546, 38.2549, -28.6215, -29.9149
3.01562, 2, 17.8836, 15.863, 23.0546, 38.2549, -28.6215, -29.9149
3.02347, 2, 17.8836, 15.863, 23.0546, 38.2549, -28.6215, -29.9149
3.03148, 2, 17.8836, 15.863, 23.0546, 38.2549, -28.6215, -29.9148
3.03964, 2, 17.8836, 15.863, 23.0546, 38.2549, -28.6215, -29.9149
3.0475, 2, 17.8836, 15.863, 23.0546, 38.2549, -28.6215, -29.9149
3.05547, 2, 17.8836, 15.863, 23.0546, 38.2549, -28.6215, -29.9149
3.06355, 4, 17.8836, 15.863, 23.0546, 38.2549, -28.6215, -29.9149
3.07152, 4, 17.8835, 15.863, 23.0546, 38.2549, -28.6215, -29.9149
3.07958, 4, 17.8835, 15.863, 23.0546, 38.2548, -28.6215, -29.9149
3.08763, 4, 17.8835, 15.863, 23.0546, 38.2548, -28.6215, -29.9149
3.09557, 4, 17.8835, 15.863, 23.0546, 38.2548, -28.6215, -29.9149
3.10359, 4, 17.8835, 15.863, 23.0546, 38.2548, -28.6215, -29.9149
3.11164, 4, 17.8835, 15.863, 23.0546, 38.2548, -28.6215, -29.9149
3.11948, 4, 17.8835, 15.863, 23.0546, 38.2547, -28.6215, -29.9148
3.12748, 4, 17.8835, 15.863, 23.0546, 38.2547, -28.6215, -29.9147
3.13557, 4, 17.8835, 15.863, 23.0546, 38.2547, -28.6215, -29.9148
3.14352, 4, 17.8835, 15.863, 23.0546, 38.2547, -28.6215, -29.9148
3.15187, 4, 17.8835, 15.863, 23.0546, 38.2547, -28.6215, -29.9149
3.15971, 4, 17.8835, 15.863, 23.0546, 38.2547, -28.6215, -29.9149
3.16788, 4, 17.8834, 15.863, 23.0546, 38.2547, -28.6215, -29.9148
3.20667, 4, 17.8834, 15.863, 23.0546, 38.2547, -28.6215, -29.9148
3.20866, 4, 17.8834, 15.863, 23.0546, 38.2547, -28.6215, -29.9148
3.20994, 4, 17.8834, 15.863, 23.0546, 38.2547, -28.6215, -29.9148
3.21111, 4, 17.8834, 15.863, 23.0546, 38.2547, -28.6215, -29.9148
3.21456, 4, 17.8834, 15.863, 23.0546, 38.2547, -28.6215, -29.9148
3.21701, 4, 17.8834, 15.8631, 23.0546, 38.2547, -28.6215, -29.9147
3.22402, 4, 17.8829, 15.8633, 23.0546, 38.2547, -28.6215, -29.9147
3.23205, 4, 17.8821, 15.8647, 23.0544, 38.2544, -28.6215, -29.9146
3.24086, 4, 17.8785, 15.8686, 23.0535, 38.2523, -28.6218, -29.9134
3.24885, 4, 17.8717, 15.8722, 23.0526, 38.2496, -28.6222, -29.9115
3.25546, 4, 17.861, 15.8843, 23.0487, 38.2382, -28.6242, -29.9021
3.26352, 5, 17.8448, 15.9046, 23.0411, 38.2144, -28.6291, -29.879
3.27146, 5, 17.821, 15.9352, 23.0277, 38.1707, -28.6388, -29.835
3.27948, 5, 17.7884, 15.9773, 23.0067, 38.0961, -28.6556, -29.7596
3.28753, 5, 17.7455, 16.0325, 22.9757, 37.9814, -28.6814, -29.6431
3.29545, 5, 17.6906, 16.1035, 22.9328, 37.8163, -28.7193, -29.4749
3.30351, 5, 17.622, 16.193, 22.8763, 37.5928, -28.7725, -29.247
3.31146, 5, 17.5379, 16.3034, 22.8044, 37.3043, -28.8419, -28.9522
3.31947, 5, 17.4367, 16.436, 22.7162, 36.9465, -28.931, -28.5864
3.32903, 5, 17.2497, 16.6798, 22.5516, 36.2749, -29.1037, -27.9009
3.33547, 5, 17.1772, 16.774, 22.488, 36.0149, -29.1727, -27.6357
3.34508, 5, 16.9277, 17.0957, 22.2724, 35.1283, -29.4164, -26.732
3.35154, 5, 16.8338, 17.2155, 22.1924, 34.798, -29.5108, -26.3957
3.35946, 5, 16.6295, 17.4745, 22.0203, 34.0846, -29.7202, -25.6741
3.36752, 5, 16.404, 17.7591, 21.8322, 33.3042, -29.9593, -24.8892
3.37785, 5, 16.1574, 18.0672, 21.6299, 32.4607, -30.2299, -24.0426
3.38346, 5, 15.8901, 18.3989, 21.4144, 31.5591, -30.5341, -23.1428
3.39153, 5, 15.6019, 18.7519, 21.1857, 30.6032, -30.8724, -22.194
3.39946, 5, 15.2931, 19.125, 20.9467, 29.5997, -31.2463, -21.2047
3.40746, 5, 14.9647, 19.5162, 20.6995, 28.5569, -31.6568, -20.1849
3.41556, 5, 14.6166, 19.925, 20.4446, 27.4818, -32.1039, -19.1393
3.42344, 5, 14.2493, 20.3483, 20.1851, 26.3797, -32.5875, -18.0788
3.43145, 5, 13.8651, 20.7826, 19.9218, 25.2601, -33.1072, -17.0119
3.43953, 5, 13.4665, 21.2258, 19.6571, 24.1306, -33.6615, -15.9486
3.44746, 5, 13.0556, 21.6759, 19.3934, 22.9957, -34.2499, -14.8932
3.45547, 5, 12.6328, 22.1316, 19.1315, 21.8641, -34.8704, -13.8561
3.46354, 5, 12.1983, 22.591, 18.8742, 20.745, -35.5197, -12.8438
3.47144, 5, 11.7519, 23.0524, 18.6223, 19.6407, -36.1938, -11.8652
3.47946, 5, 11.2941, 23.5138, 18.377, 18.5556, -36.891, -10.9209
3.48752, 5, 10.8258, 23.9735, 18.1402, 17.495, -37.6114, -10.0141
3.49546, 5, 10.3493, 24.431, 17.9119, 16.4555, -38.3526, -9.14849
3.50344, 5, 9.86737, 24.8833, 17.6927, 15.4381, -39.1128, -8.32282
3.51154, 5, 9.38254, 25.3278, 17.4846, 14.4461, -39.8898, -7.54011
3.51954, 5, 8.89592, 25.7636, 17.288, 13.4764, -40.6832, -6.79764
3.52747, 5, 8.40838, 26.189, 17.1038, 12.5298, -41.4901, -6.09744
3.53554, 5, 7.92118, 26.6035, 16.9328, 11.6115, -42.3058, -5.44246
3.54353, 5, 7.43709, 27.0051, 16.7747, 10.7235, -43.1242, -4.83135
3.55145, 5, 6.95822, 27.3932, 16.6298, 9.86604, -43.9397, -4.26683
3.55953, 5, 6.48619, 27.7658, 16.4992, 9.04402, -44.7483, -3.74893
3.5675, 5, 6.02093, 28.1224, 16.3829, 8.26033, -45.5458, -3.27742
3.57554, 5, 5.56353, 28.4609, 16.2811, 7.51537, -46.3248, -2.85072
3.58362, 5, 5.11514, 28.7814, 16.1932, 6.80852, -47.08, -2.46746
3.59155, 5, 4.67893, 29.0822, 16.1186, 6.14027, -47.8102, -2.124
3.59956, 5, 4.25883, 29.3631, 16.0561, 5.51172, -48.5128, -1.81857
3.60763, 5, 3.85769, 29.6245, 16.005, 4.92153, -49.1834, -1.54853
3.61557, 5, 3.47662, 29.8658, 15.9642, 4.37112, -49.8193, -1.31139
3.62345, 5, 3.11428, 30.0881, 15.9329, 3.85911, -50.4194, -1.10342
3.63234, 5, 2.77091, 30.2929, 15.91, 3.38412, -50.9829, -0.922372
3.63954, 5, 2.44784, 30.4805, 15.8942, 2.94524, -51.5097, -0.765323
3.64754, 5, 2.14641, 30.6515, 15.8845, 2.5412, -51.9988, -0.629765
3.65566, 5, 1.86794, 30.8066, 15.8797, 2.17096, -52.4509, -0.513058
3.66397, 5, 1.61177, 30.9459, 15.8787, 1.83334, -52.8659, -0.413544
3.67208, 5, 1.37574, 31.0703, 15.8809, 1.52779, -53.2441, -0.328278
3.68046, 5, 1.16054, 31.1807, 15.8854, 1.25342, -53.5853, -0.256852
3.68797, 5, 0.968013, 31.2776, 15.8913, 1.00953, -53.8905, -0.196613
3.69622, 5, 0.798005, 31.362, 15.8981, 0.795524, -54.1592, -0.145831
3.70401, 5, 0.649627, 31.4349, 15.9049, 0.61076, -54.3916, -0.104519
3.7126, 5, 0.522029, 31.4974, 15.9112, 0.454914, -54.5886, -0.0711741
3.72001, 5, 0.413413, 31.5504, 15.9168, 0.326417, -54.7511, -0.0454074
3.72811, 5, 0.322085, 31.5945, 15.9211, 0.224433, -54.8812, -0.0256861
3.73611, 5, 0.246068, 31.6306, 15.924, 0.145683, -54.9814, -0.0112734
3.74404, 5, 0.213115, 31.6462, 15.925, 0.0887406, -55.0552, -0.00120788
3.75206, 5, 0.156344, 31.6729, 15.926, 0.0489213, -55.1074, 0.00549453
3.75948, 5, 0.11158, 31.6937, 15.9264, 0.0342264, -55.1265, 0.00782407
3.76748, 5, 0.0772648, 31.7099, 15.9264, 0.0130089, -55.1538, 0.0108412
3.77633, 5, 0.0515827, 31.7222, 15.9261, 8.94848E-05, -55.1701, 0.0128518
3.81083, 5, 0.00185753, 31.7458, 15.9251, -0.012769, -55.187, 0.0134669
3.81267, 5, 0.00185753, 31.7469, 15.9251, -0.0129066, -55.1872, 0.0133996
3.81422, 5, 0.000295189, 31.7469, 15.9251, -0.0129066, -55.1872, 0.0133996
3.81542, 5, 0.000295189, 31.7469, 15.9251, -0.0129066, -55.1872, 0.0133996
3.81971, 5, -0.000962243, 31.7479, 15.9251, -0.0129999, -55.1873, 0.0132774
3.82338, 5, -0.00205481, 31.7488, 15.9251, -0.013063, -55.1874, 0.013129
3.83149, 5, -0.00413585, 31.7504, 15.9251, -0.0131348, -55.1875, 0.0128576
3.83943, 5, -0.00743689, 31.7515, 15.9252, -0.0131619, -55.1876, 0.0128468
3.84744, 5, -0.0138089, 31.7524, 15.9257, -0.0132909, -55.1884, 0.0129148
3.8556, 5, -0.0239225, 31.753, 15.9279, -0.0144042, -55.1921, 0.0136994
3.86344, 5, -0.0385201, 31.7531, 15.9339, -0.0185462, -55.2021, 0.0183468
3.87241, 6, -0.0595397, 31.7521, 15.9463, -0.0275396, -55.2226, 0.0302999
3.87953, 6, -0.088832, 31.7492, 15.9686, -0.0436753, -55.2598, 0.0524997
3.88849, 6, -0.128127, 31.7433, 16.0051, -0.0694741, -55.3194, 0.0885031
3.89544, 6, -0.178779, 31.7337, 16.0596, -0.107794, -55.4091, 0.141735
3.90352, 6, -0.242549, 31.7196, 16.1362, -0.162597, -55.5357, 0.216867
3.91143, 6, -0.320999, 31.7, 16.2383, -0.23373, -55.7045, 0.315819
3.91945, 6, -0.415583, 31.6747, 16.3684, -0.324151, -55.9205, 0.440546
3.92751, 6, -0.527494, 31.6433, 16.528, -0.433959, -56.1875, 0.591827
3.93544, 6, -0.658221, 31.6054, 16.7198, -0.563308, -56.508, 0.769604
3.94348, 6, -0.809083, 31.5609, 16.9459, -0.712196, -56.8843, 0.973374
3.95151, 6, -0.98092, 31.5094, 17.2064, -0.879692, -57.3184, 1.20207
3.95943, 6, -1.17425, 31.4509, 17.5036, -1.06566, -57.812, 1.45416
3.96743, 6, -1.38873, 31.3851, 17.8383, -1.26878, -58.3682, 1.72792
3.97552, 6, -1.62388, 31.3119, 18.2118, -1.4884, -58.9899, 2.02104
3.98343, 6, -1.87828, 31.2311, 18.6241, -1.72371, -59.6798, 2.33177
3.9915, 6, -2.14993, 31.1428, 19.0759, -1.97349, -60.4378, 2.65682
3.99951, 6, -2.4371, 31.0472, 19.5667, -2.23531, -61.2632, 2.99209
4.00743, 6, -2.73719, 30.9449, 20.094, -2.50722, -62.1561, 3.33348
4.01544, 6, -3.04748, 30.837, 20.6554, -2.78627, -63.1104, 3.67589
4.02357, 6, -3.36568, 30.7245, 21.2469, -3.06877, -64.1155, 4.01364
4.03143, 6, -3.68986, 30.6089, 21.8629, -3.3516, -65.1626, 4.34129
4.03943, 6, -4.0183, 30.4917, 22.4971, -3.6314, -66.2427, 4.65395
4.04751, 6, -4.35176, 30.3746, 23.144, -3.90549, -67.3437, 4.94772
4.0555, 6, -4.68899, 30.2579, 23.7995, -4.17174, -68.4554, 5.21942
4.06344, 6, -5.0268, 30.1426, 24.4594, -4.43013, -69.5769, 5.46831
4.07164, 6, -5.36172, 30.0287, 25.1212, -4.68055, -70.7031, 5.69404
4.0797, 6, -5.68996, 29.9163, 25.7831, -4.92287, -71.8288, 5.89611
4.08755, 6, -6.00969, 29.8059, 26.4454, -5.1583, -72.9577, 6.0755
4.09561, 6, -6.32107, 29.6975, 27.1083, -5.38721, -74.0876, 6.23231
4.10384, 6, -6.62437, 29.5912, 27.7718, -5.60994, -75.2154, 6.36727
4.11155, 6, -6.92093, 29.4869, 28.4356, -5.82751, -76.3449, 6.4811
4.11962, 6, -7.21184, 29.3844, 29.0991, -6.04064, -77.4755, 6.57354
4.12796, 6, -7.4968, 29.2839, 29.7622, -6.25024, -78.6039, 6.646
4.13548, 6, -7.77503, 29.185, 30.4253, -6.45636, -79.7332, 6.69909
4.14354, 6, -8.04598, 29.0881, 31.0885, -6.65975, -80.8646, 6.73239
4.15242, 6, -8.30921, 28.9935, 31.7523, -6.86134, -81.9932, 6.74748
4.15956, 6, -8.56429, 28.9008, 32.4165, -7.06134, -83.1224, 6.74352
4.16766, 6, -8.81144, 28.8098, 33.0809, -7.26027, -84.2531, 6.71845
4.1757, 6, -9.05096, 28.7208, 33.7442, -7.45858, -85.3802, 6.67347
4.18372, 6, -9.283, 28.6339, 34.4051, -7.65591, -86.5034, 6.61003
4.19193, 6, -9.50722, 28.5493, 35.0614, -7.85258, -87.6213, 6.52814
4.20056, 6, -9.7231, 28.4672, 35.7105, -8.04747, -88.7245, 6.42872
4.20797, 6, -9.93014, 28.3881, 36.3485, -8.23961, -89.8066, 6.31336
4.21656, 6, -10.1273, 28.3126, 36.971, -8.42835, -90.8637, 6.18385
4.22459, 6, -10.3138, 28.241, 37.5735, -8.61223, -91.8849, 6.042
4.23202, 6, -10.4894, 28.1735, 38.1527, -8.79056, -92.8627, 5.89046
4.24007, 6, -10.5729, 28.1101, 38.7057, -8.9623, -93.7964, 5.73191
4.24806, 6, -10.7307, 28.08, 38.9713, -9.04526, -94.2451, 5.56865
4.25604, 6, -10.8758, 28.023, 39.4804, -9.20535, -95.5096, 5.40367
4.26352, 6, -11.0084, 27.9704, 39.9591, -9.35739, -95.9033, 5.32122
4.27145, 6, -11.1282, 27.9221, 40.4062, -9.50065, -96.6501, 5.15751
4.27948, 6, -11.2355, 27.8778, 40.8215, -9.63516, -97.3428, 4.99731
4.28744, 6, -11.3309, 27.8375, 41.2031, -9.76023, -97.9794, 4.84244
4.29543, 6, -11.4148, 27.8012, 41.5511, -9.87513, -98.5578, 4.69537
4.30344, 6, -11.4882, 27.7689, 41.8637, -9.97921, -99.0762, 4.55813
4.31144, 6, -11.5516, 27.7407, 42.1409, -10.0721, -99.534, 4.43269
4.31942, 6, -11.6061, 27.7163, 42.3813, -10.1524, -99.9293, 4.32137
4.32745, 6, -11.6527, 27.6959, 42.5849, -10.2211, -100.263, 4.22553
4.33545, 6, -11.692, 27.6793, 42.754, -10.2769, -100.536, 4.145
4.345, 6, -11.738, 27.661, 42.9459, -10.3395, -100.84, 4.0529
4.35144, 6, -11.7505, 27.6565, 42.9949, -10.3554, -100.916, 4.02957
4.36113, 6, -11.7799, 27.6469, 43.1049, -10.3898, -101.082, 3.97824
4.36741, 6, -11.7872, 27.6446, 43.1307, -10.3975, -101.119, 3.9664
4.37698, 6, -11.7988, 27.6414, 43.1699, -10.4085, -101.173, 3.94242
4.38338, 6, -11.8075, 27.6396, 43.1961, -10.4152, -101.207, 3.93757
4.39142, 6, -11.8136, 27.6385, 43.2129, -10.4189, -101.226, 3.93101
4.39949, 6, -11.8178, 27.6381, 43.2235, -10.4207, -101.235, 3.92721
4.40738, 7, -11.8204, 27.6378, 43.2305, -10.4217, -101.24, 3.92515
4.41542, 7, -11.8216, 27.6376, 43.2351, -10.4221, -101.242, 3.92397
4.4235, 7, -11.822, 27.6375, 43.2383, -10.4223, -101.244, 3.92327
4.43141, 7, -11.8222, 27.6373, 43.2408, -10.4224, -101.244, 3.92284
4.43941, 7, -11.8222, 27.6372, 43.2429, -10.4225, -101.244, 3.92251
4.44749, 7, -11.8223, 27.6371, 43.2447, -10.4226, -101.244, 3.92231
4.45543, 7, -11.8225, 27.637, 43.2463, -10.4226, -101.244, 3.92217
4.46342, 7, -11.8228, 27.6369, 43.2476, -10.4226, -101.244, 3.92205
4.47149, 7, -11.8231, 27.6368, 43.2485, -10.4226, -101.244, 3.92187
4.47941, 7, -11.8234, 27.6367, 43.2492, -10.4225, -101.244, 3.92178
4.48741, 7, -11.8238, 27.6366, 43.2498, -10.4225, -101.244, 3.92175
4.4955, 7, -11.8243, 27.6366, 43.2503, -10.4226, -101.244, 3.92167
4.50341, 7, -11.8248, 27.6366, 43.2508, -10.4226, -101.244, 3.92161
4.51141, 7, -11.8252, 27.6366, 43.2512, -10.4226, -101.243, 3.92155
4.51948, 7, -11.8255, 27.6365, 43.2515, -10.4226, -101.243, 3.92153
4.5275, 7, -11.8258, 27.6365, 43.2517, -10.4226, -101.243, 3.92155
