hehonglu123/ABB_Primitive_Study/realrobot/movec_30_car/curve_exe_v500_fine.csv
timestamp, cmd_num, J1, J2, J3, J4, J5, J6
0.000439, -1, -11.8233, 27.6355, 43.2536, -10.4213, -101.239, 3.9204
0.004313, -1, -11.8233, 27.6355, 43.2536, -10.4213, -101.239, 3.9204
0.007832, -1, -11.8233, 27.6355, 43.2536, -10.4212, -101.239, 3.92039
0.02934, -1, -11.8233, 27.6355, 43.2536, -10.4212, -101.239, 3.92036
0.030584, -1, -11.8233, 27.6355, 43.2536, -10.4212, -101.239, 3.92036
0.034375, -1, -11.8233, 27.6355, 43.2536, -10.4212, -101.239, 3.92038
0.039686, -1, -11.8233, 27.6355, 43.2536, -10.4213, -101.239, 3.9204
0.047789, -1, -11.8231, 27.6355, 43.2536, -10.4213, -101.239, 3.92039
0.055789, -1, -11.8219, 27.6353, 43.2536, -10.4213, -101.239, 3.92041
0.06377, -1, -11.8181, 27.6344, 43.2534, -10.4212, -101.239, 3.92035
0.072692, -1, -11.8108, 27.6319, 43.2524, -10.4201, -101.236, 3.92013
0.080034, -1, -11.7985, 27.6269, 43.2498, -10.4144, -101.227, 3.91843
0.088019, -1, -11.7795, 27.6186, 43.2441, -10.4008, -101.206, 3.91046
0.096813, -1, -11.7507, 27.6061, 43.2331, -10.3744, -101.168, 3.89288
0.104076, -1, -11.7106, 27.5894, 43.2146, -10.3291, -101.103, 3.86303
0.112116, -1, -11.6594, 27.5683, 43.1865, -10.2609, -101.002, 3.81668
0.120935, -1, -11.5957, 27.5427, 43.1465, -10.1635, -100.859, 3.75007
0.128119, -1, -11.559, 27.5282, 43.1219, -10.036, -100.671, 3.66191
0.13604, -1, -11.4754, 27.4953, 43.0632, -9.96077, -100.559, 3.61007
0.14349, -1, -11.3783, 27.4574, 42.9925, -9.78829, -100.304, 3.49052
0.15149, -1, -11.2687, 27.4146, 42.9111, -9.58943, -100.01, 3.35286
0.159588, -1, -11.147, 27.3673, 42.8207, -9.36885, -99.6821, 3.19968
0.167503, -1, -11.0136, 27.315, 42.7233, -9.13188, -99.3293, 3.03523
0.175528, -1, -10.87, 27.2586, 42.6206, -8.88266, -98.9587, 2.86217
0.18353, -1, -10.7186, 27.1992, 42.5141, -8.62479, -98.575, 2.6832
0.191544, -1, -10.5618, 27.1374, 42.405, -8.36129, -98.183, 2.49989
0.199564, -1, -10.4006, 27.0738, 42.2944, -8.0938, -97.7845, 2.31384
0.20749, -1, -10.2362, 27.009, 42.1828, -7.82364, -97.3819, 2.12558
0.215516, -1, -10.0701, 26.9433, 42.0703, -7.55173, -96.9762, 1.9362
0.223567, -1, -9.90257, 26.8772, 41.9571, -7.27827, -96.5681, 1.74596
0.231492, -1, -9.73451, 26.8108, 41.8431, -7.00315, -96.1582, 1.55455
0.239555, -1, -9.56614, 26.7443, 41.7286, -6.72688, -95.7459, 1.3623
0.247569, -1, -9.39756, 26.6776, 41.6136, -6.44941, -95.3322, 1.16886
0.257152, -1, -9.22916, 26.6107, 41.4984, -6.17066, -94.7082, 0.877512
0.263485, -1, -9.06059, 26.5436, 41.3827, -5.89064, -94.4994, 0.780047
0.271566, -1, -8.89115, 26.4763, 41.2664, -5.60959, -94.0805, 0.584762
0.280549, -1, -8.72075, 26.4087, 41.1495, -5.32725, -93.6597, 0.388532
0.287486, -1, -8.54904, 26.3405, 41.032, -5.04385, -93.2372, 0.191525
0.295596, -1, -8.37601, 26.2719, 40.9141, -4.75948, -92.8127, -0.00631756
0.304492, -1, -8.20209, 26.2029, 40.7959, -4.4739, -92.3863, -0.204894
0.311548, -1, -8.02686, 26.1335, 40.6772, -4.18727, -91.959, -0.404155
0.319566, -1, -7.85039, 26.0637, 40.5581, -3.89991, -91.5301, -0.604162
0.327488, -1, -7.67303, 25.9938, 40.4383, -3.61136, -91.1001, -0.805038
0.335548, -1, -7.49491, 25.9236, 40.3181, -3.32176, -90.6686, -1.00651
0.343496, -1, -7.31623, 25.8532, 40.1975, -3.03141, -90.2353, -1.20876
0.351507, -1, -7.13722, 25.7828, 40.0766, -2.73993, -89.8005, -1.41129
0.359667, -1, -6.95816, 25.7123, 39.9555, -2.44755, -89.3639, -1.61447
0.368395, -1, -6.77924, 25.6418, 39.834, -2.15439, -88.926, -1.81822
0.375481, -1, -6.6004, 25.5711, 39.7121, -1.86023, -88.4876, -2.02259
0.383574, -1, -6.42194, 25.5002, 39.59, -1.56532, -88.0483, -2.22749
0.392276, -1, -6.24377, 25.429, 39.4676, -1.27003, -87.608, -2.43293
0.399546, -1, -6.06523, 25.3577, 39.3448, -0.973927, -87.1668, -2.63861
0.407556, -1, -5.88623, 25.2862, 39.2219, -0.67741, -86.7243, -2.84482
0.416694, -1, -5.70662, 25.2144, 39.0985, -0.38054, -86.281, -3.05149
0.423586, -1, -5.52626, 25.1424, 38.9751, -0.0827753, -85.8371, -3.25868
0.431567, -1, -5.34501, 25.0702, 38.8514, 0.215187, -85.3923, -3.46595
0.439577, -1, -5.16275, 24.9979, 38.7276, 0.513362, -84.9472, -3.67328
0.447485, -1, -4.9797, 24.9257, 38.6037, 0.812185, -84.5017, -3.88069
0.455615, -1, -4.79607, 24.8535, 38.4795, 1.11092, -84.0558, -4.08838
0.463733, -1, -4.61224, 24.7813, 38.3555, 1.40987, -83.6098, -4.29625
0.471582, -1, -4.42827, 24.709, 38.2313, 1.70941, -83.1632, -4.50452
0.479698, -1, -4.24434, 24.6368, 38.1071, 2.00865, -82.7165, -4.71249
0.48794, -1, -4.06073, 24.5646, 37.983, 2.30814, -82.2698, -4.92046
0.495594, -1, -3.87742, 24.4924, 37.8587, 2.60759, -81.8225, -5.1285
0.503668, -1, -3.69493, 24.4202, 37.7345, 2.90653, -81.3764, -5.33648
0.512133, -1, -3.51337, 24.3479, 37.6105, 3.20551, -80.9305, -5.54459
0.51957, -1, -3.33235, 24.2757, 37.4865, 3.50453, -80.4851, -5.75228
0.527643, -1, -3.15199, 24.2035, 37.3626, 3.80293, -80.0404, -5.95957
0.536082, -1, -2.97237, 24.1314, 37.2388, 4.10102, -79.5958, -6.16651
0.543617, -1, -2.79295, 24.0594, 37.1152, 4.39853, -79.1517, -6.3734
0.552058, -1, -2.61353, 23.9875, 36.9919, 4.6954, -78.7081, -6.58005
0.561374, -1, -2.43375, 23.9158, 36.869, 4.99187, -78.2653, -6.78625
0.567919, -1, -2.25357, 23.8444, 36.7462, 5.28783, -77.8245, -6.99188
0.575998, -1, -2.07325, 23.7732, 36.6238, 5.58287, -77.3843, -7.19714
0.585329, -1, -1.89293, 23.7021, 36.5015, 5.87698, -76.9458, -7.40182
0.591965, -1, -1.71296, 23.6313, 36.3796, 6.17015, -76.5083, -7.60598
0.600471, -1, -1.53306, 23.5607, 36.2582, 6.4624, -76.0717, -7.8097
0.608043, -1, -1.35345, 23.4903, 36.1372, 6.75371, -75.6365, -8.01241
0.61605, -1, -1.17451, 23.4203, 36.0167, 7.04429, -75.2032, -8.21427
0.624205, -1, -0.996632, 23.3504, 35.8966, 7.33366, -74.7711, -8.41528
0.632052, -1, -0.908231, 23.3156, 35.8367, 7.47789, -74.556, -8.61559
0.639472, -1, -0.732469, 23.246, 35.7172, 7.76561, -74.1269, -8.71548
0.647538, -1, -0.557887, 23.1767, 35.5983, 8.05203, -73.6994, -8.91486
0.65547, -1, -0.384452, 23.1077, 35.4799, 8.33726, -73.2738, -9.1132
0.66347, -1, -0.212362, 23.039, 35.362, 8.62159, -72.85, -9.31054
0.671529, -1, -0.0416033, 22.9706, 35.2447, 8.90447, -72.4283, -9.5069
0.67947, -1, 0.128047, 22.9025, 35.1277, 9.18564, -72.0084, -9.70252
0.687529, -1, 0.29697, 22.8347, 35.0113, 9.46566, -71.5905, -9.89714
0.695529, -1, 0.465743, 22.7674, 34.8957, 9.7439, -71.1749, -10.0909
0.703487, -1, 0.634367, 22.7004, 34.7806, 10.0208, -70.7616, -10.2835
0.712985, -1, 0.886859, 22.6007, 34.6093, 10.4339, -70.1458, -10.5702
0.721111, -1, 1.05447, 22.5347, 34.4958, 10.7071, -69.7384, -10.7601
0.727523, -1, 1.13792, 22.5017, 34.4392, 10.8431, -69.5353, -10.8547
0.735468, -1, 1.30452, 22.4361, 34.3267, 11.1141, -69.1309, -11.0432
0.743486, -1, 1.47053, 22.3709, 34.2147, 11.3836, -68.7286, -11.2308
0.751541, -1, 1.63583, 22.306, 34.1035, 11.6514, -68.3285, -11.417
0.759472, -1, 1.8002, 22.2415, 33.9929, 11.9179, -67.9305, -11.6023
0.767483, -1, 1.96308, 22.1774, 33.8829, 12.1832, -67.5353, -11.7865
0.775532, -1, 2.12433, 22.1136, 33.7735, 12.4465, -67.1425, -11.9695
0.78348, -1, 2.2842, 22.0502, 33.6647, 12.7081, -66.7523, -12.1517
0.791477, -1, 2.44277, 21.9872, 33.5566, 12.9682, -66.3646, -12.3327
0.799556, -1, 2.59987, 21.9246, 33.4493, 13.2266, -65.9787, -12.5124
0.807602, -1, 2.75563, 21.8625, 33.3428, 13.4833, -65.5954, -12.6908
0.815545, -1, 2.90991, 21.8007, 33.2368, 13.739, -65.2143, -12.8681
0.823481, -1, 3.06291, 21.7392, 33.1313, 13.9925, -64.8357, -13.0444
0.831475, -1, 3.21527, 21.6781, 33.0264, 14.2445, -64.4595, -13.2197
0.839536, -1, 3.3673, 21.6175, 32.9223, 14.4949, -64.0858, -13.3941
0.847469, -1, 3.5189, 21.5573, 32.819, 14.7438, -63.7145, -13.567
0.855539, -1, 3.67013, 21.4974, 32.7165, 14.9911, -63.3454, -13.7389
0.86353, -1, 3.82071, 21.438, 32.6146, 15.2366, -62.9789, -13.9095
0.871468, -1, 3.97032, 21.3789, 32.5131, 15.4808, -62.6148, -14.0791
0.87953, -1, 4.1194, 21.3203, 32.4121, 15.7234, -62.253, -14.2477
0.887489, -1, 4.26788, 21.262, 32.3119, 15.9641, -61.8935, -14.4153
0.895468, -1, 4.41546, 21.2042, 32.2125, 16.2034, -61.5361, -14.5818
0.903546, -1, 4.56219, 21.1468, 32.114, 16.4413, -61.181, -14.7469
0.911468, -1, 4.70798, 21.0898, 32.0162, 16.6773, -60.828, -14.9111
0.919463, -1, 4.85219, 21.0331, 31.9187, 16.9119, -60.4779, -15.074
0.927538, -1, 4.99478, 20.9766, 31.8217, 17.1451, -60.1299, -15.236
0.935466, -1, 5.13635, 20.9205, 31.7253, 17.3768, -59.7842, -15.397
0.943484, -1, 5.27674, 20.8647, 31.6296, 17.607, -59.4413, -15.5572
0.951534, -1, 5.41558, 20.8092, 31.5348, 17.8355, -59.1003, -15.7163
0.959503, -1, 5.55319, 20.754, 31.4406, 18.063, -58.7611, -15.8744
0.967573, -1, 5.68956, 20.6993, 31.347, 18.2889, -58.4243, -16.0314
0.975624, -1, 5.82475, 20.6448, 31.2537, 18.5131, -58.0893, -16.1877
0.983573, -1, 5.9593, 20.5907, 31.1607, 18.7361, -57.7561, -16.3429
0.991566, -1, 6.09362, 20.5371, 31.0685, 18.9579, -57.425, -16.4972
0.99964, -1, 6.22769, 20.4838, 30.9771, 19.1781, -57.0963, -16.6506
1.00753, -1, 6.36155, 20.4309, 30.8864, 19.397, -56.7696, -16.8031
1.01547, -1, 6.49487, 20.3784, 30.7964, 19.6145, -56.4451, -16.9542
1.02358, -1, 6.62757, 20.3263, 30.7068, 19.8307, -56.1229, -17.1044
1.03156, -1, 6.75952, 20.2743, 30.6175, 20.0454, -55.8026, -17.2534
1.03953, -1, 6.89089, 20.2226, 30.5285, 20.2586, -55.4841, -17.4018
1.04772, -1, 7.02175, 20.1712, 30.4402, 20.4707, -55.1675, -17.5493
1.05568, -1, 7.15188, 20.12, 30.3526, 20.6819, -54.8525, -17.6959
1.06371, -1, 7.28098, 20.0692, 30.2657, 20.8916, -54.5393, -17.8419
1.07185, -1, 7.40888, 20.0185, 30.1793, 21.1001, -54.2279, -17.9867
1.07985, -1, 7.53583, 19.9682, 30.0934, 21.3072, -53.9186, -18.1309
1.08802, -1, 7.66187, 19.9182, 30.0077, 21.5132, -53.6113, -18.2739
1.09601, -1, 7.78696, 19.8685, 29.9225, 21.718, -53.3058, -18.4162
1.10399, -1, 7.91116, 19.8192, 29.8377, 21.9214, -53.0019, -18.5577
1.11257, -1, 8.03459, 19.7703, 29.7536, 22.1239, -52.7, -18.6984
1.12003, -1, 8.15713, 19.7217, 29.6702, 22.3253, -52.3998, -18.8384
1.12805, -1, 8.21804, 19.6975, 29.6286, 22.5257, -52.1012, -18.9778
1.13623, -1, 8.33913, 19.6493, 29.5047, 22.7246, -51.8043, -19.1159
1.14346, -1, 8.45945, 19.6013, 29.4637, 22.8236, -51.6565, -19.1848
1.15146, -1, 8.57901, 19.5537, 29.3818, 23.0209, -51.3622, -19.3219
1.15952, -1, 8.6979, 19.5061, 29.3002, 23.217, -51.0694, -19.4581
1.16746, -1, 8.81633, 19.4589, 29.2191, 23.4121, -50.7782, -19.5935
1.17545, -1, 8.93431, 19.4119, 29.1385, 23.606, -50.4884, -19.7284
1.18346, -1, 9.05183, 19.365, 29.0584, 23.7986, -50.2005, -19.8624
1.19146, -1, 9.16899, 19.3184, 28.9788, 23.9905, -49.9142, -19.9959
1.19957, -1, 9.28578, 19.2721, 28.8996, 24.1814, -49.6294, -20.1287
1.20746, -1, 9.40217, 19.2261, 28.8209, 24.3711, -49.3462, -20.2605
1.21548, -1, 9.51807, 19.1804, 28.7426, 24.5598, -49.0646, -20.3917
1.22496, -1, 9.69071, 19.1124, 28.6258, 24.8409, -48.6455, -20.5872
1.23307, -1, 9.80512, 19.0675, 28.5483, 25.0272, -48.3677, -20.7167
1.23946, -1, 9.86205, 19.0452, 28.5097, 25.12, -48.2293, -20.7811
1.24902, -1, 9.9755, 18.9785, 28.3947, 25.3969, -47.816, -20.9738
1.25547, -1, 10.0883, 18.9563, 28.3565, 25.4886, -47.679, -21.0378
1.26446, -1, 10.2004, 18.9121, 28.2807, 25.6715, -47.4058, -21.1651
1.27153, -1, 10.3119, 18.8682, 28.2052, 25.8539, -47.1337, -21.2918
1.28052, -1, 10.4228, 18.8243, 28.1301, 26.0352, -46.8632, -21.4177
1.28746, -1, 10.5329, 18.7806, 28.0553, 26.2153, -46.5942, -21.5428
1.29553, -1, 10.6424, 18.7371, 27.9807, 26.3946, -46.3267, -21.6673
1.30348, -1, 10.7513, 18.6937, 27.9064, 26.5731, -46.0604, -21.7913
1.31165, -1, 10.8595, 18.6506, 27.8326, 26.7508, -45.7957, -21.9147
1.31945, -1, 10.967, 18.6077, 27.7593, 26.9275, -45.5321, -22.0376
1.32746, -1, 11.0739, 18.565, 27.6863, 27.1034, -45.2699, -22.1598
1.3364, -1, 11.1804, 18.5226, 27.6136, 27.2782, -45.0092, -22.2817
1.34345, -1, 11.2865, 18.4805, 27.5413, 27.4525, -44.7492, -22.4029
1.35147, -1, 11.3921, 18.4386, 27.4694, 27.626, -44.4905, -22.5233
1.36028, -1, 11.4969, 18.3968, 27.3979, 27.7986, -44.2327, -22.6432
1.3675, -1, 11.6011, 18.3554, 27.3266, 27.9704, -43.9761, -22.7625
1.37546, -1, 11.705, 18.3142, 27.2556, 28.1413, -43.7207, -22.8812
1.38425, -1, 11.8086, 18.2731, 27.1848, 28.3114, -43.4667, -22.9995
1.39147, -1, 11.912, 18.2322, 27.1144, 28.4811, -43.2139, -23.1173
1.39946, -1, 12.0151, 18.1915, 27.0443, 28.6497, -42.9622, -23.2344
1.40904, -1, 12.1179, 18.1508, 26.9746, 28.8176, -42.7115, -23.3514
1.41545, -1, 12.2205, 18.1103, 26.9053, 28.9847, -42.462, -23.468
1.42352, -1, 12.3225, 18.0699, 26.8362, 29.1512, -42.2135, -23.5835
1.43148, -1, 12.424, 18.0296, 26.7674, 29.3172, -41.9664, -23.6988
1.43945, -1, 12.525, 17.9895, 26.6989, 29.4824, -41.7204, -23.8134
1.44751, -1, 12.6257, 17.9497, 26.6306, 29.6467, -41.4752, -23.9274
1.45558, -1, 12.7259, 17.91, 26.5627, 29.8103, -41.2309, -24.0412
1.46349, -1, 12.8257, 17.8704, 26.4949, 29.9732, -40.9878, -24.1542
1.47163, -1, 12.925, 17.8312, 26.4276, 30.1356, -40.7455, -24.267
1.47975, -1, 13.0238, 17.792, 26.3605, 30.2972, -40.5044, -24.3793
1.48755, -1, 13.122, 17.7531, 26.2938, 30.4581, -40.2641, -24.4914
1.49562, -1, 13.2197, 17.7145, 26.2274, 30.6181, -40.025, -24.603
1.50395, -1, 13.3169, 17.6759, 26.1612, 30.7776, -39.7868, -24.7138
1.51245, -1, 13.4137, 17.6375, 26.0954, 30.9366, -39.5496, -24.8244
1.51965, -1, 13.5103, 17.5993, 26.0296, 31.0951, -39.3134, -24.9343
1.52832, -1, 13.6066, 17.5612, 25.9642, 31.2526, -39.0781, -25.0439
1.53553, -1, 13.7025, 17.5232, 25.8989, 31.4096, -38.844, -25.1532
1.54363, -1, 13.798, 17.4854, 25.8339, 31.5658, -38.6106, -25.2618
1.55251, -1, 13.8931, 17.4476, 25.7692, 31.7215, -38.3782, -25.3705
1.55968, -1, 13.9879, 17.41, 25.7048, 31.8768, -38.147, -25.4784
1.56807, -1, 14.0825, 17.3726, 25.6407, 32.0314, -37.9167, -25.5862
1.57667, -1, 14.1767, 17.3352, 25.5768, 32.1853, -37.6872, -25.6934
1.58385, -1, 14.2705, 17.2979, 25.5131, 32.3386, -37.4583, -25.8
1.59252, -1, 14.3637, 17.2608, 25.4498, 32.4913, -37.2302, -25.9064
1.60087, -1, 14.4564, 17.2239, 25.3866, 32.6437, -37.003, -26.012
1.60798, -1, 14.5487, 17.1872, 25.3236, 32.7956, -36.7765, -26.1174
1.61656, -1, 14.6405, 17.1506, 25.2609, 32.9469, -36.5508, -26.2221
1.62484, -1, 14.6862, 17.1142, 25.1984, 33.0974, -36.3262, -26.3268
1.63206, -1, 14.7775, 17.0961, 25.1672, 33.2474, -36.1021, -26.4308
1.6402, -1, 14.8686, 17.0598, 25.105, 33.3222, -35.8791, -26.5347
1.64743, -1, 14.9594, 17.0237, 25.043, 33.4713, -35.7679, -26.5865
1.65545, -1, 15.05, 16.9878, 24.9814, 33.6201, -35.546, -26.69
1.66349, -1, 15.1402, 16.952, 24.92, 33.7682, -35.3252, -26.793
1.67145, -1, 15.2302, 16.9162, 24.8589, 33.9159, -35.1049, -26.8955
1.67944, -1, 15.32, 16.8807, 24.7979, 34.0627, -34.8856, -26.9977
1.68748, -1, 15.4097, 16.8454, 24.7371, 34.2092, -34.6672, -27.0993
1.69543, -1, 15.4994, 16.81, 24.6765, 34.3554, -34.4495, -27.2008
1.70353, -1, 15.5887, 16.7748, 24.616, 34.501, -34.2322, -27.3015
1.71154, -1, 15.6777, 16.7398, 24.5557, 34.6462, -34.0156, -27.4025
1.71943, -1, 15.7663, 16.7049, 24.4956, 34.7907, -33.7998, -27.5029
1.72751, -1, 15.8545, 16.67, 24.4358, 34.9347, -33.5847, -27.6031
1.73704, -1, 15.9864, 16.6179, 24.3465, 35.1497, -33.2631, -27.753
1.74343, -1, 16.0301, 16.6006, 24.3168, 35.2212, -33.1564, -27.8028
1.7515, -1, 16.1172, 16.566, 24.2577, 35.3639, -32.9436, -27.9021
1.76129, -1, 16.2039, 16.5315, 24.1987, 35.5771, -32.6257, -28.0502
1.76746, -1, 16.2903, 16.4972, 24.14, 35.6478, -32.5202, -28.0996
1.77717, -1, 16.3764, 16.4631, 24.0813, 35.789, -32.3095, -28.2467
1.78343, -1, 16.4621, 16.4289, 24.0229, 35.9298, -32.0994, -28.2957
1.79143, -1, 16.5475, 16.3949, 23.9646, 36.0701, -31.8902, -28.3929
1.79944, -1, 16.6327, 16.3611, 23.9065, 36.2104, -31.6814, -28.4902
1.80747, -1, 16.7177, 16.3274, 23.8486, 36.35, -31.4734, -28.5872
1.8155, -1, 16.8026, 16.2937, 23.7909, 36.4891, -31.2661, -28.684
1.82343, -1, 16.8874, 16.2602, 23.7334, 36.6276, -31.0592, -28.78
1.83143, -1, 16.9718, 16.2269, 23.676, 36.7658, -30.8531, -28.8765
1.83951, -1, 17.056, 16.1935, 23.6189, 36.9035, -30.6474, -28.9721
1.84745, -1, 17.1398, 16.1604, 23.562, 37.0409, -30.4424, -29.0679
1.85544, -1, 17.2226, 16.1275, 23.5052, 37.1778, -30.2382, -29.1629
1.8635, -1, 17.3032, 16.0956, 23.4488, 37.3141, -30.0349, -29.2577
1.87147, -1, 17.3807, 16.0651, 23.3928, 37.4488, -29.8334, -29.3512
1.87943, -1, 17.4539, 16.0364, 23.3379, 37.5806, -29.6363, -29.4432
1.88759, -1, 17.5223, 16.0103, 23.285, 37.7073, -29.4467, -29.5311
1.89545, -1, 17.5849, 15.9867, 23.2354, 37.8259, -29.2694, -29.6141
1.90351, -1, 17.6409, 15.9659, 23.1906, 37.933, -29.1088, -29.6885
1.9115, -1, 17.6907, 15.9474, 23.152, 38.0248, -28.9706, -29.7531
1.91943, -1, 17.7345, 15.9299, 23.1208, 38.0995, -28.858, -29.8058
1.92744, -1, 17.7727, 15.9138, 23.097, 38.1567, -28.7717, -29.8461
1.93551, -1, 17.805, 15.8999, 23.0802, 38.1963, -28.7104, -29.8746
1.94344, -1, 17.8313, 15.8885, 23.0691, 38.2229, -28.6703, -29.8931
1.95153, -1, 17.8526, 15.8793, 23.0626, 38.2387, -28.646, -29.9043
1.95952, -1, 17.8684, 15.8726, 23.059, 38.2475, -28.6324, -29.9103
1.96749, -1, 17.8782, 15.8686, 23.0571, 38.252, -28.6257, -29.9132
1.9755, 2, 17.8829, 15.8665, 23.0561, 38.254, -28.6225, -29.9146
1.98359, 2, 17.8851, 15.8655, 23.0556, 38.255, -28.621, -29.9153
1.99153, 2, 17.8857, 15.865, 23.0554, 38.2555, -28.6202, -29.9156
1.99954, 2, 17.8851, 15.8648, 23.0552, 38.2558, -28.6199, -29.9157
2.00762, 2, 17.8843, 15.8647, 23.0552, 38.2559, -28.6198, -29.9158
2.01543, 2, 17.8836, 15.8647, 23.0552, 38.2559, -28.6198, -29.9158
2.02344, 2, 17.8832, 15.8646, 23.0551, 38.2559, -28.6197, -29.9158
2.03153, 2, 17.883, 15.8645, 23.055, 38.2559, -28.6197, -29.9158
2.03958, 2, 17.883, 15.8644, 23.055, 38.256, -28.6197, -29.9158
2.04751, 2, 17.8831, 15.8641, 23.0549, 38.256, -28.6198, -29.9158
2.05566, 2, 17.8833, 15.8638, 23.0549, 38.256, -28.6198, -29.9158
2.06373, 2, 17.8836, 15.8635, 23.0548, 38.256, -28.6198, -29.9158
2.0717, 2, 17.884, 15.8633, 23.0548, 38.256, -28.6198, -29.9158
2.07984, 2, 17.8847, 15.8632, 23.0547, 38.256, -28.6198, -29.9158
2.08794, 2, 17.8855, 15.8632, 23.0547, 38.256, -28.6198, -29.9158
2.09661, 2, 17.8861, 15.8631, 23.0547, 38.256, -28.6198, -29.9158
2.10403, 2, 17.8866, 15.8631, 23.0547, 38.256, -28.6198, -29.9158
2.11204, 2, 17.887, 15.8631, 23.0547, 38.256, -28.6199, -29.9157
2.11997, 2, 17.8872, 15.8631, 23.0547, 38.256, -28.6199, -29.9157
2.12805, 2, 17.8873, 15.8631, 23.0547, 38.256, -28.6199, -29.9157
2.13607, 2, 17.8873, 15.8631, 23.0547, 38.256, -28.6199, -29.9157
2.14396, 2, 17.8874, 15.8631, 23.0547, 38.256, -28.6199, -29.9158
2.15147, 2, 17.8874, 15.8631, 23.0547, 38.256, -28.6199, -29.9157
2.15942, 2, 17.8874, 15.8631, 23.0547, 38.256, -28.6199, -29.9158
2.16743, 2, 17.8873, 15.863, 23.0547, 38.256, -28.62, -29.9158
2.17546, 2, 17.8871, 15.863, 23.0547, 38.256, -28.62, -29.9158
2.18342, 2, 17.8869, 15.8629, 23.0547, 38.256, -28.62, -29.9158
2.19142, 2, 17.8868, 15.8629, 23.0547, 38.256, -28.6201, -29.9158
2.19947, 2, 17.8867, 15.8628, 23.0547, 38.256, -28.6201, -29.9158
2.20748, 2, 17.8867, 15.8628, 23.0547, 38.2559, -28.6202, -29.9158
2.21542, 2, 17.8867, 15.8628, 23.0547, 38.256, -28.6201, -29.9157
2.22496, 2, 17.8867, 15.8629, 23.0547, 38.2559, -28.6201, -29.9157
2.23308, 2, 17.8867, 15.8629, 23.0547, 38.2559, -28.6202, -29.9157
2.23942, 2, 17.8867, 15.8629, 23.0547, 38.2559, -28.6202, -29.9158
2.24749, 2, 17.8867, 15.8629, 23.0547, 38.256, -28.6202, -29.9157
2.25715, 2, 17.8867, 15.8629, 23.0547, 38.256, -28.6202, -29.9157
2.26342, 2, 17.8867, 15.8629, 23.0547, 38.256, -28.6202, -29.9157
2.2715, 2, 17.8867, 15.8629, 23.0547, 38.2559, -28.6202, -29.9157
2.28047, 2, 17.8867, 15.8629, 23.0547, 38.256, -28.6202, -29.9157
2.28749, 2, 17.8866, 15.8628, 23.0547, 38.2559, -28.6203, -29.9157
2.29548, 2, 17.8866, 15.8628, 23.0547, 38.2559, -28.6203, -29.9157
2.30342, 2, 17.8866, 15.8628, 23.0547, 38.2559, -28.6203, -29.9157
2.31144, 2, 17.8866, 15.8628, 23.0547, 38.2559, -28.6203, -29.9157
2.31948, 2, 17.8866, 15.8628, 23.0547, 38.2559, -28.6204, -29.9157
2.32743, 2, 17.8865, 15.8629, 23.0547, 38.2559, -28.6204, -29.9157
2.33542, 2, 17.8865, 15.8629, 23.0547, 38.2559, -28.6204, -29.9157
2.34348, 2, 17.8865, 15.8629, 23.0547, 38.2559, -28.6204, -29.9157
2.35143, 2, 17.8865, 15.8629, 23.0547, 38.2559, -28.6205, -29.9156
2.35941, 2, 17.8865, 15.8629, 23.0547, 38.2559, -28.6205, -29.9156
2.36749, 2, 17.8865, 15.8629, 23.0547, 38.2559, -28.6205, -29.9156
2.37545, 2, 17.8865, 15.8629, 23.0547, 38.2559, -28.6205, -29.9156
2.38341, 2, 17.8865, 15.8629, 23.0547, 38.2559, -28.6205, -29.9156
2.39148, 2, 17.8865, 15.8629, 23.0547, 38.2559, -28.6205, -29.9156
2.39944, 2, 17.8864, 15.8629, 23.0547, 38.2558, -28.6206, -29.9156
2.40743, 2, 17.8864, 15.8629, 23.0547, 38.2559, -28.6206, -29.9156
2.41548, 2, 17.8864, 15.8629, 23.0547, 38.2559, -28.6206, -29.9156
2.42348, 2, 17.8864, 15.8629, 23.0547, 38.2559, -28.6206, -29.9156
2.43142, 2, 17.8864, 15.8629, 23.0547, 38.2559, -28.6206, -29.9156
2.4395, 2, 17.8864, 15.8629, 23.0547, 38.2558, -28.6206, -29.9156
2.44743, 2, 17.8863, 15.8629, 23.0547, 38.2558, -28.6206, -29.9155
2.45542, 2, 17.8863, 15.8629, 23.0547, 38.2558, -28.6207, -29.9156
2.46352, 2, 17.8863, 15.8629, 23.0547, 38.2558, -28.6207, -29.9156
2.47149, 2, 17.8863, 15.8629, 23.0547, 38.2557, -28.6208, -29.9156
2.47952, 2, 17.8862, 15.8629, 23.0547, 38.2558, -28.6208, -29.9155
2.48758, 2, 17.8862, 15.8629, 23.0547, 38.2558, -28.6208, -29.9156
2.49553, 2, 17.8862, 15.8629, 23.0547, 38.2559, -28.6208, -29.9155
2.50352, 2, 17.8861, 15.8629, 23.0547, 38.2558, -28.6208, -29.9155
2.51159, 2, 17.8861, 15.8629, 23.0547, 38.2558, -28.6208, -29.9155
2.51942, 2, 17.8861, 15.8629, 23.0547, 38.2558, -28.6208, -29.9155
2.52745, 2, 17.886, 15.8629, 23.0547, 38.2557, -28.6208, -29.9155
2.53573, 2, 17.886, 15.8629, 23.0546, 38.2557, -28.6208, -29.9155
2.54353, 2, 17.8859, 15.8629, 23.0547, 38.2557, -28.6209, -29.9155
2.5515, 2, 17.8859, 15.8629, 23.0547, 38.2557, -28.6209, -29.9155
2.55969, 2, 17.8858, 15.8629, 23.0547, 38.2557, -28.6209, -29.9155
2.56799, 2, 17.8858, 15.8629, 23.0547, 38.2557, -28.6209, -29.9155
2.57641, 2, 17.8857, 15.8629, 23.0547, 38.2557, -28.6209, -29.9155
2.58416, 2, 17.8857, 15.8629, 23.0547, 38.2557, -28.6209, -29.9154
2.59224, 2, 17.8857, 15.8629, 23.0547, 38.2556, -28.6209, -29.9154
2.5999, 2, 17.8856, 15.8629, 23.0547, 38.2556, -28.6209, -29.9153
2.60812, 2, 17.8856, 15.8629, 23.0547, 38.2556, -28.621, -29.9154
2.61638, 2, 17.8855, 15.8629, 23.0547, 38.2556, -28.6211, -29.9154
2.62396, 2, 17.8855, 15.8629, 23.0547, 38.2556, -28.6211, -29.9154
2.63253, 2, 17.8854, 15.8629, 23.0547, 38.2555, -28.6211, -29.9153
2.6403, 2, 17.8854, 15.8629, 23.0547, 38.2555, -28.6211, -29.9153
2.64743, 2, 17.8853, 15.8629, 23.0547, 38.2555, -28.6211, -29.9153
2.65545, 2, 17.8853, 15.8629, 23.0547, 38.2555, -28.6211, -29.9152
2.66429, 2, 17.8852, 15.8629, 23.0547, 38.2555, -28.6211, -29.9152
2.6714, 2, 17.8852, 15.8629, 23.0547, 38.2555, -28.6211, -29.9152
2.67945, 2, 17.8851, 15.8629, 23.0547, 38.2555, -28.6211, -29.9151
2.68741, 2, 17.8851, 15.8629, 23.0547, 38.2555, -28.6212, -29.9151
2.6954, 2, 17.885, 15.8629, 23.0547, 38.2555, -28.6211, -29.9151
2.70475, 2, 17.8849, 15.8629, 23.0547, 38.2555, -28.6211, -29.9151
2.71144, 2, 17.8849, 15.8629, 23.0547, 38.2555, -28.6211, -29.9151
2.7194, 2, 17.8849, 15.8629, 23.0547, 38.2554, -28.6211, -29.9151
2.7291, 2, 17.8848, 15.8629, 23.0547, 38.2554, -28.6212, -29.915
2.73541, 2, 17.8848, 15.8629, 23.0547, 38.2554, -28.6212, -29.915
2.7434, 2, 17.8847, 15.8629, 23.0547, 38.2554, -28.6213, -29.9149
2.75147, 2, 17.8846, 15.8629, 23.0547, 38.2553, -28.6212, -29.9149
2.7594, 2, 17.8846, 15.8629, 23.0547, 38.2553, -28.6213, -29.9149
2.76741, 2, 17.8846, 15.8629, 23.0547, 38.2553, -28.6213, -29.9149
2.77547, 2, 17.8845, 15.8629, 23.0547, 38.2553, -28.6213, -29.9149
2.78527, 2, 17.8844, 15.8629, 23.0547, 38.2553, -28.6213, -29.9149
2.7914, 2, 17.8844, 15.8629, 23.0547, 38.2552, -28.6213, -29.9149
2.79946, 2, 17.8843, 15.8629, 23.0547, 38.2552, -28.6213, -29.9149
2.80741, 2, 17.8843, 15.8629, 23.0547, 38.2552, -28.6213, -29.9149
2.81542, 2, 17.8843, 15.8629, 23.0547, 38.2552, -28.6214, -29.9149
2.82346, 2, 17.8842, 15.8629, 23.0547, 38.2552, -28.6214, -29.9148
2.8314, 2, 17.8842, 15.8629, 23.0547, 38.2552, -28.6214, -29.9148
2.8394, 2, 17.8842, 15.8629, 23.0547, 38.2552, -28.6213, -29.9148
2.84748, 2, 17.8841, 15.8629, 23.0547, 38.2552, -28.6213, -29.9148
2.8554, 2, 17.8841, 15.8629, 23.0547, 38.2551, -28.6213, -29.9148
2.8634, 2, 17.8841, 15.8629, 23.0547, 38.2551, -28.6214, -29.9148
2.87146, 2, 17.884, 15.863, 23.0547, 38.2551, -28.6214, -29.9148
2.87944, 2, 17.884, 15.863, 23.0547, 38.2551, -28.6213, -29.9147
2.88741, 2, 17.884, 15.863, 23.0547, 38.255, -28.6213, -29.9147
2.89547, 2, 17.884, 15.863, 23.0547, 38.255, -28.6214, -29.9148
2.90341, 2, 17.884, 15.863, 23.0547, 38.255, -28.6214, -29.9148
2.9114, 2, 17.884, 15.8629, 23.0547, 38.255, -28.6214, -29.9147
2.91946, 2, 17.8839, 15.8629, 23.0547, 38.255, -28.6214, -29.9147
2.92741, 2, 17.8839, 15.8629, 23.0547, 38.255, -28.6214, -29.9147
2.9354, 2, 17.8839, 15.863, 23.0547, 38.2549, -28.6214, -29.9147
2.94348, 2, 17.8839, 15.863, 23.0547, 38.2549, -28.6214, -29.9147
2.9514, 2, 17.8839, 15.863, 23.0547, 38.2549, -28.6214, -29.9148
2.9594, 2, 17.8839, 15.863, 23.0547, 38.2549, -28.6215, -29.9147
2.96751, 2, 17.8839, 15.8629, 23.0547, 38.2549, -28.6215, -29.9147
2.97565, 2, 17.8838, 15.863, 23.0547, 38.2548, -28.6215, -29.9147
2.98444, 2, 17.8838, 15.863, 23.0547, 38.2548, -28.6215, -29.9147
2.99152, 2, 17.8838, 15.863, 23.0547, 38.2548, -28.6215, -29.9147
2.99963, 2, 17.8838, 15.863, 23.0547, 38.2548, -28.6215, -29.9147
3.00789, 2, 17.8838, 15.863, 23.0547, 38.2548, -28.6215, -29.9147
3.01546, 2, 17.8838, 15.863, 23.0547, 38.2548, -28.6215, -29.9147
3.02343, 2, 17.8838, 15.863, 23.0547, 38.2547, -28.6215, -29.9147
3.03149, 2, 17.8838, 15.863, 23.0547, 38.2547, -28.6215, -29.9147
3.03943, 2, 17.8838, 15.863, 23.0547, 38.2547, -28.6215, -29.9146
3.04748, 2, 17.8838, 15.863, 23.0547, 38.2547, -28.6215, -29.9146
3.05591, 2, 17.8838, 15.863, 23.0547, 38.2547, -28.6215, -29.9146
3.06367, 4, 17.8837, 15.863, 23.0547, 38.2546, -28.6215, -29.9146
3.07166, 4, 17.8837, 15.863, 23.0547, 38.2546, -28.6215, -29.9146
3.0801, 4, 17.8837, 15.863, 23.0547, 38.2546, -28.6215, -29.9146
3.0885, 4, 17.8837, 15.863, 23.0547, 38.2546, -28.6215, -29.9146
3.09581, 4, 17.8837, 15.863, 23.0547, 38.2546, -28.6215, -29.9147
3.10432, 4, 17.8837, 15.863, 23.0547, 38.2546, -28.6215, -29.9146
3.11193, 4, 17.8837, 15.863, 23.0547, 38.2546, -28.6216, -29.9147
3.1205, 4, 17.8836, 15.863, 23.0547, 38.2545, -28.6216, -29.9147
3.12845, 4, 17.8836, 15.863, 23.0547, 38.2545, -28.6216, -29.9146
3.13596, 4, 17.8836, 15.863, 23.0547, 38.2545, -28.6216, -29.9146
3.14401, 4, 17.8836, 15.863, 23.0547, 38.2545, -28.6216, -29.9146
3.15244, 4, 17.8835, 15.863, 23.0547, 38.2546, -28.6215, -29.9147
3.16024, 4, 17.8835, 15.863, 23.0547, 38.2545, -28.6215, -29.9146
3.16755, 4, 17.8835, 15.863, 23.0547, 38.2545, -28.6215, -29.9146
3.19294, 4, 17.8835, 15.8631, 23.0547, 38.2544, -28.6215, -29.9146
3.19429, 4, 17.8835, 15.8631, 23.0547, 38.2544, -28.6215, -29.9146
3.19556, 4, 17.8835, 15.8631, 23.0547, 38.2544, -28.6215, -29.9146
3.20081, 4, 17.8835, 15.863, 23.0547, 38.2544, -28.6216, -29.9146
3.2094, 4, 17.8834, 15.863, 23.0547, 38.2543, -28.6216, -29.9146
3.21543, 4, 17.8833, 15.8631, 23.0547, 38.2543, -28.6216, -29.9146
3.22345, 4, 17.8821, 15.8638, 23.0547, 38.2543, -28.6216, -29.9146
3.23298, 4, 17.8757, 15.8686, 23.0536, 38.252, -28.6218, -29.9134
3.24091, 4, 17.867, 15.8773, 23.0511, 38.2448, -28.623, -29.9083
3.24745, 4, 17.861, 15.8842, 23.0488, 38.238, -28.6242, -29.9024
3.25535, 5, 17.8449, 15.9046, 23.0411, 38.2142, -28.6292, -29.8794
3.26498, 5, 17.8212, 15.935, 23.0277, 38.1377, -28.6463, -29.8026
3.27368, 5, 17.7898, 15.9756, 23.007, 38.0962, -28.6556, -29.7605
3.27941, 5, 17.7509, 16.0261, 22.9775, 37.9835, -28.681, -29.6457
3.28838, 5, 17.7047, 16.0871, 22.938, 37.8251, -28.7172, -29.484
3.29545, 5, 17.6505, 16.1596, 22.8881, 37.6188, -28.7663, -29.2726
3.3034, 5, 17.5886, 16.2432, 22.8277, 37.3657, -28.8266, -29.013
3.31139, 5, 17.5195, 16.3367, 22.7582, 37.0711, -28.8987, -28.7102
3.31942, 5, 17.4432, 16.4397, 22.6809, 36.7433, -28.9806, -28.3726
3.32739, 5, 17.3595, 16.5528, 22.5973, 36.3911, -29.0703, -28.0105
3.33545, 5, 17.2686, 16.6757, 22.5091, 36.0235, -29.1659, -27.6327
3.34342, 5, 17.1716, 16.8054, 22.4184, 35.6472, -29.266, -27.2463
3.35139, 5, 17.0705, 16.9397, 22.3264, 35.2668, -29.3694, -26.8564
3.35946, 5, 16.9664, 17.0764, 22.2339, 34.8853, -29.4755, -26.4655
3.36739, 5, 16.8603, 17.2142, 22.1414, 34.5042, -29.584, -26.076
3.37539, 5, 16.7531, 17.3525, 22.0491, 34.1242, -29.694, -25.6891
3.38351, 5, 16.6454, 17.491, 21.9572, 33.7459, -29.8063, -25.3047
3.39139, 5, 16.5376, 17.6292, 21.8656, 33.3699, -29.9202, -24.9232
3.54017, 5, 14.5071, 20.1053, 20.2881, 26.831, -32.3291, -18.4358
3.54143, 5, 14.5071, 20.1053, 20.2881, 26.831, -32.3291, -18.4358
3.54327, 5, 14.5071, 20.1053, 20.2486, 26.6658, -32.4015, -18.2762
3.5447, 5, 14.4511, 20.1701, 20.2486, 26.6658, -32.4015, -18.2762
3.54588, 5, 14.4511, 20.1701, 20.2486, 26.6658, -32.4015, -18.2762
3.5479, 5, 14.395, 20.2347, 20.2092, 26.5012, -32.4743, -18.1174
3.54913, 5, 14.395, 20.2347, 20.2092, 26.5012, -32.4743, -18.1174
3.55193, 5, 14.3389, 20.2991, 20.17, 26.3372, -32.5473, -17.9596
3.55328, 5, 14.3389, 20.2991, 20.17, 26.3372, -32.5473, -17.9596
3.5545, 5, 14.3389, 20.2991, 20.17, 26.3372, -32.5473, -17.9596
3.55795, 5, 14.2829, 20.3636, 20.1309, 26.1739, -32.6207, -17.8024
3.55997, 5, 14.2268, 20.428, 20.0919, 26.0112, -32.6945, -17.646
3.56119, 5, 14.2268, 20.428, 20.0919, 26.0112, -32.6945, -17.646
3.56242, 5, 14.2268, 20.428, 20.0919, 26.0112, -32.6945, -17.646
3.56446, 5, 14.1708, 20.4923, 20.0531, 25.849, -32.7686, -17.4905
3.56624, 5, 14.1708, 20.4923, 20.0531, 25.849, -32.7686, -17.4905
3.5683, 5, 14.1148, 20.5565, 20.0145, 25.6874, -32.8431, -17.3359
3.56952, 5, 14.1148, 20.5565, 20.0145, 25.6874, -32.8431, -17.3359
3.5707, 5, 14.1148, 20.5565, 20.0145, 25.6874, -32.8431, -17.3359
3.57277, 5, 14.0586, 20.6206, 19.976, 25.5266, -32.9178, -17.1821
3.57397, 5, 14.0586, 20.6206, 19.976, 25.5266, -32.9178, -17.1821
3.57609, 5, 14.0024, 20.6846, 19.9377, 25.3663, -32.993, -17.0293
3.57833, 5, 14.0024, 20.6846, 19.9377, 25.3663, -32.993, -17.0293
3.58396, 5, 13.8899, 20.8123, 19.8615, 25.0475, -33.1442, -16.7262
3.5925, 5, 13.7774, 20.9395, 19.786, 24.7312, -33.2966, -16.4262
3.60001, 5, 13.665, 21.0664, 19.7113, 24.4175, -33.4501, -16.1299
3.60847, 5, 13.5525, 21.1933, 19.6373, 24.1059, -33.605, -15.837
3.61592, 5, 13.4399, 21.3197, 19.5641, 23.7967, -33.7612, -15.5472
3.62398, 5, 13.3273, 21.4456, 19.4914, 23.4899, -33.9187, -15.2606
3.63196, 5, 13.2146, 21.5709, 19.4195, 23.1854, -34.0771, -14.9774
3.63995, 5, 13.1581, 21.6333, 19.3837, 22.8834, -34.2369, -14.6975
3.64841, 5, 12.988, 21.8196, 19.2772, 22.5838, -34.3979, -14.4206
3.65542, 5, 12.9312, 21.8814, 19.242, 22.4348, -34.4789, -14.2833
3.66337, 5, 12.8173, 22.0047, 19.172, 22.1387, -34.6417, -14.0115
3.67141, 5, 12.703, 22.1273, 19.1028, 21.845, -34.8058, -13.7427
3.6794, 5, 12.5883, 22.2492, 19.0344, 21.5535, -34.9708, -13.4774
3.68737, 5, 12.4733, 22.3705, 18.9667, 21.2643, -35.137, -13.2148
3.69676, 5, 12.3005, 22.5517, 18.8663, 20.8349, -35.3884, -12.8273
3.70335, 5, 12.2428, 22.612, 18.8332, 20.6928, -35.4726, -12.6999
3.71142, 5, 12.1274, 22.7324, 18.7676, 20.4103, -35.642, -12.4476
3.72091, 5, 11.954, 22.9122, 18.6703, 19.9907, -35.8978, -12.0745
3.72969, 5, 11.8384, 23.0314, 18.6064, 19.7137, -36.0697, -11.8298
3.73543, 5, 11.7807, 23.0909, 18.5747, 19.5761, -36.1559, -11.7087
3.7453, 5, 11.607, 23.2683, 18.4806, 19.1667, -36.4158, -11.3503
3.75137, 5, 11.5491, 23.3273, 18.4496, 19.0312, -36.5031, -11.2323
3.75943, 5, 11.4331, 23.4449, 18.388, 18.7616, -36.6779, -10.9983
3.76909, 5, 11.317, 23.5618, 18.297, 18.3618, -36.9421, -10.6531
3.7754, 5, 11.2008, 23.6781, 18.267, 18.2295, -37.0307, -10.5396
3.78549, 5, 11.0262, 23.8513, 18.178, 17.8356, -37.2975, -10.2038
3.79137, 5, 10.9679, 23.9086, 18.1487, 17.7055, -37.3869, -10.0934
3.7994, 5, 10.8512, 24.023, 18.0906, 17.4467, -37.5664, -9.87444
3.80742, 5, 10.7342, 24.1372, 18.033, 17.1896, -37.7469, -9.65865
3.81538, 5, 10.617, 24.2508, 17.976, 16.9346, -37.9282, -9.44568
3.82342, 5, 10.5, 24.364, 17.9198, 16.6817, -38.1104, -9.2359
3.83138, 5, 10.3831, 24.4766, 17.8643, 16.4306, -38.2934, -9.02895
3.83937, 5, 10.2661, 24.5887, 17.8094, 16.1815, -38.4771, -8.82476
3.84747, 5, 10.1491, 24.7002, 17.7553, 15.9344, -38.6617, -8.62352
3.85537, 5, 10.0319, 24.8113, 17.7018, 15.6893, -38.8468, -8.42503
3.86337, 5, 9.91466, 24.9221, 17.6492, 15.4459, -39.0327, -8.22958
3.87146, 5, 9.79718, 25.0323, 17.5972, 15.2044, -39.2192, -8.0371
3.87937, 5, 9.67941, 25.1419, 17.5461, 14.9649, -39.4063, -7.84733
3.88741, 5, 9.56147, 25.251, 17.4955, 14.7268, -39.5941, -7.66008
3.89545, 5, 9.44334, 25.3593, 17.4458, 14.4905, -39.7826, -7.47573
3.90337, 5, 9.32482, 25.467, 17.3965, 14.2562, -39.9718, -7.29419
3.9114, 5, 9.20581, 25.5744, 17.3481, 14.0236, -40.1615, -7.1154
3.91973, 5, 9.08661, 25.6812, 17.3004, 13.7926, -40.3518, -6.93953
3.92737, 5, 8.96723, 25.7873, 17.2534, 13.5629, -40.5426, -6.76603
3.93537, 5, 8.84759, 25.8928, 17.2072, 13.3351, -40.734, -6.59503
3.94416, 5, 8.72779, 25.9977, 17.1616, 13.1088, -40.926, -6.42664
3.95137, 5, 8.608, 26.1018, 17.1168, 12.884, -41.1185, -6.2606
3.95943, 5, 8.48822, 26.2053, 17.0727, 12.6608, -41.3115, -6.09745
3.96827, 5, 8.36831, 26.3084, 17.0293, 12.4394, -41.5049, -5.93666
3.9754, 5, 8.24811, 26.4109, 16.9868, 12.2195, -41.699, -5.77864
3.98352, 5, 8.12779, 26.5127, 16.945, 12.001, -41.8936, -5.62297
3.99235, 5, 8.00759, 26.614, 16.9039, 11.7839, -42.0887, -5.46943
3.99947, 5, 7.88728, 26.7147, 16.8635, 11.5685, -42.2843, -5.31858
4.0076, 5, 7.7669, 26.8147, 16.8238, 11.3545, -42.4804, -5.1698
4.01791, 5, 7.64655, 26.9141, 16.7851, 11.1417, -42.6769, -5.02374
4.02354, 5, 7.52646, 27.0131, 16.7469, 10.9304, -42.8736, -4.88011
4.03137, 5, 7.40641, 27.1116, 16.7095, 10.7206, -43.0708, -4.73882
4.03946, 5, 7.28639, 27.2094, 16.6729, 10.5123, -43.2685, -4.59989
4.04754, 5, 7.16646, 27.3066, 16.637, 10.3051, -43.4666, -4.46332
4.05553, 5, 7.04643, 27.4032, 16.6019, 10.0991, -43.6649, -4.32893
4.06349, 5, 6.92616, 27.4991, 16.5675, 9.89459, -43.8635, -4.19692
4.07164, 5, 6.80556, 27.5941, 16.5338, 9.69136, -44.0624, -4.06713
4.0797, 5, 6.68468, 27.6886, 16.5008, 9.48938, -44.2616, -3.9399
4.08775, 5, 6.56345, 27.7824, 16.4687, 9.28855, -44.4612, -3.81491
4.09581, 5, 6.44175, 27.8756, 16.4373, 9.0892, -44.6609, -3.69234
4.10388, 5, 6.31971, 27.9681, 16.4065, 8.89109, -44.8611, -3.57221
4.11246, 5, 6.19747, 28.06, 16.3765, 8.69424, -45.0618, -3.45393
4.11995, 5, 6.075, 28.1514, 16.3475, 8.49847, -45.2629, -3.33804
4.12853, 5, 5.95229, 28.242, 16.3192, 8.30391, -45.4643, -3.22413
4.13593, 5, 5.82954, 28.332, 16.2915, 8.11058, -45.666, -3.11228
4.14441, 5, 5.7069, 28.4214, 16.2647, 7.9184, -45.8679, -3.00288
4.15194, 5, 5.64556, 28.4659, 16.2516, 7.82267, -45.9689, -2.94879
4.15935, 5, 5.52279, 28.5544, 16.2261, 7.63189, -46.1711, -2.84252
4.16748, 5, 5.3999, 28.6423, 16.2013, 7.44214, -46.3734, -2.73817
4.17536, 5, 5.27686, 28.7295, 16.1771, 7.2537, -46.5759, -2.63628
4.18337, 5, 5.15367, 28.816, 16.154, 7.06621, -46.7785, -2.53599
4.19255, 5, 4.96867, 28.9444, 16.1206, 6.78654, -47.0826, -2.39017
4.19936, 5, 4.90701, 28.9869, 16.11, 6.69382, -47.1839, -2.3423
4.20743, 5, 4.78375, 29.0711, 16.0891, 6.50897, -47.3868, -2.24835
4.2154, 5, 4.66047, 29.1547, 16.069, 6.3252, -47.5899, -2.15596
4.22488, 5, 4.47554, 29.2788, 16.0405, 6.05117, -47.8948, -2.02132
4.23292, 5, 4.35252, 29.3607, 16.0223, 5.86935, -48.0983, -1.93383
4.23941, 5, 4.29107, 29.4014, 16.0136, 5.77882, -48.2, -1.8911
4.24895, 5, 4.10671, 29.5223, 15.9889, 5.50886, -48.5054, -1.76466
4.2569, 5, 3.98368, 29.6022, 15.9733, 5.33008, -48.7093, -1.68339
4.26342, 5, 3.92221, 29.6419, 15.9658, 5.241, -48.8113, -1.64318
4.27302, 5, 3.79918, 29.7207, 15.9448, 4.97463, -49.1174, -1.52606
4.27935, 5, 3.67595, 29.7988, 15.9382, 4.88625, -49.2194, -1.48777
4.28748, 5, 3.55233, 29.8761, 15.9255, 4.71035, -49.4234, -1.41234
4.29647, 5, 3.42832, 29.9528, 15.9137, 4.53511, -49.6274, -1.33976
4.30335, 5, 3.30395, 30.0288, 15.9028, 4.36071, -49.8313, -1.2683
4.31142, 5, 3.179, 30.104, 15.8929, 4.18678, -50.0352, -1.19874
4.31936, 5, 3.05381, 30.1785, 15.8838, 4.01373, -50.2391, -1.13109
4.32744, 5, 2.92852, 30.2521, 15.8755, 3.84156, -50.443, -1.06445
4.3354, 5, 2.80319, 30.3251, 15.868, 3.67003, -50.6467, -1.00039
4.34336, 5, 2.67767, 30.3972, 15.8612, 3.49922, -50.8504, -0.93782
4.35143, 5, 2.55208, 30.4685, 15.8552, 3.32881, -51.0541, -0.876419
4.35935, 5, 2.42647, 30.539, 15.8501, 3.15914, -51.2577, -0.817546
4.36744, 5, 2.3008, 30.6088, 15.8461, 2.99022, -51.4613, -0.760352
4.37542, 5, 2.17488, 30.6777, 15.8428, 2.82187, -51.6649, -0.704053
4.38335, 5, 2.04893, 30.7458, 15.8405, 2.65424, -51.8685, -0.650105
4.39142, 5, 1.92321, 30.8132, 15.839, 2.48689, -52.072, -0.598094
4.39942, 5, 1.79748, 30.8799, 15.8382, 2.32022, -52.2754, -0.547302
4.40744, 5, 1.67165, 30.9458, 15.838, 2.15431, -52.4786, -0.497856
4.41536, 5, 1.54597, 31.0109, 15.8385, 1.98919, -52.6818, -0.450955
4.42353, 5, 1.4206, 31.0754, 15.8399, 1.82452, -52.885, -0.405722
4.43135, 5, 1.2954, 31.1391, 15.8421, 1.66025, -53.088, -0.361527
4.43935, 5, 1.17044, 31.2019, 15.8452, 1.4965, -53.2909, -0.318657
4.44748, 5, 1.04671, 31.2637, 15.8493, 1.33338, -53.4935, -0.277904
4.45535, 5, 0.926364, 31.3235, 15.8547, 1.1711, -53.6957, -0.239028
4.46336, 5, 0.811414, 31.3802, 15.8616, 1.01044, -53.8963, -0.201941
4.47145, 5, 0.702597, 31.4331, 15.8699, 0.853073, -54.0932, -0.166373
4.47941, 5, 0.599873, 31.4821, 15.8791, 0.702137, -54.2822, -0.133094
4.4875, 5, 0.503902, 31.5271, 15.8886, 0.561178, -54.4594, -0.103147
4.49551, 5, 0.415477, 31.5679, 15.8975, 0.433687, -54.6202, -0.0770706
4.50345, 5, 0.335001, 31.6047, 15.9052, 0.322674, -54.7605, -0.0551002
4.51147, 5, 0.263072, 31.6371, 15.9114, 0.230144, -54.8783, -0.0372419
4.51956, 5, 0.199262, 31.6657, 15.9159, 0.15578, -54.9727, -0.0232568
4.52753, 5, 0.144227, 31.69, 15.9189, 0.0997028, -55.0443, -0.0127918
4.53537, 5, 0.0988743, 31.7099, 15.9206, 0.0592872, -55.0971, -0.00525366
4.54345, 5, 0.0634329, 31.7256, 15.9216, 0.031266, -55.1333, -0.000288273
4.55162, 5, 0.0375922, 31.737, 15.9221, 0.0128755, -55.1568, 0.00290515
4.56048, 5, 0.0184521, 31.7451, 15.9223, 0.00141346, -55.1709, 0.00479289
4.58461, 5, -0.00767731, 31.7562, 15.9225, -0.00994135, -55.1847, 0.00655545
4.58586, 5, -0.00767731, 31.7562, 15.9225, -0.00994135, -55.1847, 0.00655545
4.58776, 5, -0.0088586, 31.7567, 15.9226, -0.0103879, -55.1852, 0.0065956
4.59175, 5, -0.00944581, 31.757, 15.9226, -0.0106735, -55.1856, 0.00664467
4.60057, 5, -0.00945431, 31.7574, 15.9228, -0.0110577, -55.186, 0.00670431
4.60798, 5, -0.00917353, 31.7576, 15.9228, -0.0112567, -55.1862, 0.00677544
4.61622, 5, -0.0103644, 31.7576, 15.923, -0.0115018, -55.1865, 0.00680455
4.62391, 5, -0.0145455, 31.7577, 15.9239, -0.011947, -55.1876, 0.00707338
4.63191, 5, -0.0228291, 31.7577, 15.9266, -0.0134937, -55.1916, 0.00915903
4.63999, 6, -0.0366462, 31.7574, 15.9331, -0.0178434, -55.2017, 0.0151769
4.64852, 6, -0.0576538, 31.7563, 15.9458, -0.0270003, -55.2222, 0.0279745
4.65534, 6, -0.0711944, 31.755, 15.9557, -0.0340595, -55.2383, 0.038082
4.66338, 6, -0.104573, 31.7504, 15.9848, -0.0547248, -55.2859, 0.0674604
4.67135, 6, -0.145677, 31.7427, 16.0292, -0.0858423, -55.3582, 0.111458
4.67934, 6, -0.194062, 31.7311, 16.0914, -0.130319, -55.4613, 0.172914
4.68746, 6, -0.250082, 31.7153, 16.1726, -0.188688, -55.5961, 0.253691
4.69534, 6, -0.313643, 31.6952, 16.2722, -0.258726, -55.7627, 0.351355
4.70334, 6, -0.383867, 31.6716, 16.3881, -0.340957, -55.9575, 0.464969
4.71138, 6, -0.460564, 31.6452, 16.5172, -0.431325, -56.1756, 0.590239
4.71934, 6, -0.543884, 31.6167, 16.6566, -0.527517, -56.4109, 0.723279
4.72875, 6, -0.680525, 31.5718, 16.8781, -0.677723, -56.7846, 0.930621
4.73539, 6, -0.728662, 31.5565, 16.9541, -0.72833, -56.9125, 1.00054
4.74334, 6, -0.827914, 31.5257, 17.1076, -0.829742, -57.1718, 1.14053
4.75288, 6, -0.982, 31.4788, 17.341, -0.981644, -57.5659, 1.34892
4.75933, 6, -1.03418, 31.4633, 17.4194, -1.0319, -57.6982, 1.4176
4.76742, 6, -1.13925, 31.432, 17.5771, -1.13169, -57.9641, 1.55372
4.77686, 6, -1.24467, 31.4005, 17.7354, -1.23049, -58.2313, 1.68813
4.78494, 6, -1.34999, 31.3691, 17.8942, -1.32825, -58.4999, 1.82034
4.79236, 6, -1.45508, 31.3377, 18.0542, -1.42492, -58.7698, 1.95079
4.79941, 6, -1.55983, 31.3061, 18.2154, -1.52064, -59.041, 2.07922
4.8074, 6, -1.66396, 31.2744, 18.3768, -1.61545, -59.3137, 2.20608
4.81534, 6, -1.76734, 31.2426, 18.5384, -1.70919, -59.5873, 2.33103
4.82339, 6, -1.8701, 31.2108, 18.701, -1.80218, -59.8622, 2.45425
4.83134, 6, -1.97212, 31.1788, 18.8649, -1.89452, -60.1381, 2.57543
4.83934, 6, -2.07329, 31.1467, 19.0291, -1.98561, -60.4149, 2.69488
4.84751, 6, -2.17398, 31.1145, 19.1931, -2.0761, -60.6927, 2.81239
4.85536, 6, -2.27422, 31.0825, 19.358, -2.16533, -60.9716, 2.92779
4.86336, 6, -2.3741, 31.0504, 19.5245, -2.25352, -61.2514, 3.04168
4.87141, 6, -2.47391, 31.018, 19.6915, -2.34105, -61.5322, 3.15316
4.87934, 6, -2.57367, 30.9858, 19.8582, -2.42761, -61.814, 3.2632
4.88739, 6, -2.67339, 30.9536, 20.0254, -2.51321, -62.0969, 3.37184
4.89547, 6, -2.77309, 30.9214, 20.1938, -2.59832, -62.3808, 3.47812
4.90335, 6, -2.87279, 30.8892, 20.3629, -2.68235, -62.6658, 3.5833
4.91134, 6, -2.9725, 30.857, 20.5319, -2.76592, -62.9516, 3.68623
4.91941, 6, -3.07216, 30.8248, 20.7015, -2.84829, -63.2383, 3.7878
4.92739, 6, -3.17151, 30.7926, 20.8724, -2.93023, -63.5263, 3.88721
4.93542, 6, -3.27067, 30.7603, 21.0438, -3.01105, -63.815, 3.985
4.94334, 6, -3.36944, 30.728, 21.2149, -3.09095, -64.1045, 4.08079
4.95134, 6, -3.46794, 30.6958, 21.3865, -3.17041, -64.3951, 4.17517
4.95952, 6, -3.56602, 30.6634, 21.5593, -3.24882, -64.6863, 4.26734
4.96739, 6, -3.66359, 30.631, 21.7326, -3.32691, -64.9783, 4.35806
4.97537, 6, -3.7607, 30.5987, 21.9055, -3.40381, -65.2713, 4.44709
4.98361, 6, -3.85747, 30.5665, 22.0792, -3.48063, -65.5651, 4.5345
4.99143, 6, -3.9537, 30.5342, 22.2542, -3.55628, -65.8596, 4.61978
4.99944, 6, -4.04945, 30.502, 22.4294, -3.63202, -66.155, 4.70402
5.00784, 6, -4.14465, 30.4699, 22.6043, -3.70622, -66.4513, 4.78574
5.01544, 6, -4.23932, 30.4379, 22.7799, -3.78065, -66.7484, 4.86651
5.02346, 6, -4.3335, 30.4059, 22.9564, -3.85379, -67.0463, 4.94484
5.03198, 6, -4.42743, 30.3739, 23.1327, -3.92671, -67.3448, 5.02192
5.04039, 6, -4.52092, 30.3423, 23.3091, -3.99835, -67.644, 5.09709
5.04742, 6, -4.61378, 30.3107, 23.4865, -4.07008, -67.9438, 5.17005
5.05621, 6, -4.70593, 30.2789, 23.6649, -4.1407, -68.2443, 5.2422
5.06342, 6, -4.79765, 30.2473, 23.8432, -4.21113, -68.5453, 5.31177
5.07158, 6, -4.88898, 30.2159, 24.0213, -4.28047, -68.8472, 5.3801
5.0804, 6, -4.97998, 30.1845, 24.2004, -4.35017, -69.1497, 5.44683
5.08768, 6, -5.07069, 30.1531, 24.3799, -4.41859, -69.4529, 5.51134
5.09578, 6, -5.16113, 30.1218, 24.559, -4.48726, -69.7569, 5.57517
5.10458, 6, -5.25138, 30.0907, 24.7386, -4.55451, -70.0616, 5.63715
5.11182, 6, -5.34147, 30.0595, 24.9193, -4.62215, -70.3669, 5.69681
5.12043, 6, -5.43134, 30.0283, 25.1001, -4.68838, -70.6727, 5.7555
5.12879, 6, -5.52094, 29.9971, 25.2806, -4.75495, -70.979, 5.81267
5.13591, 6, -5.61018, 29.9663, 25.4617, -4.82014, -71.2857, 5.86759
5.14442, 6, -5.69908, 29.9354, 25.6435, -4.88539, -71.5931, 5.92126
5.15273, 6, -5.74341, 29.92, 25.7344, -4.91806, -71.747, 5.97377
5.15933, 6, -5.83184, 29.8892, 25.9159, -4.98203, -72.0553, 5.99908
5.16841, 6, -5.96363, 29.8434, 26.1897, -5.07843, -72.5187, 6.07219
5.17534, 6, -6.00731, 29.8282, 26.2813, -5.10972, -72.6735, 6.09587
5.18441, 6, -6.1377, 29.7826, 26.5553, -5.205, -73.1385, 6.16521
5.19135, 6, -6.18095, 29.7675, 26.6467, -5.23617, -73.2938, 6.18727
5.19932, 6, -6.2671, 29.7374, 26.83, -5.29849, -73.6045, 6.22982
5.20736, 6, -6.35277, 29.7073, 27.014, -5.36124, -73.9159, 6.27087
5.21533, 6, -6.43786, 29.6774, 27.1976, -5.42251, -74.2276, 6.31079
5.22332, 6, -6.52249, 29.6475, 27.3814, -5.48481, -74.5399, 6.34936
5.23137, 6, -6.60652, 29.6179, 27.5662, -5.54548, -74.8526, 6.38592
5.24095, 6, -6.73175, 29.5736, 27.843, -5.63718, -75.3224, 6.43717
5.24971, 6, -6.81484, 29.5442, 28.0275, -5.69678, -75.636, 6.4696
5.25541, 6, -6.85623, 29.5296, 28.12, -5.72682, -75.793, 6.48537
5.26489, 6, -6.97972, 29.4859, 28.3985, -5.81673, -76.2643, 6.53086
5.2714, 6, -7.0206, 29.4713, 28.491, -5.84614, -76.4216, 6.54508
5.27932, 6, -7.10207, 29.4424, 28.6761, -5.90597, -76.7367, 6.57207
5.28836, 6, -7.18321, 29.4136, 28.8621, -5.96454, -77.0523, 6.59719
5.29546, 6, -7.26384, 29.3848, 29.0484, -6.02324, -77.3681, 6.62065
5.30438, 6, -7.34392, 29.3563, 29.2343, -6.08229, -77.6843, 6.64279
5.31132, 6, -7.42359, 29.3278, 29.4205, -6.14005, -78.0007, 6.66371
5.31938, 6, -7.50272, 29.2995, 29.6074, -6.19898, -78.3174, 6.68319
5.32732, 6, -7.58134, 29.2712, 29.7938, -6.25637, -78.634, 6.70154
5.33535, 6, -7.65948, 29.2432, 29.9799, -6.31441, -78.9508, 6.71822
5.34331, 6, -7.73716, 29.2154, 30.1668, -6.3723, -79.268, 6.73325
5.35132, 6, -7.81436, 29.1876, 30.3544, -6.4292, -79.5856, 6.74658
5.35947, 6, -7.89098, 29.1599, 30.5415, -6.48708, -79.9034, 6.75813
5.36732, 6, -7.96706, 29.1324, 30.7285, -6.54346, -80.2218, 6.76798
5.37533, 6, -8.04262, 29.1052, 30.9163, -6.60025, -80.5404, 6.77635
5.38361, 6, -8.11771, 29.078, 31.1038, -6.65727, -80.859, 6.78312
5.39132, 6, -8.19237, 29.051, 31.2909, -6.71299, -81.1779, 6.78817
5.39931, 6, -8.2665, 29.0242, 31.4786, -6.77012, -81.4967, 6.79187
5.41115, 6, -8.37692, 28.9843, 31.7606, -6.85389, -81.9751, 6.79482
5.41533, 6, -8.41356, 28.971, 31.8544, -6.88219, -82.1345, 6.79527
5.42333, 6, -8.48656, 28.9446, 32.042, -6.93902, -82.4535, 6.79573
5.43138, 6, -8.55914, 28.9183, 32.2303, -6.99443, -82.7728, 6.79561
5.43932, 6, -8.63124, 28.8922, 32.4186, -7.05127, -83.0922, 6.79418
5.44732, 6, -8.7028, 28.8664, 32.6064, -7.10719, -83.4117, 6.79041
5.4554, 6, -8.77379, 28.8407, 32.7946, -7.16287, -83.7315, 6.78493
5.46332, 6, -8.84439, 28.8151, 32.9834, -7.21948, -84.0512, 6.77763
5.47138, 6, -8.91438, 28.7895, 33.1718, -7.27487, -84.3711, 6.76841
5.47935, 6, -8.98393, 28.7642, 33.3599, -7.33122, -84.691, 6.75753
5.4874, 6, -9.05298, 28.7392, 33.5485, -7.38703, -85.0109, 6.74482
5.49549, 6, -9.12152, 28.7142, 33.7371, -7.44219, -85.3307, 6.7302
5.50342, 6, -9.18956, 28.6894, 33.9253, -7.49861, -85.6505, 6.71369
5.51143, 6, -9.25698, 28.6647, 34.1139, -7.55385, -85.9703, 6.69524
5.51949, 6, -9.32392, 28.6401, 34.3031, -7.60973, -86.2901, 6.67516
5.5275, 6, -9.39019, 28.6158, 34.4917, -7.66568, -86.6097, 6.65355
5.5355, 6, -9.45595, 28.5916, 34.6799, -7.72078, -86.9294, 6.63065
5.5434, 6, -9.52119, 28.5675, 34.8688, -7.77736, -87.2492, 6.60654
5.55135, 6, -9.5859, 28.5436, 35.0579, -7.83306, -87.5689, 6.58086
5.55951, 6, -9.64995, 28.5197, 35.2463, -7.88909, -87.8887, 6.55328
5.56742, 6, -9.71338, 28.4962, 35.4349, -7.94558, -88.2082, 6.52381
5.5755, 6, -9.77635, 28.4727, 35.6239, -8.00112, -88.5275, 6.49267
5.58397, 6, -9.83862, 28.4493, 35.8124, -8.05793, -88.8468, 6.46052
5.59237, 6, -9.90036, 28.4261, 36.0008, -8.11395, -89.1655, 6.42718
5.59967, 6, -9.96167, 28.403, 36.19, -8.17013, -89.4839, 6.39217
5.60789, 6, -10.0223, 28.3801, 36.3792, -8.22695, -89.8024, 6.355
5.61648, 6, -10.0825, 28.3573, 36.5673, -8.2827, -90.1207, 6.31607
5.62386, 6, -10.142, 28.3347, 36.7556, -8.33965, -90.4389, 6.27594
5.63248, 6, -10.201, 28.3123, 36.9445, -8.39623, -90.7571, 6.23481
5.6407, 6, -10.2594, 28.2898, 37.1331, -8.45258, -91.0751, 6.19195
5.64788, 6, -10.2883, 28.2787, 37.3213, -8.51021, -91.393, 6.14705
5.65631, 6, -10.3742, 28.2457, 37.5101, -8.56644, -91.7105, 6.10077
5.6633, 6, -10.4025, 28.2347, 37.6047, -8.59495, -91.869, 6.0772
5.6713, 6, -10.4587, 28.2129, 37.7931, -8.65303, -92.1858, 6.02899
5.68065, 6, -10.5417, 28.1806, 38.0752, -8.73869, -92.6602, 5.95277
5.6873, 6, -10.5691, 28.1699, 38.1695, -8.76805, -92.8182, 5.92668
5.6954, 6, -10.6234, 28.1484, 38.3582, -8.82601, -93.134, 5.87369
5.70335, 6, -10.677, 28.1273, 38.5461, -8.88372, -93.4494, 5.81876
5.7113, 6, -10.73, 28.1063, 38.7338, -8.94269, -93.7646, 5.76185
5.71935, 6, -10.7823, 28.0854, 38.9222, -9.00063, -94.0795, 5.70417
5.72909, 6, -10.8597, 28.0542, 39.2039, -9.08932, -94.5514, 5.61417
5.73765, 6, -10.9105, 28.0335, 39.3915, -9.14757, -94.8654, 5.5518
5.7434, 6, -10.9357, 28.0232, 39.4855, -9.17715, -95.0222, 5.52034
5.75291, 6, -11.0104, 27.9927, 39.7677, -9.26646, -95.4921, 5.4231
5.76088, 6, -11.0594, 27.9724, 39.955, -9.32588, -95.8047, 5.35637
5.76889, 6, -11.1077, 27.9523, 40.1425, -9.38624, -96.1169, 5.28869
5.77711, 6, -11.1316, 27.9324, 40.3301, -9.44553, -96.4284, 5.21847
5.78331, 6, -11.179, 27.9224, 40.4236, -9.47593, -96.584, 5.18292
5.79229, 6, -11.2257, 27.9025, 40.6103, -9.53691, -96.895, 5.11136
5.80043, 6, -11.2719, 27.883, 40.7976, -9.59719, -97.2054, 5.03748
5.8073, 6, -11.3173, 27.8635, 40.9853, -9.65901, -97.5154, 4.96226
5.81545, 6, -11.3622, 27.844, 41.1721, -9.71987, -97.825, 4.88576
5.8233, 6, -11.4065, 27.8248, 41.3585, -9.78195, -98.134, 4.80693
5.8313, 6, -11.4501, 27.8057, 41.5455, -9.84389, -98.4427, 4.72733
5.83936, 6, -11.4928, 27.7865, 41.7322, -9.90607, -98.7505, 4.64507
5.8473, 6, -11.5342, 27.7675, 41.9175, -9.96875, -99.0572, 4.56217
5.85532, 6, -11.5736, 27.7486, 42.1009, -10.0303, -99.3613, 4.47765
5.86344, 6, -11.6105, 27.7298, 42.2801, -10.0924, -99.6592, 4.39322
5.8713, 6, -11.6451, 27.7117, 42.4509, -10.151, -99.9453, 4.31069
5.8793, 6, -11.6768, 27.6949, 42.6103, -10.2071, -100.213, 4.23248
5.88736, 6, -11.7052, 27.6798, 42.7546, -10.2577, -100.454, 4.16123
5.89532, 6, -11.7301, 27.6666, 42.8801, -10.301, -100.664, 4.09792
5.9033, 6, -11.7517, 27.6562, 42.9846, -10.3375, -100.837, 4.04568
5.91136, 6, -11.77, 27.6484, 43.068, -10.3661, -100.972, 4.00453
5.9193, 6, -11.7851, 27.6428, 43.1311, -10.3869, -101.072, 3.97393
5.92732, 6, -11.7969, 27.6391, 43.1764, -10.4012, -101.141, 3.95234
5.93538, 6, -11.806, 27.637, 43.207, -10.4105, -101.185, 3.93812
5.94326, 7, -11.8129, 27.6359, 43.2264, -10.4159, -101.212, 3.92956
5.9513, 7, -11.8178, 27.6354, 43.2385, -10.4188, -101.227, 3.92476
5.95936, 7, -11.8209, 27.6352, 43.2454, -10.4203, -101.235, 3.92229
5.9673, 7, -11.8225, 27.6351, 43.249, -10.421, -101.238, 3.92113
5.97532, 7, -11.8234, 27.6351, 43.251, -10.4214, -101.24, 3.92054
5.9834, 7, -11.8235, 27.635, 43.2522, -10.4216, -101.241, 3.92023
5.99138, 7, -11.8235, 27.635, 43.2528, -10.4217, -101.241, 3.92
5.99939, 7, -11.8234, 27.635, 43.2533, -10.4217, -101.241, 3.91988
6.00746, 7, -11.8234, 27.635, 43.2536, -10.4218, -101.241, 3.91983
6.01542, 7, -11.8234, 27.635, 43.254, -10.4218, -101.242, 3.91982
6.02341, 7, -11.8234, 27.635, 43.2542, -10.4219, -101.242, 3.91978
6.03155, 7, -11.8235, 27.635, 43.2545, -10.4219, -101.242, 3.9198
6.0393, 7, -11.8236, 27.635, 43.2547, -10.4218, -101.242, 3.91981
6.04733, 7, -11.8237, 27.635, 43.2548, -10.4218, -101.242, 3.91981
6.05547, 7, -11.8239, 27.635, 43.255, -10.4218, -101.242, 3.91975
6.06368, 7, -11.824, 27.635, 43.2552, -10.4218, -101.242, 3.91977
