hehonglu123/ABB_Primitive_Study/realrobot/movec_30_car/curve_exe_v50_z1.csv
timestamp, cmd_num, J1, J2, J3, J4, J5, J6
0.000389, -1, -11.8215, 27.6363, 43.2516, -10.4215, -101.24, 3.9204
0.141885, -1, -11.3325, 27.434, 42.9558, -9.69375, -100.163, 3.41948
0.143693, -1, -11.2766, 27.412, 42.914, -9.59119, -100.011, 3.34839
0.146518, -1, -11.2766, 27.412, 42.914, -9.59119, -100.011, 3.34839
0.148521, -1, -11.2176, 27.3889, 42.8699, -9.48323, -99.8509, 3.27334
0.149722, -1, -11.2176, 27.3889, 42.8699, -9.48323, -99.8509, 3.27334
0.151666, -1, -11.2176, 27.3889, 42.8699, -9.48323, -99.6836, 3.19511
0.153038, -1, -11.1555, 27.3646, 42.8238, -9.37063, -99.6836, 3.19511
0.155897, -1, -11.0904, 27.339, 42.776, -9.25392, -99.5098, 3.11416
0.157497, -1, -11.0904, 27.339, 42.776, -9.25392, -99.5098, 3.11416
0.158782, -1, -11.0904, 27.339, 42.776, -9.25392, -99.5098, 3.11416
0.160926, -1, -11.0225, 27.3122, 42.7267, -9.13355, -99.3308, 3.03073
0.162197, -1, -11.0225, 27.3122, 42.7267, -9.13355, -99.3308, 3.03073
0.164858, -1, -10.9519, 27.2844, 42.676, -9.01023, -99.1473, 2.94511
0.166222, -1, -10.9519, 27.2844, 42.676, -9.01023, -99.1473, 2.94511
0.168062, -1, -10.8789, 27.2557, 42.6242, -8.88442, -98.9601, 2.85769
0.176634, -1, -10.7275, 27.1961, 42.5177, -8.62657, -98.5764, 2.67892
0.17783, -1, -10.7275, 27.1961, 42.5177, -8.62657, -98.5764, 2.67892
0.179081, -1, -10.7275, 27.1961, 42.5177, -8.62657, -98.5764, 2.67892
0.181061, -1, -10.6496, 27.1654, 42.4635, -8.49527, -98.381, 2.58773
0.18234, -1, -10.6496, 27.1654, 42.4635, -8.49527, -98.381, 2.58773
0.184538, -1, -10.5705, 27.1342, 42.4088, -8.36288, -98.1841, 2.49569
0.185863, -1, -10.5705, 27.1342, 42.4088, -8.36288, -98.1841, 2.49569
0.188285, -1, -10.4904, 27.1026, 42.3537, -8.22954, -97.9856, 2.40304
0.189629, -1, -10.4904, 27.1026, 42.3537, -8.22954, -97.9856, 2.40304
0.191243, -1, -10.4904, 27.1026, 42.3537, -8.22954, -97.9856, 2.40304
0.201101, -1, -10.2449, 27.0055, 42.1868, -7.82505, -97.383, 2.12169
0.208486, -1, -10.0788, 26.9397, 42.0744, -7.55312, -96.9773, 1.93245
0.215292, -1, -9.99515, 26.9066, 42.0179, -7.41654, -96.7735, 1.83749
0.225384, -1, -9.74317, 26.807, 41.8473, -7.00435, -96.1591, 1.55063
0.231288, -1, -9.65899, 26.7737, 41.79, -6.86628, -95.9531, 1.45464
0.23929, -1, -9.49047, 26.707, 41.6752, -6.58944, -95.5402, 1.26197
0.247238, -1, -9.32219, 26.6401, 41.5601, -6.31118, -95.1254, 1.06837
0.255294, -1, -9.15394, 26.5731, 41.4446, -6.03163, -94.7089, 0.874224
0.26481, -1, -8.90046, 26.4723, 41.2704, -5.61041, -94.0812, 0.581715
0.27364, -1, -8.73004, 26.4046, 41.1534, -5.32793, -93.6602, 0.385559
0.279297, -1, -8.64439, 26.3706, 41.0948, -5.18628, -93.4492, 0.287288
0.287229, -1, -8.47189, 26.3023, 40.977, -4.90236, -93.0257, 0.0900944
0.297703, -1, -8.29816, 26.2335, 40.8588, -4.47436, -92.3868, -0.207357
0.303395, -1, -8.12346, 26.1643, 40.7404, -4.33109, -92.1732, -0.306834
0.31285, -1, -7.94742, 26.0947, 40.6214, -4.04407, -91.745, -0.506221
0.320246, -1, -7.77023, 26.0249, 40.5019, -3.75611, -91.3155, -0.706484
0.327296, -1, -7.59225, 25.9548, 40.3818, -3.46688, -90.8848, -0.907455
0.335248, -1, -7.41356, 25.8845, 40.2613, -3.17688, -90.4522, -1.10934
0.343235, -1, -7.23446, 25.8141, 40.1404, -2.88598, -90.0181, -1.31169
0.351337, -1, -7.05518, 25.7437, 40.0193, -2.59384, -89.5823, -1.5145
0.359229, -1, -6.87603, 25.6733, 39.8979, -2.30105, -89.145, -1.71775
0.367232, -1, -6.69713, 25.6028, 39.7762, -2.00737, -88.7067, -1.92166
0.37532, -1, -6.51834, 25.532, 39.6541, -1.71259, -88.2679, -2.12624
0.383238, -1, -6.33997, 25.461, 39.5318, -1.41753, -87.828, -2.33132
0.391242, -1, -6.16154, 25.3898, 39.409, -1.1218, -87.3872, -2.53687
0.399298, -1, -5.98261, 25.3184, 39.2861, -0.825344, -86.9452, -2.74282
0.407229, -1, -5.80319, 25.2468, 39.1628, -0.528744, -86.5023, -2.94924
0.415296, -1, -5.62309, 25.1749, 39.0393, -0.231305, -86.0586, -3.15615
0.423238, -1, -5.44213, 25.1029, 38.9157, 0.0666977, -85.6141, -3.36343
0.431294, -1, -5.26023, 25.0307, 38.7918, 0.364674, -85.1692, -3.57061
0.439295, -1, -5.0773, 24.9585, 38.6679, 0.663303, -84.7239, -3.77796
0.447227, -1, -4.89363, 24.8864, 38.5438, 0.962093, -84.278, -3.98554
0.455247, -1, -4.70965, 24.8142, 38.4195, 1.26089, -83.8321, -4.19313
0.463302, -1, -4.5255, 24.742, 38.2953, 1.56029, -83.3856, -4.40144
0.47124, -1, -4.34137, 24.6698, 38.1711, 1.85973, -82.9389, -4.6095
0.479231, -1, -4.15741, 24.5976, 38.0468, 2.15917, -82.4923, -4.81736
0.487299, -1, -3.97379, 24.5255, 37.9226, 2.45877, -82.045, -5.02536
0.495235, -1, -3.79066, 24.4533, 37.7982, 2.75796, -81.5983, -5.23339
0.503269, -1, -3.60854, 24.3812, 37.674, 3.05692, -81.1523, -5.44129
0.51138, -1, -3.42714, 24.3089, 37.5499, 3.35602, -80.7065, -5.64924
0.519387, -1, -3.24635, 24.2368, 37.4259, 3.65469, -80.2616, -5.85667
0.527337, -1, -3.06632, 24.1648, 37.302, 3.95298, -79.8169, -6.06389
0.53541, -1, -2.8868, 24.0928, 37.1782, 4.2509, -79.3724, -6.27071
0.54336, -1, -2.70727, 24.0209, 37.0547, 4.54806, -78.9285, -6.47746
0.55129, -1, -2.52761, 23.9491, 36.9315, 4.84478, -78.4851, -6.6838
0.559364, -1, -2.34741, 23.8776, 36.8086, 5.14108, -78.0434, -6.88977
0.568009, -1, -2.16691, 23.8063, 36.6859, 5.43662, -77.6028, -7.09525
0.576218, -1, -1.98641, 23.7352, 36.5635, 5.73115, -77.1634, -7.30033
0.5834, -1, -1.80606, 23.6643, 36.4414, 6.02492, -76.7255, -7.50478
0.722957, -1, 1.13659, 22.5002, 34.4392, 10.8447, -69.5332, -10.856
0.725715, -1, 1.22001, 22.4673, 34.3829, 10.9804, -69.3307, -10.9503
0.727007, -1, 1.22001, 22.4673, 34.3829, 10.9804, -69.3307, -10.9503
0.729124, -1, 1.30331, 22.4346, 34.3266, 11.1157, -69.1287, -11.0445
0.730408, -1, 1.30331, 22.4346, 34.3266, 11.1157, -69.1287, -11.0445
0.732295, -1, 1.30331, 22.4346, 34.3266, 11.1157, -68.9273, -11.1384
0.733655, -1, 1.38647, 22.402, 34.2705, 11.2506, -68.9273, -11.1384
0.737517, -1, 1.46948, 22.3694, 34.2146, 11.3851, -68.7264, -11.232
0.738741, -1, 1.46948, 22.3694, 34.2146, 11.3851, -68.7264, -11.232
0.740859, -1, 1.5523, 22.3369, 34.1589, 11.5192, -68.5261, -11.3253
0.74216, -1, 1.5523, 22.3369, 34.1589, 11.5192, -68.5261, -11.3253
0.743408, -1, 1.5523, 22.3369, 34.1589, 11.5192, -68.5261, -11.3253
0.74535, -1, 1.63491, 22.3046, 34.1034, 11.653, -68.3262, -11.4182
0.746625, -1, 1.63491, 22.3046, 34.1034, 11.653, -68.3262, -11.4182
0.748409, -1, 1.63491, 22.3046, 34.1034, 11.7864, -68.1269, -11.5109
0.754006, -1, 1.79936, 22.2401, 33.9928, 11.9195, -67.9282, -11.6034
0.755254, -1, 1.79936, 22.2401, 33.9928, 11.9195, -67.9282, -11.6034
0.757236, -1, 1.88103, 22.208, 33.9377, 12.0523, -67.7303, -11.6957
0.758519, -1, 1.88103, 22.208, 33.9377, 12.0523, -67.7303, -11.6957
0.759692, -1, 1.88103, 22.208, 33.9377, 12.0523, -67.7303, -11.6957
0.762384, -1, 1.96227, 22.176, 33.8828, 12.1847, -67.5331, -11.7877
0.763639, -1, 1.96227, 22.176, 33.8828, 12.1847, -67.5331, -11.7877
0.769346, -1, 2.12352, 22.1122, 33.7733, 12.4481, -67.1402, -11.9708
0.775206, -1, 2.20365, 22.0805, 33.7188, 12.579, -66.9447, -12.062
0.785607, -1, 2.44213, 21.9859, 33.5563, 12.9698, -66.3622, -12.3339
0.791277, -1, 2.52087, 21.9546, 33.5025, 13.0993, -66.169, -12.4239
0.800811, -1, 2.67729, 21.8922, 33.3956, 13.3568, -65.593, -12.6921
0.808209, -1, 2.83235, 21.8303, 33.2894, 13.613, -65.4022, -12.7809
0.816288, -1, 2.98598, 21.7687, 33.1835, 13.8678, -65.0222, -12.9578
0.824247, -1, 3.13861, 21.7075, 33.0783, 14.1205, -64.6448, -13.1334
0.831278, -1, 3.29088, 21.6467, 32.9738, 14.3716, -64.27, -13.3083
0.839206, -1, 3.44281, 21.5862, 32.8701, 14.6214, -63.8974, -13.482
0.84762, -1, 3.59432, 21.5262, 32.7672, 14.8693, -63.5272, -13.6543
0.856269, -1, 3.74533, 21.4665, 32.665, 15.1158, -63.1594, -13.8255
0.864207, -1, 3.89552, 21.4072, 32.5632, 15.3607, -62.794, -13.9957
0.872246, -1, 4.04488, 21.3483, 32.4619, 15.6042, -62.4311, -14.1648
0.880266, -1, 4.19382, 21.2899, 32.3612, 15.8458, -62.0705, -14.3328
0.888206, -1, 4.34193, 21.2318, 32.2615, 16.0857, -61.712, -14.5001
0.896225, -1, 4.48915, 21.1742, 32.1625, 16.3244, -61.3557, -14.6658
0.904282, -1, 4.63556, 21.1169, 32.0643, 16.5614, -61.0016, -14.8305
0.912218, -1, 4.78058, 21.0602, 31.9667, 16.7966, -60.65, -14.9939
0.920222, -1, 4.92393, 21.0037, 31.8694, 17.0305, -60.3011, -15.1564
0.928279, -1, 5.06604, 20.9474, 31.7726, 17.263, -59.9541, -15.318
0.936276, -1, 5.20712, 20.8915, 31.6765, 17.4939, -59.6097, -15.4786
0.944226, -1, 5.34674, 20.8358, 31.5812, 17.7233, -59.2678, -15.6383
0.951207, -1, 5.48495, 20.7805, 31.4868, 17.9513, -58.9277, -15.7969
0.959211, -1, 5.62195, 20.7255, 31.3929, 18.178, -58.5897, -15.9543
0.968011, -1, 5.75767, 20.6709, 31.2994, 18.403, -58.2537, -16.111
0.976283, -1, 5.89245, 20.6166, 31.2062, 18.6266, -57.9198, -16.2666
0.98321, -1, 6.02687, 20.5627, 31.1136, 18.849, -57.5876, -16.4213
0.99208, -1, 6.16118, 20.5092, 31.0217, 19.0701, -57.2576, -16.5752
1.00028, -1, 6.29521, 20.4562, 30.9307, 19.2896, -56.93, -16.7282
1.00727, -1, 6.42884, 20.4035, 30.8404, 19.5078, -56.6043, -16.8799
1.01558, -1, 6.56198, 20.3512, 30.7505, 19.7246, -56.2809, -17.0308
1.02338, -1, 6.69437, 20.2991, 30.661, 19.9402, -55.9597, -17.1804
1.03136, -1, 6.82612, 20.2473, 30.5719, 20.154, -55.6403, -17.3292
1.03964, -1, 6.95723, 20.1958, 30.4832, 20.3668, -55.3228, -17.4772
1.04734, -1, 7.08774, 20.1445, 30.3953, 20.5784, -55.0069, -17.6241
1.05528, -1, 7.21748, 20.0936, 30.308, 20.7889, -54.6928, -17.7704
1.06511, -1, 7.34595, 20.0428, 30.2214, 20.9979, -54.3805, -17.9159
1.07221, -1, 7.47343, 19.9923, 30.1352, 21.2057, -54.0701, -18.0602
1.0801, -1, 7.59993, 19.9422, 30.0494, 21.4122, -53.7619, -18.2038
1.08731, -1, 7.72552, 19.8923, 29.9639, 21.6178, -53.4554, -18.3465
1.09534, -1, 7.85013, 19.8428, 29.8789, 21.8218, -53.1507, -18.4884
1.10439, -1, 7.97398, 19.7938, 29.7945, 22.0248, -52.848, -18.6295
1.11153, -1, 8.09697, 19.745, 29.7107, 22.2267, -52.5468, -18.7698
1.11961, -1, 8.21902, 19.6966, 29.6275, 22.4276, -52.2474, -18.9096
1.12855, -1, 8.34008, 19.6483, 29.5448, 22.6273, -51.9497, -19.0484
1.13568, -1, 8.46045, 19.6004, 29.4625, 22.8256, -51.6536, -19.1861
1.14386, -1, 8.58003, 19.5527, 29.3806, 23.0229, -51.3592, -19.3232
1.15281, -1, 8.699, 19.5052, 29.299, 23.2191, -51.0664, -19.4593
1.16109, -1, 8.81744, 19.4579, 29.2179, 23.4141, -50.7752, -19.5949
1.16833, -1, 8.93538, 19.4109, 29.1373, 23.6079, -50.4856, -19.7296
1.17664, -1, 8.99422, 19.3875, 29.0972, 23.7044, -50.1975, -19.8637
1.18372, -1, 9.11161, 19.3408, 29.0173, 23.8967, -50.0542, -19.9306
1.19197, -1, 9.22859, 19.2712, 28.8984, 24.1834, -49.6265, -20.1301
1.20121, -1, 9.40341, 19.2252, 28.8197, 24.3731, -49.3434, -20.2619
1.20732, -1, 9.46145, 19.2024, 28.7805, 24.4677, -49.2023, -20.3277
1.21637, -1, 9.63456, 19.1342, 28.6634, 24.7494, -48.7819, -20.5236
1.2232, -1, 9.69194, 19.1116, 28.6246, 24.8429, -48.6426, -20.5885
1.23129, -1, 9.80637, 19.0667, 28.5471, 25.0293, -48.3648, -20.718
1.2406, -1, 9.97678, 18.9998, 28.4317, 25.3069, -47.9505, -20.9111
1.2472, -1, 10.0332, 18.9776, 28.3935, 25.3989, -47.8131, -20.9751
1.25662, -1, 10.2016, 18.9113, 28.2795, 25.6736, -47.4029, -21.1665
1.26319, -1, 10.2575, 18.8893, 28.2418, 25.7649, -47.2667, -21.23
1.27362, -1, 10.4241, 18.8235, 28.1289, 26.0372, -46.8603, -21.419
1.27927, -1, 10.4793, 18.8016, 28.0915, 26.1274, -46.7256, -21.4818
1.28878, -1, 10.6437, 18.7363, 27.9795, 26.3966, -46.3237, -21.6687
1.29785, -1, 10.7526, 18.693, 27.9053, 26.5751, -46.0574, -21.7927
1.30475, -1, 10.8068, 18.6714, 27.8683, 26.6641, -45.7927, -21.916
1.31125, -1, 10.9148, 18.6284, 27.7948, 26.8413, -45.6608, -21.9776
1.32021, -1, 11.022, 18.5856, 27.7216, 27.0176, -45.398, -22.1001
1.32726, -1, 11.1287, 18.543, 27.6488, 27.1929, -45.1365, -22.2222
1.3352, -1, 11.235, 18.5008, 27.5763, 27.3674, -44.8761, -22.3437
1.34319, -1, 11.3408, 18.4588, 27.5042, 27.5414, -44.6167, -22.4644
1.35125, -1, 11.4459, 18.4169, 27.4326, 27.7145, -44.3584, -22.5847
1.35928, -1, 11.5504, 18.3753, 27.3611, 27.8867, -44.1013, -22.7042
1.36725, -1, 11.6545, 18.334, 27.29, 28.058, -43.8452, -22.8231
1.3752, -1, 11.7583, 18.2929, 27.2191, 28.2284, -43.5905, -22.9419
1.38321, -1, 11.8617, 18.252, 27.1485, 28.3984, -43.3372, -23.0598
1.39131, -1, 11.965, 18.2112, 27.0783, 28.5675, -43.0849, -23.1773
1.39919, -1, 12.068, 18.1705, 27.0084, 28.7357, -42.8338, -23.2945
1.40719, -1, 12.1706, 18.1299, 26.939, 28.9033, -42.5836, -23.4112
1.41526, -1, 12.2729, 18.0895, 26.8697, 29.0701, -42.3347, -23.5273
1.42319, -1, 12.3746, 18.0491, 26.8009, 29.2364, -42.0868, -23.6426
1.43124, -1, 12.4759, 18.0089, 26.7322, 29.4019, -41.8403, -23.7575
1.43925, -1, 12.5768, 17.9689, 26.6638, 29.5668, -41.5946, -23.8719
1.4472, -1, 12.6773, 17.9292, 26.5957, 29.7306, -41.3499, -23.9856
1.45523, -1, 12.7773, 17.8895, 26.5278, 29.894, -41.1062, -24.0991
1.46325, -1, 12.8769, 17.8502, 26.4603, 30.0565, -40.8635, -24.2122
1.47125, -1, 12.9759, 17.811, 26.3931, 30.2185, -40.6217, -24.3246
1.47919, -1, 13.0744, 17.7719, 26.3262, 30.3797, -40.3811, -24.437
1.48726, -1, 13.1723, 17.7332, 26.2596, 30.5403, -40.1414, -24.5486
1.4952, -1, 13.2697, 17.6946, 26.1934, 30.6999, -39.9027, -24.6599
1.50321, -1, 13.3667, 17.6561, 26.1274, 30.8592, -39.665, -24.7705
1.51136, -1, 13.4634, 17.6178, 26.0616, 31.0179, -39.4284, -24.8807
1.51928, -1, 13.5598, 17.5797, 25.996, 31.1759, -39.1927, -24.9905
1.52736, -1, 13.6559, 17.5416, 25.9306, 31.3332, -38.9579, -25.0997
1.53537, -1, 13.7515, 17.5038, 25.8654, 31.4898, -38.7242, -25.2089
1.5433, -1, 13.8469, 17.4659, 25.8006, 31.6458, -38.4912, -25.3176
1.55137, -1, 13.9419, 17.4283, 25.7361, 31.8013, -38.2595, -25.4257
1.55936, -1, 14.0366, 17.3907, 25.6718, 31.9563, -38.0287, -25.5339
1.5672, -1, 14.1311, 17.3533, 25.6078, 32.1105, -37.7988, -25.6411
1.57523, -1, 14.2251, 17.316, 25.544, 32.2641, -37.5696, -25.7484
1.58328, -1, 14.3186, 17.2788, 25.4805, 32.4172, -37.341, -25.8547
1.59142, -1, 14.4115, 17.2418, 25.4172, 32.5697, -37.1134, -25.9608
1.59943, -1, 14.504, 17.205, 25.3541, 32.7219, -36.8866, -26.0663
1.60738, -1, 14.5961, 17.1683, 25.2912, 32.8734, -36.6605, -26.1713
1.61548, -1, 14.6876, 17.1319, 25.2286, 33.0244, -36.4354, -26.2762
1.62365, -1, 14.7789, 17.0955, 25.1661, 33.1745, -36.211, -26.3803
1.63162, -1, 14.8699, 17.0592, 25.104, 33.3242, -35.9875, -26.4845
1.64029, -1, 14.9607, 17.0232, 25.042, 33.4735, -35.7649, -26.5881
1.64781, -1, 15.0512, 16.9873, 24.9804, 33.6223, -35.543, -26.6918
1.65638, -1, 15.1414, 16.9515, 24.9189, 33.7704, -35.3221, -26.7947
1.66376, -1, 15.2314, 16.9158, 24.8578, 33.9179, -35.1018, -26.8972
1.6723, -1, 15.3213, 16.8803, 24.7968, 34.0649, -34.8825, -26.9995
1.67973, -1, 15.3662, 16.8625, 24.7664, 34.1381, -34.6641, -27.1012
1.68818, -1, 15.5006, 16.8095, 24.6753, 34.3575, -34.4463, -27.2027
1.69595, -1, 15.5453, 16.7919, 24.645, 34.4304, -34.229, -27.3034
1.7043, -1, 15.679, 16.7393, 24.5546, 34.6482, -34.0124, -27.4044
1.7113, -1, 15.7233, 16.7218, 24.5245, 34.7205, -33.9043, -27.4547
1.72043, -1, 15.8558, 16.6695, 24.4347, 34.9368, -33.5816, -27.6051
1.72718, -1, 15.8999, 16.652, 24.4048, 35.0085, -33.4742, -27.6549
1.73643, -1, 16.0314, 16.6001, 24.3156, 35.2233, -33.1533, -27.8046
1.74318, -1, 16.075, 16.5828, 24.286, 35.2948, -33.0468, -27.8542
1.75254, -1, 16.2053, 16.531, 24.1975, 35.5084, -32.7284, -28.0027
1.75922, -1, 16.2486, 16.5138, 24.1681, 35.5793, -32.6226, -28.0519
1.76877, -1, 16.3777, 16.4626, 24.0801, 35.7912, -32.3063, -28.1993
1.77671, -1, 16.4635, 16.4284, 24.0216, 35.932, -32.0962, -28.2973
1.7848, -1, 16.5488, 16.3945, 23.9634, 36.0722, -31.887, -28.3944
1.79282, -1, 16.634, 16.3606, 23.9053, 36.2125, -31.6782, -28.4918
1.80082, -1, 16.719, 16.3269, 23.8474, 36.3521, -31.4703, -28.5887
1.80875, -1, 16.7614, 16.3101, 23.8185, 36.4217, -31.2629, -28.6855
1.81681, -1, 16.8462, 16.2765, 23.761, 36.5606, -31.0561, -28.7818
1.82421, -1, 16.9309, 16.2431, 23.7035, 36.6988, -30.9529, -28.8301
1.8322, -1, 17.0152, 16.2098, 23.6463, 36.8368, -30.7469, -28.9261
1.84027, -1, 17.0991, 16.1765, 23.5893, 36.9743, -30.5416, -29.0218
1.84817, -1, 17.1826, 16.1434, 23.5325, 37.1115, -30.3371, -29.1171
1.85619, -1, 17.2643, 16.111, 23.4759, 37.2481, -30.1332, -29.212
1.86422, -1, 17.3435, 16.0798, 23.4196, 37.3838, -29.9306, -29.3062
1.87124, -1, 17.4189, 16.0502, 23.364, 37.5172, -29.7311, -29.3991
1.87924, -1, 17.4898, 16.0228, 23.31, 37.6468, -29.5373, -29.4892
1.88718, -1, 17.5554, 15.9979, 23.2587, 37.7697, -29.3535, -29.5748
1.89517, -1, 17.6146, 15.9758, 23.2113, 37.8827, -29.1841, -29.6537
1.90324, -1, 17.6672, 15.9563, 23.1696, 37.9825, -29.0346, -29.7231
1.91124, -1, 17.7139, 15.9384, 23.1348, 38.0653, -28.9092, -29.7819
1.91917, -1, 17.7548, 15.9214, 23.1074, 38.1313, -28.8104, -29.8281
1.92725, -1, 17.7901, 15.9063, 23.0873, 38.179, -28.7371, -29.8621
1.93518, -1, 17.8192, 15.8938, 23.0736, 38.2116, -28.6876, -29.8853
1.94317, -1, 17.8429, 15.8835, 23.0651, 38.2322, -28.656, -29.8998
1.9513, -1, 17.8614, 15.8755, 23.0603, 38.2441, -28.6379, -29.908
1.95916, -1, 17.8741, 15.8702, 23.0577, 38.2503, -28.6283, -29.9121
1.96718, -1, 17.8811, 15.8673, 23.0564, 38.2533, -28.6236, -29.9142
1.97522, 2, 17.8843, 15.8658, 23.0556, 38.2547, -28.6214, -29.9151
1.98317, 2, 17.8856, 15.8652, 23.0553, 38.2553, -28.6204, -29.9156
1.99124, 2, 17.8856, 15.8649, 23.0551, 38.2557, -28.6199, -29.9157
1.99924, 2, 17.8847, 15.8647, 23.055, 38.2558, -28.6198, -29.9158
2.00721, 2, 17.884, 15.8646, 23.055, 38.2559, -28.6197, -29.9158
2.01523, 2, 17.8834, 15.8646, 23.055, 38.2559, -28.6197, -29.9159
2.02333, 2, 17.8831, 15.8645, 23.0549, 38.2559, -28.6196, -29.9159
2.03143, 2, 17.883, 15.8644, 23.0548, 38.2559, -28.6197, -29.9159
2.03928, 2, 17.8831, 15.8642, 23.0548, 38.2559, -28.6196, -29.9159
2.04735, 2, 17.8832, 15.8639, 23.0547, 38.2559, -28.6197, -29.9159
2.05528, 2, 17.8835, 15.8636, 23.0547, 38.2559, -28.6196, -29.9159
2.06317, 2, 17.8839, 15.8633, 23.0546, 38.2559, -28.6196, -29.9158
2.0715, 2, 17.8844, 15.8632, 23.0546, 38.2559, -28.6196, -29.9159
2.07921, 2, 17.8852, 15.8631, 23.0545, 38.2559, -28.6197, -29.9159
2.08729, 2, 17.8859, 15.8631, 23.0545, 38.2559, -28.6197, -29.9159
2.09542, 2, 17.8865, 15.8631, 23.0545, 38.2559, -28.6198, -29.9159
2.10331, 2, 17.8869, 15.8631, 23.0545, 38.2559, -28.6198, -29.9159
2.11153, 2, 17.8872, 15.8631, 23.0545, 38.2559, -28.6198, -29.9159
2.11983, 2, 17.8873, 15.8631, 23.0545, 38.2559, -28.6199, -29.9159
2.12825, 2, 17.8874, 15.8631, 23.0545, 38.2559, -28.6199, -29.9159
2.13565, 2, 17.8875, 15.8631, 23.0545, 38.2559, -28.6199, -29.9158
2.14426, 2, 17.8875, 15.8631, 23.0545, 38.2559, -28.6199, -29.9158
2.15175, 2, 17.8875, 15.863, 23.0545, 38.256, -28.6199, -29.9158
2.16027, 2, 17.8874, 15.863, 23.0545, 38.2559, -28.6199, -29.9158
2.16797, 2, 17.8872, 15.8629, 23.0545, 38.2559, -28.6199, -29.9158
2.17636, 2, 17.887, 15.8628, 23.0545, 38.2559, -28.62, -29.9159
2.18371, 2, 17.887, 15.8628, 23.0545, 38.2559, -28.62, -29.9159
2.19217, 2, 17.8868, 15.8628, 23.0545, 38.2559, -28.62, -29.9158
2.20011, 2, 17.8868, 15.8628, 23.0545, 38.2559, -28.62, -29.9159
2.20716, 2, 17.8868, 15.8628, 23.0545, 38.2559, -28.6201, -29.9159
2.21675, 2, 17.8868, 15.8628, 23.0545, 38.2559, -28.6201, -29.9159
2.22316, 2, 17.8868, 15.8629, 23.0545, 38.2559, -28.6201, -29.9158
2.23121, 2, 17.8868, 15.8629, 23.0545, 38.2559, -28.6202, -29.9158
2.24045, 2, 17.8868, 15.8629, 23.0545, 38.2559, -28.6202, -29.9158
2.24718, 2, 17.8868, 15.8629, 23.0545, 38.2559, -28.6202, -29.9158
2.25516, 2, 17.8868, 15.8629, 23.0545, 38.256, -28.6202, -29.9158
2.26478, 2, 17.8868, 15.8628, 23.0545, 38.2559, -28.6202, -29.9158
2.27307, 2, 17.8868, 15.8628, 23.0545, 38.2559, -28.6202, -29.9158
2.28068, 2, 17.8868, 15.8628, 23.0545, 38.2559, -28.6203, -29.9157
2.28877, 2, 17.8867, 15.8628, 23.0545, 38.2559, -28.6203, -29.9158
2.29704, 2, 17.8867, 15.8628, 23.0545, 38.2559, -28.6203, -29.9158
2.30316, 2, 17.8867, 15.8628, 23.0545, 38.2559, -28.6203, -29.9158
2.31291, 2, 17.8866, 15.8628, 23.0545, 38.2559, -28.6203, -29.9157
2.32102, 2, 17.8866, 15.8628, 23.0545, 38.2559, -28.6204, -29.9157
2.32717, 2, 17.8866, 15.8628, 23.0545, 38.2559, -28.6204, -29.9157
2.33523, 2, 17.8866, 15.8629, 23.0545, 38.2559, -28.6204, -29.9157
2.34315, 2, 17.8866, 15.8629, 23.0545, 38.2559, -28.6204, -29.9157
2.35127, 2, 17.8866, 15.8629, 23.0545, 38.2559, -28.6205, -29.9157
2.35922, 2, 17.8866, 15.8629, 23.0545, 38.2559, -28.6205, -29.9157
2.36725, 2, 17.8866, 15.8629, 23.0545, 38.2559, -28.6205, -29.9157
2.37516, 2, 17.8866, 15.8628, 23.0545, 38.2559, -28.6206, -29.9157
2.38322, 2, 17.8865, 15.8628, 23.0545, 38.2559, -28.6206, -29.9157
2.39121, 2, 17.8865, 15.8628, 23.0545, 38.2559, -28.6206, -29.9156
2.39916, 2, 17.8865, 15.8628, 23.0545, 38.2558, -28.6206, -29.9156
2.40724, 2, 17.8865, 15.8628, 23.0545, 38.2558, -28.6206, -29.9156
2.41516, 2, 17.8865, 15.8628, 23.0545, 38.2558, -28.6206, -29.9156
2.42316, 2, 17.8865, 15.8628, 23.0545, 38.2558, -28.6206, -29.9157
2.43127, 2, 17.8865, 15.8628, 23.0545, 38.2558, -28.6206, -29.9157
2.43915, 2, 17.8864, 15.8628, 23.0545, 38.2558, -28.6207, -29.9156
2.44718, 2, 17.8864, 15.8629, 23.0545, 38.2558, -28.6207, -29.9156
2.45527, 2, 17.8864, 15.8629, 23.0545, 38.2558, -28.6207, -29.9156
2.46316, 2, 17.8863, 15.8629, 23.0545, 38.2558, -28.6207, -29.9156
2.47122, 2, 17.8863, 15.8629, 23.0545, 38.2558, -28.6207, -29.9156
2.47922, 2, 17.8863, 15.8629, 23.0545, 38.2558, -28.6208, -29.9155
2.48717, 2, 17.8862, 15.8628, 23.0545, 38.2558, -28.6208, -29.9155
2.49516, 2, 17.8862, 15.8629, 23.0545, 38.2557, -28.6208, -29.9155
2.50322, 2, 17.8862, 15.8628, 23.0545, 38.2557, -28.6208, -29.9155
2.51125, 2, 17.8861, 15.8628, 23.0545, 38.2557, -28.6208, -29.9155
2.51923, 2, 17.8861, 15.8628, 23.0545, 38.2557, -28.6209, -29.9155
2.52732, 2, 17.886, 15.8629, 23.0545, 38.2557, -28.6209, -29.9155
2.53534, 2, 17.886, 15.8629, 23.0545, 38.2557, -28.6209, -29.9154
2.54326, 2, 17.8859, 15.8629, 23.0545, 38.2556, -28.6209, -29.9154
2.55137, 2, 17.8859, 15.8629, 23.0545, 38.2556, -28.6209, -29.9153
2.55921, 2, 17.8859, 15.8629, 23.0545, 38.2556, -28.6209, -29.9153
2.56717, 2, 17.8858, 15.8629, 23.0545, 38.2556, -28.621, -29.9153
2.57525, 2, 17.8858, 15.8629, 23.0545, 38.2556, -28.621, -29.9154
2.58319, 2, 17.8857, 15.8629, 23.0545, 38.2557, -28.621, -29.9153
2.5913, 2, 17.8857, 15.8629, 23.0545, 38.2556, -28.621, -29.9153
2.59935, 2, 17.8857, 15.8629, 23.0545, 38.2557, -28.6211, -29.9153
2.60734, 2, 17.8856, 15.8629, 23.0545, 38.2557, -28.621, -29.9152
2.61544, 2, 17.8855, 15.8629, 23.0545, 38.2556, -28.6211, -29.9152
2.62353, 2, 17.8855, 15.8629, 23.0545, 38.2556, -28.6211, -29.9151
2.63158, 2, 17.8854, 15.8629, 23.0545, 38.2555, -28.6212, -29.9151
2.64027, 2, 17.8853, 15.8629, 23.0545, 38.2555, -28.6212, -29.9151
2.64772, 2, 17.8853, 15.8629, 23.0545, 38.2555, -28.6212, -29.9151
2.65632, 2, 17.8852, 15.8629, 23.0545, 38.2555, -28.6212, -29.9151
2.66377, 2, 17.8852, 15.8629, 23.0545, 38.2555, -28.6212, -29.9151
2.67228, 2, 17.8851, 15.8629, 23.0545, 38.2555, -28.6212, -29.9151
2.67972, 2, 17.8851, 15.8629, 23.0545, 38.2555, -28.6212, -29.915
2.68815, 2, 17.885, 15.8629, 23.0545, 38.2555, -28.6213, -29.915
2.6957, 2, 17.885, 15.8629, 23.0545, 38.2555, -28.6213, -29.915
2.70425, 2, 17.8849, 15.8629, 23.0545, 38.2555, -28.6213, -29.915
2.71127, 2, 17.8849, 15.8629, 23.0545, 38.2555, -28.6213, -29.915
2.71919, 2, 17.8848, 15.8629, 23.0545, 38.2555, -28.6213, -29.915
2.72841, 2, 17.8848, 15.8629, 23.0545, 38.2554, -28.6213, -29.9149
2.73515, 2, 17.8848, 15.8629, 23.0545, 38.2554, -28.6213, -29.9149
2.74439, 2, 17.8847, 15.8629, 23.0545, 38.2554, -28.6213, -29.9149
2.7512, 2, 17.8847, 15.8629, 23.0545, 38.2554, -28.6213, -29.9149
2.76061, 2, 17.8846, 15.8629, 23.0545, 38.2553, -28.6213, -29.9149
2.7686, 2, 17.8845, 15.8629, 23.0545, 38.2553, -28.6213, -29.9149
2.77514, 2, 17.8845, 15.8629, 23.0545, 38.2553, -28.6213, -29.9149
2.78475, 2, 17.8844, 15.8629, 23.0545, 38.2553, -28.6213, -29.9149
2.79273, 2, 17.8844, 15.8629, 23.0545, 38.2553, -28.6213, -29.9149
2.80075, 2, 17.8843, 15.8629, 23.0545, 38.2552, -28.6213, -29.9149
2.80892, 2, 17.8843, 15.8629, 23.0545, 38.2552, -28.6214, -29.9149
2.81613, 2, 17.8843, 15.8629, 23.0545, 38.2552, -28.6214, -29.9149
2.82419, 2, 17.8843, 15.8629, 23.0545, 38.2552, -28.6214, -29.9149
2.83215, 2, 17.8843, 15.8629, 23.0545, 38.2552, -28.6214, -29.9149
2.84014, 2, 17.8842, 15.8629, 23.0545, 38.2552, -28.6213, -29.9149
2.84831, 2, 17.8842, 15.8629, 23.0545, 38.2552, -28.6214, -29.9149
2.85514, 2, 17.8842, 15.8629, 23.0545, 38.2552, -28.6214, -29.915
2.8632, 2, 17.8841, 15.8629, 23.0545, 38.2552, -28.6214, -29.915
2.87127, 2, 17.8841, 15.8629, 23.0545, 38.2551, -28.6214, -29.915
2.87914, 2, 17.8841, 15.8629, 23.0545, 38.2552, -28.6215, -29.915
2.88721, 2, 17.8841, 15.8629, 23.0545, 38.2552, -28.6215, -29.915
2.89514, 2, 17.8841, 15.8629, 23.0545, 38.2552, -28.6215, -29.915
2.90314, 2, 17.8841, 15.8629, 23.0545, 38.2551, -28.6215, -29.9149
2.9113, 2, 17.8841, 15.8629, 23.0545, 38.2551, -28.6215, -29.9149
2.91914, 2, 17.8841, 15.8629, 23.0545, 38.255, -28.6215, -29.9149
2.92716, 2, 17.8841, 15.8629, 23.0545, 38.255, -28.6215, -29.9149
2.93521, 2, 17.8841, 15.8629, 23.0545, 38.2549, -28.6215, -29.9149
2.94314, 2, 17.884, 15.8629, 23.0545, 38.2549, -28.6215, -29.9149
2.9512, 2, 17.884, 15.8629, 23.0545, 38.2549, -28.6215, -29.9149
2.95922, 2, 17.884, 15.8629, 23.0545, 38.2549, -28.6215, -29.9149
2.96715, 2, 17.884, 15.8629, 23.0545, 38.2549, -28.6215, -29.9149
2.97531, 2, 17.884, 15.863, 23.0545, 38.2549, -28.6215, -29.9149
2.98412, 2, 17.884, 15.8629, 23.0545, 38.2549, -28.6215, -29.9149
2.99221, 2, 17.884, 15.8629, 23.0545, 38.2549, -28.6215, -29.9149
2.99914, 2, 17.884, 15.863, 23.0545, 38.2548, -28.6215, -29.9149
3.00722, 2, 17.8839, 15.863, 23.0545, 38.2548, -28.6215, -29.9149
3.01517, 2, 17.8839, 15.863, 23.0545, 38.2547, -28.6216, -29.9149
3.02322, 2, 17.8839, 15.863, 23.0545, 38.2547, -28.6216, -29.9149
3.03146, 2, 17.8839, 15.863, 23.0545, 38.2547, -28.6215, -29.9149
3.03931, 2, 17.8839, 15.863, 23.0545, 38.2547, -28.6215, -29.9149
3.04725, 2, 17.8839, 15.863, 23.0545, 38.2547, -28.6215, -29.9149
3.05531, 4, 17.8839, 15.863, 23.0545, 38.2547, -28.6215, -29.9149
3.0632, 4, 17.8839, 15.863, 23.0545, 38.2547, -28.6215, -29.9149
3.07119, 4, 17.8838, 15.863, 23.0545, 38.2547, -28.6215, -29.9149
3.07923, 4, 17.8838, 15.863, 23.0545, 38.2547, -28.6215, -29.9148
3.08729, 4, 17.8838, 15.863, 23.0545, 38.2547, -28.6215, -29.9148
3.09522, 4, 17.8838, 15.863, 23.0545, 38.2546, -28.6216, -29.9148
3.10332, 4, 17.8838, 15.863, 23.0545, 38.2546, -28.6216, -29.9148
3.1114, 4, 17.8837, 15.863, 23.0545, 38.2546, -28.6216, -29.9149
3.11976, 4, 17.8837, 15.863, 23.0545, 38.2546, -28.6216, -29.9148
3.12813, 4, 17.8837, 15.863, 23.0545, 38.2546, -28.6216, -29.9147
3.13577, 4, 17.8837, 15.863, 23.0545, 38.2546, -28.6216, -29.9147
3.14428, 4, 17.8837, 15.863, 23.0546, 38.2546, -28.6216, -29.9147
3.15174, 4, 17.8837, 15.863, 23.0546, 38.2546, -28.6216, -29.9147
3.16045, 4, 17.8837, 15.863, 23.0545, 38.2546, -28.6215, -29.9147
3.18618, 4, 17.8837, 15.863, 23.0545, 38.2545, -28.6215, -29.9146
3.18809, 4, 17.8836, 15.863, 23.0545, 38.2546, -28.6215, -29.9146
3.18942, 4, 17.8836, 15.863, 23.0545, 38.2546, -28.6215, -29.9146
3.19187, 4, 17.8836, 15.863, 23.0545, 38.2546, -28.6215, -29.9146
3.19908, 4, 17.8836, 15.863, 23.0545, 38.2546, -28.6215, -29.9147
3.20816, 4, 17.8836, 15.863, 23.0545, 38.2545, -28.6215, -29.9146
3.21517, 4, 17.8835, 15.863, 23.0546, 38.2545, -28.6215, -29.9146
3.22433, 4, 17.8824, 15.8636, 23.0545, 38.2544, -28.6215, -29.9146
3.23118, 4, 17.8813, 15.8643, 23.0545, 38.2542, -28.6215, -29.9146
3.24034, 4, 17.8759, 15.8681, 23.0536, 38.2508, -28.622, -29.9123
3.24713, 4, 17.8737, 15.87, 23.053, 38.2479, -28.6225, -29.9102
3.25653, 4, 17.8672, 15.877, 23.0497, 38.232, -28.6255, -29.8958
3.26319, 4, 17.8648, 15.8799, 23.048, 38.2238, -28.6271, -29.8879
3.27321, 5, 17.8566, 15.8911, 23.0406, 38.1906, -28.6343, -29.8543
3.27912, 5, 17.8539, 15.8953, 23.0375, 38.1768, -28.6374, -29.8398
3.28923, 5, 17.8455, 15.9094, 23.0265, 38.1275, -28.6483, -29.7883
3.29515, 5, 17.8424, 15.9147, 23.0223, 38.1089, -28.6524, -29.7692
3.30473, 5, 17.8347, 15.9328, 23.009, 38.0519, -28.6651, -29.7097
3.31124, 5, 17.8256, 15.9395, 23.0044, 38.0326, -28.6695, -29.6894
3.32075, 5, 17.8156, 15.9533, 22.9951, 37.9931, -28.6783, -29.6273
3.32812, 5, 17.8053, 15.9674, 22.9856, 37.9527, -28.6873, -29.6063
3.33612, 5, 17.7949, 15.9816, 22.976, 37.9131, -28.6962, -29.5643
3.34417, 5, 17.7842, 15.9958, 22.9663, 37.8736, -28.7052, -29.5228
3.35213, 5, 17.7735, 16.0103, 22.9566, 37.8331, -28.7143, -29.4814
3.36012, 5, 17.763, 16.0249, 22.9469, 37.7927, -28.7236, -29.4399
3.36812, 5, 17.7524, 16.0392, 22.9372, 37.7533, -28.733, -29.3979
3.37612, 5, 17.7416, 16.0534, 22.9274, 37.7136, -28.7426, -29.3564
3.38312, 5, 17.7309, 16.0677, 22.9176, 37.673, -28.7523, -29.3153
3.39119, 5, 17.7201, 16.082, 22.9077, 37.6331, -28.7622, -29.2741
3.39918, 5, 17.7093, 16.0962, 22.8979, 37.5937, -28.7723, -29.2323
3.40713, 5, 17.6984, 16.1103, 22.8882, 37.5535, -28.7822, -29.1906
3.41513, 5, 17.6878, 16.1244, 22.8784, 37.5132, -28.792, -29.1497
3.42319, 5, 17.6771, 16.1387, 22.8686, 37.4738, -28.8015, -29.1089
3.43118, 5, 17.6663, 16.153, 22.8588, 37.4346, -28.811, -29.0675
3.43913, 5, 17.6556, 16.1672, 22.8488, 37.3944, -28.8204, -29.0258
3.4473, 5, 17.6449, 16.1813, 22.8389, 37.3545, -28.8298, -28.9848
3.45515, 5, 17.6341, 16.1957, 22.8291, 37.3153, -28.8392, -28.944
3.46315, 5, 17.6234, 16.2102, 22.8192, 37.2757, -28.8487, -28.9029
3.47124, 5, 17.6127, 16.2247, 22.8094, 37.2355, -28.8581, -28.8614
3.47912, 5, 17.6022, 16.239, 22.7996, 37.1962, -28.8677, -28.8198
3.4872, 5, 17.5917, 16.2533, 22.7898, 37.1572, -28.8774, -28.7788
3.49513, 5, 17.5811, 16.2678, 22.7801, 37.1172, -28.8873, -28.7381
3.50319, 5, 17.5705, 16.282, 22.7704, 37.0772, -28.8975, -28.697
3.51145, 5, 17.5599, 16.2961, 22.7606, 37.038, -28.9078, -28.6554
3.52012, 5, 17.5492, 16.3102, 22.7508, 36.9986, -28.9181, -28.6145
3.52736, 5, 17.5385, 16.3245, 22.7409, 36.9584, -28.9283, -28.574
3.53546, 5, 17.5278, 16.3388, 22.731, 36.9187, -28.9385, -28.5332
3.544, 5, 17.5171, 16.353, 22.7211, 36.8797, -28.9485, -28.4919
3.55213, 5, 17.5064, 16.3671, 22.7112, 36.8402, -28.9583, -28.4507
3.55962, 5, 17.4956, 16.3815, 22.7014, 36.8001, -28.968, -28.4102
3.56714, 5, 17.4849, 16.3958, 22.6916, 36.761, -28.9777, -28.3699
3.57525, 5, 17.4741, 16.41, 22.6818, 36.7221, -28.9874, -28.3293
3.58388, 5, 17.4634, 16.4242, 22.6721, 36.6823, -28.9972, -28.2883
3.59212, 5, 17.4528, 16.4384, 22.6625, 36.6428, -29.007, -28.2477
3.59929, 5, 17.4423, 16.4527, 22.6528, 36.6041, -29.0169, -28.2075
3.60808, 5, 17.4317, 16.4671, 22.6431, 36.5653, -29.0269, -28.1672
3.61612, 5, 17.4211, 16.4812, 22.6332, 36.5255, -29.0371, -28.1264
3.62346, 5, 17.4106, 16.4954, 22.6234, 36.4863, -29.0475, -28.0856
3.63236, 5, 17.4001, 16.5096, 22.6137, 36.4477, -29.058, -28.0456
3.63956, 5, 17.3895, 16.5238, 22.6039, 36.4085, -29.0685, -28.0057
3.64768, 5, 17.3789, 16.5379, 22.5941, 36.3688, -29.0789, -27.9656
3.65646, 5, 17.3684, 16.5519, 22.5845, 36.33, -29.089, -27.9249
3.66365, 5, 17.3578, 16.5661, 22.5747, 36.2915, -29.099, -27.8845
3.67228, 5, 17.347, 16.5804, 22.5651, 36.252, -29.1089, -27.8446
3.68053, 5, 17.3363, 16.5946, 22.5555, 36.2125, -29.1187, -27.8046
3.6877, 5, 17.331, 16.6017, 22.5507, 36.1739, -29.1286, -27.7641
3.69612, 5, 17.3149, 16.623, 22.5362, 36.135, -29.1385, -27.7234
3.70311, 5, 17.3095, 16.6302, 22.5314, 36.1151, -29.1434, -27.7033
3.71221, 5, 17.2935, 16.6515, 22.5168, 36.056, -29.1584, -27.6434
3.71911, 5, 17.2882, 16.6585, 22.5119, 36.0367, -29.1634, -27.6234
3.72903, 5, 17.2721, 16.6796, 22.4975, 35.9784, -29.1788, -27.563
3.73632, 5, 17.2615, 16.6939, 22.4878, 35.9388, -29.1893, -27.5227
3.7431, 5, 17.2562, 16.7011, 22.4829, 35.9193, -29.1947, -27.5028
3.75247, 5, 17.2402, 16.7223, 22.4685, 35.8615, -29.2108, -27.4434
3.76134, 5, 17.2295, 16.7364, 22.459, 35.8223, -29.2214, -27.4034
3.76713, 5, 17.2241, 16.7434, 22.4542, 35.8025, -29.2267, -27.3832
3.7766, 5, 17.2081, 16.7648, 22.44, 35.7447, -29.2424, -27.3231
3.78537, 5, 17.1973, 16.7789, 22.4305, 35.7064, -29.2526, -27.2837
3.79111, 5, 17.1919, 16.7859, 22.4257, 35.6868, -29.2578, -27.2639
3.80066, 5, 17.1758, 16.8069, 22.4113, 35.6283, -29.2731, -27.2043
3.80944, 5, 17.1704, 16.8141, 22.4017, 35.59, -29.2833, -27.1643
3.8151, 5, 17.1596, 16.8283, 22.3969, 35.5708, -29.2884, -27.1445
3.82411, 5, 17.1488, 16.8424, 22.3874, 35.5316, -29.2987, -27.1052
3.83217, 5, 17.1381, 16.8564, 22.3777, 35.4925, -29.3091, -27.0658
3.83911, 5, 17.1275, 16.8705, 22.3681, 35.4544, -29.3196, -27.0261
3.84715, 5, 17.1167, 16.8847, 22.3586, 35.416, -29.3303, -26.986
3.85513, 5, 17.1061, 16.8987, 22.349, 35.3768, -29.3412, -26.9465
3.86311, 5, 17.0954, 16.9126, 22.3396, 35.3379, -29.3522, -26.9075
3.87217, 5, 17.0848, 16.9266, 22.3302, 35.2998, -29.3631, -26.8684
3.88015, 5, 17.074, 16.9407, 22.3207, 35.261, -29.3739, -26.8287
3.88713, 5, 17.0633, 16.9549, 22.3113, 35.2217, -29.3845, -26.7889
3.89517, 5, 17.0526, 16.9691, 22.3017, 35.1833, -29.3949, -26.7496
3.9031, 5, 17.0419, 16.983, 22.2922, 35.1452, -29.4053, -26.7106
3.91111, 5, 17.0312, 16.9972, 22.2827, 35.1063, -29.4155, -26.6712
3.91917, 5, 17.0205, 17.0115, 22.2733, 35.0671, -29.4259, -26.6313
3.92712, 5, 17.0098, 17.0256, 22.2638, 35.0289, -29.4363, -26.5917
3.93512, 5, 16.9991, 17.0394, 22.2544, 34.9907, -29.4468, -26.5526
3.94316, 5, 16.9884, 17.0535, 22.2449, 34.9519, -29.4574, -26.5136
3.9511, 5, 16.9778, 17.0677, 22.2355, 34.9133, -29.4681, -26.4742
3.95913, 5, 16.9671, 17.0819, 22.2261, 34.8755, -29.4791, -26.4344
3.96725, 5, 16.9563, 17.0959, 22.2168, 34.8375, -29.4903, -26.3951
3.9751, 5, 16.9456, 17.1098, 22.2073, 34.7987, -29.5015, -26.3562
3.98323, 5, 16.9349, 17.1238, 22.198, 34.7604, -29.5127, -26.3173
3.9911, 5, 16.9241, 17.1379, 22.1885, 34.7228, -29.5237, -26.2778
3.9991, 5, 16.9133, 17.1519, 22.1789, 34.6845, -29.5346, -26.2382
4.00812, 5, 16.9026, 17.1657, 22.1695, 34.6457, -29.5454, -26.1994
4.01513, 5, 16.8918, 17.1797, 22.1601, 34.6076, -29.5561, -26.1606
4.02316, 5, 16.8809, 17.1938, 22.1506, 34.57, -29.5668, -26.1217
4.03205, 5, 16.8701, 17.208, 22.1413, 34.5315, -29.5775, -26.0823
4.04016, 5, 16.8593, 17.222, 22.1319, 34.4927, -29.5882, -26.0431
4.04728, 5, 16.8485, 17.2359, 22.1226, 34.4549, -29.599, -26.0046
4.05599, 5, 16.8377, 17.2501, 22.1134, 34.4171, -29.61, -25.9661
4.06416, 5, 16.8271, 17.2641, 22.1042, 34.3783, -29.6212, -25.9273
4.0711, 5, 16.8164, 17.278, 22.0949, 34.3397, -29.6325, -25.888
4.08, 5, 16.8057, 17.2918, 22.0857, 34.302, -29.6438, -25.8492
4.08817, 5, 16.7949, 17.3058, 22.0763, 34.2642, -29.6551, -25.8109
4.09514, 5, 16.7842, 17.3198, 22.0668, 34.2257, -29.6664, -25.7727
4.10434, 5, 16.7735, 17.3338, 22.0575, 34.1874, -29.6773, -25.7341
4.11125, 5, 16.7628, 17.3477, 22.0481, 34.1499, -29.6882, -25.6951
4.11936, 5, 16.7521, 17.3615, 22.0387, 34.1117, -29.699, -25.6566
4.12747, 5, 16.7414, 17.3756, 22.0294, 34.0732, -29.7098, -25.6184
4.13546, 5, 16.7305, 17.3895, 22.02, 34.0354, -29.7207, -25.5801
4.14414, 5, 16.7195, 17.4033, 22.0108, 33.9982, -29.7314, -25.5413
4.15285, 5, 16.7086, 17.4171, 22.0016, 33.9604, -29.7424, -25.5024
4.16019, 5, 16.6977, 17.4311, 21.9924, 33.9221, -29.7536, -25.4639
4.16765, 5, 16.6868, 17.4452, 21.9832, 33.8844, -29.765, -25.4258
4.17702, 5, 16.6759, 17.4592, 21.974, 33.8471, -29.7765, -25.3876
4.18422, 5, 16.6652, 17.4731, 21.9647, 33.8091, -29.7882, -25.3488
4.19171, 5, 16.6599, 17.4801, 21.9554, 33.771, -29.7999, -25.3101
4.20104, 5, 16.6437, 17.5012, 21.9463, 33.7338, -29.8114, -25.2719
4.20814, 5, 16.633, 17.5151, 21.937, 33.6964, -29.8229, -25.234
4.21521, 5, 16.6277, 17.522, 21.9324, 33.6774, -29.8285, -25.215
4.22515, 5, 16.6117, 17.5425, 21.9186, 33.6202, -29.8453, -25.1573
4.23114, 5, 16.6063, 17.5495, 21.914, 33.6016, -29.8509, -25.138
4.24036, 5, 16.5904, 17.5704, 21.9001, 33.5454, -29.8677, -25.0809
4.2471, 5, 16.5851, 17.5773, 21.8955, 33.5263, -29.8733, -25.0619
4.25641, 5, 16.5689, 17.5979, 21.8819, 33.4692, -29.8902, -25.0052
4.26321, 5, 16.5635, 17.6048, 21.8773, 33.4507, -29.8959, -24.986
4.27266, 5, 16.5473, 17.6257, 21.8636, 33.3947, -29.9133, -24.9286
4.27914, 5, 16.5419, 17.6326, 21.859, 33.3756, -29.9191, -24.9098
4.28866, 5, 16.5257, 17.6531, 21.8451, 33.319, -29.9369, -24.8534
4.29781, 5, 16.5149, 17.6669, 21.836, 33.282, -29.9488, -24.8155
4.30467, 5, 16.5042, 17.6808, 21.8267, 33.2445, -29.9604, -24.7774
4.31276, 5, 16.4934, 17.6947, 21.8176, 33.2066, -29.9719, -24.7394
4.32176, 5, 16.4879, 17.7086, 21.8085, 33.1696, -29.9832, -24.702
4.32809, 5, 16.4771, 17.7155, 21.8039, 33.1512, -29.9888, -24.6834
4.33613, 5, 16.4664, 17.7292, 21.7948, 33.1143, -30.0001, -24.6459
4.34409, 5, 16.4555, 17.7431, 21.7858, 33.0764, -30.0114, -24.6081
4.35219, 5, 16.4447, 17.7569, 21.7768, 33.039, -30.0228, -24.5701
4.3601, 5, 16.434, 17.7706, 21.7678, 33.0023, -30.0342, -24.5324
4.36809, 5, 16.4232, 17.7842, 21.7588, 32.9653, -30.0458, -24.495
4.37613, 5, 16.4123, 17.7979, 21.7497, 32.9275, -30.0575, -24.4574
4.38408, 5, 16.4014, 17.8117, 21.7405, 32.8904, -30.0696, -24.4193
4.39215, 5, 16.3906, 17.8256, 21.7314, 32.8538, -30.0817, -24.3813
4.40014, 5, 16.3798, 17.8393, 21.7223, 32.8167, -30.0939, -24.3437
4.4081, 5, 16.3689, 17.8529, 21.7131, 32.7788, -30.1059, -24.3063
4.41609, 5, 16.3581, 17.8668, 21.7041, 32.7418, -30.1176, -24.2686
4.42572, 5, 16.3419, 17.8874, 21.6905, 32.6865, -30.1351, -24.2116
4.43214, 5, 16.3364, 17.8943, 21.6859, 32.6677, -30.1409, -24.1927
4.4401, 5, 16.3255, 17.9078, 21.6769, 32.6299, -30.1525, -24.1552
4.45013, 5, 16.3093, 17.9285, 21.6636, 32.5747, -30.17, -24.0993
4.45512, 5, 16.3039, 17.9353, 21.6591, 32.5564, -30.1759, -24.0805
4.46316, 5, 16.2929, 17.9491, 21.6502, 32.5192, -30.1877, -24.0426
4.4711, 5, 16.282, 17.9627, 21.6413, 32.4816, -30.1997, -24.0049
4.47908, 5, 16.2711, 17.9764, 21.6322, 32.4449, -30.2119, -23.9677
4.48816, 5, 16.2602, 17.9901, 21.6231, 32.4083, -30.2242, -23.9307
4.4951, 5, 16.2491, 18.0038, 21.6141, 32.371, -30.2366, -23.8935
4.50408, 5, 16.2382, 18.0174, 21.6052, 32.3337, -30.2487, -23.8558
4.51221, 5, 16.2273, 18.0309, 21.5962, 32.2974, -30.2607, -23.8184
4.51912, 5, 16.2163, 18.0445, 21.5873, 32.2611, -30.2725, -23.7816
4.52722, 5, 16.2054, 18.0583, 21.5784, 32.224, -30.2842, -23.7448
4.53538, 5, 16.1946, 18.072, 21.5693, 32.1869, -30.2959, -23.7077
4.54318, 5, 16.1838, 18.0856, 21.5605, 32.1504, -30.3076, -23.6702
4.55133, 5, 16.173, 18.0992, 21.5517, 32.114, -30.3194, -23.633
4.55955, 5, 16.1623, 18.113, 21.5427, 32.0769, -30.3314, -23.5963
4.56714, 5, 16.1516, 18.1267, 21.5339, 32.0399, -30.3435, -23.5598
4.57536, 5, 16.1408, 18.1403, 21.525, 32.0037, -30.3559, -23.5231
4.58374, 5, 16.13, 18.1537, 21.5159, 31.9674, -30.3684, -23.486
4.59214, 5, 16.1192, 18.1674, 21.5069, 31.9303, -30.381, -23.4488
4.59911, 5, 16.1084, 18.1812, 21.498, 31.8933, -30.3935, -23.4122
4.60795, 5, 16.0974, 18.1949, 21.4891, 31.857, -30.4057, -23.3757
4.61609, 5, 16.0865, 18.2085, 21.4803, 31.8206, -30.4178, -23.339
4.62415, 5, 16.0757, 18.2221, 21.4715, 31.7834, -30.4298, -23.3017
4.63243, 5, 16.0648, 18.2358, 21.4626, 31.7465, -30.4418, -23.2648
4.63959, 5, 16.0539, 18.2495, 21.4538, 31.7104, -30.4539, -23.2282
4.64757, 5, 16.043, 18.263, 21.445, 31.6741, -30.4659, -23.1918
4.65639, 5, 16.0322, 18.2764, 21.4363, 31.637, -30.4781, -23.1552
4.66368, 5, 16.0213, 18.29, 21.4276, 31.6003, -30.4903, -23.1182
4.67231, 5, 16.0104, 18.3037, 21.4188, 31.5643, -30.5029, -23.0814
4.68041, 5, 15.9996, 18.3173, 21.4098, 31.528, -30.5155, -23.045
4.68774, 5, 15.9888, 18.3309, 21.4008, 31.4911, -30.5282, -23.0089
4.69625, 5, 15.9779, 18.3444, 21.392, 31.4548, -30.5406, -22.9726
4.70455, 5, 15.9725, 18.3512, 21.3831, 31.4191, -30.5528, -22.9359
4.71112, 5, 15.9616, 18.365, 21.3787, 31.4012, -30.5589, -22.9174
4.72017, 5, 15.9453, 18.3853, 21.3656, 31.3464, -30.577, -22.8629
4.72708, 5, 15.9398, 18.392, 21.3612, 31.3281, -30.5831, -22.8449
4.73508, 5, 15.9289, 18.4054, 21.3523, 31.2923, -30.5952, -22.8091
4.7443, 5, 15.9126, 18.4259, 21.3392, 31.2385, -30.6136, -22.7545
4.75112, 5, 15.9072, 18.4327, 21.3349, 31.2202, -30.6198, -22.7363
4.75907, 5, 15.8962, 18.4463, 21.3262, 31.1836, -30.6323, -22.7002
4.76852, 5, 15.88, 18.4665, 21.3132, 31.1301, -30.6515, -22.6467
4.77727, 5, 15.8692, 18.4801, 21.3045, 31.0941, -30.6645, -22.6108
4.78309, 5, 15.8638, 18.487, 21.3001, 31.0758, -30.671, -22.5927
4.79259, 5, 15.8474, 18.5072, 21.2867, 31.0212, -30.6902, -22.5381
4.80138, 5, 15.8367, 18.5206, 21.278, 30.9857, -30.7027, -22.5023
4.8071, 5, 15.8312, 18.5273, 21.2736, 30.9677, -30.709, -22.4846
4.81665, 5, 15.8203, 18.5408, 21.265, 30.9128, -30.7276, -22.4315
4.82548, 5, 15.8094, 18.5545, 21.252, 30.8767, -30.74, -22.3957
4.83108, 5, 15.7985, 18.5681, 21.2477, 30.8589, -30.7463, -22.3776
4.84007, 5, 15.7874, 18.5816, 21.2389, 30.8234, -30.7588, -22.3415
4.84812, 5, 15.7763, 18.595, 21.2302, 30.7872, -30.7715, -22.3059
4.85508, 5, 15.7654, 18.6087, 21.2216, 30.7507, -30.7844, -22.2705
4.86407, 5, 15.7544, 18.6222, 21.213, 30.7152, -30.7975, -22.235
4.87211, 5, 15.7434, 18.6357, 21.2045, 30.6797, -30.8106, -22.1989
4.87909, 5, 15.7324, 18.649, 21.1959, 30.6435, -30.8236, -22.1628
4.88807, 5, 15.7216, 18.6624, 21.187, 30.6073, -30.8364, -22.1273
4.89612, 5, 15.7106, 18.676, 21.1783, 30.5719, -30.849, -22.0921
4.90309, 5, 15.6996, 18.6896, 21.1696, 30.5368, -30.8615, -22.0568
4.91209, 5, 15.6888, 18.703, 21.161, 30.5009, -30.874, -22.021
4.92013, 5, 15.6779, 18.7163, 21.1524, 30.4648, -30.8864, -21.9851
4.92707, 5, 15.6669, 18.7298, 21.1439, 30.4295, -30.8989, -21.9496
4.93607, 5, 15.656, 18.7433, 21.1353, 30.3943, -30.9116, -21.9144
4.94415, 5, 15.6451, 18.7567, 21.1266, 30.3584, -30.9245, -21.8792
4.95108, 5, 15.6341, 18.7699, 21.1181, 30.3225, -30.9376, -21.8437
4.95914, 5, 15.623, 18.7833, 21.1097, 30.2873, -30.9509, -21.8079
4.96707, 5, 15.612, 18.7968, 21.1012, 30.2524, -30.9642, -21.7725
4.9753, 5, 15.601, 18.8104, 21.0928, 30.2166, -30.9772, -21.7375
4.98307, 5, 15.59, 18.8238, 21.0843, 30.1805, -30.9901, -21.7026
4.99107, 5, 15.579, 18.8371, 21.0756, 30.1453, -31.003, -21.6675
4.99987, 5, 15.5681, 18.8506, 21.0669, 30.1102, -31.0157, -21.6319
5.00813, 5, 15.5572, 18.8642, 21.0584, 30.0744, -31.0284, -21.5966
5.01514, 5, 15.5461, 18.8776, 21.0498, 30.0384, -31.0412, -21.562
5.02318, 5, 15.5352, 18.8909, 21.0412, 30.0031, -31.0541, -21.5274
5.03115, 5, 15.5243, 18.9042, 21.0328, 29.9683, -31.0671, -21.4925
5.03916, 5, 15.5133, 18.9177, 21.0243, 29.9328, -31.0803, -21.4573
5.04796, 5, 15.5023, 18.9312, 21.0157, 29.8968, -31.0938, -21.4218
5.05612, 5, 15.4913, 18.9446, 21.0072, 29.8616, -31.1072, -21.3872
5.06317, 5, 15.4803, 18.9579, 20.9989, 29.8269, -31.1204, -21.3527
5.07196, 5, 15.4692, 18.9712, 20.9905, 29.7916, -31.1334, -21.3182
5.08021, 5, 15.4582, 18.9847, 20.9821, 29.7559, -31.1463, -21.2836
5.0871, 5, 15.4473, 18.9981, 20.9737, 29.721, -31.1591, -21.2484
5.09609, 5, 15.4362, 19.0113, 20.9652, 29.6865, -31.1719, -21.2138
5.10312, 5, 15.4252, 19.0245, 20.9566, 29.6516, -31.1847, -21.1793
5.11123, 5, 15.4143, 19.0379, 20.9481, 29.6159, -31.1977, -21.1448
5.12036, 5, 15.4033, 19.0514, 20.9397, 29.5809, -31.211, -21.1102
5.12727, 5, 15.3922, 19.0648, 20.9312, 29.5464, -31.2244, -21.075
5.13549, 5, 15.3812, 19.0781, 20.9229, 29.5116, -31.2381, -21.0401
5.14359, 5, 15.3702, 19.0914, 20.9145, 29.4761, -31.2517, -21.0057
5.1515, 5, 15.3592, 19.1048, 20.906, 29.4411, -31.2653, -20.9713
5.15962, 5, 15.3481, 19.1182, 20.8976, 29.4067, -31.2787, -20.9371
5.16894, 5, 15.3371, 19.1314, 20.8894, 29.3721, -31.2919, -20.9023
5.17616, 5, 15.326, 19.1445, 20.881, 29.3366, -31.3051, -20.8674
5.18367, 5, 15.3148, 19.1579, 20.8727, 29.3016, -31.3183, -20.8331
5.19296, 5, 15.3035, 19.1713, 20.8644, 29.2672, -31.3314, -20.7989
5.20008, 5, 15.2924, 19.1847, 20.8559, 29.2325, -31.3447, -20.7648
5.2077, 5, 15.2869, 19.1914, 20.8516, 29.2148, -31.3515, -20.7305
5.2171, 5, 15.2702, 19.2112, 20.8389, 29.1617, -31.3719, -20.6957
5.22409, 5, 15.2591, 19.2246, 20.8306, 29.1273, -31.3858, -20.6614
5.23106, 5, 15.2536, 19.2313, 20.8264, 29.1101, -31.3927, -20.6445
5.24118, 5, 15.2371, 19.2512, 20.8139, 29.0578, -31.4131, -20.5938
5.24711, 5, 15.2316, 19.2577, 20.8098, 29.0401, -31.4198, -20.5769
5.25637, 5, 15.2152, 19.2775, 20.7971, 28.9883, -31.4397, -20.5255
5.26306, 5, 15.2097, 19.2842, 20.793, 28.9712, -31.4463, -20.5082
5.2725, 5, 15.1932, 19.3043, 20.7807, 28.919, -31.466, -20.4574
5.27905, 5, 15.1878, 19.3109, 20.7766, 28.9014, -31.4726, -20.4407
5.28867, 5, 15.1713, 19.3307, 20.7643, 28.8498, -31.4927, -20.3906
5.29516, 5, 15.1657, 19.3373, 20.7602, 28.8329, -31.4995, -20.3737
5.30464, 5, 15.149, 19.3574, 20.7478, 28.7814, -31.5203, -20.3223
5.31377, 5, 15.1379, 19.3706, 20.7393, 28.7465, -31.5343, -20.2884
5.3206, 5, 15.1324, 19.3772, 20.7351, 28.7292, -31.5483, -20.2551
5.32878, 5, 15.1213, 19.3968, 20.7226, 28.6782, -31.5621, -20.2218
5.33607, 5, 15.1102, 19.4034, 20.7184, 28.6611, -31.5689, -20.2051
5.34312, 5, 15.0992, 19.4167, 20.7101, 28.6262, -31.5825, -20.1714
5.3521, 5, 15.0882, 19.43, 20.7019, 28.5915, -31.596, -20.1374
5.36005, 5, 15.077, 19.4433, 20.6936, 28.5576, -31.6094, -20.1038
5.3681, 5, 15.066, 19.4563, 20.6852, 28.5237, -31.6229, -20.0703
5.37606, 5, 15.055, 19.4695, 20.677, 28.4891, -31.6365, -20.0369
5.38405, 5, 15.0439, 19.4828, 20.6688, 28.4543, -31.6504, -20.0032
5.39211, 5, 15.0328, 19.4959, 20.6607, 28.4202, -31.6644, -19.969
5.40005, 5, 15.0218, 19.509, 20.6526, 28.3863, -31.6786, -19.9349
5.40805, 5, 15.0107, 19.5221, 20.6445, 28.3518, -31.6927, -19.9014
5.41612, 5, 14.9995, 19.5353, 20.6362, 28.3169, -31.7066, -19.868
5.42405, 5, 14.9883, 19.5486, 20.6278, 28.2828, -31.7203, -19.8348
5.43207, 5, 14.9772, 19.5619, 20.6195, 28.2491, -31.7339, -19.8011
5.44011, 5, 14.9661, 19.575, 20.6114, 28.215, -31.7474, -19.767
5.44804, 5, 14.955, 19.5882, 20.6032, 28.1802, -31.7609, -19.7334
5.45706, 5, 14.944, 19.6015, 20.5951, 28.1459, -31.7745, -19.7002
5.46304, 5, 14.9329, 19.6146, 20.587, 28.1123, -31.7882, -19.667
5.47205, 5, 14.9217, 19.6277, 20.5787, 28.0784, -31.8023, -19.6338
5.47915, 5, 14.9106, 19.6407, 20.5704, 28.0439, -31.8166, -19.6003
5.48706, 5, 14.8996, 19.6539, 20.5623, 28.0098, -31.831, -19.5666
5.49613, 5, 14.8885, 19.6672, 20.5543, 27.9764, -31.8452, -19.5336
5.50307, 5, 14.8774, 19.6804, 20.5462, 27.943, -31.8592, -19.5007
5.51105, 5, 14.8663, 19.6935, 20.5382, 27.9089, -31.8731, -19.4679
5.52013, 5, 14.8551, 19.7065, 20.5301, 27.8747, -31.8868, -19.4347
5.5272, 5, 14.8438, 19.7198, 20.5218, 27.8413, -31.9005, -19.4014
5.53519, 5, 14.8325, 19.733, 20.5134, 27.808, -31.9143, -19.3681
5.5432, 5, 14.8214, 19.7461, 20.5054, 27.7742, -31.9283, -19.3356
5.55141, 5, 14.8102, 19.759, 20.4973, 27.7399, -31.9423, -19.3031
5.55923, 5, 14.7991, 19.7721, 20.4892, 27.7063, -31.9567, -19.2705
5.56723, 5, 14.788, 19.7854, 20.4811, 27.673, -31.9711, -19.2374
5.57567, 5, 14.777, 19.7986, 20.473, 27.6394, -31.9855, -19.2041
5.58411, 5, 14.7658, 19.8117, 20.4648, 27.6052, -31.9995, -19.1713
5.59114, 5, 14.7547, 19.8246, 20.4568, 27.5713, -32.0134, -19.1391
5.59987, 5, 14.7438, 19.8378, 20.4489, 27.5381, -32.0272, -19.1067
5.60804, 5, 14.7328, 19.851, 20.441, 27.5046, -32.041, -19.0743
5.61611, 5, 14.7217, 19.8641, 20.4331, 27.4704, -32.0547, -19.0414
5.62399, 5, 14.7107, 19.877, 20.4251, 27.4364, -32.0686, -19.0085
5.63206, 5, 14.6996, 19.8899, 20.4171, 27.4032, -32.0828, -18.9762
5.64011, 5, 14.6884, 19.9031, 20.4089, 27.3701, -32.0972, -18.9439
5.64824, 5, 14.6771, 19.9162, 20.4007, 27.3363, -32.1118, -18.9117
5.65563, 5, 14.666, 19.9294, 20.3927, 27.3024, -32.1264, -18.879
5.66427, 5, 14.6549, 19.9424, 20.3846, 27.2691, -32.1408, -18.8459
5.67234, 5, 14.6438, 19.9554, 20.3766, 27.236, -32.155, -18.8131
5.67965, 5, 14.6327, 19.9686, 20.3686, 27.2024, -32.1691, -18.7809
5.68823, 5, 14.6217, 19.9817, 20.3606, 27.1685, -32.1832, -18.749
5.69645, 5, 14.6105, 19.9946, 20.3525, 27.1353, -32.1972, -18.717
5.7037, 5, 14.6049, 20.0011, 20.3485, 27.1026, -32.2113, -18.6846
5.71211, 5, 14.5883, 20.0205, 20.3367, 27.0697, -32.2255, -18.6519
5.71901, 5, 14.5828, 20.0271, 20.3328, 27.0529, -32.2327, -18.6357
5.72716, 5, 14.5717, 20.0402, 20.3249, 27.0192, -32.2472, -18.6035
5.7362, 5, 14.5551, 20.0599, 20.3132, 26.9698, -32.2693, -18.5557
5.74305, 5, 14.5495, 20.0663, 20.3092, 26.9534, -32.2765, -18.5397
5.75104, 5, 14.5384, 20.0793, 20.3011, 26.9203, -32.2909, -18.5075
5.76032, 5, 14.5213, 20.099, 20.2891, 26.87, -32.3121, -18.4589
5.76709, 5, 14.5158, 20.1056, 20.2851, 26.8535, -32.3191, -18.4428
5.77656, 5, 14.499, 20.125, 20.2733, 26.8047, -32.3402, -18.3955
5.78449, 5, 14.4878, 20.1378, 20.2654, 26.7716, -32.3543, -18.3639
5.79343, 5, 14.4766, 20.1509, 20.2576, 26.7379, -32.3687, -18.3321
5.79906, 5, 14.471, 20.1574, 20.2537, 26.7213, -32.3759, -18.316
5.80859, 5, 14.4542, 20.177, 20.2417, 26.6722, -32.3982, -18.2678
5.8174, 5, 14.4485, 20.1899, 20.2338, 26.6393, -32.4131, -18.2362
5.82304, 5, 14.4373, 20.1963, 20.2299, 26.6225, -32.4206, -18.2205
5.83269, 5, 14.4262, 20.2093, 20.2222, 26.5889, -32.4425, -18.1737
5.84009, 5, 14.415, 20.2223, 20.2145, 26.556, -32.4497, -18.158
5.84808, 5, 14.4038, 20.2352, 20.2067, 26.5236, -32.4642, -18.1262
5.85509, 5, 14.3927, 20.2481, 20.1989, 26.4909, -32.4785, -18.094
5.86404, 5, 14.3814, 20.2609, 20.1909, 26.4574, -32.4929, -18.0625
5.87204, 5, 14.3701, 20.2739, 20.1829, 26.4244, -32.5074, -18.0313
5.87908, 5, 14.3588, 20.2869, 20.175, 26.392, -32.5221, -18.0002
5.88709, 5, 14.3477, 20.2999, 20.1672, 26.3596, -32.537, -17.969
5.8952, 5, 14.3365, 20.3128, 20.1594, 26.3265, -32.5522, -17.9372
5.90305, 5, 14.3252, 20.3257, 20.1515, 26.2935, -32.5671, -17.9054
5.91103, 5, 14.3141, 20.3388, 20.1438, 26.2613, -32.5818, -17.8741
5.92006, 5, 14.303, 20.3517, 20.1359, 26.2292, -32.5964, -17.8432
5.92702, 5, 14.2918, 20.3646, 20.128, 26.1967, -32.6108, -17.8121
5.93603, 5, 14.2808, 20.3774, 20.1204, 26.1636, -32.6251, -17.7809
5.94404, 5, 14.2697, 20.3902, 20.1128, 26.1311, -32.6396, -17.7492
5.95356, 5, 14.2586, 20.4033, 20.1052, 26.099, -32.6541, -17.7173
5.96003, 5, 14.2475, 20.4163, 20.0976, 26.0668, -32.6687, -17.6861
5.96908, 5, 14.2363, 20.4292, 20.0899, 26.0339, -32.6837, -17.6552
5.97508, 5, 14.2251, 20.442, 20.082, 26.0011, -32.6989, -17.6244
5.98305, 5, 14.2138, 20.455, 20.0741, 25.9691, -32.7139, -17.5934
5.99122, 5, 14.2026, 20.468, 20.0662, 25.9371, -32.7288, -17.562
5.99903, 5, 14.1915, 20.4809, 20.0585, 25.9046, -32.7436, -17.5304
6.0071, 5, 14.1804, 20.4937, 20.0507, 25.8717, -32.7582, -17.4994
6.01611, 5, 14.1692, 20.5065, 20.043, 25.8394, -32.7728, -17.4688
6.02403, 5, 14.1582, 20.5194, 20.0353, 25.8075, -32.7873, -17.4382
6.03114, 5, 14.147, 20.5324, 20.0276, 25.7752, -32.8021, -17.4073
6.03993, 5, 14.1358, 20.5453, 20.0197, 25.7422, -32.8171, -17.376
6.04803, 5, 14.1247, 20.5582, 20.012, 25.7095, -32.8323, -17.3448
6.05603, 5, 14.1137, 20.5709, 20.0045, 25.6776, -32.8478, -17.3141
6.06409, 5, 14.1025, 20.5839, 19.9969, 25.6457, -32.8628, -17.2838
6.07203, 5, 14.0914, 20.5967, 19.9893, 25.6133, -32.8778, -17.2533
6.08004, 5, 14.0802, 20.6096, 19.9818, 25.5806, -32.8924, -17.2227
6.08813, 5, 14.0689, 20.6222, 19.9741, 25.5485, -32.9071, -17.1917
6.09513, 5, 14.0576, 20.635, 19.9663, 25.5168, -32.9217, -17.1606
6.10313, 5, 14.0463, 20.6479, 19.9585, 25.4848, -32.9364, -17.1301
6.11203, 5, 14.035, 20.6608, 19.9509, 25.4522, -32.9513, -17.0998
6.12004, 5, 14.0238, 20.6737, 19.9433, 25.42, -32.9665, -17.0698
6.12805, 5, 14.0125, 20.6864, 19.9357, 25.3885, -32.9819, -17.0394
6.13642, 5, 14.0013, 20.6992, 19.9281, 25.3571, -32.9974, -17.0086
6.14345, 5, 13.9902, 20.7122, 19.9204, 25.325, -33.0128, -16.9777
6.15143, 5, 13.9789, 20.725, 19.9127, 25.2926, -33.0279, -16.9473
6.15956, 5, 13.9677, 20.7378, 19.905, 25.2609, -33.0428, -16.9173
6.16765, 5, 13.9566, 20.7504, 19.8975, 25.2294, -33.0577, -16.8874
6.17618, 5, 13.9455, 20.7632, 19.8901, 25.1977, -33.0726, -16.8573
6.1846, 5, 13.9343, 20.7761, 19.8826, 25.1653, -33.0875, -16.8269
6.19214, 5, 13.9231, 20.789, 19.8751, 25.1333, -33.1026, -16.7964
6.19961, 5, 13.9175, 20.7954, 19.8714, 25.1176, -33.1179, -16.7662
6.20893, 5, 13.9005, 20.8144, 19.8599, 25.0707, -33.1334, -16.7363
6.21611, 5, 13.8891, 20.8272, 19.8522, 25.0387, -33.1489, -16.7065
6.22302, 5, 13.8835, 20.8337, 19.8483, 25.0225, -33.1565, -16.6916
6.23314, 5, 13.8665, 20.8528, 19.8369, 24.9747, -33.1792, -16.6461
6.23907, 5, 13.8609, 20.8592, 19.8332, 24.959, -33.1866, -16.6308
6.24824, 5, 13.8439, 20.878, 19.8218, 24.9118, -33.2088, -16.5854
6.25508, 5, 13.8383, 20.8844, 19.8181, 24.8957, -33.2162, -16.5704
6.26443, 5, 13.8212, 20.9035, 19.8068, 24.8475, -33.2387, -16.526
6.27103, 5, 13.8156, 20.9099, 19.803, 24.8318, -33.2462, -16.5112
6.28156, 5, 13.7987, 20.9289, 19.7917, 24.785, -33.2695, -16.4662
6.28862, 5, 13.7875, 20.9415, 19.7843, 24.7533, -33.2852, -16.4359
6.29654, 5, 13.7763, 20.9543, 19.777, 24.7211, -33.3009, -16.4059
6.30461, 5, 13.765, 20.9671, 19.7697, 24.6895, -33.3162, -16.3763
6.31104, 5, 13.7594, 20.9734, 19.766, 24.6739, -33.3238, -16.3616
6.32061, 5, 13.748, 20.986, 19.7548, 24.6272, -33.3465, -16.3175
6.32958, 5, 13.7366, 20.9985, 19.7511, 24.6113, -33.354, -16.2878
6.33678, 5, 13.7255, 21.0176, 19.7396, 24.5638, -33.3767, -16.2577
6.34403, 5, 13.7142, 21.024, 19.7358, 24.5483, -33.3843, -16.2427
6.35202, 5, 13.703, 21.0367, 19.7283, 24.5174, -33.3998, -16.2132
6.35902, 5, 13.6919, 21.0494, 19.7209, 24.4865, -33.4155, -16.184
6.36801, 5, 13.6808, 21.062, 19.7134, 24.4549, -33.4314, -16.1549
6.37603, 5, 13.6695, 21.0747, 19.706, 24.4233, -33.447, -16.1257
6.38402, 5, 13.6582, 21.0875, 19.6985, 24.3925, -33.4625, -16.0961
6.39209, 5, 13.6469, 21.1001, 19.6909, 24.3618, -33.4777, -16.0663
6.40006, 5, 13.6357, 21.1126, 19.6834, 24.3307, -33.4928, -16.0366
6.40802, 5, 13.6244, 21.1251, 19.6761, 24.299, -33.5079, -16.0076
6.41601, 5, 13.6131, 21.1378, 19.6689, 24.2677, -33.5231, -15.9787
6.42408, 5, 13.6019, 21.1505, 19.6616, 24.2369, -33.5386, -15.9498
6.43203, 5, 13.5905, 21.1632, 19.6543, 24.2062, -33.5542, -15.9207
6.44001, 5, 13.5791, 21.1758, 19.647, 24.1749, -33.5701, -15.8913
6.44807, 5, 13.5679, 21.1884, 19.6396, 24.1432, -33.586, -15.8617
6.45601, 5, 13.5567, 21.2011, 19.6321, 24.1122, -33.6017, -15.8327
6.46501, 5, 13.5454, 21.2138, 19.6246, 24.0816, -33.6173, -15.804
6.47209, 5, 13.5343, 21.2264, 19.6173, 24.0507, -33.6327, -15.7753
6.48106, 5, 13.5231, 21.2389, 19.6099, 24.019, -33.648, -15.7465
6.48801, 5, 13.5118, 21.2514, 19.6026, 23.9875, -33.6634, -15.7174
6.49608, 5, 13.5005, 21.264, 19.5953, 23.9568, -33.6789, -15.6881
6.50409, 5, 13.4893, 21.2767, 19.588, 23.9264, -33.6946, -15.6592
6.51208, 5, 13.478, 21.2893, 19.5805, 23.8955, -33.7107, -15.6306
6.52001, 5, 13.4666, 21.3018, 19.5731, 23.8641, -33.7267, -15.602
6.52802, 5, 13.4553, 21.3143, 19.5658, 23.8331, -33.7426, -15.5732
6.53609, 5, 13.4439, 21.3269, 19.5587, 23.8025, -33.7582, -15.5441
6.54401, 5, 13.4324, 21.3396, 19.5515, 23.772, -33.7736, -15.5146
6.55203, 5, 13.4209, 21.3521, 19.5443, 23.7408, -33.789, -15.4854
6.56008, 5, 13.4095, 21.3645, 19.5371, 23.7096, -33.8043, -15.4566
6.568, 5, 13.398, 21.3771, 19.5298, 23.6791, -33.8199, -15.4281
6.57601, 5, 13.3866, 21.3897, 19.5223, 23.649, -33.8357, -15.3997
6.58407, 5, 13.3753, 21.4024, 19.5148, 23.6188, -33.8518, -15.3711
6.59204, 5, 13.364, 21.415, 19.5076, 23.5877, -33.8681, -15.342
6.59982, 5, 13.3526, 21.4275, 19.5004, 23.5569, -33.8842, -15.313
6.60807, 5, 13.3414, 21.44, 19.4931, 23.5265, -33.9001, -15.2842
6.61513, 5, 13.3302, 21.4527, 19.4859, 23.4964, -33.9158, -15.2557
6.62401, 5, 13.319, 21.4652, 19.4787, 23.466, -33.9314, -15.2273
6.63208, 5, 13.3077, 21.4776, 19.4714, 23.435, -33.9469, -15.199
6.64001, 5, 13.2965, 21.49, 19.464, 23.4044, -33.9626, -15.1703
6.6482, 5, 13.2852, 21.5024, 19.4569, 23.3745, -33.9784, -15.1415
6.65559, 5, 13.2738, 21.515, 19.4498, 23.3444, -33.9945, -15.1129
6.66409, 5, 13.2624, 21.5276, 19.4428, 23.3138, -34.0108, -15.0848
6.67247, 5, 13.2511, 21.5401, 19.4357, 23.2828, -34.0268, -15.0567
6.67955, 5, 13.2398, 21.5525, 19.4286, 23.2523, -34.0427, -15.0288
6.68812, 5, 13.2284, 21.5651, 19.4215, 23.2223, -34.0583, -15.0005
6.69656, 5, 13.2171, 21.5777, 19.4142, 23.1921, -34.074, -14.972
6.70362, 5, 13.2114, 21.584, 19.4105, 23.1612, -34.0895, -14.9434
6.71201, 5, 13.1943, 21.6028, 19.3996, 23.1304, -34.1051, -14.9153
6.71901, 5, 13.1886, 21.609, 19.396, 23.1153, -34.113, -14.9014
6.72701, 5, 13.1774, 21.6213, 19.3889, 23.0854, -34.129, -14.8736
6.73606, 5, 13.1604, 21.6401, 19.3781, 23.0404, -34.1535, -14.8321
6.74302, 5, 13.1547, 21.6463, 19.3745, 23.0251, -34.1617, -14.8181
6.751, 5, 13.1434, 21.6589, 19.3674, 22.9943, -34.178, -14.7898
6.76027, 5, 13.1263, 21.6774, 19.3565, 22.9493, -34.202, -14.7474
6.76701, 5, 13.1206, 21.6835, 19.3529, 22.9345, -34.2099, -14.7334
6.7751, 5, 13.1091, 21.696, 19.3458, 22.9047, -34.2256, -14.7058
6.78456, 5, 13.0921, 21.7146, 19.3353, 22.859, -34.2494, -14.6645
6.79335, 5, 13.0807, 21.7269, 19.3283, 22.829, -34.2654, -14.6369
6.79906, 5, 13.075, 21.733, 19.3248, 22.8142, -34.2735, -14.6231
6.80857, 5, 13.0581, 21.7515, 19.3143, 22.77, -34.2982, -14.5808
6.81738, 5, 13.0468, 21.764, 19.3072, 22.74, -34.3146, -14.5531
6.82309, 5, 13.0411, 21.7702, 19.3036, 22.7247, -34.3227, -14.5393
6.83262, 5, 13.0297, 21.7828, 19.2964, 22.6797, -34.3467, -14.4983
6.84147, 5, 13.0185, 21.7952, 19.2893, 22.6649, -34.3546, -14.4709
6.84708, 5, 13.0072, 21.8075, 19.2823, 22.6355, -34.3704, -14.4571
6.85605, 5, 12.9958, 21.82, 19.2753, 22.6058, -34.3861, -14.4291
6.86401, 5, 12.9845, 21.8325, 19.2683, 22.5755, -34.4021, -14.4008
6.87107, 5, 12.973, 21.8449, 19.2613, 22.5456, -34.4183, -14.3728
6.88005, 5, 12.9614, 21.8571, 19.2543, 22.5161, -34.4348, -14.3454
6.888, 5, 12.9499, 21.8694, 19.2472, 22.4869, -34.4515, -14.3181
6.89506, 5, 12.9386, 21.8819, 19.2401, 22.4571, -34.4679, -14.291
6.90309, 5, 12.9271, 21.8944, 19.2331, 22.4268, -34.4842, -14.2639
6.912, 5, 12.9157, 21.9068, 19.2263, 22.397, -34.5004, -14.2363
6.919, 5, 12.9044, 21.919, 19.2194, 22.3676, -34.5164, -14.2084
6.92802, 5, 12.8931, 21.9313, 19.2125, 22.3384, -34.5325, -14.1809
6.936, 5, 12.8817, 21.9438, 19.2055, 22.3084, -34.5488, -14.1537
6.943, 5, 12.8704, 21.9562, 19.1985, 22.278, -34.5652, -14.1266
6.95199, 5, 12.8592, 21.9685, 19.1914, 22.2482, -34.5819, -14.0997
6.96001, 5, 12.8479, 21.9806, 19.1843, 22.2189, -34.5986, -14.0726
6.96904, 5, 12.8367, 21.9929, 19.1773, 22.1898, -34.6151, -14.0451
6.97599, 5, 12.8254, 22.0053, 19.1704, 22.1599, -34.6313, -14.0174
6.98401, 5, 12.8141, 22.0177, 19.1634, 22.13, -34.6474, -13.9905
6.99206, 5, 12.8026, 22.03, 19.1565, 22.1006, -34.6633, -13.9638
7, 5, 12.7912, 22.0423, 19.1496, 22.0714, -34.6793, -13.9372
7.00808, 5, 12.7799, 22.0545, 19.1427, 22.0423, -34.6955, -13.9107
7.01601, 5, 12.7686, 22.0669, 19.1357, 22.0126, -34.7121, -13.8838
7.024, 5, 12.7572, 22.0792, 19.1288, 21.9828, -34.7289, -13.8565
7.03207, 5, 12.7459, 22.0914, 19.122, 21.9537, -34.7458, -13.8293
7.03906, 5, 12.7346, 22.1035, 19.1153, 21.9249, -34.7624, -13.8025
7.04799, 5, 12.7232, 22.1156, 19.1085, 21.8961, -34.7788, -13.7762
7.05608, 5, 12.7119, 22.1279, 19.1018, 21.8665, -34.795, -13.7499
7.06399, 5, 12.7006, 22.1402, 19.095, 21.837, -34.8113, -13.7236
7.07199, 5, 12.6891, 22.1526, 19.0882, 21.8079, -34.8275, -13.6973
7.08007, 5, 12.6778, 22.1648, 19.0812, 21.7791, -34.844, -13.6703
7.08799, 5, 12.6664, 22.1769, 19.0741, 21.7501, -34.8605, -13.6434
7.09602, 5, 12.6549, 22.1893, 19.0672, 21.7204, -34.8775, -13.617
7.10407, 5, 12.6434, 22.2016, 19.0604, 21.691, -34.8942, -13.5906
7.11199, 5, 12.6319, 22.2137, 19.0535, 21.6621, -34.9108, -13.5646
7.11915, 5, 12.6205, 22.2258, 19.0467, 21.6335, -34.9271, -13.5384
7.12811, 5, 12.609, 22.2378, 19.0399, 21.6047, -34.9433, -13.5121
7.13601, 5, 12.5976, 22.2501, 19.0331, 21.5751, -34.9595, -13.4855
7.14404, 5, 12.5862, 22.2624, 19.0262, 21.5457, -34.9758, -13.4587
7.1528, 5, 12.5747, 22.2747, 19.0193, 21.5167, -34.9923, -13.4325
7.16003, 5, 12.5631, 22.2868, 19.0125, 21.488, -35.0091, -13.4066
7.16813, 5, 12.5518, 22.2989, 19.0059, 21.4591, -35.0262, -13.3807
7.17555, 5, 12.5403, 22.3111, 18.9993, 21.4297, -35.0432, -13.3548
7.1841, 5, 12.5288, 22.3234, 18.9926, 21.4003, -35.0598, -13.3285
7.19215, 5, 12.5173, 22.3356, 18.986, 21.3715, -35.0764, -13.3016
7.20079, 5, 12.5116, 22.3416, 18.9793, 21.343, -35.0927, -13.2748
7.208, 5, 12.4942, 22.3597, 18.9725, 21.3143, -35.1092, -13.2485
7.21623, 5, 12.4826, 22.3719, 18.9656, 21.2849, -35.1257, -13.2227
7.22299, 5, 12.4768, 22.3781, 18.9622, 21.2702, -35.134, -13.2098
7.23105, 5, 12.4653, 22.3903, 18.9554, 21.2412, -35.1509, -13.184
7.2401, 5, 12.4479, 22.4085, 18.9454, 21.1985, -35.1766, -13.1453
7.24698, 5, 12.4422, 22.4144, 18.9421, 21.1842, -35.185, -13.1322
7.25629, 5, 12.425, 22.4325, 18.9321, 21.1407, -35.21, -13.0926
7.26298, 5, 12.4193, 22.4387, 18.9288, 21.1262, -35.2183, -13.0796
7.27236, 5, 12.4021, 22.4568, 18.9187, 21.0835, -35.2429, -13.041
7.27899, 5, 12.3964, 22.4627, 18.9153, 21.0694, -35.251, -13.0282
7.28845, 5, 12.3794, 22.4806, 18.9052, 21.0271, -35.2757, -12.9899
7.29664, 5, 12.3679, 22.4926, 18.8986, 20.9981, -35.2926, -12.9643
7.30461, 5, 12.3565, 22.5048, 18.8921, 20.9694, -35.3097, -12.9383
7.31254, 5, 12.345, 22.5169, 18.8856, 20.9411, -35.3269, -12.912
7.32059, 5, 12.3334, 22.5291, 18.879, 20.9131, -35.3439, -12.886
7.32703, 5, 12.3276, 22.5351, 18.8757, 20.8991, -35.3522, -12.8733
7.3365, 5, 12.3162, 22.5471, 18.8691, 20.8706, -35.3689, -12.8482
7.34577, 5, 12.3047, 22.5592, 18.8625, 20.8416, -35.3938, -12.8105
7.35205, 5, 12.2932, 22.5715, 18.8556, 20.8131, -35.4021, -12.7979
7.35998, 5, 12.2818, 22.5835, 18.8489, 20.7849, -35.4188, -12.7724
7.36797, 5, 12.2703, 22.5955, 18.8423, 20.7569, -35.4357, -12.7464
7.37498, 5, 12.2588, 22.6074, 18.8357, 20.7283, -35.4529, -12.7203
7.38398, 5, 12.2473, 22.6195, 18.8291, 20.6994, -35.4702, -12.6949
7.39199, 5, 12.2359, 22.6317, 18.8226, 20.6708, -35.4872, -12.6698
7.39998, 5, 12.2245, 22.6437, 18.816, 20.6428, -35.5039, -12.6448
7.408, 5, 12.213, 22.6557, 18.8095, 20.6148, -35.5205, -12.6199
7.41603, 5, 12.2016, 22.6675, 18.8028, 20.5863, -35.537, -12.5949
7.42558, 5, 12.1842, 22.6857, 18.7929, 20.543, -35.5619, -12.5565
7.43199, 5, 12.1784, 22.6917, 18.7897, 20.5288, -35.5703, -12.5437
7.44004, 5, 12.1668, 22.7038, 18.7833, 20.5008, -35.5875, -12.5185
7.448, 5, 12.1553, 22.7157, 18.777, 20.4731, -35.6049, -12.4935
7.45597, 5, 12.1438, 22.7275, 18.7706, 20.4449, -35.6222, -12.4686
7.46404, 5, 12.1322, 22.7395, 18.7642, 20.4163, -35.6393, -12.444
7.47362, 5, 12.1207, 22.7517, 18.7577, 20.3879, -35.6562, -12.4192
7.47998, 5, 12.1092, 22.7638, 18.7511, 20.36, -35.673, -12.3942
7.48806, 5, 12.0976, 22.7758, 18.7445, 20.3323, -35.6897, -12.3689
7.49598, 5, 12.0862, 22.7877, 18.7379, 20.3041, -35.7065, -12.3434
7.50398, 5, 12.0747, 22.7997, 18.7314, 20.2755, -35.7235, -12.3186
7.51212, 5, 12.0632, 22.8118, 18.7249, 20.2473, -35.7408, -12.294
7.51917, 5, 12.0517, 22.8238, 18.7184, 20.2196, -35.7582, -12.2695
7.52698, 5, 12.0402, 22.8356, 18.7119, 20.1922, -35.7754, -12.2451
7.53599, 5, 12.0285, 22.8474, 18.7054, 20.1646, -35.7924, -12.2203
7.54399, 5, 12.0168, 22.8592, 18.699, 20.1364, -35.8091, -12.1949
7.55204, 5, 12.0052, 22.8713, 18.6924, 20.1082, -35.8258, -12.1695
7.55997, 5, 11.9936, 22.8833, 18.6859, 20.0805, -35.8426, -12.1443
7.56798, 5, 11.982, 22.8953, 18.6795, 20.053, -35.8596, -12.1197
7.57604, 5, 11.9704, 22.9071, 18.6732, 20.0254, -35.8768, -12.0955
7.58399, 5, 11.9589, 22.9189, 18.6669, 19.9973, -35.8944, -12.0712
7.59198, 5, 11.9473, 22.931, 18.6606, 19.9692, -35.9119, -12.0469
7.60006, 5, 11.9357, 22.943, 18.6543, 19.9416, -35.9292, -12.0223
7.60797, 5, 11.9242, 22.9548, 18.648, 19.9144, -35.9463, -11.9973
7.61598, 5, 11.9128, 22.9667, 18.6416, 19.887, -35.9633, -11.9724
7.62405, 5, 11.9013, 22.9784, 18.635, 19.859, -35.9803, -11.948
7.63197, 5, 11.8898, 22.9904, 18.6285, 19.8308, -35.9973, -11.9238
7.6401, 5, 11.8782, 23.0024, 18.6221, 19.803, -36.0146, -11.8996
7.64798, 5, 11.8665, 23.0144, 18.6158, 19.7756, -36.0321, -11.8755
7.65597, 5, 11.8548, 23.0262, 18.6095, 19.7482, -36.0498, -11.8512
7.66426, 5, 11.8432, 23.0379, 18.6032, 19.7202, -36.0672, -11.8267
7.67147, 5, 11.8316, 23.0498, 18.5969, 19.692, -36.0844, -11.802
7.67959, 5, 11.82, 23.0618, 18.5905, 19.6643, -36.1014, -11.7775
7.68844, 5, 11.8085, 23.0736, 18.5841, 19.6371, -36.1183, -11.7534
7.69553, 5, 11.797, 23.0854, 18.5777, 19.61, -36.1352, -11.7296
7.70408, 5, 11.7854, 23.0971, 18.5713, 19.5825, -36.1522, -11.7059
7.71239, 5, 11.7796, 23.103, 18.5682, 19.5685, -36.1609, -11.6941
7.71893, 5, 11.7682, 23.1149, 18.562, 19.5405, -36.1785, -11.6702
7.728, 5, 11.7509, 23.1327, 18.5528, 19.4995, -36.205, -11.6339
7.73684, 5, 11.7394, 23.1446, 18.5466, 19.4726, -36.2224, -11.6094
7.74406, 5, 11.728, 23.1564, 18.5403, 19.4453, -36.2396, -11.5853
7.75101, 5, 11.7222, 23.1623, 18.5372, 19.4315, -36.2481, -11.5734
7.7611, 5, 11.7047, 23.1801, 18.5276, 19.39, -36.2736, -11.5381
7.76825, 5, 11.6931, 23.1919, 18.5212, 19.363, -36.2908, -11.5146
7.77496, 5, 11.6874, 23.1978, 18.518, 19.3496, -36.2994, -11.5028
7.78531, 5, 11.6699, 23.2153, 18.5085, 19.3095, -36.3258, -11.4672
7.79103, 5, 11.6641, 23.2211, 18.5054, 19.2958, -36.3347, -11.4552
7.80053, 5, 11.6468, 23.2387, 18.496, 19.2544, -36.361, -11.4191
7.80934, 5, 11.6352, 23.2506, 18.4897, 19.2272, -36.3782, -11.3955
7.81503, 5, 11.6294, 23.2565, 18.4866, 19.2138, -36.3867, -11.3838
7.82456, 5, 11.612, 23.2742, 18.4773, 19.1737, -36.4122, -11.3487
7.83339, 5, 11.6063, 23.28, 18.4742, 19.1602, -36.4293, -11.3254
7.83902, 5, 11.5947, 23.2917, 18.4679, 19.1327, -36.4379, -11.3136
7.849, 5, 11.5773, 23.3096, 18.4585, 19.0917, -36.4642, -11.2782
7.85598, 5, 11.5715, 23.3155, 18.4555, 19.0783, -36.4732, -11.2663
7.86302, 5, 11.5598, 23.3272, 18.4495, 19.0517, -36.4911, -11.2424
7.87201, 5, 11.548, 23.3388, 18.4435, 19.0251, -36.5088, -11.2186
7.87996, 5, 11.5363, 23.3505, 18.4374, 18.9979, -36.5262, -11.1953
7.88696, 5, 11.5247, 23.3623, 18.4314, 18.9704, -36.5435, -11.1722
7.89597, 5, 11.513, 23.3742, 18.4252, 18.9433, -36.5607, -11.1492
7.90397, 5, 11.5014, 23.3859, 18.419, 18.9167, -36.578, -11.126
7.91115, 5, 11.4899, 23.3976, 18.4127, 18.89, -36.5955, -11.1025
7.91896, 5, 11.4783, 23.4092, 18.4064, 18.8629, -36.6132, -11.0786
7.92797, 5, 11.4667, 23.421, 18.4002, 18.8353, -36.6311, -11.0546
7.93496, 5, 11.4553, 23.4328, 18.3941, 18.8081, -36.6488, -11.0309
7.94396, 5, 11.4438, 23.4445, 18.3879, 18.7813, -36.6662, -11.0075
7.95197, 5, 11.4323, 23.4561, 18.3817, 18.7549, -36.6834, -10.9843
7.95896, 5, 11.4208, 23.4677, 18.3756, 18.7283, -36.7006, -10.9615
7.96796, 5, 11.4092, 23.4793, 18.3695, 18.7011, -36.7177, -10.9384
7.97696, 5, 11.3975, 23.4911, 18.3633, 18.6739, -36.7352, -10.9151
7.98296, 5, 11.3858, 23.5028, 18.357, 18.6472, -36.7528, -10.8916
7.99196, 5, 11.3742, 23.5146, 18.3509, 18.6208, -36.7709, -10.8681
7.99997, 5, 11.3627, 23.5262, 18.3448, 18.5944, -36.7889, -10.8448
8.00809, 5, 11.351, 23.5377, 18.3389, 18.5674, -36.8066, -10.8219
8.01604, 5, 11.3395, 23.5495, 18.333, 18.5403, -36.8242, -10.7992
8.02396, 5, 11.328, 23.5612, 18.327, 18.5136, -36.8416, -10.7763
8.03197, 5, 11.3164, 23.5727, 18.3211, 18.4874, -36.859, -10.7535
8.03996, 5, 11.3048, 23.5842, 18.3151, 18.4615, -36.8765, -10.7303
8.04803, 5, 11.2934, 23.5957, 18.309, 18.4351, -36.8944, -10.7069
8.05596, 5, 11.2818, 23.6074, 18.3029, 18.4082, -36.9126, -10.6837
8.06396, 5, 11.2703, 23.6191, 18.2967, 18.3814, -36.9308, -10.6605
8.07205, 5, 11.2587, 23.6308, 18.2906, 18.3551, -36.9486, -10.638
8.07998, 5, 11.247, 23.6424, 18.2846, 18.3289, -36.9662, -10.6155
8.08715, 5, 11.2353, 23.6539, 18.2786, 18.3027, -36.9837, -10.5933
8.09585, 5, 11.2236, 23.6655, 18.2726, 18.2759, -37.001, -10.571
8.10398, 5, 11.212, 23.6772, 18.2667, 18.249, -37.0185, -10.5484
8.11197, 5, 11.2003, 23.6888, 18.2607, 18.2226, -37.0363, -10.5255
8.12009, 5, 11.1886, 23.7004, 18.2547, 18.1966, -37.0543, -10.5023
8.12713, 5, 11.177, 23.7119, 18.2486, 18.1707, -37.0725, -10.4793
8.13522, 5, 11.1654, 23.7234, 18.2425, 18.1444, -37.0904, -10.457
8.14325, 5, 11.1537, 23.7351, 18.2366, 18.1175, -37.1083, -10.4347
8.15138, 5, 11.1421, 23.7467, 18.2307, 18.0909, -37.126, -10.4127
8.15932, 5, 11.1306, 23.7583, 18.2249, 18.0646, -37.1435, -10.3906
8.16759, 5, 11.1191, 23.7699, 18.2191, 18.0387, -37.1611, -10.3683
8.17559, 5, 11.1075, 23.7813, 18.2132, 18.0126, -37.179, -10.3457
8.18418, 5, 11.096, 23.7929, 18.2074, 17.9859, -37.197, -10.323
8.19155, 5, 11.0842, 23.8046, 18.2015, 17.9591, -37.2153, -10.3005
8.19961, 5, 11.0725, 23.8161, 18.1955, 17.9329, -37.2333, -10.2783
8.20814, 5, 11.0608, 23.8276, 18.1894, 17.907, -37.251, -10.2564
8.21652, 5, 11.055, 23.8333, 18.1863, 17.8941, -37.2597, -10.2455
8.22396, 5, 11.0375, 23.8505, 18.1774, 17.855, -37.2859, -10.2128
8.23206, 5, 11.0259, 23.8621, 18.1716, 17.8283, -37.3033, -10.1908
8.23894, 5, 11.02, 23.8679, 18.1686, 17.8151, -37.3121, -10.1797
8.2481, 5, 11.0025, 23.8852, 18.1598, 17.7759, -37.3391, -10.146
8.25495, 5, 10.9967, 23.891, 18.1569, 17.763, -37.3482, -10.1348
8.26525, 5, 10.9793, 23.9081, 18.1481, 17.7244, -37.3756, -10.1014
8.27095, 5, 10.9736, 23.9138, 18.1452, 17.7114, -37.3846, -10.0904
8.28028, 5, 10.9561, 23.9311, 18.1363, 17.6718, -37.4113, -10.0578
8.28699, 5, 10.9503, 23.9368, 18.1334, 17.6588, -37.4201, -10.047
8.29655, 5, 10.9329, 23.9539, 18.1246, 17.6204, -37.4466, -10.0144
8.30447, 5, 10.9212, 23.9652, 18.1189, 17.5951, -37.4645, -9.99237
8.31353, 5, 10.9096, 23.9767, 18.1133, 17.5693, -37.4826, -9.96997
8.32058, 5, 10.8981, 23.9883, 18.1076, 17.543, -37.5009, -9.94747
8.32852, 5, 10.8923, 23.9998, 18.1019, 17.517, -37.5191, -9.92513
8.33659, 5, 10.8807, 24.0056, 18.0991, 17.5042, -37.537, -9.90328
8.34305, 5, 10.8692, 24.017, 18.0934, 17.4787, -37.5459, -9.89244
8.35194, 5, 10.8577, 24.0284, 18.0875, 17.4534, -37.5636, -9.87087
8.35994, 5, 10.8461, 24.0399, 18.0816, 17.4277, -37.5811, -9.84953
8.368, 5, 10.8344, 24.0515, 18.0757, 17.4016, -37.5988, -9.82804
8.37594, 5, 10.8228, 24.0629, 18.0698, 17.3755, -37.6168, -9.80629
8.38395, 5, 10.8112, 24.0743, 18.0641, 17.3498, -37.6352, -9.7843
8.39195, 5, 10.7994, 24.0855, 18.0583, 17.3245, -37.6537, -9.7623
8.39994, 5, 10.7878, 24.0969, 18.0525, 17.2991, -37.6719, -9.74066
8.40802, 5, 10.776, 24.1084, 18.0468, 17.2733, -37.69, -9.71914
8.41603, 5, 10.764, 24.1199, 18.041, 17.2471, -37.7079, -9.69796
8.42395, 5, 10.7521, 24.1313, 18.0352, 17.2213, -37.7258, -9.67675
8.43199, 5, 10.7404, 24.1427, 18.0294, 17.1958, -37.7437, -9.65546
8.43997, 5, 10.7286, 24.1539, 18.0236, 17.1707, -37.7619, -9.63416
8.44794, 5, 10.7169, 24.1654, 18.0178, 17.1451, -37.7804, -9.61252
8.45496, 5, 10.7053, 24.1769, 18.0122, 17.1189, -37.799, -9.59071
8.46397, 5, 10.6935, 24.1883, 18.0066, 17.0928, -37.8173, -9.5689
8.47295, 5, 10.6818, 24.1996, 18.0011, 17.0672, -37.8354, -9.54738
8.48001, 5, 10.6703, 24.2108, 17.9955, 17.042, -37.8533, -9.52624
8.48901, 5, 10.6587, 24.2222, 17.99, 17.0169, -37.8711, -9.50536
8.49594, 5, 10.6471, 24.2337, 17.9844, 16.9915, -37.889, -9.48463
8.50402, 5, 10.6355, 24.2451, 17.9787, 16.9656, -37.9071, -9.46397
8.51195, 5, 10.6238, 24.2565, 17.973, 16.94, -37.9256, -9.44305
8.51994, 5, 10.6119, 24.2678, 17.9672, 16.9147, -37.9442, -9.42186
8.528, 5, 10.6, 24.279, 17.9615, 16.8897, -37.9626, -9.4003
8.53598, 5, 10.5882, 24.2904, 17.9558, 16.8645, -37.9808, -9.37891
8.54298, 5, 10.5764, 24.3018, 17.9502, 16.8389, -37.9989, -9.35769
8.55103, 5, 10.5646, 24.3131, 17.9447, 16.813, -38.0169, -9.33694
8.55996, 5, 10.5528, 24.3242, 17.9391, 16.7878, -38.035, -9.31645
8.56801, 5, 10.541, 24.3354, 17.9335, 16.7628, -38.0532, -9.29602
8.57594, 5, 10.5293, 24.3466, 17.928, 16.7382, -38.0718, -9.27555
8.58403, 5, 10.5176, 24.358, 17.9224, 16.7133, -38.0905, -9.25471
8.592, 5, 10.506, 24.3694, 17.9167, 16.6878, -38.1089, -9.23363
8.60003, 5, 10.4944, 24.3807, 17.911, 16.6623, -38.127, -9.2125
8.60777, 5, 10.4827, 24.392, 17.9054, 16.6373, -38.1449, -9.19165
8.616, 5, 10.4711, 24.4032, 17.8999, 16.6124, -38.1628, -9.17088
8.62393, 5, 10.4595, 24.4146, 17.8945, 16.5876, -38.1808, -9.15042
8.63195, 5, 10.4477, 24.426, 17.8891, 16.5625, -38.1991, -9.13017
8.64002, 5, 10.4361, 24.4373, 17.8836, 16.537, -38.2177, -9.10997
8.64794, 5, 10.4245, 24.4485, 17.8782, 16.5118, -38.2363, -9.08959
8.65611, 5, 10.4129, 24.4596, 17.8727, 16.487, -38.255, -9.06905
8.66397, 5, 10.4013, 24.4709, 17.8672, 16.4625, -38.2732, -9.04822
8.67201, 5, 10.3897, 24.4823, 17.8616, 16.4378, -38.2914, -9.02714
8.68031, 5, 10.378, 24.4936, 17.8559, 16.4126, -38.3094, -9.0063
8.68747, 5, 10.3663, 24.5048, 17.8503, 16.3871, -38.3275, -8.9859
8.69605, 5, 10.3546, 24.5159, 17.8447, 16.3619, -38.3459, -8.96546
8.70448, 5, 10.3429, 24.5271, 17.8393, 16.337, -38.3646, -8.94534
8.71152, 5, 10.337, 24.5327, 17.8365, 16.3123, -38.3833, -8.92534
8.72011, 5, 10.3194, 24.5496, 17.8283, 16.2875, -38.4017, -8.90519
8.72693, 5, 10.3135, 24.5552, 17.8255, 16.2749, -38.4108, -8.89504
8.73493, 5, 10.3017, 24.5664, 17.8201, 16.2495, -38.4288, -8.87454
8.74397, 5, 10.284, 24.583, 17.812, 16.2119, -38.4558, -8.84319
8.75293, 5, 10.2723, 24.5942, 17.8065, 16.1873, -38.4739, -8.82252
8.76012, 5, 10.2605, 24.6055, 17.801, 16.1629, -38.4923, -8.80207
8.76698, 5, 10.2546, 24.6111, 17.7982, 16.1507, -38.5016, -8.79193
8.7771, 5, 10.2371, 24.6279, 17.7902, 16.1131, -38.5299, -8.76199
8.78429, 5, 10.2254, 24.639, 17.785, 16.0879, -38.5485, -8.74227
8.79093, 5, 10.2195, 24.6445, 17.7824, 16.0755, -38.5578, -8.73238
8.80133, 5, 10.202, 24.6613, 17.7745, 16.0388, -38.5851, -8.70235
8.80699, 5, 10.1962, 24.667, 17.7718, 16.0267, -38.5942, -8.69223
8.81657, 5, 10.1787, 24.6836, 17.764, 15.99, -38.6217, -8.66151
8.82533, 5, 10.1669, 24.6947, 17.7586, 15.965, -38.6403, -8.64119
8.83099, 5, 10.1611, 24.7001, 17.7559, 15.9525, -38.6497, -8.63113
8.84057, 5, 10.1493, 24.7112, 17.7504, 15.9157, -38.678, -8.60125
8.84793, 5, 10.1374, 24.7224, 17.7449, 15.9036, -38.6872, -8.59142
8.855, 5, 10.1255, 24.7336, 17.7394, 15.8796, -38.7056, -8.5719
8.86397, 5, 10.1137, 24.7447, 17.734, 15.8554, -38.7238, -8.55227
8.87194, 5, 10.1019, 24.7559, 17.7286, 15.8307, -38.7419, -8.53271
8.87899, 5, 10.09, 24.7669, 17.7233, 15.8058, -38.7601, -8.51283
8.88797, 5, 10.0783, 24.778, 17.7179, 15.7812, -38.7785, -8.49272
8.89593, 5, 10.0665, 24.7892, 17.7126, 15.757, -38.7974, -8.47241
8.90294, 5, 10.0547, 24.8003, 17.7073, 15.733, -38.8163, -8.4523
8.91193, 5, 10.043, 24.8114, 17.702, 15.7089, -38.835, -8.43244
8.92001, 5, 10.0313, 24.8224, 17.6966, 15.6842, -38.8535, -8.41299
8.92799, 5, 10.0196, 24.8333, 17.6912, 15.6593, -38.8718, -8.39362
8.93593, 5, 10.0079, 24.8445, 17.6859, 15.635, -38.89, -8.37435
8.94395, 5, 9.99614, 24.8557, 17.6806, 15.6109, -38.9084, -8.35515
8.95092, 5, 9.98424, 24.8668, 17.6755, 15.587, -38.927, -8.33572
8.95992, 5, 9.97235, 24.8779, 17.6704, 15.5628, -38.946, -8.31605
8.96795, 5, 9.9606, 24.8888, 17.6652, 15.5382, -38.9649, -8.29618
8.97692, 5, 9.94881, 24.8998, 17.6601, 15.5135, -38.9836, -8.27638
8.98396, 5, 9.93704, 24.911, 17.655, 15.4891, -39.002, -8.25672
8.99294, 5, 9.92536, 24.9221, 17.6498, 15.4651, -39.0203, -8.2373
8.99892, 5, 9.91359, 24.9332, 17.6446, 15.4412, -39.0385, -8.21829
9.00794, 5, 9.90175, 24.9441, 17.6393, 15.4169, -39.0568, -8.1993
9.01593, 5, 9.89001, 24.955, 17.634, 15.3922, -39.0754, -8.18038
9.02393, 5, 9.87836, 24.9662, 17.6287, 15.3675, -39.0944, -8.16136
9.03192, 5, 9.86661, 24.9773, 17.6234, 15.3432, -39.1135, -8.14212
9.04, 5, 9.8549, 24.9884, 17.6183, 15.3193, -39.1323, -8.12254
9.04792, 5, 9.84321, 24.9995, 17.6132, 15.2955, -39.1508, -8.10282
9.05593, 5, 9.83141, 25.0103, 17.608, 15.2715, -39.1693, -8.08331
9.06401, 5, 9.81953, 25.0213, 17.6029, 15.2469, -39.1877, -8.06411
9.07193, 5, 9.80777, 25.0323, 17.5978, 15.2225, -39.2062, -8.04522
9.07992, 5, 9.79603, 25.0433, 17.5926, 15.1985, -39.2251, -8.02643
9.08807, 5, 9.78424, 25.0543, 17.5874, 15.1748, -39.2441, -8.00784
9.09592, 5, 9.77256, 25.0651, 17.5822, 15.1511, -39.2631, -7.9892
9.10393, 5, 9.76089, 25.0759, 17.577, 15.1271, -39.2817, -7.9703
9.11201, 5, 9.74907, 25.0869, 17.5718, 15.1027, -39.3002, -7.95123
9.11999, 5, 9.7373, 25.0979, 17.5667, 15.0784, -39.3185, -7.93193
9.12792, 5, 9.72562, 25.1089, 17.5617, 15.0546, -39.337, -7.91243
9.13614, 5, 9.71389, 25.1199, 17.5567, 15.031, -39.3555, -7.89315
9.14331, 5, 9.70204, 25.1309, 17.5517, 15.0077, -39.3744, -7.87418
9.15127, 5, 9.69031, 25.1417, 17.5467, 14.9842, -39.3936, -7.85543
9.15931, 5, 9.67842, 25.1527, 17.5417, 14.96, -39.4126, -7.83677
9.16742, 5, 9.66642, 25.1638, 17.5366, 14.9358, -39.4314, -7.81829
9.1754, 5, 9.65449, 25.1747, 17.5315, 14.912, -39.4501, -7.7998
9.18488, 5, 9.64264, 25.1856, 17.5263, 14.8884, -39.4686, -7.78122
9.19202, 5, 9.63074, 25.1964, 17.5211, 14.865, -39.4872, -7.76226
9.20008, 5, 9.61891, 25.2073, 17.5159, 14.8413, -39.506, -7.74297
9.20882, 5, 9.60712, 25.2183, 17.5108, 14.817, -39.5251, -7.7237
9.21598, 5, 9.59529, 25.2292, 17.5058, 14.7928, -39.5444, -7.70466
9.22416, 5, 9.58348, 25.2401, 17.5007, 14.7691, -39.5633, -7.6859
9.23091, 5, 9.57765, 25.2456, 17.4982, 14.7574, -39.5726, -7.67661
9.23996, 5, 9.56013, 25.2617, 17.4908, 14.7225, -39.6005, -7.64914
9.24803, 5, 9.54836, 25.2726, 17.4858, 14.699, -39.6189, -7.63094
9.25491, 5, 9.5425, 25.2781, 17.4833, 14.687, -39.6282, -7.62194
9.26436, 5, 9.52484, 25.2944, 17.4758, 14.6508, -39.6563, -7.59453
9.27091, 5, 9.51889, 25.2999, 17.4732, 14.6388, -39.6659, -7.58532
9.28041, 5, 9.50098, 25.3161, 17.4656, 14.6035, -39.6948, -7.55707
9.28692, 5, 9.49509, 25.3214, 17.4632, 14.5918, -39.7043, -7.5476
9.29635, 5, 9.47736, 25.3376, 17.4558, 14.5566, -39.7326, -7.51966
9.30447, 5, 9.46555, 25.3486, 17.4511, 14.5326, -39.7512, -7.50147
9.31253, 5, 9.45378, 25.3594, 17.4463, 14.5085, -39.7698, -7.48342
9.32047, 5, 9.44194, 25.3703, 17.4415, 14.4848, -39.7886, -7.46537
9.32952, 5, 9.42999, 25.381, 17.4367, 14.4615, -39.8076, -7.4475
9.33655, 5, 9.41819, 25.3917, 17.4318, 14.4384, -39.8269, -7.42962
9.34446, 5, 9.41231, 25.3971, 17.4294, 14.4268, -39.8365, -7.42063
9.35191, 5, 9.40046, 25.408, 17.4245, 14.4033, -39.8557, -7.40245
9.35892, 5, 9.38859, 25.4188, 17.4195, 14.3793, -39.8745, -7.38411
9.36902, 5, 9.3708, 25.4349, 17.4119, 14.3437, -39.9023, -7.35618
9.37498, 5, 9.36481, 25.4402, 17.4094, 14.332, -39.9115, -7.34696
9.38396, 5, 9.35283, 25.4508, 17.4044, 14.3088, -39.9302, -7.32871
9.3919, 5, 9.34097, 25.4616, 17.3995, 14.2857, -39.9493, -7.31074
9.39992, 5, 9.32911, 25.4725, 17.3946, 14.2624, -39.9687, -7.293
9.40791, 5, 9.3172, 25.4833, 17.3897, 14.2387, -39.988, -7.27518
9.41592, 5, 9.30535, 25.4941, 17.3848, 14.2151, -40.0072, -7.25774
9.42404, 5, 9.29351, 25.5048, 17.3799, 14.192, -40.026, -7.24027
9.43191, 5, 9.28163, 25.5155, 17.3751, 14.169, -40.0449, -7.22254
9.43991, 5, 9.26968, 25.5263, 17.3702, 14.1463, -40.0636, -7.20457
9.44798, 5, 9.25788, 25.5372, 17.3653, 14.1232, -40.0825, -7.18641
9.45596, 5, 9.24607, 25.5478, 17.3604, 14.0997, -40.1017, -7.16812
9.46391, 5, 9.23417, 25.5585, 17.3555, 14.0762, -40.1211, -7.15018
9.47197, 5, 9.2223, 25.5691, 17.3507, 14.0531, -40.1403, -7.13233
9.48194, 5, 9.20432, 25.5852, 17.3435, 14.0187, -40.1686, -7.10597
9.4879, 5, 9.19825, 25.5906, 17.3412, 14.0074, -40.178, -7.09734
9.49598, 5, 9.18622, 25.6013, 17.3366, 13.9846, -40.1966, -7.07996
9.50391, 5, 9.1743, 25.612, 17.3319, 13.9612, -40.2152, -7.0626
9.5119, 5, 9.16232, 25.6226, 17.3272, 13.9377, -40.2341, -7.04521
9.51998, 5, 9.1504, 25.6332, 17.3226, 13.9144, -40.2534, -7.02761
9.52791, 5, 9.13854, 25.6439, 17.3179, 13.8914, -40.2728, -7.0097
9.53597, 5, 9.12669, 25.6546, 17.3131, 13.8686, -40.2921, -6.99162
9.5439, 5, 9.11482, 25.6653, 17.3083, 13.8458, -40.3111, -6.97369
9.55192, 5, 9.10305, 25.6759, 17.3034, 13.8226, -40.33, -6.95606
9.55997, 5, 9.09129, 25.6865, 17.2985, 13.799, -40.3488, -6.93876
9.5679, 5, 9.0795, 25.697, 17.2937, 13.7757, -40.3677, -6.92152
9.57591, 5, 9.06774, 25.7077, 17.289, 13.7528, -40.3869, -6.90433
9.58407, 5, 9.05593, 25.7184, 17.2843, 13.7301, -40.4064, -6.88713
9.59199, 5, 9.04394, 25.7291, 17.2796, 13.7073, -40.4259, -6.86998
9.59991, 5, 9.03197, 25.7397, 17.2749, 13.6843, -40.445, -6.8527
9.60797, 5, 9.02014, 25.7502, 17.2703, 13.6608, -40.464, -6.83517
9.61592, 5, 9.00827, 25.7607, 17.2657, 13.6373, -40.4827, -6.81751
9.62391, 5, 8.99636, 25.7714, 17.261, 13.6143, -40.5014, -6.7997
9.63198, 5, 8.98455, 25.782, 17.2563, 13.5917, -40.5203, -6.78209
9.6399, 5, 8.97273, 25.7925, 17.2515, 13.5692, -40.5396, -6.76475
9.64809, 5, 8.96073, 25.8031, 17.2468, 13.5464, -40.5591, -6.74771
9.6559, 5, 8.94886, 25.8135, 17.2421, 13.5233, -40.5785, -6.73063
9.66391, 5, 8.93707, 25.8239, 17.2374, 13.5001, -40.5977, -6.71364
9.67214, 5, 8.92516, 25.8346, 17.2329, 13.4772, -40.6166, -6.69671
9.67938, 5, 8.91325, 25.8452, 17.2283, 13.4546, -40.6354, -6.67985
9.68748, 5, 8.90139, 25.8558, 17.2239, 13.4322, -40.6544, -6.66275
9.69636, 5, 8.88938, 25.8663, 17.2194, 13.4096, -40.6736, -6.64531
9.70347, 5, 8.87735, 25.8767, 17.2149, 13.3865, -40.693, -6.62772
9.71202, 5, 8.86543, 25.8872, 17.2103, 13.3633, -40.7126, -6.6102
9.72054, 5, 8.85352, 25.8979, 17.2058, 13.3404, -40.732, -6.59286
9.72803, 5, 8.84155, 25.9084, 17.2011, 13.318, -40.7509, -6.57568
9.73494, 5, 8.83558, 25.9137, 17.1988, 13.3069, -40.7604, -6.56714
9.74474, 5, 8.8177, 25.9294, 17.1917, 13.2738, -40.7886, -6.54204
9.75196, 5, 8.80567, 25.9398, 17.187, 13.2512, -40.8075, -6.52525
9.75894, 5, 8.79965, 25.945, 17.1847, 13.2398, -40.8171, -6.5169
9.76901, 5, 8.78183, 25.9609, 17.1777, 13.2054, -40.8465, -6.49198
9.77507, 5, 8.77588, 25.9662, 17.1755, 13.1941, -40.8564, -6.4836
9.78431, 5, 8.75793, 25.982, 17.1687, 13.1606, -40.8854, -6.45825
9.7909, 5, 8.75197, 25.9872, 17.1664, 13.1495, -40.895, -6.44968
9.79895, 5, 8.73995, 25.9976, 17.1619, 13.1272, -40.9141, -6.43248
9.80847, 5, 8.72168, 26.0132, 17.1552, 13.0931, -40.9425, -6.40711
9.81726, 5, 8.70966, 26.0238, 17.1507, 13.0702, -40.9616, -6.39055
9.82304, 5, 8.70368, 26.029, 17.1484, 13.0589, -40.9713, -6.3823
9.83251, 5, 8.68563, 26.0447, 17.1416, 13.0255, -41.0007, -6.35764
9.8413, 5, 8.67964, 26.0499, 17.1394, 13.0035, -41.02, -6.34126
9.84698, 5, 8.66775, 26.0602, 17.1349, 12.9924, -41.0295, -6.33308
9.8569, 5, 8.64977, 26.0758, 17.1282, 12.9587, -41.058, -6.30849
9.8639, 5, 8.64381, 26.081, 17.126, 12.9472, -41.0675, -6.30022
9.87095, 5, 8.63199, 26.0915, 17.1216, 12.9244, -41.0864, -6.28328
9.87994, 5, 8.62013, 26.1019, 17.1173, 12.9019, -41.1055, -6.26647
9.88789, 5, 8.60824, 26.1124, 17.1131, 12.8796, -41.1251, -6.24946
9.8949, 5, 8.59638, 26.1227, 17.1088, 12.8574, -41.1448, -6.23257
9.90389, 5, 8.58444, 26.1329, 17.1045, 12.8351, -41.1644, -6.21607
9.91189, 5, 8.57239, 26.1434, 17.1002, 12.8124, -41.1837, -6.19976
9.91889, 5, 8.56036, 26.1539, 17.0958, 12.7895, -41.2028, -6.18372
9.92803, 5, 8.54846, 26.1642, 17.0913, 12.7669, -41.2219, -6.16781
9.9359, 5, 8.53653, 26.1746, 17.0869, 12.7447, -41.2411, -6.15183
9.94289, 5, 8.52463, 26.1848, 17.0824, 12.7228, -41.2605, -6.13604
9.95191, 5, 8.51278, 26.1951, 17.0778, 12.7009, -41.2803, -6.12
9.9599, 5, 8.50087, 26.2057, 17.0733, 12.6786, -41.2999, -6.1039
9.96951, 5, 8.48889, 26.2161, 17.0688, 12.6446, -41.3288, -6.07914
9.97589, 5, 8.47703, 26.2265, 17.0644, 12.6333, -41.3384, -6.07082
9.9849, 5, 8.46521, 26.237, 17.0601, 12.6111, -41.3573, -6.05428
9.99096, 5, 8.45329, 26.2473, 17.0557, 12.5892, -41.3763, -6.03793
9.99889, 5, 8.44138, 26.2576, 17.0514, 12.5674, -41.3955, -6.02185
10.0079, 5, 8.42951, 26.2681, 17.0471, 12.5455, -41.415, -6.006
10.0159, 5, 8.41745, 26.2785, 17.0427, 12.5232, -41.4349, -5.9901
10.024, 5, 8.40538, 26.2887, 17.0384, 12.5006, -41.4545, -5.97443
10.032, 5, 8.3934, 26.299, 17.034, 12.4784, -41.4739, -5.95875
10.0399, 5, 8.38137, 26.3092, 17.0297, 12.4567, -41.4931, -5.943
10.0479, 5, 8.36933, 26.3194, 17.0253, 12.4351, -41.5122, -5.92711
10.056, 5, 8.35741, 26.3298, 17.0209, 12.4135, -41.5315, -5.91111
10.0639, 5, 8.34545, 26.3402, 17.0166, 12.3916, -41.551, -5.89491
10.0719, 5, 8.33335, 26.3505, 17.0123, 12.3692, -41.5708, -5.87844
10.08, 5, 8.32141, 26.3608, 17.0081, 12.3469, -41.5905, -5.86226
10.0879, 5, 8.30956, 26.3709, 17.004, 12.3249, -41.6099, -5.84639
10.096, 5, 8.29758, 26.3811, 17, 12.3033, -41.629, -5.83073
10.104, 5, 8.28565, 26.3915, 16.9958, 12.2817, -41.648, -5.81534
10.1119, 5, 8.27374, 26.4019, 16.9917, 12.26, -41.667, -5.79985
10.1199, 5, 8.26168, 26.4121, 16.9875, 12.2379, -41.6864, -5.78452
10.128, 5, 8.24961, 26.4223, 16.9833, 12.2155, -41.7061, -5.76911
10.1359, 5, 8.23768, 26.4325, 16.9792, 12.1935, -41.726, -5.75364
10.1439, 5, 8.22575, 26.4427, 16.975, 12.1717, -41.7458, -5.73802
10.1522, 5, 8.21378, 26.4531, 16.9708, 12.1502, -41.7652, -5.72216
10.1594, 5, 8.20191, 26.4634, 16.9664, 12.1287, -41.7845, -5.70609
10.1673, 5, 8.18998, 26.4736, 16.9621, 12.107, -41.8036, -5.69007
10.1753, 5, 8.17792, 26.4839, 16.9578, 12.0848, -41.823, -5.67399
10.1835, 5, 8.16599, 26.4939, 16.9537, 12.0625, -41.8426, -5.65823
10.192, 5, 8.15404, 26.504, 16.9497, 12.0406, -41.8625, -5.64266
10.2009, 5, 8.14203, 26.5143, 16.9456, 12.019, -41.8823, -5.62736
10.208, 5, 8.13004, 26.5245, 16.9414, 11.9975, -41.9016, -5.61215
10.2162, 5, 8.11802, 26.5345, 16.9373, 11.9759, -41.9209, -5.59686
10.2235, 5, 8.11199, 26.5396, 16.9352, 11.965, -41.9305, -5.58921
10.2319, 5, 8.09374, 26.5545, 16.929, 11.9316, -41.9593, -5.56636
10.24, 5, 8.08173, 26.5645, 16.9249, 11.9095, -41.9787, -5.55101
10.249, 5, 8.0698, 26.5747, 16.9208, 11.8878, -41.9986, -5.53551
10.256, 5, 8.0578, 26.5849, 16.9166, 11.8663, -42.0187, -5.51962
10.2629, 5, 8.05186, 26.59, 16.9145, 11.8556, -42.0286, -5.51168
10.2722, 5, 8.03407, 26.6052, 16.9082, 11.8234, -42.058, -5.48821
10.2789, 5, 8.02808, 26.6103, 16.9061, 11.8125, -42.0677, -5.48045
10.2883, 5, 8.01015, 26.6253, 16.9001, 11.7795, -42.0966, -5.45757
10.2949, 5, 8.00423, 26.6304, 16.8981, 11.7686, -42.1063, -5.44998
10.3045, 5, 7.98638, 26.6459, 16.8923, 11.7362, -42.1357, -5.42727
10.3124, 5, 7.97444, 26.6559, 16.8883, 11.715, -42.1557, -5.41233
10.3205, 5, 7.96248, 26.666, 16.8844, 11.6937, -42.1755, -5.39737
10.327, 5, 7.95649, 26.671, 16.8824, 11.683, -42.1854, -5.38988
10.3364, 5, 7.93831, 26.686, 16.8765, 11.6502, -42.2144, -5.36738
10.3455, 5, 7.93229, 26.691, 16.8745, 11.6283, -42.2335, -5.3522
10.3526, 5, 7.92031, 26.7011, 16.8705, 11.6068, -42.2528, -5.33704
10.3599, 5, 7.90824, 26.7113, 16.8664, 11.5962, -42.2625, -5.32934
10.3679, 5, 7.89623, 26.7214, 16.8623, 11.5751, -42.2822, -5.31395
10.3759, 5, 7.88434, 26.7314, 16.8581, 11.5542, -42.3022, -5.29876
10.3839, 5, 7.87233, 26.7413, 16.854, 11.533, -42.3221, -5.28383
10.3919, 5, 7.86029, 26.7512, 16.8498, 11.5114, -42.3418, -5.26923
10.3999, 5, 7.84839, 26.7614, 16.8458, 11.4896, -42.3612, -5.25467
10.4079, 5, 7.83648, 26.7715, 16.8418, 11.4682, -42.3806, -5.24017
10.416, 5, 7.82446, 26.7813, 16.8378, 11.447, -42.4, -5.22555
10.4229, 5, 7.81252, 26.7913, 16.8339, 11.4259, -42.4196, -5.21095
10.432, 5, 7.80049, 26.8011, 16.83, 11.4048, -42.4396, -5.19631
10.4399, 5, 7.78828, 26.8109, 16.8261, 11.3834, -42.4596, -5.18158
10.4479, 5, 7.77608, 26.8209, 16.8222, 11.3615, -42.4793, -5.16662
10.4559, 5, 7.764, 26.831, 16.8183, 11.3398, -42.4988, -5.15144
10.4629, 5, 7.75183, 26.8409, 16.8144, 11.3185, -42.5181, -5.1362
10.4719, 5, 7.73969, 26.8509, 16.8105, 11.2974, -42.5372, -5.12112
10.4799, 5, 7.72764, 26.8608, 16.8066, 11.2766, -42.5566, -5.10617
10.4879, 5, 7.71551, 26.8706, 16.8026, 11.2556, -42.5765, -5.09162
10.4979, 5, 7.69738, 26.8857, 16.7967, 11.2234, -42.6065, -5.07023
10.5039, 5, 7.69139, 26.8907, 16.7947, 11.2125, -42.6165, -5.06312
10.512, 5, 7.6794, 26.9006, 16.7909, 11.1909, -42.6361, -5.04895
10.5199, 5, 7.66736, 26.9104, 16.7872, 11.1696, -42.6556, -5.03477
10.5279, 5, 7.65538, 26.9203, 16.7836, 11.1485, -42.675, -5.02073
10.5359, 5, 7.64337, 26.93, 16.7799, 11.1275, -42.6944, -5.00642
10.5439, 5, 7.63125, 26.9398, 16.7762, 11.1064, -42.7141, -4.99212
10.5519, 5, 7.61924, 26.9499, 16.7724, 11.0849, -42.7341, -4.97767
10.5599, 5, 7.60735, 26.9598, 16.7686, 11.0632, -42.7541, -4.96288
10.5679, 5, 7.59542, 26.9697, 16.7649, 11.0418, -42.7737, -4.9481
10.5759, 5, 7.58348, 26.9797, 16.7611, 11.0207, -42.7931, -4.93356
10.5839, 5, 7.57158, 26.9894, 16.7574, 10.9999, -42.8123, -4.91917
10.5919, 5, 7.55958, 26.9992, 16.7536, 10.9791, -42.8316, -4.90498
10.6, 5, 7.54748, 27.0093, 16.7496, 10.9581, -42.8511, -4.89096
10.6079, 5, 7.53544, 27.0192, 16.7456, 10.9368, -42.871, -4.87697
10.6159, 5, 7.52339, 27.0289, 16.7417, 10.9152, -42.8912, -4.863
10.624, 5, 7.51127, 27.0388, 16.7378, 10.894, -42.9111, -4.84913
10.6319, 5, 7.49915, 27.0485, 16.734, 10.873, -42.9308, -4.83524
10.6399, 5, 7.48705, 27.0581, 16.7303, 10.8523, -42.9504, -4.82131
10.648, 5, 7.47478, 27.0679, 16.7266, 10.8317, -42.9699, -4.80722
10.6559, 5, 7.46258, 27.0778, 16.7228, 10.8107, -42.9895, -4.79309
10.6641, 5, 7.45053, 27.0876, 16.7191, 10.7894, -43.0093, -4.77874
10.6713, 5, 7.43841, 27.0975, 16.7154, 10.7681, -43.0296, -4.7643
10.6794, 5, 7.42638, 27.1072, 16.7116, 10.7472, -43.0496, -4.74985
10.6882, 5, 7.41444, 27.1168, 16.7079, 10.7267, -43.0693, -4.7357
10.6954, 5, 7.40244, 27.1267, 16.7042, 10.7062, -43.0888, -4.72173
10.704, 5, 7.39037, 27.1367, 16.7004, 10.6858, -43.1082, -4.70797
10.7124, 5, 7.37844, 27.1465, 16.6967, 10.6651, -43.1276, -4.69451
10.7194, 5, 7.37248, 27.1513, 16.6929, 10.6439, -43.1473, -4.68101
10.7279, 5, 7.35442, 27.166, 16.6891, 10.6227, -43.1674, -4.66749
10.7368, 5, 7.34236, 27.1756, 16.6854, 10.6019, -43.1876, -4.65408
10.7439, 5, 7.33029, 27.1854, 16.6818, 10.5813, -43.2075, -4.64055
10.7519, 5, 7.31802, 27.1952, 16.6782, 10.5609, -43.2272, -4.62678
10.7608, 5, 7.30577, 27.205, 16.6748, 10.5405, -43.2467, -4.61279
10.7681, 5, 7.29364, 27.2148, 16.6714, 10.5197, -43.2662, -4.59862
10.7749, 5, 7.28755, 27.2196, 16.6696, 10.5092, -43.276, -4.59148
10.785, 5, 7.2693, 27.234, 16.6644, 10.4775, -43.3059, -4.57031
10.7922, 5, 7.25726, 27.2436, 16.6609, 10.4567, -43.3262, -4.55612
10.7989, 5, 7.25125, 27.2485, 16.6591, 10.4464, -43.3363, -4.54913
10.8092, 5, 7.23317, 27.2631, 16.6539, 10.4157, -43.3659, -4.52874
10.8149, 5, 7.22719, 27.2679, 16.6521, 10.4056, -43.3757, -4.52191
10.8244, 5, 7.20928, 27.2824, 16.6468, 10.3744, -43.4047, -4.50185
10.8333, 5, 7.19725, 27.2919, 16.6432, 10.3533, -43.4242, -4.48855
10.8389, 5, 7.19126, 27.2967, 16.6414, 10.3427, -43.4341, -4.48184
10.8485, 5, 7.17929, 27.3063, 16.6358, 10.3114, -43.4643, -4.46173
10.8559, 5, 7.16723, 27.3161, 16.634, 10.3011, -43.4745, -4.45506
10.8629, 5, 7.15505, 27.3258, 16.6303, 10.2807, -43.4946, -4.44146
10.8719, 5, 7.14303, 27.3355, 16.6267, 10.2603, -43.5144, -4.42779
10.8799, 5, 7.13098, 27.3453, 16.6231, 10.2398, -43.5341, -4.41406
10.8869, 5, 7.11891, 27.3548, 16.6197, 10.2187, -43.5536, -4.4001
10.8959, 5, 7.10691, 27.3643, 16.6162, 10.1975, -43.5733, -4.38622
10.9039, 5, 7.09493, 27.374, 16.6127, 10.1766, -43.5932, -4.37259
10.9109, 5, 7.0828, 27.3838, 16.6092, 10.1561, -43.6135, -4.35898
10.9199, 5, 7.07072, 27.3934, 16.6057, 10.1358, -43.6336, -4.34572
10.9279, 5, 7.05874, 27.403, 16.6023, 10.1157, -43.6533, -4.33263
10.9349, 5, 7.04669, 27.4125, 16.5988, 10.0953, -43.6728, -4.31947
10.9439, 5, 7.03463, 27.422, 16.5954, 10.0746, -43.6922, -4.30634
10.9519, 5, 7.02258, 27.4315, 16.592, 10.0537, -43.7117, -4.29337
10.9589, 5, 7.01044, 27.4412, 16.5885, 10.033, -43.7314, -4.28036
10.9679, 5, 6.99823, 27.4508, 16.585, 10.0126, -43.7516, -4.26718
10.9759, 5, 6.98617, 27.4604, 16.5815, 9.99248, -43.7718, -4.25387
10.9849, 5, 6.9741, 27.47, 16.5779, 9.97239, -43.7918, -4.24052
10.9919, 5, 6.96193, 27.4794, 16.5744, 9.95202, -43.8115, -4.22705
10.9999, 5, 6.94988, 27.4888, 16.571, 9.93126, -43.8311, -4.21364
11.0079, 5, 6.9378, 27.4984, 16.5677, 9.91035, -43.8507, -4.20014
11.0159, 5, 6.9256, 27.508, 16.5645, 9.88976, -43.8705, -4.18677
11.0239, 5, 6.91349, 27.5175, 16.5612, 9.86968, -43.8906, -4.17374
11.0319, 5, 6.90148, 27.527, 16.5579, 9.84973, -43.911, -4.1608
11.0399, 5, 6.88933, 27.5365, 16.5546, 9.82998, -43.9311, -4.14799
11.0483, 5, 6.87719, 27.5458, 16.5513, 9.80991, -43.9508, -4.13552
11.0549, 5, 6.86504, 27.5553, 16.548, 9.78945, -43.9704, -4.12296
11.0639, 5, 6.8527, 27.565, 16.5447, 9.76881, -43.9899, -4.11029
11.0726, 5, 6.8404, 27.5745, 16.5414, 9.74836, -44.0095, -4.09762
11.0809, 5, 6.82826, 27.584, 16.5381, 9.72817, -44.0295, -4.08494
11.0879, 5, 6.81609, 27.5936, 16.5347, 9.70815, -44.0498, -4.07214
11.0967, 5, 6.80392, 27.6031, 16.5313, 9.68823, -44.07, -4.05917
11.1039, 5, 6.79179, 27.6124, 16.5278, 9.66813, -44.09, -4.046
11.1119, 5, 6.77971, 27.6219, 16.5243, 9.64771, -44.1098, -4.03263
11.1207, 5, 6.76758, 27.6315, 16.5208, 9.62706, -44.1294, -4.0194
11.1279, 5, 6.75555, 27.6409, 16.5174, 9.60667, -44.1492, -4.00635
11.1359, 5, 6.74361, 27.6502, 16.5141, 9.58661, -44.1692, -3.99345
11.1447, 5, 6.73158, 27.6596, 16.5108, 9.56675, -44.1895, -3.98069
11.1519, 5, 6.71958, 27.6688, 16.5076, 9.54703, -44.2099, -3.96828
11.1599, 5, 6.70757, 27.6782, 16.5044, 9.52709, -44.2298, -3.95582
11.1687, 5, 6.69544, 27.6877, 16.5011, 9.50676, -44.2495, -3.94351
11.1759, 5, 6.68326, 27.6972, 16.4979, 9.48615, -44.2691, -3.93145
11.184, 5, 6.6712, 27.7066, 16.4947, 9.46567, -44.2887, -3.91919
11.1928, 5, 6.65915, 27.7161, 16.4915, 9.44545, -44.3085, -3.90688
11.2, 5, 6.64703, 27.7255, 16.4883, 9.42546, -44.3287, -3.89453
11.208, 5, 6.63501, 27.7348, 16.4851, 9.40557, -44.349, -3.88197
11.2168, 5, 6.62297, 27.7442, 16.4819, 9.38562, -44.3692, -3.86937
11.224, 5, 6.61083, 27.7539, 16.4787, 9.3653, -44.3892, -3.85662
11.2321, 5, 6.59876, 27.7632, 16.4754, 9.34478, -44.409, -3.84396
11.2388, 5, 6.59275, 27.7679, 16.4738, 9.33454, -44.4188, -3.83756
11.2479, 5, 6.57465, 27.7819, 16.4689, 9.30426, -44.4484, -3.81851
11.256, 5, 6.56253, 27.7911, 16.4656, 9.28441, -44.4685, -3.80613
11.265, 5, 6.55041, 27.8004, 16.4624, 9.26486, -44.4889, -3.79389
11.2729, 5, 6.53821, 27.8098, 16.4594, 9.2452, -44.509, -3.78171
11.2802, 5, 6.52598, 27.8193, 16.4563, 9.22521, -44.5288, -3.76972
11.2868, 5, 6.51992, 27.824, 16.4548, 9.21506, -44.5387, -3.7637
11.297, 5, 6.50174, 27.838, 16.4504, 9.18451, -44.5681, -3.74575
11.3044, 5, 6.48957, 27.8473, 16.4474, 9.16446, -44.5878, -3.7338
11.3125, 5, 6.47751, 27.8565, 16.4445, 9.1447, -44.6078, -3.72179
11.3211, 5, 6.46544, 27.8658, 16.4414, 9.1252, -44.6283, -3.70965
11.3268, 5, 6.45936, 27.8705, 16.4399, 9.11545, -44.6385, -3.70356
11.3365, 5, 6.44112, 27.8847, 16.4354, 9.08588, -44.6688, -3.68513
11.3452, 5, 6.43509, 27.8939, 16.4324, 9.06579, -44.6887, -3.67269
11.3508, 5, 6.42302, 27.8986, 16.4309, 9.05568, -44.6986, -3.66644
11.3618, 5, 6.40484, 27.9125, 16.4264, 9.02567, -44.7282, -3.64791
11.3679, 5, 6.3988, 27.917, 16.4248, 9.01587, -44.7382, -3.64176
11.3748, 5, 6.38661, 27.9263, 16.4217, 8.9964, -44.7584, -3.62935
11.3838, 5, 6.37429, 27.9357, 16.4185, 8.97712, -44.779, -3.61728
11.3919, 5, 6.36202, 27.945, 16.4153, 8.95777, -44.7993, -3.60545
11.3989, 5, 6.34981, 27.9543, 16.4121, 8.93804, -44.8193, -3.59371
11.4079, 5, 6.33757, 27.9635, 16.4089, 8.91802, -44.8391, -3.58201
11.4159, 5, 6.32535, 27.9727, 16.4057, 8.89791, -44.8588, -3.5706
11.4229, 5, 6.31326, 27.9817, 16.4026, 8.87804, -44.8785, -3.55923
11.4318, 5, 6.30103, 27.9909, 16.3995, 8.85849, -44.8986, -3.54765
11.4421, 5, 6.28273, 28.0048, 16.395, 8.82944, -44.9294, -3.53039
11.4468, 5, 6.27672, 28.0094, 16.3935, 8.81978, -44.9396, -3.52451
11.4558, 5, 6.26453, 28.0185, 16.3905, 8.80019, -44.9598, -3.51267
11.4662, 5, 6.24626, 28.0322, 16.386, 8.7702, -44.9898, -3.49465
11.4708, 5, 6.24022, 28.0367, 16.3845, 8.76017, -44.9997, -3.48861
11.4798, 5, 6.22795, 28.0457, 16.3815, 8.74037, -45.0196, -3.47643
11.4888, 5, 6.21556, 28.055, 16.3785, 8.72078, -45.0398, -3.46412
11.4948, 5, 6.20331, 28.0643, 16.3756, 8.70147, -45.0604, -3.45209
11.5039, 5, 6.19113, 28.0735, 16.3727, 8.68224, -45.0809, -3.44025
11.5119, 5, 6.17891, 28.0828, 16.3697, 8.66285, -45.1011, -3.42845
11.5198, 5, 6.16676, 28.092, 16.3667, 8.64313, -45.1211, -3.41686
11.5279, 5, 6.15465, 28.101, 16.3637, 8.62306, -45.1408, -3.4055
11.5358, 5, 6.14235, 28.1101, 16.3607, 8.60324, -45.1606, -3.39416
11.5439, 5, 6.13014, 28.1194, 16.3577, 8.58358, -45.1806, -3.38289
11.5519, 5, 6.11806, 28.1287, 16.3547, 8.56414, -45.201, -3.3716
11.5598, 5, 6.10595, 28.1378, 16.3518, 8.5449, -45.2217, -3.36038
11.5678, 5, 6.09375, 28.1469, 16.3489, 8.52554, -45.2421, -3.3489
11.5759, 5, 6.08165, 28.156, 16.3462, 8.50586, -45.2622, -3.33734
11.5839, 5, 6.06936, 28.1649, 16.3434, 8.48581, -45.2822, -3.32579
11.5918, 5, 6.05705, 28.1739, 16.3408, 8.46579, -45.302, -3.31401
11.5999, 5, 6.04483, 28.1831, 16.3381, 8.44614, -45.322, -3.30216
11.6079, 5, 6.03262, 28.1923, 16.3354, 8.42674, -45.3423, -3.29034
11.6158, 5, 6.02037, 28.2014, 16.3327, 8.4076, -45.3629, -3.27854
11.6239, 5, 6.00822, 28.2105, 16.3299, 8.38848, -45.3831, -3.26676
11.6319, 5, 5.99604, 28.2195, 16.3272, 8.36915, -45.4031, -3.25518
11.6398, 5, 5.98377, 28.2284, 16.3244, 8.34952, -45.4229, -3.24383
11.6479, 5, 5.97154, 28.2375, 16.3217, 8.32963, -45.4426, -3.2326
11.6558, 5, 5.9594, 28.2468, 16.319, 8.30998, -45.4625, -3.22159
11.6639, 5, 5.94712, 28.2559, 16.3162, 8.29063, -45.4828, -3.21061
11.6719, 5, 5.93487, 28.2649, 16.3135, 8.2715, -45.5033, -3.19967
11.6799, 5, 5.92261, 28.2739, 16.3107, 8.25255, -45.5239, -3.18864
11.688, 5, 5.91016, 28.2829, 16.3078, 8.23334, -45.5441, -3.17765
11.6959, 5, 5.89771, 28.2917, 16.3049, 8.21379, -45.5641, -3.16673
11.704, 5, 5.88537, 28.3008, 16.302, 8.19411, -45.5839, -3.15574
11.712, 5, 5.87301, 28.3099, 16.2991, 8.17443, -45.6038, -3.14462
11.7194, 5, 5.86682, 28.3189, 16.2963, 8.15513, -45.6241, -3.13328
11.7279, 5, 5.84841, 28.3279, 16.2935, 8.13622, -45.6447, -3.12197
11.736, 5, 5.83618, 28.3369, 16.2908, 8.11732, -45.6652, -3.11052
11.7439, 5, 5.82387, 28.3458, 16.2881, 8.09863, -45.6854, -3.0992
11.7519, 5, 5.81171, 28.3545, 16.2854, 8.07955, -45.7052, -3.08781
11.76, 5, 5.7996, 28.3635, 16.2828, 8.06005, -45.725, -3.07673
11.7669, 5, 5.7935, 28.3681, 16.2815, 8.05021, -45.7349, -3.07118
11.7762, 5, 5.77519, 28.3815, 16.2775, 8.02101, -45.7648, -3.05456
11.7828, 5, 5.76908, 28.3859, 16.2761, 8.01141, -45.775, -3.04915
11.7921, 5, 5.75055, 28.3993, 16.2721, 7.98295, -45.8059, -3.03308
11.7988, 5, 5.74434, 28.4037, 16.2708, 7.97353, -45.8161, -3.0278
11.8083, 5, 5.72589, 28.4168, 16.2669, 7.94512, -45.8463, -3.01205
11.8163, 5, 5.7136, 28.4257, 16.2643, 7.92574, -45.8663, -3.00161
11.8228, 5, 5.70747, 28.4303, 16.263, 7.91594, -45.8762, -2.9964
11.8324, 5, 5.68918, 28.4437, 16.2591, 7.8865, -45.9063, -2.9805
11.8404, 5, 5.67688, 28.4526, 16.2564, 7.86734, -45.9268, -2.96996
11.8484, 5, 5.66455, 28.4615, 16.2537, 7.8484, -45.9475, -2.95914
11.8564, 5, 5.65845, 28.4659, 16.2524, 7.839, -45.9577, -2.94827
11.8638, 5, 5.6463, 28.4746, 16.2497, 7.82037, -45.9779, -2.94285
11.8719, 5, 5.63407, 28.4835, 16.247, 7.80149, -45.9978, -2.93193
11.8798, 5, 5.62184, 28.4926, 16.2443, 7.78228, -46.0176, -2.92083
11.8878, 5, 5.60962, 28.5015, 16.2416, 7.76275, -46.0374, -2.9097
11.8958, 5, 5.59728, 28.5103, 16.239, 7.7433, -46.0576, -2.8985
11.9038, 5, 5.58488, 28.5192, 16.2366, 7.72402, -46.0781, -2.88759
11.9119, 5, 5.57264, 28.5279, 16.2341, 7.705, -46.0988, -2.87695
11.9198, 5, 5.56036, 28.5366, 16.2317, 7.68621, -46.1191, -2.86633
11.9278, 5, 5.54801, 28.5454, 16.2293, 7.66738, -46.1392, -2.85596
11.9359, 5, 5.53572, 28.5543, 16.2269, 7.64828, -46.1592, -2.84569
11.9439, 5, 5.52345, 28.5632, 16.2244, 7.62882, -46.1792, -2.83546
11.9519, 5, 5.51103, 28.572, 16.222, 7.60927, -46.1993, -2.82523
11.9599, 5, 5.49877, 28.5808, 16.2196, 7.59004, -46.2196, -2.81519
11.9678, 5, 5.48657, 28.5895, 16.2172, 7.57108, -46.2402, -2.8051
11.9758, 5, 5.47433, 28.5982, 16.2147, 7.55238, -46.2605, -2.79508
11.9839, 5, 5.4621, 28.607, 16.2123, 7.53375, -46.2805, -2.78466
11.9935, 5, 5.44979, 28.6159, 16.2098, 7.51505, -46.3102, -2.7691
