hehonglu123/ABB_Primitive_Study/realrobot/movec_30_car/curve_exe_v1500_z1.csv
timestamp, cmd_num, J1, J2, J3, J4, J5, J6
0.000368, -1, -11.8224, 27.6367, 43.2523, -10.4208, -101.239, 3.92108
0.002929, -1, -11.8223, 27.6367, 43.2523, -10.4208, -101.239, 3.92106
0.008264, -1, -11.8223, 27.6367, 43.2523, -10.4208, -101.239, 3.92105
0.029121, -1, -11.8223, 27.6367, 43.2523, -10.4208, -101.239, 3.92105
0.031999, -1, -11.8223, 27.6367, 43.2523, -10.4207, -101.239, 3.92107
0.034854, -1, -11.8223, 27.6367, 43.2523, -10.4207, -101.239, 3.9211
0.039914, -1, -11.8224, 27.6367, 43.2523, -10.4207, -101.239, 3.92112
0.047926, -1, -11.8223, 27.6367, 43.2523, -10.4207, -101.239, 3.92113
0.056004, -1, -11.8219, 27.6366, 43.2523, -10.4207, -101.239, 3.92108
0.063937, -1, -11.8195, 27.636, 43.2523, -10.4207, -101.239, 3.92109
0.072011, -1, -11.8141, 27.634, 43.2519, -10.4201, -101.238, 3.92092
0.079963, -1, -11.8043, 27.6299, 43.2505, -10.4165, -101.232, 3.91952
0.088064, -1, -11.7888, 27.6232, 43.2469, -10.4069, -101.218, 3.9135
0.096013, -1, -11.7651, 27.6126, 43.2392, -10.3873, -101.19, 3.90002
0.104028, -1, -11.7306, 27.5977, 43.225, -10.3518, -101.139, 3.8762
0.112086, -1, -11.6849, 27.5786, 43.2024, -10.2956, -101.057, 3.83819
0.120033, -1, -11.6274, 27.5549, 43.1686, -10.2131, -100.936, 3.78178
0.128008, -1, -11.5571, 27.5269, 43.1227, -10.1006, -100.77, 3.70384
0.134909, -1, -11.5169, 27.511, 43.095, -10.0331, -100.671, 3.65721
0.14396, -1, -11.3761, 27.4556, 42.9937, -9.78536, -100.304, 3.48569
0.152059, -1, -11.2664, 27.4128, 42.9125, -9.58644, -100.009, 3.34795
0.158976, -1, -11.207, 27.3897, 42.8683, -9.47847, -99.8494, 3.27298
0.168094, -1, -11.0112, 27.3131, 42.7249, -9.12885, -99.3292, 3.0305
0.176978, -1, -10.8676, 27.2566, 42.6224, -8.87972, -98.9586, 2.85749
0.18426, -1, -10.7161, 27.1971, 42.5159, -8.62198, -98.5749, 2.6787
0.190913, -1, -10.6383, 27.1665, 42.4616, -8.49079, -98.3796, 2.58756
0.200373, -1, -10.3981, 27.0717, 42.2964, -8.09112, -97.7842, 2.3097
0.20917, -1, -10.2337, 27.0068, 42.1848, -7.82098, -97.3817, 2.12167
0.214909, -1, -10.1508, 26.9741, 42.1288, -7.6853, -97.1792, 2.02723
0.225544, -1, -9.89988, 26.8749, 41.9593, -7.27582, -96.5678, 1.7423
0.233232, -1, -9.73186, 26.8085, 41.8453, -7.00081, -96.1579, 1.55114
0.238977, -1, -9.64769, 26.7752, 41.7881, -6.86281, -95.9519, 1.4552
0.24854, -1, -9.47914, 26.7086, 41.6733, -6.58606, -95.3319, 1.16582
0.255062, -1, -9.3107, 26.6418, 41.5582, -6.30808, -95.1242, 1.06894
0.262914, -1, -9.14233, 26.5748, 41.4428, -6.02871, -94.7078, 0.874931
0.270916, -1, -8.97341, 26.5076, 41.3269, -5.74832, -94.2897, 0.680202
0.403076, -1, -6.06289, 25.3557, 39.3466, -0.972669, -87.166, -2.63881
0.40429, -1, -6.06289, 25.3557, 39.3466, -0.972669, -87.166, -2.63881
0.406313, -1, -5.97347, 25.32, 39.2851, -0.824401, -86.9449, -2.74187
0.407524, -1, -5.97347, 25.32, 39.2851, -0.824401, -86.9449, -2.74187
0.40881, -1, -5.97347, 25.32, 39.2851, -0.824401, -86.9449, -2.74187
0.410816, -1, -5.88393, 25.2842, 39.2235, -0.676182, -86.7234, -2.84506
0.412014, -1, -5.88393, 25.2842, 39.2235, -0.676182, -86.7234, -2.84506
0.414994, -1, -5.79424, 25.2483, 39.1619, -0.527893, -86.5019, -2.9483
0.418825, -1, -5.79424, 25.2483, 39.1619, -0.527893, -86.5019, -2.9483
0.422141, -1, -5.61437, 25.1765, 39.0384, -0.230623, -86.0583, -3.15518
0.42371, -1, -5.61437, 25.1765, 39.0384, -0.230623, -86.0583, -3.15518
0.4249, -1, -5.61437, 25.1765, 39.0384, -0.230623, -86.0583, -3.15518
0.426942, -1, -5.5241, 25.1405, 38.9767, -0.0816168, -85.8362, -3.25882
0.428142, -1, -5.5241, 25.1405, 38.9767, -0.0816168, -85.8362, -3.25882
0.429988, -1, -5.5241, 25.1405, 38.9767, -0.0816168, -85.8362, -3.36244
0.434495, -1, -5.34285, 25.0683, 38.853, 0.216346, -85.3914, -3.46603
0.43598, -1, -5.34285, 25.0683, 38.853, 0.216346, -85.3914, -3.46603
0.437162, -1, -5.34285, 25.0683, 38.853, 0.216346, -85.3914, -3.46603
0.439277, -1, -5.25186, 25.0322, 38.7911, 0.365343, -85.1689, -3.56963
0.440654, -1, -5.25186, 25.0322, 38.7911, 0.365343, -85.1689, -3.56963
0.443342, -1, -5.16063, 24.9961, 38.7291, 0.514524, -84.9464, -3.67332
0.446913, -1, -5.0692, 24.96, 38.6671, 0.663872, -84.7237, -3.77699
0.455901, -1, -4.88587, 24.8878, 38.543, 0.96265, -84.2779, -3.98453
0.463979, -1, -4.70219, 24.8156, 38.4188, 1.26135, -83.832, -4.19224
0.471909, -1, -4.51834, 24.7434, 38.2947, 1.56069, -83.3856, -4.40048
0.479901, -1, -4.33428, 24.6712, 38.1704, 1.86015, -82.9388, -4.60855
0.487966, -1, -4.15051, 24.599, 38.0462, 2.15939, -82.4922, -4.81644
0.495011, -1, -3.96707, 24.5269, 37.922, 2.45896, -82.0451, -5.02448
0.503914, -1, -3.7841, 24.4547, 37.7977, 2.75818, -81.5983, -5.23244
0.511968, -1, -3.60208, 24.3825, 37.6735, 3.05706, -81.1523, -5.44043
0.519902, -1, -3.4208, 24.3102, 37.5494, 3.35609, -80.7066, -5.64842
0.528011, -1, -3.24015, 24.2381, 37.4254, 3.65484, -80.2617, -5.85593
0.535976, -1, -3.06025, 24.166, 37.3016, 3.95303, -79.817, -6.06306
0.543913, -1, -2.88076, 24.094, 37.1778, 4.25094, -79.3726, -6.27003
0.551155, -1, -2.70137, 24.0222, 37.0543, 4.54804, -78.9287, -6.47675
0.559224, -1, -2.52185, 23.9504, 36.9311, 4.84472, -78.4854, -6.68315
0.567347, -1, -2.34179, 23.8789, 36.8082, 5.14098, -78.0436, -6.88919
0.576099, -1, -2.16155, 23.8076, 36.6856, 5.43649, -77.603, -7.09457
0.583982, -1, -1.98124, 23.7365, 36.5633, 5.73101, -77.1637, -7.2996
0.591991, -1, -1.80106, 23.6656, 36.4411, 6.02473, -76.7258, -7.50398
0.600335, -1, -1.62115, 23.5949, 36.3194, 6.31747, -76.2886, -7.70802
0.607489, -1, -1.44141, 23.5244, 36.1982, 6.60914, -75.8527, -7.91111
0.616004, -1, -1.26204, 23.4542, 36.0773, 6.90025, -75.4184, -8.11336
0.624532, -1, -1.08363, 23.3843, 35.957, 7.19025, -74.9856, -8.31473
0.631905, -1, -0.906454, 23.3146, 35.8371, 7.47897, -74.5548, -8.51548
0.639645, -1, -0.81845, 23.2798, 35.7773, 7.7667, -74.1256, -8.71544
0.648711, -1, -0.55619, 23.1757, 35.5986, 8.05316, -73.6981, -8.91482
0.655993, -1, -0.382812, 23.1068, 35.4801, 8.33834, -73.2725, -9.11307
0.662961, -1, -0.296646, 23.0724, 35.4211, 8.48061, -73.0603, -9.21185
0.672876, -1, -0.0400016, 22.9697, 35.2448, 8.90551, -72.427, -9.50682
0.68013, -1, 0.129662, 22.9016, 35.1279, 9.18674, -72.0071, -9.70243
0.686965, -1, 0.214165, 22.8677, 35.0696, 9.32689, -71.798, -9.79981
0.697145, -1, 0.467365, 22.7665, 34.8958, 9.74501, -71.1736, -10.0909
0.702939, -1, 0.551721, 22.733, 34.8381, 9.88354, -70.9667, -10.1872
0.712401, -1, 0.804421, 22.6331, 34.6664, 10.2977, -70.349, -10.4748
0.721189, -1, 0.972425, 22.567, 34.5526, 10.5718, -69.9405, -10.6651
0.726882, -1, 1.05609, 22.534, 34.4959, 10.7082, -69.737, -10.76
0.736494, -1, 1.30611, 22.4355, 34.3267, 11.1152, -69.1295, -11.0431
0.745197, -1, 1.38921, 22.3703, 34.2147, 11.3846, -68.7272, -11.2308
0.750903, -1, 1.55483, 22.3378, 34.159, 11.5188, -68.5269, -11.3241
0.760432, -1, 1.71967, 22.2732, 34.0481, 11.7859, -68.1278, -11.5098
0.767892, -1, 1.88331, 22.2088, 33.9378, 12.0519, -67.7311, -11.6946
0.774889, -1, 2.04531, 22.1449, 33.8281, 12.3162, -67.3373, -11.8781
0.783895, -1, 2.20579, 22.0813, 33.7189, 12.5785, -66.9457, -12.0607
0.791888, -1, 2.36508, 22.0181, 33.6104, 12.8394, -66.5568, -12.2424
0.798933, -1, 2.52288, 21.9553, 33.5027, 13.0987, -66.17, -12.4226
0.8079, -1, 2.67922, 21.8929, 33.3957, 13.3561, -65.7854, -12.6018
0.816022, -1, 2.83422, 21.8311, 33.2896, 13.6124, -65.4032, -12.7796
0.823903, -1, 2.98782, 21.7695, 33.1838, 13.8671, -65.0232, -12.9565
0.831899, -1, 3.14042, 21.7082, 33.0786, 14.1198, -64.6459, -13.1322
0.839953, -1, 3.29267, 21.6474, 32.9741, 14.371, -64.2709, -13.3072
0.847883, -1, 3.4445, 21.587, 32.8703, 14.6207, -63.8984, -13.4809
0.856304, -1, 3.5959, 21.527, 32.7674, 14.8687, -63.5282, -13.6533
0.862886, -1, 3.74682, 21.4673, 32.6652, 15.1151, -63.1605, -13.8246
0.871883, -1, 3.89695, 21.4081, 32.5635, 15.36, -62.7952, -13.9947
0.880721, -1, 4.04621, 21.3491, 32.4622, 15.6035, -62.4323, -14.1638
0.886885, -1, 4.19503, 21.2907, 32.3616, 15.8451, -62.0716, -14.3318
0.895899, -1, 4.34307, 21.2327, 32.2618, 16.0851, -61.7131, -14.4991
0.9049, -1, 4.49024, 21.1751, 32.1628, 16.3236, -61.3569, -14.6649
0.911884, -1, 4.63657, 21.1178, 32.0647, 16.5606, -61.0027, -14.8296
0.919899, -1, 4.78159, 21.0611, 31.9671, 16.7958, -60.6511, -14.9931
0.928669, -1, 4.92487, 21.0045, 31.8698, 17.0298, -60.3022, -15.1555
0.934888, -1, 5.06691, 20.9482, 31.7731, 17.2623, -59.9553, -15.3172
0.943989, -1, 5.20794, 20.8923, 31.677, 17.4931, -59.6109, -15.4776
0.952665, -1, 5.34755, 20.8367, 31.5817, 17.7226, -59.2691, -15.6375
0.959027, -1, 5.48573, 20.7814, 31.4873, 17.9505, -58.9291, -15.7959
0.967884, -1, 5.62267, 20.7265, 31.3934, 18.1772, -58.5911, -15.9534
0.976678, -1, 5.75839, 20.6719, 31.2999, 18.4022, -58.2551, -16.11
0.983891, -1, 5.89312, 20.6176, 31.2068, 18.6258, -57.921, -16.2657
0.991883, -1, 6.02755, 20.5637, 31.1142, 18.8482, -57.5888, -16.4204
1.00066, -1, 6.16178, 20.5102, 31.0223, 19.0693, -57.2588, -16.5742
1.00788, -1, 6.29573, 20.4572, 30.9313, 19.2888, -56.9312, -16.7271
1.01589, -1, 6.4293, 20.4045, 30.841, 19.507, -56.6056, -16.8788
1.02403, -1, 6.56238, 20.3522, 30.7512, 19.7238, -56.2823, -17.0297
1.03197, -1, 6.69475, 20.3001, 30.6617, 19.9394, -55.961, -17.1793
1.03989, -1, 6.82642, 20.2482, 30.5725, 20.1533, -55.6416, -17.3281
1.04797, -1, 6.95749, 20.1967, 30.4839, 20.3659, -55.3241, -17.4759
1.05589, -1, 7.08807, 20.1454, 30.3959, 20.5776, -55.0082, -17.623
1.06389, -1, 7.21777, 20.0945, 30.3087, 20.788, -54.6942, -17.7694
1.07324, -1, 7.34613, 20.0437, 30.2221, 20.9971, -54.3819, -17.9148
1.07993, -1, 7.47355, 19.9932, 30.1359, 21.2049, -54.0714, -18.0592
1.08813, -1, 7.60001, 19.9431, 30.0501, 21.4114, -53.7632, -18.2027
1.09579, -1, 7.72555, 19.8932, 29.9646, 21.6168, -53.4569, -18.3454
1.10399, -1, 7.85012, 19.8437, 29.8796, 21.8209, -53.1522, -18.4873
1.11237, -1, 7.97389, 19.7947, 29.7952, 22.0238, -52.8493, -18.6285
1.11954, -1, 8.09686, 19.7459, 29.7114, 22.2257, -52.5482, -18.7687
1.128, -1, 8.21889, 19.6975, 29.6282, 22.4268, -52.2488, -18.9084
1.1367, -1, 8.33994, 19.6493, 29.5455, 22.6264, -51.9511, -19.0472
1.14397, -1, 8.46031, 19.6013, 29.4632, 22.8247, -51.655, -19.185
1.15191, -1, 8.57989, 19.5536, 29.3813, 23.0219, -51.3607, -19.322
1.16082, -1, 8.69885, 19.5061, 29.2997, 23.2182, -51.068, -19.4582
1.16803, -1, 8.81727, 19.4588, 29.2186, 23.4131, -50.7767, -19.5937
1.17604, -1, 8.9353, 19.4118, 29.138, 23.607, -50.487, -19.7285
1.18289, -1, 8.99413, 19.3883, 29.0978, 23.7035, -50.3428, -19.7956
1.19092, -1, 9.11145, 19.3416, 29.018, 23.8958, -50.0557, -19.9295
1.19892, -1, 9.22836, 19.2952, 28.9385, 24.0872, -49.7702, -20.0627
1.20912, -1, 9.40314, 19.2261, 28.8203, 24.3722, -49.3447, -20.2609
1.21492, -1, 9.46116, 19.2032, 28.7811, 24.4667, -49.2038, -20.3267
1.22447, -1, 9.63415, 19.1349, 28.664, 24.7485, -48.7834, -20.5226
1.23325, -1, 9.74882, 19.0898, 28.5864, 24.9352, -48.5051, -20.6523
1.23899, -1, 9.80593, 19.0674, 28.5477, 25.0284, -48.3663, -20.7169
1.24849, -1, 9.9763, 19.0006, 28.4323, 25.3059, -47.9519, -20.91
1.25737, -1, 10.0327, 18.9783, 28.3559, 25.4898, -47.6775, -21.038
1.26303, -1, 10.1452, 18.9341, 28.3179, 25.5813, -47.5408, -21.1018
1.27192, -1, 10.257, 18.89, 28.2423, 25.764, -47.268, -21.2289
1.27988, -1, 10.3682, 18.8461, 28.167, 25.9458, -46.9968, -21.355
1.287, -1, 10.4787, 18.8023, 28.092, 26.1264, -46.7271, -21.4807
1.29592, -1, 10.5886, 18.7587, 28.0173, 26.3061, -46.4588, -21.6056
1.30388, -1, 10.6977, 18.7153, 27.9429, 26.485, -46.1919, -21.7297
1.31087, -1, 10.8064, 18.672, 27.8689, 26.6631, -45.9263, -21.8537
1.31989, -1, 10.9143, 18.6291, 27.7953, 26.8403, -45.6622, -21.9765
1.32787, -1, 11.0215, 18.5863, 27.7221, 27.0165, -45.3994, -22.0991
1.33489, -1, 11.1281, 18.5437, 27.6493, 27.1919, -45.138, -22.2212
1.34387, -1, 11.2345, 18.5014, 27.5768, 27.3664, -44.8776, -22.3427
1.35187, -1, 11.3402, 18.4594, 27.5047, 27.5405, -44.6182, -22.4634
1.35891, -1, 11.4453, 18.4176, 27.433, 27.7134, -44.36, -22.5838
1.3679, -1, 11.5498, 18.376, 27.3616, 27.8856, -44.1029, -22.7033
1.37587, -1, 11.6538, 18.3347, 27.2904, 28.057, -43.8468, -22.8223
1.38564, -1, 11.7576, 18.2935, 27.2195, 28.2274, -43.5921, -22.9409
1.39187, -1, 11.861, 18.2526, 27.149, 28.3974, -43.3388, -23.0589
1.40087, -1, 11.9642, 18.2118, 27.0787, 28.5665, -43.0865, -23.1764
1.40687, -1, 12.0672, 18.1711, 27.0089, 28.7348, -42.8353, -23.2936
1.41587, -1, 12.1699, 18.1305, 26.9394, 28.9023, -42.5852, -23.4103
1.42394, -1, 12.2722, 18.0901, 26.8702, 29.0691, -42.3362, -23.5264
1.43192, -1, 12.374, 18.0497, 26.8013, 29.2354, -42.0883, -23.6418
1.43989, -1, 12.4753, 18.0095, 26.7326, 29.4009, -41.8418, -23.7566
1.44793, -1, 12.5761, 17.9696, 26.6642, 29.5658, -41.5961, -23.871
1.45587, -1, 12.6766, 17.9298, 26.5961, 29.7296, -41.3515, -23.9847
1.46393, -1, 12.7766, 17.8902, 26.5282, 29.8929, -41.1078, -24.0982
1.47193, -1, 12.8761, 17.8508, 26.4607, 30.0555, -40.8651, -24.2112
1.47989, -1, 12.9752, 17.8116, 26.3935, 30.2175, -40.6234, -24.3237
1.48787, -1, 13.0737, 17.7726, 26.3266, 30.3787, -40.3827, -24.436
1.49594, -1, 13.1716, 17.7338, 26.26, 30.5392, -40.143, -24.5477
1.50387, -1, 13.269, 17.6952, 26.1938, 30.6989, -39.9043, -24.6589
1.51186, -1, 13.366, 17.6567, 26.1278, 30.8582, -39.6666, -24.7695
1.51996, -1, 13.4627, 17.6184, 26.062, 31.017, -39.43, -24.8797
1.52789, -1, 13.5591, 17.5803, 25.9964, 31.175, -39.1943, -24.9895
1.53591, -1, 13.6552, 17.5422, 25.9311, 31.3322, -38.9595, -25.0988
1.54393, -1, 13.7509, 17.5043, 25.8659, 31.4889, -38.7258, -25.208
1.55187, -1, 13.8462, 17.4665, 25.8011, 31.6448, -38.4927, -25.3165
1.55988, -1, 13.9412, 17.4288, 25.7365, 31.8003, -38.261, -25.4247
1.56794, -1, 14.0359, 17.3913, 25.6723, 31.9553, -38.0302, -25.5328
1.57589, -1, 14.1303, 17.3539, 25.6083, 32.1095, -37.8004, -25.6401
1.5839, -1, 14.2243, 17.3165, 25.5445, 32.2631, -37.5712, -25.7473
1.59201, -1, 14.3177, 17.2793, 25.4809, 32.4162, -37.3426, -25.8536
1.60006, -1, 14.4107, 17.2424, 25.4177, 32.5686, -37.115, -25.9597
1.60748, -1, 14.5032, 17.2055, 25.3545, 32.7208, -36.8882, -26.0653
1.61604, -1, 14.5953, 17.1689, 25.2917, 32.8723, -36.6621, -26.1704
1.62398, -1, 14.6868, 17.1324, 25.2291, 33.0233, -36.437, -26.2752
1.63197, -1, 14.7781, 17.096, 25.1666, 33.1735, -36.2126, -26.3794
1.64009, -1, 14.8691, 17.0597, 25.1045, 33.3232, -35.9891, -26.4835
1.64686, -1, 14.9146, 17.0417, 25.0735, 33.3979, -35.8777, -26.5352
1.65593, -1, 15.0506, 16.9878, 24.9809, 33.6212, -35.5445, -26.6905
1.66399, -1, 15.1408, 16.952, 24.9195, 33.7693, -35.3237, -26.7936
1.67196, -1, 15.2308, 16.9162, 24.8584, 33.9169, -35.1034, -26.8962
1.67885, -1, 15.2758, 16.8984, 24.8279, 33.9904, -34.9937, -26.9473
1.68811, -1, 15.4103, 16.8453, 24.7366, 34.2102, -34.6658, -27.0999
1.69491, -1, 15.4552, 16.8276, 24.7062, 34.2834, -34.5568, -27.1507
1.70438, -1, 15.5893, 16.7747, 24.6155, 34.502, -34.2307, -27.3022
1.7124, -1, 15.6782, 16.7397, 24.5552, 34.6471, -34.0141, -27.4033
1.72037, -1, 15.7668, 16.7048, 24.4951, 34.7917, -33.7984, -27.5036
1.72848, -1, 15.8551, 16.6698, 24.4353, 34.9357, -33.5833, -27.6039
1.73643, -1, 15.943, 16.6351, 24.3757, 35.0791, -33.3687, -27.7038
1.74441, -1, 16.0306, 16.6005, 24.3163, 35.2222, -33.1551, -27.8035
1.75252, -1, 16.1178, 16.5659, 24.2572, 35.365, -32.9422, -27.9028
1.76038, -1, 16.1612, 16.5486, 24.2277, 35.4362, -32.8361, -27.9524
1.76844, -1, 16.2478, 16.5142, 24.1688, 35.5781, -32.6243, -28.0508
1.77595, -1, 16.334, 16.48, 24.1101, 35.7195, -32.4133, -28.1493
1.78386, -1, 16.42, 16.4458, 24.0515, 35.8605, -32.2029, -28.2472
1.79186, -1, 16.5057, 16.4117, 23.9932, 36.001, -31.9932, -28.345
1.79986, -1, 16.5909, 16.3778, 23.935, 36.1413, -31.7843, -28.4421
1.80787, -1, 16.676, 16.3441, 23.877, 36.2813, -31.5758, -28.5395
1.8159, -1, 16.7609, 16.3104, 23.8191, 36.4206, -31.3683, -28.6362
1.82385, -1, 16.8457, 16.2768, 23.7615, 36.5594, -31.1611, -28.7328
1.83185, -1, 16.9302, 16.2434, 23.7041, 36.6977, -30.9546, -28.8291
1.83992, -1, 17.0145, 16.2101, 23.6469, 36.8356, -30.7486, -28.9253
1.84787, -1, 17.0985, 16.1768, 23.5899, 36.9733, -30.5433, -29.0209
1.85585, -1, 17.1819, 16.1438, 23.533, 37.1105, -30.3388, -29.1164
1.8639, -1, 17.2636, 16.1113, 23.4763, 37.247, -30.1349, -29.2112
1.87188, -1, 17.3428, 16.0801, 23.4201, 37.3827, -29.9324, -29.3054
1.87985, -1, 17.4182, 16.0504, 23.3645, 37.5161, -29.7327, -29.3983
1.88793, -1, 17.4891, 16.023, 23.3105, 37.6458, -29.5389, -29.4884
1.89585, -1, 17.5548, 15.9982, 23.259, 37.7687, -29.3551, -29.574
1.9049, -1, 17.614, 15.976, 23.2117, 37.8817, -29.1854, -29.653
1.91192, -1, 17.6667, 15.9565, 23.1699, 37.9816, -29.0358, -29.7225
1.91985, -1, 17.7135, 15.9386, 23.135, 38.0646, -28.9102, -29.7813
1.92787, -1, 17.7544, 15.9217, 23.1075, 38.1308, -28.8112, -29.8276
1.93598, -1, 17.7897, 15.9066, 23.0874, 38.1785, -28.7376, -29.8618
1.94385, -1, 17.8188, 15.894, 23.0737, 38.2112, -28.688, -29.885
1.95185, -1, 17.8426, 15.8837, 23.0651, 38.232, -28.6564, -29.8995
1.95992, -1, 17.8612, 15.8757, 23.0603, 38.2439, -28.6381, -29.9078
1.96787, -1, 17.8739, 15.8703, 23.0577, 38.2501, -28.6285, -29.912
1.97586, -1, 17.8809, 15.8674, 23.0564, 38.2531, -28.6238, -29.914
1.98391, 2, 17.8841, 15.8659, 23.0557, 38.2545, -28.6216, -29.9149
1.99185, 2, 17.8855, 15.8653, 23.0553, 38.2553, -28.6206, -29.9154
1.99985, 2, 17.8854, 15.8649, 23.0552, 38.2556, -28.6201, -29.9156
2.00793, 2, 17.8846, 15.8648, 23.0551, 38.2557, -28.6199, -29.9156
2.01585, 2, 17.8839, 15.8647, 23.0551, 38.2558, -28.6198, -29.9157
2.02385, 2, 17.8833, 15.8647, 23.055, 38.2558, -28.6198, -29.9157
2.03192, 2, 17.8831, 15.8646, 23.055, 38.2559, -28.6198, -29.9157
2.03988, 2, 17.883, 15.8645, 23.0549, 38.2559, -28.6198, -29.9157
2.04787, 2, 17.883, 15.8643, 23.0549, 38.2559, -28.6198, -29.9158
2.05592, 2, 17.8831, 15.864, 23.0548, 38.2559, -28.6199, -29.9157
2.06385, 2, 17.8834, 15.8637, 23.0548, 38.2559, -28.6198, -29.9157
2.07185, 2, 17.8838, 15.8634, 23.0547, 38.2559, -28.6199, -29.9157
2.07992, 2, 17.8843, 15.8632, 23.0547, 38.2559, -28.6199, -29.9157
2.08791, 2, 17.885, 15.8632, 23.0546, 38.2559, -28.6199, -29.9158
2.09594, 2, 17.8858, 15.8631, 23.0546, 38.2559, -28.6199, -29.9158
2.10406, 2, 17.8863, 15.8631, 23.0546, 38.2559, -28.6199, -29.9157
2.11196, 2, 17.8867, 15.8631, 23.0546, 38.2558, -28.6199, -29.9157
2.11995, 2, 17.887, 15.8631, 23.0546, 38.2559, -28.6199, -29.9157
2.12804, 2, 17.8872, 15.8631, 23.0546, 38.2559, -28.6199, -29.9157
2.13592, 2, 17.8872, 15.8632, 23.0546, 38.2559, -28.62, -29.9157
2.14385, 2, 17.8873, 15.8632, 23.0546, 38.2558, -28.62, -29.9157
2.15194, 2, 17.8873, 15.8631, 23.0546, 38.2559, -28.62, -29.9157
2.15987, 2, 17.8873, 15.8631, 23.0546, 38.2558, -28.62, -29.9157
2.16694, 2, 17.8873, 15.8631, 23.0546, 38.2558, -28.6201, -29.9157
2.17603, 2, 17.887, 15.863, 23.0546, 38.2558, -28.6201, -29.9157
2.18285, 2, 17.887, 15.8629, 23.0546, 38.2558, -28.6201, -29.9157
2.1921, 2, 17.8868, 15.8629, 23.0546, 38.2559, -28.6201, -29.9157
2.19884, 2, 17.8867, 15.8628, 23.0546, 38.2559, -28.6201, -29.9157
2.20894, 2, 17.8867, 15.8629, 23.0546, 38.2559, -28.6201, -29.9156
2.21638, 2, 17.8867, 15.8629, 23.0546, 38.2559, -28.6202, -29.9156
2.22442, 2, 17.8867, 15.8629, 23.0546, 38.2559, -28.6202, -29.9157
2.23285, 2, 17.8867, 15.8629, 23.0546, 38.2558, -28.6202, -29.9157
2.24041, 2, 17.8867, 15.8629, 23.0546, 38.2558, -28.6202, -29.9157
2.24846, 2, 17.8867, 15.8629, 23.0546, 38.2558, -28.6202, -29.9157
2.25697, 2, 17.8867, 15.8629, 23.0546, 38.2559, -28.6202, -29.9157
2.26435, 2, 17.8867, 15.8629, 23.0546, 38.2559, -28.6203, -29.9157
2.2726, 2, 17.8867, 15.8628, 23.0546, 38.2558, -28.6202, -29.9156
2.28088, 2, 17.8867, 15.8628, 23.0546, 38.2558, -28.6203, -29.9156
2.28782, 2, 17.8867, 15.8628, 23.0546, 38.2558, -28.6203, -29.9156
2.29588, 2, 17.8866, 15.8628, 23.0546, 38.2559, -28.6203, -29.9156
2.30383, 2, 17.8866, 15.8628, 23.0546, 38.2559, -28.6203, -29.9156
2.31184, 2, 17.8866, 15.8628, 23.0546, 38.2558, -28.6203, -29.9157
2.31988, 2, 17.8865, 15.8628, 23.0546, 38.2558, -28.6203, -29.9156
2.32785, 2, 17.8865, 15.8629, 23.0546, 38.2558, -28.6203, -29.9156
2.33584, 2, 17.8865, 15.8629, 23.0546, 38.2558, -28.6204, -29.9156
2.34388, 2, 17.8865, 15.8629, 23.0546, 38.2559, -28.6204, -29.9156
2.35187, 2, 17.8865, 15.8629, 23.0546, 38.2559, -28.6205, -29.9156
2.35985, 2, 17.8865, 15.8629, 23.0546, 38.2559, -28.6205, -29.9156
2.36789, 2, 17.8865, 15.8629, 23.0546, 38.2558, -28.6205, -29.9156
2.37587, 2, 17.8865, 15.8629, 23.0546, 38.2558, -28.6205, -29.9156
2.38385, 2, 17.8864, 15.8629, 23.0546, 38.2557, -28.6205, -29.9156
2.39187, 2, 17.8864, 15.8629, 23.0546, 38.2558, -28.6205, -29.9156
2.40201, 2, 17.8864, 15.8629, 23.0546, 38.2557, -28.6205, -29.9156
2.40787, 2, 17.8864, 15.8629, 23.0546, 38.2558, -28.6206, -29.9156
2.41599, 2, 17.8864, 15.8629, 23.0546, 38.2557, -28.6206, -29.9155
2.4251, 2, 17.8864, 15.8629, 23.0546, 38.2557, -28.6206, -29.9156
2.43185, 2, 17.8864, 15.8629, 23.0546, 38.2558, -28.6206, -29.9155
2.43993, 2, 17.8863, 15.8629, 23.0546, 38.2558, -28.6207, -29.9156
2.44785, 2, 17.8863, 15.8629, 23.0546, 38.2557, -28.6206, -29.9155
2.45585, 2, 17.8863, 15.8629, 23.0546, 38.2557, -28.6207, -29.9155
2.46387, 2, 17.8863, 15.8629, 23.0546, 38.2557, -28.6207, -29.9155
2.47183, 2, 17.8863, 15.8629, 23.0546, 38.2557, -28.6207, -29.9155
2.47987, 2, 17.8862, 15.8629, 23.0546, 38.2557, -28.6207, -29.9155
2.48788, 2, 17.8862, 15.8629, 23.0546, 38.2557, -28.6208, -29.9155
2.49583, 2, 17.8862, 15.8629, 23.0546, 38.2557, -28.6208, -29.9155
2.50384, 2, 17.8861, 15.8629, 23.0546, 38.2557, -28.6208, -29.9155
2.51187, 2, 17.8861, 15.8629, 23.0546, 38.2556, -28.6208, -29.9155
2.51985, 2, 17.886, 15.8629, 23.0546, 38.2557, -28.6208, -29.9155
2.5279, 2, 17.886, 15.8629, 23.0546, 38.2556, -28.6208, -29.9155
2.53587, 2, 17.886, 15.8629, 23.0546, 38.2556, -28.6208, -29.9155
2.54389, 2, 17.8859, 15.8629, 23.0546, 38.2557, -28.6208, -29.9155
2.55185, 2, 17.8859, 15.8629, 23.0546, 38.2556, -28.6209, -29.9155
2.55988, 2, 17.8858, 15.8629, 23.0546, 38.2556, -28.6209, -29.9155
2.56785, 2, 17.8858, 15.8629, 23.0546, 38.2556, -28.6209, -29.9155
2.57584, 2, 17.8857, 15.8629, 23.0546, 38.2556, -28.6209, -29.9155
2.58389, 2, 17.8857, 15.8629, 23.0546, 38.2556, -28.621, -29.9155
2.59191, 2, 17.8857, 15.8629, 23.0546, 38.2556, -28.621, -29.9154
2.59993, 2, 17.8856, 15.8629, 23.0546, 38.2556, -28.621, -29.9154
2.60803, 2, 17.8856, 15.8629, 23.0546, 38.2556, -28.621, -29.9154
2.61595, 2, 17.8855, 15.8629, 23.0546, 38.2556, -28.621, -29.9154
2.62395, 2, 17.8855, 15.8629, 23.0546, 38.2555, -28.621, -29.9154
2.63199, 2, 17.8854, 15.8629, 23.0546, 38.2555, -28.621, -29.9154
2.63997, 2, 17.8854, 15.8629, 23.0546, 38.2555, -28.6211, -29.9153
2.64785, 2, 17.8853, 15.8629, 23.0546, 38.2555, -28.621, -29.9152
2.6559, 2, 17.8853, 15.8629, 23.0546, 38.2555, -28.621, -29.9152
2.66388, 2, 17.8852, 15.8629, 23.0546, 38.2555, -28.6211, -29.9152
2.67196, 2, 17.8852, 15.8629, 23.0546, 38.2555, -28.6211, -29.9152
2.67884, 2, 17.8851, 15.8629, 23.0546, 38.2555, -28.6212, -29.9152
2.68805, 2, 17.885, 15.8629, 23.0546, 38.2555, -28.6211, -29.9151
2.69487, 2, 17.885, 15.8629, 23.0546, 38.2555, -28.6211, -29.9151
2.70422, 2, 17.8849, 15.8629, 23.0546, 38.2555, -28.6211, -29.9151
2.71083, 2, 17.8849, 15.8629, 23.0546, 38.2555, -28.6211, -29.9151
2.72038, 2, 17.8848, 15.8629, 23.0546, 38.2555, -28.6211, -29.9151
2.72842, 2, 17.8848, 15.8629, 23.0546, 38.2554, -28.6212, -29.9151
2.73638, 2, 17.8847, 15.8629, 23.0546, 38.2554, -28.6212, -29.915
2.74447, 2, 17.8847, 15.8629, 23.0546, 38.2555, -28.6212, -29.915
2.75241, 2, 17.8846, 15.8629, 23.0546, 38.2554, -28.6212, -29.915
2.76042, 2, 17.8846, 15.8629, 23.0546, 38.2554, -28.6212, -29.915
2.76843, 2, 17.8846, 15.8629, 23.0546, 38.2554, -28.6212, -29.915
2.77642, 2, 17.8845, 15.8629, 23.0546, 38.2554, -28.6212, -29.915
2.78383, 2, 17.8845, 15.8629, 23.0546, 38.2553, -28.6212, -29.915
2.79188, 2, 17.8845, 15.8629, 23.0546, 38.2554, -28.6212, -29.915
2.79985, 2, 17.8844, 15.8629, 23.0546, 38.2554, -28.6212, -29.915
2.80784, 2, 17.8843, 15.8629, 23.0546, 38.2553, -28.6212, -29.9149
2.81584, 2, 17.8843, 15.8629, 23.0546, 38.2552, -28.6212, -29.9149
2.82384, 2, 17.8843, 15.8629, 23.0546, 38.2552, -28.6212, -29.9149
2.83183, 2, 17.8842, 15.8629, 23.0546, 38.2552, -28.6213, -29.9149
2.83985, 2, 17.8842, 15.8629, 23.0546, 38.2552, -28.6213, -29.9149
2.84785, 2, 17.8842, 15.8629, 23.0546, 38.2552, -28.6213, -29.9149
2.85584, 2, 17.8842, 15.8629, 23.0546, 38.2552, -28.6213, -29.9149
2.86384, 2, 17.8841, 15.863, 23.0546, 38.2552, -28.6213, -29.9149
2.87184, 2, 17.8841, 15.863, 23.0546, 38.2552, -28.6213, -29.9149
2.87988, 2, 17.8841, 15.863, 23.0546, 38.2552, -28.6214, -29.9149
2.88784, 2, 17.8841, 15.863, 23.0546, 38.2552, -28.6214, -29.9149
2.89683, 2, 17.8841, 15.863, 23.0546, 38.2552, -28.6214, -29.9149
2.90383, 2, 17.884, 15.8629, 23.0546, 38.2552, -28.6214, -29.9149
2.91184, 2, 17.884, 15.863, 23.0546, 38.2552, -28.6214, -29.9149
2.91993, 2, 17.884, 15.8629, 23.0546, 38.2551, -28.6214, -29.9149
2.92883, 2, 17.884, 15.863, 23.0546, 38.2551, -28.6214, -29.9149
2.93584, 2, 17.884, 15.863, 23.0546, 38.2551, -28.6214, -29.9149
2.9439, 2, 17.884, 15.863, 23.0546, 38.255, -28.6214, -29.9148
2.95183, 2, 17.8839, 15.863, 23.0546, 38.2551, -28.6214, -29.9149
2.95985, 2, 17.8839, 15.863, 23.0546, 38.255, -28.6214, -29.9149
2.96785, 2, 17.8839, 15.863, 23.0546, 38.255, -28.6215, -29.9149
2.97583, 2, 17.8839, 15.863, 23.0546, 38.255, -28.6215, -29.9149
2.98506, 2, 17.8839, 15.863, 23.0546, 38.255, -28.6215, -29.9148
2.99181, 2, 17.8839, 15.863, 23.0546, 38.255, -28.6215, -29.9148
2.99983, 2, 17.8839, 15.863, 23.0546, 38.255, -28.6215, -29.9148
3.00787, 2, 17.8839, 15.863, 23.0546, 38.2549, -28.6215, -29.9149
3.01581, 2, 17.8839, 15.863, 23.0546, 38.2549, -28.6215, -29.9149
3.02383, 2, 17.8839, 15.863, 23.0546, 38.2549, -28.6215, -29.9148
3.03187, 2, 17.8839, 15.863, 23.0546, 38.2549, -28.6215, -29.9148
3.03978, 2, 17.8839, 15.863, 23.0546, 38.2549, -28.6215, -29.9148
3.04787, 2, 17.8839, 15.863, 23.0546, 38.2549, -28.6215, -29.9148
3.05586, 2, 17.8838, 15.863, 23.0546, 38.2549, -28.6215, -29.9148
3.06383, 4, 17.8838, 15.863, 23.0546, 38.2549, -28.6215, -29.9148
3.07183, 4, 17.8838, 15.863, 23.0546, 38.2548, -28.6215, -29.9148
3.07994, 4, 17.8838, 15.863, 23.0546, 38.2549, -28.6215, -29.9148
3.08785, 4, 17.8838, 15.863, 23.0546, 38.2548, -28.6215, -29.9147
3.09589, 4, 17.8838, 15.863, 23.0546, 38.2548, -28.6215, -29.9148
3.10395, 4, 17.8838, 15.863, 23.0546, 38.2548, -28.6215, -29.9148
3.11197, 4, 17.8837, 15.863, 23.0546, 38.2548, -28.6215, -29.9148
3.11995, 4, 17.8837, 15.863, 23.0546, 38.2548, -28.6215, -29.9148
3.12798, 4, 17.8837, 15.863, 23.0546, 38.2548, -28.6216, -29.9148
3.13593, 4, 17.8837, 15.863, 23.0546, 38.2547, -28.6215, -29.9148
3.1439, 4, 17.8837, 15.863, 23.0546, 38.2547, -28.6215, -29.9148
3.15189, 4, 17.8837, 15.863, 23.0546, 38.2547, -28.6215, -29.9147
3.15986, 4, 17.8836, 15.863, 23.0546, 38.2547, -28.6215, -29.9148
3.16818, 4, 17.8836, 15.863, 23.0547, 38.2547, -28.6215, -29.9148
3.19634, 4, 17.8836, 15.8631, 23.0546, 38.2547, -28.6215, -29.9148
3.19828, 4, 17.8836, 15.8631, 23.0546, 38.2547, -28.6215, -29.9148
3.20303, 4, 17.8836, 15.863, 23.0546, 38.2546, -28.6215, -29.9148
3.20567, 4, 17.8836, 15.863, 23.0547, 38.2546, -28.6215, -29.9148
3.20856, 4, 17.8836, 15.863, 23.0547, 38.2546, -28.6215, -29.9147
3.21693, 4, 17.8834, 15.8631, 23.0547, 38.2546, -28.6215, -29.9147
3.22447, 4, 17.8822, 15.8638, 23.0546, 38.2545, -28.6215, -29.9147
3.23232, 4, 17.8787, 15.8662, 23.0542, 38.2536, -28.6217, -29.9143
3.23881, 4, 17.8757, 15.8686, 23.0536, 38.2522, -28.6218, -29.9135
3.24846, 4, 17.861, 15.8843, 23.0487, 38.2382, -28.6242, -29.9023
3.25638, 4, 17.8537, 15.9046, 23.0411, 38.2143, -28.6292, -29.8792
3.26452, 5, 17.8339, 15.9351, 23.0277, 38.1706, -28.6389, -29.8353
3.27554, 5, 17.7883, 15.9772, 23.0066, 38.096, -28.6556, -29.76
3.27882, 5, 17.7683, 16.003, 22.9926, 38.0444, -28.6672, -29.7075
3.28884, 5, 17.6906, 16.1034, 22.9328, 37.8163, -28.7194, -29.4753
3.29586, 5, 17.6581, 16.1457, 22.9064, 37.7123, -28.7439, -29.3692
3.3038, 5, 17.5819, 16.2454, 22.8423, 37.4571, -28.8051, -29.1086
3.3118, 5, 17.4894, 16.3669, 22.7624, 37.1343, -28.8839, -28.7785
3.31986, 5, 17.3791, 16.511, 22.6657, 36.7408, -28.9832, -28.3763
3.32781, 5, 17.2495, 16.6799, 22.5516, 36.2751, -29.1037, -27.901
3.33583, 5, 17.0991, 16.8748, 22.4203, 35.7369, -29.2477, -27.3524
3.34385, 5, 16.9274, 17.0957, 22.2724, 35.1284, -29.4163, -26.7322
3.35181, 5, 16.7343, 17.3412, 22.1085, 34.4502, -29.6119, -26.0431
3.3598, 5, 16.5211, 17.6113, 21.9289, 33.7029, -29.8358, -25.29
3.36787, 5, 16.2896, 17.9025, 21.7349, 32.8928, -30.0894, -24.4759
3.37583, 5, 16.0421, 18.2122, 21.5294, 32.0268, -30.3737, -23.6084
3.38384, 5, 15.7794, 18.5385, 21.3131, 31.1139, -30.6881, -22.699
3.39191, 5, 15.5029, 18.8777, 21.0883, 30.1645, -31.0303, -21.7574
3.39981, 5, 15.2146, 19.2278, 20.8597, 29.1928, -31.3985, -20.8012
3.4088, 5, 14.916, 19.5875, 20.6288, 28.2114, -31.7895, -19.8397
3.41582, 5, 14.6068, 19.956, 20.3972, 27.2298, -32.2, -18.8845
3.4238, 5, 14.2872, 20.3294, 20.1676, 26.2556, -32.6275, -17.946
3.43187, 5, 13.9599, 20.7043, 19.9406, 25.2963, -33.0695, -17.0282
3.4398, 5, 13.627, 21.078, 19.7176, 24.3561, -33.5248, -16.1366
3.44792, 5, 13.291, 21.4503, 19.5007, 23.4328, -33.9924, -15.2701
3.45582, 5, 12.9535, 21.8195, 19.2892, 22.5289, -34.4712, -14.4324
3.46387, 5, 12.6146, 22.1853, 19.0828, 21.6462, -34.9612, -13.6225
3.4718, 5, 12.2741, 22.5465, 18.8826, 20.7846, -35.4613, -12.84
3.47981, 5, 11.9326, 22.9039, 18.6883, 19.9409, -35.9705, -12.0882
3.48787, 5, 11.5887, 23.2564, 18.4993, 19.1162, -36.4883, -11.363
3.49582, 5, 11.2425, 23.6044, 18.3166, 18.3117, -37.0145, -10.6651
3.5038, 5, 10.8935, 23.9473, 18.1406, 17.5273, -37.5494, -9.9953
3.51187, 5, 10.542, 24.2862, 17.9701, 16.7589, -38.0922, -9.35163
3.51981, 5, 10.1897, 24.6203, 17.8047, 16.0073, -38.6425, -8.73396
3.5279, 5, 9.83715, 24.9495, 17.6459, 15.2737, -39.1989, -8.14267
3.53582, 5, 9.48455, 25.2735, 17.4937, 14.5574, -39.7608, -7.57688
3.54381, 5, 9.13154, 25.5927, 17.3477, 13.8565, -40.3286, -7.03534
3.5519, 5, 8.77686, 25.9081, 17.2082, 13.169, -40.9018, -6.51753
3.5598, 5, 8.4204, 26.2183, 17.0753, 12.4968, -41.48, -6.02324
3.56789, 5, 8.06177, 26.5239, 16.949, 11.8387, -42.0632, -5.55212
3.57602, 5, 7.70053, 26.8235, 16.8294, 11.1939, -42.6507, -5.10304
3.5838, 5, 7.33771, 27.1178, 16.7163, 10.5624, -43.2415, -4.67572
3.59432, 5, 6.97371, 27.4074, 16.6101, 9.94197, -43.8354, -4.26954
3.59989, 5, 6.60939, 27.6909, 16.5107, 9.33363, -44.4324, -3.88438
3.60789, 5, 6.2449, 27.9689, 16.4181, 8.73705, -45.0329, -3.52004
3.61597, 5, 5.87947, 28.2409, 16.3325, 8.15049, -45.6366, -3.17527
3.62398, 5, 5.51342, 28.5065, 16.254, 7.57477, -46.242, -2.84986
3.63191, 5, 5.14614, 28.7666, 16.1825, 7.00837, -46.8484, -2.54351
3.63991, 5, 4.7796, 29.019, 16.1188, 6.45043, -47.4554, -2.25538
3.64836, 5, 4.5976, 29.1417, 16.0627, 5.90264, -48.0635, -1.98541
3.65479, 5, 4.23762, 29.3798, 16.0377, 5.63287, -48.3671, -1.85728
3.66383, 5, 3.71169, 29.7185, 15.9744, 4.84261, -49.27, -1.5014
3.67193, 5, 3.3723, 29.9303, 15.9417, 4.33651, -49.8579, -1.28864
3.6799, 5, 3.04372, 30.1315, 15.9166, 3.8512, -50.4281, -1.09514
3.68684, 5, 2.88405, 30.2281, 15.9066, 3.61734, -50.7052, -1.00611
3.69697, 5, 2.42427, 30.5009, 15.8853, 2.95614, -51.4968, -0.768146
3.70489, 5, 2.13367, 30.6673, 15.8776, 2.55203, -51.9862, -0.633689
3.71224, 5, 1.8572, 30.8207, 15.8739, 2.17867, -52.4421, -0.516907
3.71887, 5, 1.72487, 30.8923, 15.8735, 2.00379, -52.6569, -0.464923
3.7291, 5, 1.35527, 31.0855, 15.8769, 1.52535, -53.2483, -0.330131
3.73632, 5, 1.13581, 31.1972, 15.8821, 1.24508, -53.5969, -0.257586
3.74739, 5, 0.939509, 31.2956, 15.8889, 0.995153, -53.9097, -0.196126
3.75074, 5, 0.849685, 31.3399, 15.8926, 0.881349, -54.0523, -0.168932
3.76095, 5, 0.611285, 31.4541, 15.9048, 0.583988, -54.4265, -0.101366
3.76842, 5, 0.540999, 31.486, 15.915, 0.421397, -54.6338, -0.0651284
3.77579, 5, 0.410358, 31.5415, 15.9213, 0.349847, -54.7262, -0.0482637
3.78297, 6, 0.288763, 31.5866, 15.9385, 0.224939, -54.8932, -0.0137717
3.79185, 6, 0.172409, 31.6213, 15.965, 0.119118, -55.0441, 0.0270208
3.79979, 6, 0.0582403, 31.6455, 16.0065, 0.0266837, -55.1915, 0.0790732
3.80784, 6, -0.055307, 31.659, 16.0683, -0.060109, -55.3482, 0.147293
3.81579, 6, -0.170219, 31.6618, 16.1553, -0.148785, -55.5279, 0.238432
3.82379, 6, -0.28889, 31.6538, 16.2713, -0.245847, -55.7419, 0.35438
3.83078, 6, -0.41438, 31.6346, 16.4182, -0.356219, -55.9992, 0.497776
3.83979, 6, -0.550498, 31.6049, 16.5974, -0.483392, -56.3062, 0.667931
3.84779, 6, -0.701687, 31.5662, 16.8112, -0.628376, -56.6665, 0.864361
3.85583, 6, -0.870609, 31.5193, 17.0599, -0.791708, -57.0831, 1.0862
3.86279, 6, -1.05811, 31.4646, 17.3435, -0.973424, -57.5583, 1.33193
3.87179, 6, -1.26311, 31.4023, 17.6628, -1.17196, -58.0933, 1.59962
3.87985, 6, -1.48399, 31.3327, 18.0164, -1.3861, -58.6891, 1.88629
3.88678, 6, -1.71957, 31.2563, 18.4033, -1.61367, -59.3438, 2.18835
3.89579, 6, -1.96755, 31.1743, 18.8208, -1.85183, -60.0517, 2.50078
3.90385, 6, -2.22493, 31.0877, 19.2649, -2.09687, -60.8038, 2.81805
3.91283, 6, -2.49021, 30.9976, 19.731, -2.34502, -61.5936, 3.13465
3.91978, 6, -2.76287, 30.9053, 20.2143, -2.593, -62.4132, 3.44608
3.92787, 6, -3.0423, 30.8118, 20.7109, -2.83842, -63.2542, 3.74783
3.9358, 6, -3.32736, 30.7179, 21.2167, -3.07915, -64.1097, 4.03738
3.94379, 6, -3.61576, 30.6234, 21.7291, -3.3143, -64.9771, 4.31319
3.95194, 6, -3.90476, 30.5291, 22.2468, -3.54418, -65.8549, 4.57444
3.95979, 6, -4.19322, 30.435, 22.7688, -3.76824, -66.7415, 4.82075
3.96785, 6, -4.48026, 30.3411, 23.295, -3.98674, -67.6346, 5.05198
3.97586, 6, -4.76368, 30.2475, 23.8252, -4.20026, -68.5335, 5.26784
3.98378, 6, -5.04204, 30.1545, 24.359, -4.40872, -69.4404, 5.46892
3.99179, 6, -5.31528, 30.0621, 24.8966, -4.61253, -70.354, 5.65514
3.99985, 6, -5.58351, 29.9701, 25.4369, -4.81166, -71.2709, 5.82654
4.0078, 6, -5.84664, 29.8788, 25.98, -5.0066, -72.1933, 5.98312
4.01579, 6, -6.10508, 29.7884, 26.5259, -5.19809, -73.1223, 6.12511
4.02385, 6, -6.35908, 29.6989, 27.0744, -5.38605, -74.0552, 6.25239
4.0318, 6, -6.60848, 29.6105, 27.6255, -5.57058, -74.9908, 6.36551
4.03979, 6, -6.85424, 29.5231, 28.1784, -5.75221, -75.9305, 6.46389
4.04787, 6, -7.09797, 29.4368, 28.7334, -5.93095, -76.8751, 6.54849
4.05578, 6, -7.34004, 29.3516, 29.2901, -6.10786, -77.8221, 6.61838
4.06379, 6, -7.57868, 29.2675, 29.8482, -6.28281, -78.7699, 6.67531
4.07186, 6, -7.8123, 29.1846, 30.4078, -6.45578, -79.7217, 6.71846
4.07979, 6, -8.04096, 29.1028, 30.9683, -6.6274, -80.677, 6.7473
4.08785, 6, -8.2648, 29.0225, 31.5303, -6.79759, -81.6319, 6.76295
4.09583, 6, -8.48367, 28.9433, 32.0934, -6.9672, -82.5875, 6.76664
4.10385, 6, -8.69781, 28.8655, 32.6572, -7.13603, -83.5462, 6.7551
4.11193, 6, -8.90728, 28.7888, 33.2216, -7.30434, -84.5054, 6.7289
4.12019, 6, -9.11211, 28.7136, 33.7864, -7.4724, -85.4632, 6.68772
4.12736, 6, -9.31219, 28.6397, 34.3517, -7.64025, -86.4213, 6.63271
4.13596, 6, -9.50772, 28.5672, 34.917, -7.80839, -87.3805, 6.5641
4.14439, 6, -9.69847, 28.496, 35.4824, -7.97689, -88.3381, 6.48053
4.15179, 6, -9.88396, 28.4261, 36.0465, -8.14562, -89.2911, 6.38418
4.15988, 6, -10.0638, 28.3576, 36.6081, -8.31457, -90.2407, 6.27345
4.16785, 6, -10.237, 28.2908, 37.1655, -8.48333, -91.1844, 6.15044
4.17584, 6, -10.4029, 28.2258, 37.7155, -8.65135, -92.1136, 6.01527
4.18396, 6, -10.561, 28.163, 38.2544, -8.81787, -93.0222, 5.86974
4.19314, 6, -10.7104, 28.1029, 38.7785, -8.98126, -93.9071, 5.71563
4.19881, 6, -10.7816, 28.074, 39.0337, -9.06131, -94.338, 5.63605
4.20821, 6, -10.9806, 27.9921, 39.7667, -9.2935, -95.5706, 5.39169
4.21477, 6, -11.0418, 27.9667, 39.9987, -9.36766, -95.9591, 5.30943
4.22429, 6, -11.2093, 27.8962, 40.6513, -9.57865, -97.0525, 5.06488
4.23276, 6, -11.3079, 27.854, 41.0481, -9.70851, -97.7163, 4.90653
4.24055, 6, -11.3962, 27.8158, 41.4122, -9.8285, -98.3232, 4.75484
4.24835, 6, -11.4743, 27.7817, 41.7417, -9.93789, -98.8707, 4.61202
4.2564, 6, -11.5426, 27.7516, 42.0357, -10.0361, -99.3577, 4.48025
4.26453, 6, -11.5731, 27.738, 42.2933, -10.1225, -99.7824, 4.36184
4.27235, 6, -11.6275, 27.7136, 42.4079, -10.1609, -100.144, 4.2584
4.2804, 6, -11.6735, 27.6934, 42.6093, -10.2291, -100.302, 4.17092
4.28877, 6, -11.7116, 27.677, 42.7761, -10.284, -100.684, 4.09907
4.29581, 6, -11.7426, 27.6643, 42.9092, -10.3276, -100.783, 4.06914
4.30385, 6, -11.7673, 27.6549, 43.0113, -10.3608, -100.942, 4.0203
4.31177, 6, -11.7863, 27.6484, 43.087, -10.3845, -101.056, 3.98494
4.31977, 6, -11.8004, 27.6439, 43.1406, -10.4004, -101.134, 3.96047
4.32784, 6, -11.8105, 27.6411, 43.1768, -10.4106, -101.183, 3.94444
4.33476, 6, -11.8177, 27.6395, 43.2007, -10.4165, -101.212, 3.93469
4.34377, 6, -11.8225, 27.6387, 43.2156, -10.4194, -101.229, 3.92901
4.35183, 6, -11.8257, 27.6384, 43.2251, -10.421, -101.237, 3.92591
4.35974, 7, -11.8274, 27.6381, 43.2314, -10.4217, -101.241, 3.92422
4.36779, 7, -11.8279, 27.6379, 43.2355, -10.4221, -101.243, 3.92327
4.37476, 7, -11.828, 27.6377, 43.2385, -10.4223, -101.244, 3.92266
4.38376, 7, -11.8279, 27.6376, 43.2409, -10.4224, -101.244, 3.92233
4.39177, 7, -11.8278, 27.6374, 43.2429, -10.4225, -101.244, 3.92203
4.39983, 7, -11.8276, 27.6372, 43.2447, -10.4225, -101.244, 3.9219
4.40778, 7, -11.8276, 27.6371, 43.2462, -10.4225, -101.244, 3.9218
4.41676, 7, -11.8274, 27.637, 43.2474, -10.4225, -101.244, 3.92172
4.42384, 7, -11.8273, 27.6369, 43.2484, -10.4225, -101.244, 3.92164
4.43177, 7, -11.8272, 27.6368, 43.2491, -10.4224, -101.244, 3.92157
4.43977, 7, -11.8271, 27.6367, 43.2497, -10.4224, -101.244, 3.92152
4.44786, 7, -11.8271, 27.6367, 43.2502, -10.4224, -101.243, 3.92146
4.45586, 7, -11.827, 27.6367, 43.2507, -10.4224, -101.243, 3.92141
4.46376, 7, -11.8269, 27.6367, 43.2511, -10.4224, -101.243, 3.92136
4.47185, 7, -11.8266, 27.6367, 43.2514, -10.4224, -101.243, 3.92126
4.47977, 7, -11.8263, 27.6367, 43.2516, -10.4224, -101.242, 3.92124
