hehonglu123/ABB_Primitive_Study/realrobot/movec_30_car/curve_exe_v300_z20.csv
timestamp, cmd_num, J1, J2, J3, J4, J5, J6
0.003018, -1, -11.8216, 27.6363, 43.2516, -10.4215, -101.24, 3.92033
0.148823, -1, -11.2765, 27.4121, 42.9143, -9.59115, -100.011, 3.3483
0.150203, -1, -11.2765, 27.4121, 42.9143, -9.59115, -100.011, 3.3483
0.152321, -1, -11.2174, 27.389, 42.8702, -9.48318, -99.8511, 3.27328
0.153558, -1, -11.2174, 27.389, 42.8702, -9.48318, -99.8511, 3.27328
0.154726, -1, -11.2174, 27.389, 42.8702, -9.48318, -99.8511, 3.27328
0.156769, -1, -11.1553, 27.3647, 42.8241, -9.37053, -99.6836, 3.19504
0.158042, -1, -11.1553, 27.3647, 42.8241, -9.37053, -99.6836, 3.19504
0.162246, -1, -11.0902, 27.3391, 42.7763, -9.25379, -99.5099, 3.11404
0.164311, -1, -11.0223, 27.3123, 42.7269, -9.1335, -99.3308, 3.03054
0.16553, -1, -11.0223, 27.3123, 42.7269, -9.1335, -99.3308, 3.03054
0.166712, -1, -11.0223, 27.3123, 42.7269, -9.1335, -99.3308, 3.03054
0.169454, -1, -10.9517, 27.2845, 42.6763, -9.01022, -99.1474, 2.94491
0.172781, -1, -10.8787, 27.2559, 42.6245, -8.88432, -98.9602, 2.85753
0.174075, -1, -10.8787, 27.2559, 42.6245, -8.88432, -98.9602, 2.85753
0.175956, -1, -10.8038, 27.2264, 42.5716, -8.75627, -98.7697, 2.76881
0.178855, -1, -10.8038, 27.2264, 42.5716, -8.75627, -98.7697, 2.76881
0.180968, -1, -10.7273, 27.1963, 42.518, -8.62648, -98.5765, 2.67879
0.182176, -1, -10.7273, 27.1963, 42.518, -8.62648, -98.5765, 2.67879
0.184055, -1, -10.6494, 27.1657, 42.4638, -8.49523, -98.3811, 2.58762
0.185399, -1, -10.6494, 27.1657, 42.4638, -8.49523, -98.3811, 2.58762
0.186668, -1, -10.6494, 27.1657, 42.4638, -8.49523, -98.3811, 2.58762
0.188718, -1, -10.5703, 27.1345, 42.4091, -8.36284, -98.1841, 2.49558
0.192014, -1, -10.4902, 27.1028, 42.354, -8.22947, -97.9856, 2.40287
0.193362, -1, -10.4902, 27.1028, 42.354, -8.22947, -97.9856, 2.40287
0.194537, -1, -10.4902, 27.1028, 42.354, -8.22947, -97.9856, 2.40287
0.199134, -1, -10.409, 27.0708, 42.2986, -8.0953, -97.7857, 2.30958
0.20819, -1, -10.1618, 26.9731, 42.131, -7.68921, -97.1806, 2.02686
0.215181, -1, -10.0785, 26.9401, 42.0747, -7.55299, -96.9773, 1.93212
0.224228, -1, -9.82689, 26.8407, 41.9046, -7.14203, -96.3645, 1.64628
0.231185, -1, -9.74279, 26.8074, 41.8475, -7.00425, -96.1591, 1.55052
0.240393, -1, -9.4902, 26.7074, 41.6755, -6.58937, -95.5402, 1.26179
0.247175, -1, -9.40604, 26.674, 41.618, -6.45043, -95.3331, 1.16507
0.25651, -1, -9.15375, 26.5736, 41.4449, -6.03162, -94.7089, 0.874132
0.263219, -1, -9.0695, 26.54, 41.387, -5.89149, -94.5001, 0.776828
0.272675, -1, -8.81519, 26.439, 41.2123, -5.46925, -93.871, 0.483845
0.28075, -1, -8.64412, 26.3711, 41.095, -5.18623, -93.4492, 0.287349
0.288694, -1, -8.47154, 26.3027, 40.9773, -4.90228, -93.0257, 0.0901813
0.296884, -1, -8.2979, 26.234, 40.8591, -4.61729, -92.6002, -0.107968
0.304796, -1, -8.12323, 26.1648, 40.7406, -4.33109, -92.1732, -0.306621
0.312749, -1, -8.03535, 26.0953, 40.6217, -4.04401, -91.745, -0.506156
0.320917, -1, -7.76997, 26.0255, 40.5021, -3.75602, -91.3155, -0.706465
0.328154, -1, -7.68106, 25.9905, 40.4421, -3.61152, -91.1004, -0.806825
0.336881, -1, -7.50272, 25.9203, 40.3218, -3.32193, -90.6688, -1.00829
0.343175, -1, -7.32375, 25.8499, 40.2011, -3.03153, -90.2354, -1.21043
0.351218, -1, -7.14455, 25.7796, 40.0801, -2.74002, -89.8005, -1.41292
0.359263, -1, -6.96533, 25.7092, 39.959, -2.44751, -89.3639, -1.61597
0.368175, -1, -6.78632, 25.6387, 39.8373, -2.15426, -88.9258, -1.81953
0.376208, -1, -6.60742, 25.5681, 39.7154, -1.86005, -88.4875, -2.02379
0.384179, -1, -6.42887, 25.4972, 39.5932, -1.56506, -88.0481, -2.22869
0.392169, -1, -6.25058, 25.4261, 39.4706, -1.26978, -87.6077, -2.43416
0.400284, -1, -6.07193, 25.3548, 39.3477, -0.973693, -87.1665, -2.6397
0.40816, -1, -5.89277, 25.2833, 39.2246, -0.677051, -86.7239, -2.84592
0.416371, -1, -5.71303, 25.2115, 39.1012, -0.380142, -86.2806, -3.05251
0.423169, -1, -5.53252, 25.1395, 38.9777, -0.082322, -85.8365, -3.25962
0.431246, -1, -5.35113, 25.0674, 38.8539, 0.215681, -85.3918, -3.46691
0.439179, -1, -5.16868, 24.9952, 38.73, 0.513876, -84.9468, -3.67417
0.447325, -1, -4.98536, 24.923, 38.606, 0.812657, -84.5011, -3.8816
0.455245, -1, -4.80149, 24.8508, 38.4818, 1.11138, -84.0553, -4.08925
0.46318, -1, -4.61744, 24.7787, 38.3576, 1.41045, -83.6091, -4.29706
0.47216, -1, -4.43331, 24.7064, 38.2333, 1.70999, -83.1624, -4.50541
0.479226, -1, -4.24922, 24.6342, 38.1091, 2.00933, -82.7157, -4.71334
0.487286, -1, -4.06546, 24.5621, 37.9848, 2.30887, -82.2689, -4.92135
0.49518, -1, -3.88204, 24.4899, 37.8605, 2.60838, -81.8217, -5.12946
0.503236, -1, -3.69943, 24.4177, 37.7362, 2.90736, -81.3755, -5.3374
0.511362, -1, -3.51772, 24.3455, 37.6121, 3.20638, -80.9294, -5.54548
0.519193, -1, -3.33661, 24.2733, 37.488, 3.50536, -80.4841, -5.75315
0.527336, -1, -3.1562, 24.2012, 37.3641, 3.80382, -80.0393, -5.96047
0.535432, -1, -2.97653, 24.1292, 37.2402, 4.10191, -79.5947, -6.16745
0.543264, -1, -2.79697, 24.0572, 37.1165, 4.39954, -79.1503, -6.37434
0.551338, -1, -2.61742, 23.9854, 36.9932, 4.69638, -78.7069, -6.58083
0.559702, -1, -2.4375, 23.9137, 36.8702, 4.99293, -78.2641, -6.78718
0.568166, -1, -2.25712, 23.8423, 36.7473, 5.28894, -77.823, -6.99294
0.575373, -1, -2.0766, 23.7711, 36.6249, 5.58394, -77.3829, -7.19818
0.583287, -1, -1.89614, 23.7001, 36.5026, 5.87801, -76.9443, -7.40278
0.591207, -1, -1.716, 23.6293, 36.3806, 6.17131, -76.5068, -7.60691
0.730963, -1, 1.22008, 22.4673, 34.383, 10.9803, -69.3307, -10.9498
0.73301, -1, 1.30339, 22.4345, 34.3267, 11.1157, -69.1288, -11.044
0.734199, -1, 1.30339, 22.4345, 34.3267, 11.1157, -69.1288, -11.044
0.736009, -1, 1.30339, 22.4345, 34.3267, 11.1157, -69.1288, -11.138
0.737475, -1, 1.38652, 22.4019, 34.2707, 11.2506, -68.9274, -11.138
0.738733, -1, 1.38652, 22.4019, 34.2707, 11.2506, -68.9274, -11.138
0.741503, -1, 1.46945, 22.3693, 34.2148, 11.3851, -68.7265, -11.2316
0.744595, -1, 1.55223, 22.3369, 34.159, 11.5192, -68.5262, -11.3249
0.7459, -1, 1.55223, 22.3369, 34.159, 11.5192, -68.5262, -11.3249
0.747148, -1, 1.55223, 22.3369, 34.159, 11.5192, -68.5262, -11.3249
0.749197, -1, 1.63484, 22.3045, 34.1035, 11.653, -68.3263, -11.4178
0.75051, -1, 1.63484, 22.3045, 34.1035, 11.653, -68.3263, -11.4178
0.752472, -1, 1.71722, 22.2722, 34.0481, 11.7863, -68.1271, -11.5105
0.7547, -1, 1.71722, 22.2722, 34.0481, 11.7863, -68.1271, -11.5105
0.756582, -1, 1.79927, 22.24, 33.9929, 11.9194, -67.9284, -11.6031
0.760887, -1, 1.88094, 22.2079, 33.9378, 12.0523, -67.7304, -11.6954
0.762202, -1, 1.88094, 22.2079, 33.9378, 12.0523, -67.7304, -11.6954
0.763389, -1, 1.88094, 22.2079, 33.9378, 12.0523, -67.7304, -11.6954
0.765928, -1, 1.96221, 22.1759, 33.8829, 12.1847, -67.5332, -11.7874
0.767123, -1, 1.96221, 22.1759, 33.8829, 12.1847, -67.5332, -11.7874
0.769173, -1, 2.04306, 22.144, 33.828, 12.3166, -67.3366, -11.879
0.770365, -1, 2.04306, 22.144, 33.828, 12.3166, -67.3366, -11.879
0.777314, -1, 2.20366, 22.0804, 33.7189, 12.579, -66.9449, -12.0617
0.783216, -1, 2.28352, 22.0488, 33.6645, 12.7096, -66.7501, -12.1527
0.792764, -1, 2.5209, 21.9545, 33.5026, 13.0992, -66.1692, -12.4237
0.802987, -1, 2.6773, 21.8921, 33.3957, 13.3567, -65.7845, -12.6028
0.808727, -1, 2.83237, 21.8302, 33.2894, 13.613, -65.4023, -12.7807
0.816742, -1, 2.90937, 21.7686, 33.1836, 13.8678, -65.0222, -12.9576
0.825713, -1, 3.06241, 21.7379, 33.131, 13.9943, -64.645, -13.1333
0.831168, -1, 3.21482, 21.6769, 33.0261, 14.2461, -64.4571, -13.2208
0.840145, -1, 3.36693, 21.6162, 32.9219, 14.4967, -64.0835, -13.3952
0.848161, -1, 3.51863, 21.556, 32.8186, 14.7455, -63.7121, -13.5682
0.856153, -1, 3.66984, 21.4961, 32.716, 14.9928, -63.3431, -13.7401
0.864138, -1, 3.82048, 21.4367, 32.6141, 15.2384, -62.9765, -13.9108
0.872187, -1, 3.97019, 21.3776, 32.5126, 15.4826, -62.6124, -14.0804
0.880143, -1, 4.11934, 21.319, 32.4116, 15.7252, -62.2507, -14.2489
0.888162, -1, 4.26784, 21.2607, 32.3114, 15.9659, -61.8911, -14.4165
0.896209, -1, 4.41548, 21.2029, 32.2119, 16.2052, -61.5337, -14.583
0.903149, -1, 4.5623, 21.1455, 32.1134, 16.4431, -61.1785, -14.7483
0.911237, -1, 4.70813, 21.0886, 32.0155, 16.6791, -60.8256, -14.9125
0.919145, -1, 4.85233, 21.0319, 31.918, 16.9137, -60.4753, -15.0753
0.92716, -1, 4.99498, 20.9755, 31.821, 17.1469, -60.1274, -15.2374
0.935207, -1, 5.13664, 20.9194, 31.7246, 17.3786, -59.7817, -15.3985
0.943149, -1, 5.27703, 20.8636, 31.6289, 17.6088, -59.4387, -15.5586
0.951169, -1, 5.41593, 20.8081, 31.534, 17.8373, -59.0978, -15.7177
0.959212, -1, 5.55358, 20.7529, 31.4399, 18.0648, -58.7586, -15.8757
0.967156, -1, 5.68996, 20.6982, 31.3462, 18.2906, -58.4217, -16.0327
0.975155, -1, 5.82514, 20.6437, 31.2529, 18.5148, -58.0867, -16.1889
0.983209, -1, 5.95972, 20.5896, 31.1599, 18.7379, -57.7535, -16.3441
0.991146, -1, 6.09408, 20.536, 31.0676, 18.9596, -57.4224, -16.4983
0.999209, -1, 6.22813, 20.4827, 30.9762, 19.18, -57.0937, -16.6518
1.00722, -1, 6.36197, 20.4299, 30.8855, 19.3988, -56.767, -16.8041
1.01515, -1, 6.49541, 20.3774, 30.7955, 19.6162, -56.4425, -16.9554
1.02318, -1, 6.6282, 20.3253, 30.7059, 19.8325, -56.1202, -17.1056
1.03134, -1, 6.76019, 20.2733, 30.6165, 20.0472, -55.7999, -17.2548
1.03924, -1, 6.89158, 20.2216, 30.5276, 20.2605, -55.4814, -17.4032
1.04725, -1, 7.02245, 20.1702, 30.4393, 20.4727, -55.1647, -17.5506
1.05531, -1, 7.15267, 20.1191, 30.3516, 20.6838, -54.8498, -17.6971
1.06325, -1, 7.28176, 20.0683, 30.2648, 20.8935, -54.5366, -17.8432
1.07132, -1, 7.40971, 20.0176, 30.1784, 21.102, -54.2252, -17.988
1.07938, -1, 7.5367, 19.9673, 30.0924, 21.3091, -53.916, -18.1321
1.08718, -1, 7.66277, 19.9173, 30.0067, 21.5151, -53.6087, -18.2752
1.09525, -1, 7.78792, 19.8675, 29.9215, 21.7199, -53.3031, -18.4174
1.10318, -1, 7.91212, 19.8183, 29.8367, 21.9233, -52.9993, -18.559
1.11127, -1, 8.03555, 19.7694, 29.7526, 22.1258, -52.6973, -18.6996
1.11941, -1, 8.15809, 19.7208, 29.6692, 22.3271, -52.3971, -18.8396
1.12736, -1, 8.27961, 19.6725, 29.5863, 22.5277, -52.0985, -18.979
1.13552, -1, 8.40033, 19.6244, 29.5037, 22.7266, -51.8016, -19.117
1.14349, -1, 8.52029, 19.5767, 29.4216, 22.9243, -51.5064, -19.2546
1.15153, -1, 8.6395, 19.529, 29.3399, 23.121, -51.2128, -19.3913
1.15972, -1, 8.75817, 19.4816, 29.2586, 23.3167, -50.9208, -19.5269
1.1683, -1, 8.87638, 19.4345, 29.1777, 23.511, -50.6303, -19.6621
1.17569, -1, 8.99417, 19.3876, 29.0974, 23.7043, -50.3415, -19.7966
1.18427, -1, 9.11151, 19.3409, 29.0175, 23.8965, -50.0544, -19.9303
1.19167, -1, 9.17005, 19.3176, 28.9777, 24.088, -49.7689, -20.0635
1.2002, -1, 9.34515, 19.2483, 28.8591, 24.2784, -49.4848, -20.196
1.2078, -1, 9.40334, 19.2253, 28.8198, 24.373, -49.2025, -20.3275
1.21624, -1, 9.5769, 19.1569, 28.7025, 24.6557, -48.9218, -20.4582
1.22313, -1, 9.63445, 19.1343, 28.6635, 24.7493, -48.7821, -20.5234
1.23224, -1, 9.80625, 19.0668, 28.5473, 25.0292, -48.365, -20.7179
1.23915, -1, 9.86317, 19.0445, 28.5087, 25.122, -48.2265, -20.7823
1.24834, -1, 10.0331, 18.9778, 28.3936, 25.3988, -47.8133, -20.975
1.25514, -1, 10.0894, 18.9556, 28.3555, 25.4906, -47.6762, -21.039
1.26449, -1, 10.2574, 18.8894, 28.2419, 25.7648, -47.2668, -21.2299
1.27118, -1, 10.3132, 18.8675, 28.2042, 25.8559, -47.131, -21.293
1.28067, -1, 10.4792, 18.8017, 28.0916, 26.1274, -46.7258, -21.4817
1.28865, -1, 10.5889, 18.7581, 28.0169, 26.307, -46.4575, -21.6066
1.29666, -1, 10.6981, 18.7147, 27.9424, 26.4859, -46.1905, -21.7306
1.30482, -1, 10.8068, 18.6715, 27.8684, 26.664, -45.925, -21.8544
1.31272, -1, 10.9146, 18.6285, 27.7949, 26.8412, -45.6609, -21.9774
1.32068, -1, 10.9683, 18.6071, 27.7216, 27.0175, -45.398, -22.1
1.32894, -1, 11.1285, 18.5431, 27.6488, 27.1928, -45.1366, -22.2222
1.33614, -1, 11.1817, 18.5219, 27.6125, 27.2801, -45.0063, -22.283
1.34412, -1, 11.2878, 18.4798, 27.5403, 27.4545, -44.7464, -22.4042
1.3522, -1, 11.3933, 18.4379, 27.4684, 27.628, -44.4876, -22.5246
1.36014, -1, 11.498, 18.3962, 27.3968, 27.8006, -44.23, -22.6444
1.36812, -1, 11.6023, 18.3548, 27.3255, 27.9724, -43.9733, -22.7638
1.37613, -1, 11.7062, 18.3136, 27.2546, 28.1432, -43.7179, -22.8825
1.38413, -1, 11.8098, 18.2725, 27.1838, 28.3134, -43.4639, -23.0008
1.3922, -1, 11.9132, 18.2316, 27.1134, 28.4831, -43.2111, -23.1187
1.40014, -1, 12.0164, 18.1909, 27.0433, 28.6517, -42.9593, -23.2359
1.40814, -1, 12.1192, 18.1502, 26.9736, 28.8196, -42.7087, -23.3529
1.41619, -1, 12.2217, 18.1097, 26.9043, 28.9867, -42.4592, -23.4693
1.42412, -1, 12.3237, 18.0693, 26.8352, 29.1532, -42.2108, -23.5848
1.43212, -1, 12.4252, 18.029, 26.7665, 29.3192, -41.9637, -23.7002
1.43913, -1, 12.5263, 17.9889, 26.6979, 29.4844, -41.7175, -23.8147
1.44712, -1, 12.6271, 17.9491, 26.6297, 29.6487, -41.4723, -23.9288
1.4553, -1, 12.7274, 17.9094, 26.5617, 29.8123, -41.228, -24.0425
1.46314, -1, 12.8272, 17.8699, 26.4939, 29.9752, -40.9849, -24.1556
1.47113, -1, 12.9264, 17.8306, 26.4266, 30.1376, -40.7427, -24.2685
1.47927, -1, 13.0251, 17.7915, 26.3595, 30.2992, -40.5015, -24.3807
1.48713, -1, 13.1233, 17.7525, 26.2928, 30.46, -40.2612, -24.4928
1.49513, -1, 13.2209, 17.7139, 26.2264, 30.6201, -40.0221, -24.6043
1.5034, -1, 13.3181, 17.6753, 26.1602, 30.7796, -39.7839, -24.715
1.51113, -1, 13.4149, 17.6369, 26.0943, 30.9386, -39.5468, -24.8256
1.51923, -1, 13.5115, 17.5987, 26.0286, 31.0971, -39.3106, -24.9355
1.52747, -1, 13.6078, 17.5607, 25.9631, 31.2546, -39.0753, -25.0451
1.53526, -1, 13.7037, 17.5227, 25.8979, 31.4116, -38.8411, -25.1544
1.54324, -1, 13.7992, 17.4849, 25.8328, 31.5678, -38.6077, -25.2631
1.55175, -1, 13.8944, 17.4471, 25.7682, 31.7235, -38.3753, -25.3717
1.56021, -1, 13.9893, 17.4095, 25.7038, 31.8788, -38.1441, -25.4797
1.56723, -1, 14.084, 17.3721, 25.6397, 32.0334, -37.9137, -25.5875
1.57583, -1, 14.1782, 17.3347, 25.5758, 32.1873, -37.6842, -25.6948
1.58429, -1, 14.272, 17.2974, 25.5121, 32.3407, -37.4552, -25.8014
1.59115, -1, 14.3652, 17.2603, 25.4487, 32.4934, -37.2272, -25.9077
1.6002, -1, 14.4579, 17.2235, 25.3855, 32.6457, -37.0001, -26.0133
1.60717, -1, 14.5501, 17.1868, 25.3226, 32.7976, -36.7736, -26.1187
1.61528, -1, 14.6419, 17.1502, 25.2598, 32.9489, -36.5479, -26.2235
1.6242, -1, 14.7333, 17.1138, 25.1973, 33.0994, -36.3233, -26.3282
1.63136, -1, 14.8244, 17.0775, 25.135, 33.2493, -36.0993, -26.4322
1.6395, -1, 14.9153, 17.0413, 25.073, 33.3988, -35.8762, -26.5361
1.64853, -1, 15.006, 17.0053, 25.0111, 33.5478, -35.654, -26.6398
1.65557, -1, 15.0964, 16.9695, 24.9496, 33.6962, -35.4326, -26.7429
1.66366, -1, 15.1865, 16.9337, 24.8883, 33.8441, -35.212, -26.846
1.67254, -1, 15.2764, 16.8981, 24.8272, 33.9914, -34.9922, -26.9482
1.67969, -1, 15.3662, 16.8627, 24.7664, 34.1379, -34.7734, -27.0502
1.68823, -1, 15.4559, 16.8273, 24.7056, 34.2843, -34.5553, -27.1518
1.69669, -1, 15.5007, 16.8096, 24.6451, 34.4302, -34.3378, -27.2529
1.70376, -1, 15.5901, 16.7569, 24.5848, 34.5757, -34.1208, -27.3538
1.71212, -1, 15.7234, 16.7219, 24.5245, 34.7205, -33.9045, -27.4546
1.71913, -1, 15.7676, 16.7045, 24.4945, 34.7927, -33.7968, -27.5047
1.72712, -1, 15.8559, 16.6695, 24.4347, 34.9366, -33.5818, -27.6049
1.73617, -1, 15.9877, 16.6175, 24.3454, 35.1517, -33.2602, -27.7548
1.74312, -1, 16.0315, 16.6002, 24.3157, 35.2232, -33.1535, -27.8046
1.75232, -1, 16.162, 16.5483, 24.2271, 35.4372, -32.8346, -27.9534
1.75911, -1, 16.2054, 16.531, 24.1976, 35.5082, -32.7286, -28.0026
1.7692, -1, 16.3348, 16.4797, 24.1096, 35.7205, -32.4119, -28.1503
1.77518, -1, 16.3778, 16.4626, 24.0803, 35.7911, -32.3066, -28.1992
1.78462, -1, 16.5063, 16.4114, 23.9928, 36.002, -31.9916, -28.346
1.79389, -1, 16.5915, 16.3775, 23.9346, 36.1423, -31.7829, -28.443
1.80067, -1, 16.6766, 16.3438, 23.8766, 36.2823, -31.5742, -28.5404
1.80884, -1, 16.7615, 16.3101, 23.8188, 36.4215, -31.3668, -28.637
1.81674, -1, 16.8463, 16.2765, 23.7613, 36.5604, -31.1596, -28.7335
1.82473, -1, 16.8887, 16.2431, 23.7038, 36.6987, -30.9531, -28.8298
1.83276, -1, 16.9731, 16.2265, 23.6467, 36.8367, -30.7471, -28.926
1.84016, -1, 17.0573, 16.1931, 23.6182, 36.9055, -30.6443, -28.9737
1.84718, -1, 17.141, 16.1599, 23.5613, 37.0429, -30.4393, -29.0695
1.85512, -1, 17.2238, 16.1271, 23.5046, 37.1798, -30.2352, -29.1644
1.86312, -1, 17.3043, 16.0952, 23.4481, 37.3161, -30.0318, -29.2592
1.87124, -1, 17.3818, 16.0647, 23.3922, 37.4508, -29.8304, -29.3527
1.88017, -1, 17.4549, 16.0361, 23.3372, 37.5825, -29.6334, -29.4447
1.88811, -1, 17.5233, 16.01, 23.2844, 37.7092, -29.444, -29.5325
1.8952, -1, 17.5858, 15.9864, 23.2348, 37.8276, -29.2669, -29.6153
1.90313, -1, 17.6417, 15.9657, 23.1901, 37.9344, -29.1066, -29.6895
1.91111, -1, 17.6914, 15.9472, 23.1516, 38.026, -28.9688, -29.7539
1.92014, -1, 17.7351, 15.9298, 23.1204, 38.1006, -28.8566, -29.8064
1.92816, -1, 17.7733, 15.9136, 23.0968, 38.1573, -28.7707, -29.8465
1.93611, -1, 17.8055, 15.8998, 23.08, 38.1968, -28.7097, -29.8749
1.94411, -1, 17.8317, 15.8884, 23.069, 38.2232, -28.6699, -29.8934
1.95214, -1, 17.853, 15.8792, 23.0625, 38.239, -28.6457, -29.9045
1.96012, -1, 17.8686, 15.8725, 23.0589, 38.2477, -28.6323, -29.9104
1.96811, -1, 17.8783, 15.8685, 23.057, 38.252, -28.6256, -29.9133
1.97624, 2, 17.883, 15.8664, 23.0561, 38.2541, -28.6224, -29.9147
1.98411, 2, 17.8851, 15.8654, 23.0555, 38.2551, -28.6208, -29.9153
1.99117, 2, 17.8857, 15.865, 23.0553, 38.2555, -28.6201, -29.9156
1.99911, 2, 17.8852, 15.8648, 23.0552, 38.2557, -28.6198, -29.9157
2.00711, 2, 17.8843, 15.8647, 23.0551, 38.2558, -28.6197, -29.9158
2.01611, 2, 17.8836, 15.8646, 23.0551, 38.2559, -28.6197, -29.9158
2.02417, 2, 17.8832, 15.8646, 23.0551, 38.256, -28.6197, -29.9159
2.03115, 2, 17.883, 15.8645, 23.055, 38.2559, -28.6196, -29.9158
2.03934, 2, 17.883, 15.8643, 23.0549, 38.256, -28.6197, -29.9158
2.04721, 2, 17.8831, 15.864, 23.0548, 38.256, -28.6197, -29.9158
2.05523, 2, 17.8834, 15.8638, 23.0548, 38.256, -28.6197, -29.9158
2.06329, 2, 17.8837, 15.8635, 23.0547, 38.256, -28.6197, -29.9158
2.07122, 2, 17.8841, 15.8632, 23.0547, 38.2559, -28.6198, -29.9158
2.07917, 2, 17.8847, 15.8631, 23.0546, 38.2559, -28.6198, -29.9158
2.08729, 2, 17.8855, 15.8631, 23.0546, 38.256, -28.6198, -29.9158
2.09515, 2, 17.8861, 15.8631, 23.0546, 38.256, -28.6197, -29.9158
2.10316, 2, 17.8866, 15.8631, 23.0546, 38.256, -28.6198, -29.9158
2.11128, 2, 17.887, 15.8631, 23.0546, 38.256, -28.6198, -29.9158
2.1192, 2, 17.8872, 15.8631, 23.0546, 38.2559, -28.6198, -29.9159
2.1273, 2, 17.8873, 15.8631, 23.0546, 38.256, -28.6199, -29.9158
2.13548, 2, 17.8874, 15.8631, 23.0546, 38.256, -28.6198, -29.9158
2.14343, 2, 17.8874, 15.8631, 23.0546, 38.256, -28.6199, -29.9158
2.15147, 2, 17.8874, 15.8631, 23.0546, 38.256, -28.6199, -29.9158
2.15967, 2, 17.8874, 15.863, 23.0546, 38.256, -28.6199, -29.9158
2.16827, 2, 17.8873, 15.8629, 23.0546, 38.2559, -28.62, -29.9158
2.17563, 2, 17.8871, 15.8628, 23.0546, 38.2559, -28.62, -29.9158
2.1842, 2, 17.887, 15.8628, 23.0546, 38.2559, -28.62, -29.9158
2.19164, 2, 17.8869, 15.8627, 23.0546, 38.2559, -28.62, -29.9158
2.20023, 2, 17.8868, 15.8627, 23.0546, 38.2559, -28.62, -29.9158
2.20786, 2, 17.8868, 15.8628, 23.0546, 38.2559, -28.62, -29.9158
2.21617, 2, 17.8868, 15.8628, 23.0546, 38.2559, -28.62, -29.9157
2.22311, 2, 17.8868, 15.8628, 23.0546, 38.2559, -28.62, -29.9157
2.23222, 2, 17.8868, 15.8628, 23.0546, 38.2559, -28.6201, -29.9157
2.2391, 2, 17.8868, 15.8628, 23.0546, 38.2559, -28.6201, -29.9157
2.24821, 2, 17.8868, 15.8628, 23.0546, 38.2559, -28.6202, -29.9157
2.25516, 2, 17.8868, 15.8628, 23.0546, 38.2559, -28.6202, -29.9157
2.26444, 2, 17.8868, 15.8628, 23.0546, 38.256, -28.6202, -29.9157
2.27109, 2, 17.8868, 15.8628, 23.0546, 38.256, -28.6202, -29.9157
2.28058, 2, 17.8867, 15.8628, 23.0546, 38.2559, -28.6203, -29.9157
2.2886, 2, 17.8867, 15.8628, 23.0546, 38.2559, -28.6202, -29.9157
2.29513, 2, 17.8867, 15.8627, 23.0546, 38.2559, -28.6202, -29.9157
2.3047, 2, 17.8867, 15.8627, 23.0546, 38.2559, -28.6202, -29.9157
2.31282, 2, 17.8866, 15.8628, 23.0546, 38.2558, -28.6203, -29.9156
2.32066, 2, 17.8866, 15.8628, 23.0546, 38.2559, -28.6203, -29.9157
2.32878, 2, 17.8866, 15.8628, 23.0546, 38.2559, -28.6204, -29.9157
2.33609, 2, 17.8866, 15.8628, 23.0546, 38.2559, -28.6204, -29.9156
2.34409, 2, 17.8866, 15.8628, 23.0546, 38.2559, -28.6205, -29.9156
2.35214, 2, 17.8866, 15.8628, 23.0546, 38.2559, -28.6205, -29.9156
2.36011, 2, 17.8866, 15.8628, 23.0546, 38.2559, -28.6205, -29.9156
2.36813, 2, 17.8866, 15.8628, 23.0546, 38.2559, -28.6205, -29.9157
2.37614, 2, 17.8866, 15.8628, 23.0546, 38.2559, -28.6205, -29.9156
2.38409, 2, 17.8865, 15.8628, 23.0546, 38.2559, -28.6206, -29.9156
2.39209, 2, 17.8865, 15.8628, 23.0546, 38.2559, -28.6206, -29.9156
2.40018, 2, 17.8865, 15.8628, 23.0546, 38.2559, -28.6206, -29.9156
2.40809, 2, 17.8865, 15.8628, 23.0546, 38.2559, -28.6206, -29.9156
2.41609, 2, 17.8865, 15.8628, 23.0546, 38.2559, -28.6206, -29.9156
2.42411, 2, 17.8864, 15.8628, 23.0546, 38.2558, -28.6206, -29.9156
2.43209, 2, 17.8864, 15.8628, 23.0546, 38.2558, -28.6206, -29.9156
2.43909, 2, 17.8864, 15.8628, 23.0546, 38.2559, -28.6207, -29.9156
2.44708, 2, 17.8864, 15.8628, 23.0546, 38.2558, -28.6207, -29.9156
2.45609, 2, 17.8863, 15.8628, 23.0546, 38.2558, -28.6207, -29.9156
2.46415, 2, 17.8863, 15.8628, 23.0546, 38.2558, -28.6207, -29.9156
2.47209, 2, 17.8863, 15.8628, 23.0546, 38.2558, -28.6207, -29.9156
2.48017, 2, 17.8862, 15.8628, 23.0546, 38.2558, -28.6207, -29.9155
2.48815, 2, 17.8862, 15.8628, 23.0546, 38.2558, -28.6207, -29.9155
2.4951, 2, 17.8862, 15.8628, 23.0546, 38.2557, -28.6208, -29.9155
2.50409, 2, 17.8861, 15.8628, 23.0546, 38.2558, -28.6208, -29.9155
2.51215, 2, 17.8861, 15.8628, 23.0546, 38.2558, -28.6208, -29.9155
2.51908, 2, 17.8861, 15.8628, 23.0546, 38.2558, -28.6208, -29.9155
2.52809, 2, 17.886, 15.8628, 23.0546, 38.2557, -28.6208, -29.9155
2.53615, 2, 17.8859, 15.8628, 23.0546, 38.2557, -28.6209, -29.9154
2.54326, 2, 17.8859, 15.8628, 23.0546, 38.2557, -28.6209, -29.9154
2.55125, 2, 17.8858, 15.8628, 23.0546, 38.2557, -28.6209, -29.9154
2.5592, 2, 17.8858, 15.8628, 23.0546, 38.2557, -28.6209, -29.9154
2.56723, 2, 17.8858, 15.8628, 23.0546, 38.2557, -28.6209, -29.9153
2.57525, 2, 17.8857, 15.8628, 23.0546, 38.2557, -28.6209, -29.9152
2.58316, 2, 17.8857, 15.8628, 23.0546, 38.2557, -28.621, -29.9152
2.59113, 2, 17.8856, 15.8628, 23.0546, 38.2557, -28.6211, -29.9152
2.59916, 2, 17.8856, 15.8628, 23.0546, 38.2557, -28.6211, -29.9152
2.60713, 2, 17.8856, 15.8628, 23.0546, 38.2556, -28.621, -29.9152
2.61557, 2, 17.8855, 15.8628, 23.0546, 38.2557, -28.621, -29.9151
2.62328, 2, 17.8854, 15.8628, 23.0546, 38.2556, -28.6211, -29.9151
2.6313, 2, 17.8854, 15.8628, 23.0546, 38.2556, -28.6211, -29.9151
2.63974, 2, 17.8853, 15.8628, 23.0546, 38.2556, -28.6212, -29.915
2.64818, 2, 17.8853, 15.8629, 23.0546, 38.2555, -28.6212, -29.915
2.65548, 2, 17.8852, 15.8629, 23.0546, 38.2555, -28.6212, -29.915
2.66409, 2, 17.8852, 15.8629, 23.0546, 38.2556, -28.6212, -29.915
2.67162, 2, 17.8851, 15.8629, 23.0546, 38.2555, -28.6212, -29.915
2.68022, 2, 17.8851, 15.8629, 23.0546, 38.2555, -28.6212, -29.9149
2.68809, 2, 17.885, 15.8628, 23.0546, 38.2555, -28.6212, -29.9149
2.69623, 2, 17.885, 15.8628, 23.0546, 38.2555, -28.6212, -29.9149
2.70365, 2, 17.885, 15.8628, 23.0546, 38.2555, -28.6212, -29.9149
2.71218, 2, 17.8848, 15.8628, 23.0546, 38.2555, -28.6212, -29.915
2.71909, 2, 17.8848, 15.8628, 23.0546, 38.2555, -28.6212, -29.915
2.72815, 2, 17.8848, 15.8628, 23.0546, 38.2555, -28.6213, -29.9149
2.73602, 2, 17.8847, 15.8628, 23.0546, 38.2555, -28.6213, -29.9149
2.74311, 2, 17.8847, 15.8628, 23.0546, 38.2555, -28.6213, -29.9149
2.75226, 2, 17.8846, 15.8629, 23.0546, 38.2554, -28.6212, -29.9149
2.75909, 2, 17.8846, 15.8629, 23.0546, 38.2554, -28.6212, -29.9149
2.76709, 2, 17.8845, 15.8629, 23.0546, 38.2553, -28.6212, -29.9149
2.77644, 2, 17.8845, 15.8629, 23.0546, 38.2553, -28.6212, -29.9149
2.78312, 2, 17.8844, 15.8629, 23.0546, 38.2553, -28.6212, -29.9149
2.79109, 2, 17.8844, 15.8629, 23.0546, 38.2553, -28.6212, -29.9149
2.80062, 2, 17.8843, 15.8629, 23.0546, 38.2553, -28.6213, -29.9149
2.80927, 2, 17.8843, 15.8629, 23.0546, 38.2552, -28.6213, -29.9149
2.81514, 2, 17.8843, 15.8629, 23.0546, 38.2552, -28.6213, -29.9149
2.82468, 2, 17.8842, 15.8629, 23.0546, 38.2552, -28.6213, -29.9149
2.83291, 2, 17.8842, 15.8629, 23.0546, 38.2553, -28.6213, -29.9149
2.84065, 2, 17.8842, 15.8629, 23.0546, 38.2552, -28.6213, -29.9149
2.84809, 2, 17.8842, 15.8629, 23.0546, 38.2552, -28.6214, -29.9149
2.85711, 2, 17.8842, 15.8629, 23.0546, 38.2552, -28.6214, -29.9149
2.86311, 2, 17.8841, 15.8629, 23.0546, 38.2552, -28.6214, -29.9149
2.87112, 2, 17.8841, 15.8629, 23.0546, 38.2551, -28.6214, -29.9149
2.87917, 2, 17.8841, 15.8629, 23.0546, 38.255, -28.6215, -29.9149
2.8871, 2, 17.8841, 15.8629, 23.0546, 38.255, -28.6215, -29.9149
2.89507, 2, 17.8841, 15.8629, 23.0546, 38.255, -28.6215, -29.9149
2.90409, 2, 17.8841, 15.8629, 23.0546, 38.255, -28.6215, -29.9149
2.91109, 2, 17.8841, 15.8629, 23.0546, 38.255, -28.6214, -29.9149
2.91906, 2, 17.8841, 15.8629, 23.0546, 38.2549, -28.6214, -29.9149
2.92809, 2, 17.884, 15.8629, 23.0546, 38.2549, -28.6215, -29.9149
2.93516, 2, 17.884, 15.8629, 23.0546, 38.2549, -28.6215, -29.9149
2.94308, 2, 17.884, 15.8629, 23.0546, 38.2549, -28.6215, -29.9149
2.95111, 2, 17.884, 15.8629, 23.0546, 38.2548, -28.6215, -29.9149
2.96012, 2, 17.884, 15.8629, 23.0546, 38.2549, -28.6215, -29.9149
2.9681, 2, 17.884, 15.8629, 23.0546, 38.2548, -28.6215, -29.9149
2.97622, 2, 17.884, 15.8629, 23.0546, 38.2548, -28.6215, -29.9149
2.98412, 2, 17.8839, 15.8629, 23.0546, 38.2548, -28.6215, -29.9149
2.99112, 2, 17.884, 15.8629, 23.0546, 38.2548, -28.6215, -29.9149
2.99912, 2, 17.8839, 15.8629, 23.0546, 38.2548, -28.6215, -29.9149
3.00745, 2, 17.8839, 15.8629, 23.0546, 38.2548, -28.6215, -29.9149
3.01508, 2, 17.8839, 15.8629, 23.0546, 38.2548, -28.6215, -29.9149
3.02308, 2, 17.8839, 15.8629, 23.0546, 38.2548, -28.6216, -29.9149
3.03207, 2, 17.8839, 15.8629, 23.0546, 38.2548, -28.6215, -29.9149
3.04015, 2, 17.8839, 15.8629, 23.0546, 38.2548, -28.6215, -29.9148
3.04722, 2, 17.8839, 15.8629, 23.0546, 38.2547, -28.6215, -29.9148
3.05547, 2, 17.8838, 15.8629, 23.0546, 38.2547, -28.6215, -29.9148
3.06319, 4, 17.8838, 15.8629, 23.0546, 38.2547, -28.6215, -29.9149
3.07118, 4, 17.8838, 15.8629, 23.0546, 38.2547, -28.6215, -29.9149
3.07925, 4, 17.8838, 15.8629, 23.0546, 38.2546, -28.6215, -29.9148
3.08707, 4, 17.8838, 15.8629, 23.0546, 38.2546, -28.6215, -29.9148
3.09508, 4, 17.8838, 15.8629, 23.0546, 38.2546, -28.6215, -29.9148
3.10318, 4, 17.8837, 15.8629, 23.0546, 38.2546, -28.6216, -29.9148
3.11111, 4, 17.8837, 15.8629, 23.0546, 38.2546, -28.6216, -29.9148
3.11911, 4, 17.8837, 15.8629, 23.0546, 38.2546, -28.6216, -29.9148
3.12732, 4, 17.8837, 15.8629, 23.0546, 38.2546, -28.6216, -29.9148
3.13533, 4, 17.8837, 15.863, 23.0546, 38.2546, -28.6216, -29.9148
3.14333, 4, 17.8837, 15.863, 23.0546, 38.2545, -28.6216, -29.9148
3.15155, 4, 17.8837, 15.863, 23.0546, 38.2545, -28.6216, -29.9147
3.16035, 4, 17.8837, 15.863, 23.0546, 38.2545, -28.6216, -29.9147
3.1683, 4, 17.8837, 15.863, 23.0546, 38.2545, -28.6216, -29.9148
3.1907, 4, 17.8836, 15.8629, 23.0546, 38.2545, -28.6216, -29.9148
3.19271, 4, 17.8836, 15.8629, 23.0546, 38.2545, -28.6216, -29.9148
3.19432, 4, 17.8836, 15.8629, 23.0546, 38.2545, -28.6216, -29.9148
3.19966, 4, 17.8836, 15.863, 23.0546, 38.2545, -28.6216, -29.9148
3.20825, 4, 17.8836, 15.863, 23.0546, 38.2544, -28.6216, -29.9147
3.21571, 4, 17.8834, 15.8631, 23.0546, 38.2544, -28.6216, -29.9147
3.2241, 4, 17.8808, 15.8647, 23.0545, 38.2542, -28.6216, -29.9146
3.23107, 4, 17.8787, 15.8662, 23.0542, 38.2536, -28.6217, -29.9143
3.24015, 4, 17.8674, 15.8768, 23.0511, 38.2449, -28.623, -29.9081
3.24705, 4, 17.8619, 15.8831, 23.0489, 38.2382, -28.6243, -29.9022
3.25638, 5, 17.8391, 15.912, 23.037, 38.198, -28.6328, -29.8624
3.2644, 5, 17.8174, 15.9404, 23.0228, 38.1464, -28.6443, -29.8102
3.27106, 5, 17.8048, 15.9571, 23.0135, 38.1105, -28.6523, -29.7736
3.28125, 5, 17.761, 16.0153, 22.9759, 37.9585, -28.6867, -29.6179
3.28842, 5, 17.7444, 16.0608, 22.9424, 37.8179, -28.7187, -29.4737
3.29505, 5, 17.7079, 16.086, 22.9233, 37.7368, -28.7377, -29.3902
3.30532, 5, 17.6444, 16.1724, 22.8573, 37.4561, -28.8045, -29.1012
3.31244, 5, 17.6212, 16.2048, 22.8329, 37.3525, -28.8289, -28.8835
3.31915, 5, 17.5717, 16.2744, 22.7814, 37.1351, -28.8817, -28.7697
3.32939, 5, 17.5179, 16.3496, 22.6993, 36.793, -28.9665, -28.4166
3.33587, 5, 17.4597, 16.4291, 22.6712, 36.6772, -28.9955, -28.2968
3.34306, 5, 17.3987, 16.5113, 22.6145, 36.444, -29.0553, -28.0563
3.35206, 5, 17.3361, 16.595, 22.5574, 36.2102, -29.1151, -27.8154
3.36114, 5, 17.2405, 16.7213, 22.4719, 35.8599, -29.2075, -27.4549
3.36705, 5, 17.2084, 16.7634, 22.4434, 35.7434, -29.2386, -27.3352
3.37607, 5, 17.1441, 16.8476, 22.3865, 35.5108, -29.3008, -27.0963
3.38314, 5, 17.0799, 16.9317, 22.3299, 35.2788, -29.3647, -26.8586
3.39115, 5, 17.0156, 17.0156, 22.2734, 35.0475, -29.4281, -26.6216
3.39912, 5, 16.9515, 17.0992, 22.2172, 34.8171, -29.4933, -26.3856
3.40706, 5, 16.8873, 17.1826, 22.1611, 34.5873, -29.5584, -26.1506
3.41505, 5, 16.8229, 17.2657, 22.1052, 34.3582, -29.6246, -25.917
3.42406, 5, 16.7586, 17.3488, 22.0494, 34.1298, -29.691, -25.6845
3.43107, 5, 16.6942, 17.4318, 21.9938, 33.9022, -29.7581, -25.453
3.43905, 5, 16.6299, 17.5147, 21.9385, 33.6755, -29.8262, -25.2227
3.44806, 5, 16.5655, 17.5975, 21.8834, 33.4493, -29.8943, -24.9934
3.45509, 5, 16.5012, 17.6803, 21.8284, 33.2243, -29.9637, -24.7656
3.46406, 5, 16.4366, 17.7631, 21.7738, 33, -30.0328, -24.5388
3.47305, 5, 16.3717, 17.8458, 21.7194, 32.7766, -30.1038, -24.3129
3.47904, 5, 16.3066, 17.9284, 21.6654, 32.5539, -30.1744, -24.088
3.48811, 5, 16.2413, 18.0107, 21.6116, 32.3322, -30.2465, -23.8642
3.49608, 5, 16.176, 18.093, 21.558, 32.1113, -30.3183, -23.6415
3.50484, 5, 16.1106, 18.1751, 21.5046, 31.8911, -30.3916, -23.4201
3.51105, 5, 16.0452, 18.257, 21.4515, 31.6717, -30.4647, -23.1995
3.52006, 5, 15.9797, 18.3387, 21.3984, 31.4534, -30.5389, -22.9803
3.52886, 5, 15.914, 18.4201, 21.3456, 31.2359, -30.6132, -22.7622
3.53515, 5, 15.8482, 18.5014, 21.2931, 31.0191, -30.6888, -22.5455
3.54319, 5, 15.7823, 18.5824, 21.2407, 30.803, -30.7646, -22.33
3.55121, 5, 15.7163, 18.6632, 21.1886, 30.588, -30.841, -22.1154
3.56005, 5, 15.6506, 18.7439, 21.1368, 30.3738, -30.9178, -21.9021
3.56813, 5, 15.5847, 18.8245, 21.0852, 30.1605, -30.9955, -21.6901
3.57517, 5, 15.5189, 18.905, 21.0338, 29.948, -31.0735, -21.4794
3.58405, 5, 15.453, 18.9854, 20.9828, 29.7365, -31.152, -21.27
3.59212, 5, 15.3869, 19.0657, 20.932, 29.5259, -31.2314, -21.0617
3.59907, 5, 15.3207, 19.1458, 20.8814, 29.3162, -31.3111, -20.8545
3.60806, 5, 15.2544, 19.2259, 20.8311, 29.1072, -31.3916, -20.6486
3.61612, 5, 15.1882, 19.3058, 20.7811, 28.8993, -31.4721, -20.444
3.62406, 5, 15.1219, 19.3855, 20.7313, 28.6923, -31.554, -20.2409
3.63158, 5, 15.0555, 19.465, 20.6816, 28.4861, -31.636, -20.0386
3.63929, 5, 14.989, 19.5443, 20.6322, 28.2805, -31.7188, -19.8375
3.64735, 5, 14.9224, 19.6235, 20.583, 28.0761, -31.802, -19.6374
3.65557, 5, 14.8555, 19.7024, 20.534, 27.8727, -31.8858, -19.4386
3.66415, 5, 14.7887, 19.7811, 20.4853, 27.67, -31.9702, -19.241
3.67153, 5, 14.7219, 19.8596, 20.4368, 27.468, -32.0548, -19.0449
3.68015, 5, 14.655, 19.938, 20.3885, 27.267, -32.1404, -18.8497
3.68758, 5, 14.5882, 20.0162, 20.3405, 27.067, -32.226, -18.6559
3.69616, 5, 14.5212, 20.0943, 20.2928, 26.8678, -32.3121, -18.4631
3.70416, 5, 14.4541, 20.1722, 20.2453, 26.6692, -32.399, -18.2716
3.71159, 5, 14.4205, 20.2111, 20.2216, 26.5704, -32.4863, -18.0815
3.72006, 5, 14.3196, 20.3276, 20.151, 26.2753, -32.5741, -17.8925
3.72831, 5, 14.2523, 20.4052, 20.1043, 26.0797, -32.6623, -17.7044
3.73504, 5, 14.2186, 20.4439, 20.0809, 25.9823, -32.7067, -17.6109
3.74412, 5, 14.1177, 20.56, 20.0113, 25.691, -32.8403, -17.3321
3.75225, 5, 14.0503, 20.6372, 19.9652, 25.4981, -32.9299, -17.1477
3.75903, 5, 14.0166, 20.6757, 19.9422, 25.402, -32.9751, -17.0561
3.76841, 5, 13.9154, 20.7911, 19.8737, 25.1149, -33.1111, -16.7832
3.77504, 5, 13.8816, 20.8294, 19.8509, 25.0196, -33.1564, -16.6927
3.78441, 5, 13.7805, 20.9441, 19.7831, 24.7348, -33.2937, -16.4231
3.79108, 5, 13.7467, 20.9822, 19.7606, 24.6404, -33.3395, -16.3338
3.80069, 5, 13.6457, 21.0962, 19.6934, 24.3587, -33.4779, -16.068
3.80857, 5, 13.5783, 21.1721, 19.649, 24.1717, -33.5709, -15.8924
3.8166, 5, 13.5107, 21.2476, 19.6047, 23.9857, -33.6642, -15.7182
3.82313, 5, 13.4769, 21.2854, 19.5827, 23.8929, -33.7112, -15.6313
3.83106, 5, 13.4091, 21.3608, 19.5388, 23.708, -33.8051, -15.4583
3.84057, 5, 13.3414, 21.4361, 19.4952, 23.5242, -33.8998, -15.2012
3.84878, 5, 13.2735, 21.5112, 19.4519, 23.3411, -33.9947, -15.116
3.85604, 5, 13.2055, 21.5862, 19.4088, 23.1587, -34.0899, -14.9468
3.86404, 5, 13.1374, 21.661, 19.3658, 22.9774, -34.1857, -14.7787
3.87209, 5, 13.0691, 21.7356, 19.3232, 22.7969, -34.2819, -14.6119
3.88004, 5, 13.0007, 21.81, 19.2808, 22.6174, -34.3784, -14.446
3.88805, 5, 12.9321, 21.8843, 19.2386, 22.4387, -34.4756, -14.2813
3.89611, 5, 12.8635, 21.9583, 19.1966, 22.2606, -34.5732, -14.1177
3.90405, 5, 12.7948, 22.0321, 19.1549, 22.0835, -34.6711, -13.9552
3.91211, 5, 12.7262, 22.1057, 19.1134, 21.9074, -34.7696, -13.794
3.92004, 5, 12.6576, 22.1792, 19.0722, 21.732, -34.8684, -13.6341
3.9281, 5, 12.5888, 22.2525, 19.0312, 21.5575, -34.9675, -13.4753
3.93611, 5, 12.5201, 22.3256, 18.9906, 21.3835, -35.0672, -13.3174
3.94406, 5, 12.4513, 22.3986, 18.9501, 21.2106, -35.1672, -13.1607
3.95204, 5, 12.3825, 22.4712, 18.91, 21.0385, -35.2675, -13.0052
3.95906, 5, 12.3137, 22.5439, 18.8701, 20.8673, -35.3683, -12.8509
3.96705, 5, 12.2449, 22.6164, 18.8304, 20.6967, -35.4694, -12.6979
3.97604, 5, 12.1761, 22.6887, 18.791, 20.5269, -35.5708, -12.5461
3.98412, 5, 12.1071, 22.7608, 18.7518, 20.3579, -35.6728, -12.3956
3.99211, 5, 12.0381, 22.8327, 18.7128, 20.1898, -35.7749, -12.246
3.99914, 5, 11.969, 22.9045, 18.6742, 20.0225, -35.8774, -12.0975
4.00703, 5, 11.8998, 22.976, 18.6357, 19.8559, -35.9805, -11.9501
4.01604, 5, 11.8305, 23.0473, 18.5974, 19.6899, -36.0837, -11.8039
4.0241, 5, 11.7613, 23.1185, 18.5595, 19.5249, -36.1874, -11.6589
4.03205, 5, 11.692, 23.1894, 18.5217, 19.3608, -36.2913, -11.515
4.04005, 5, 11.6225, 23.2601, 18.4842, 19.1975, -36.3952, -11.3725
4.0481, 5, 11.5529, 23.3307, 18.4471, 19.035, -36.5, -11.231
4.05604, 5, 11.4832, 23.401, 18.41, 18.8731, -36.6048, -11.0903
4.06404, 5, 11.4134, 23.4712, 18.3732, 18.7119, -36.7097, -10.9508
4.0721, 5, 11.3435, 23.5412, 18.3368, 18.5517, -36.8153, -10.8122
4.08007, 5, 11.2736, 23.611, 18.3005, 18.3922, -36.9213, -10.6746
4.08722, 5, 11.2036, 23.6807, 18.2645, 18.2336, -37.0274, -10.5384
4.09504, 5, 11.1336, 23.7503, 18.2288, 18.0754, -37.1341, -10.4033
4.1031, 5, 11.0637, 23.8196, 18.1932, 17.9179, -37.2408, -10.2693
4.11114, 5, 10.9938, 23.8887, 18.1579, 17.7612, -37.3479, -10.1365
4.11912, 5, 10.9239, 23.9576, 18.123, 17.6055, -37.4554, -10.0045
4.12714, 5, 10.8541, 24.0264, 18.0882, 17.4505, -37.563, -9.87361
4.13532, 5, 10.7843, 24.095, 18.0536, 17.2962, -37.6712, -9.74377
4.14334, 5, 10.7144, 24.1635, 18.0193, 17.1423, -37.7797, -9.61475
4.15131, 5, 10.6445, 24.2316, 17.9852, 16.9893, -37.8885, -9.4872
4.15944, 5, 10.5746, 24.2997, 17.9513, 16.837, -37.9977, -9.36047
4.16807, 5, 10.5046, 24.3675, 17.9177, 16.6855, -38.1072, -9.23495
4.17556, 5, 10.4344, 24.4352, 17.8843, 16.5347, -38.2169, -9.11069
4.1842, 5, 10.3643, 24.5027, 17.8511, 16.3846, -38.3271, -8.9872
4.19158, 5, 10.2941, 24.57, 17.8182, 16.2349, -38.437, -8.86479
4.20014, 5, 10.2238, 24.6371, 17.7857, 16.0862, -38.5477, -8.74327
4.20764, 5, 10.1886, 24.7039, 17.7532, 15.9382, -38.6586, -8.62282
4.21611, 5, 10.0828, 24.7706, 17.7211, 15.791, -38.7696, -8.50335
4.22378, 5, 10.0122, 24.8371, 17.6892, 15.6444, -38.8809, -8.38523
4.23213, 5, 9.94155, 24.9034, 17.6577, 15.4985, -38.9923, -8.2678
4.23902, 5, 9.90619, 24.9365, 17.6419, 15.4256, -39.0482, -8.20964
4.24815, 5, 9.80002, 25.0355, 17.5951, 15.2084, -39.2162, -8.03666
4.25503, 5, 9.76454, 25.0684, 17.5797, 15.1364, -39.2721, -7.97953
4.26422, 5, 9.65802, 25.167, 17.5338, 14.9212, -39.4408, -7.8094
4.27107, 5, 9.62248, 25.1997, 17.5186, 14.8498, -39.4971, -7.75305
4.28048, 5, 9.51582, 25.2977, 17.4734, 14.6364, -39.6662, -7.58567
4.28703, 5, 9.48023, 25.3302, 17.4585, 14.5655, -39.7228, -7.53032
4.29647, 5, 9.37358, 25.4274, 17.4141, 14.3538, -39.8926, -7.36605
4.30308, 5, 9.33796, 25.4596, 17.3994, 14.2836, -39.9495, -7.31185
4.31258, 5, 9.23102, 25.5562, 17.3558, 14.074, -40.1203, -7.15061
4.32062, 5, 9.15981, 25.6203, 17.3271, 13.9351, -40.2342, -7.04441
4.32867, 5, 9.0886, 25.684, 17.2984, 13.7966, -40.3487, -6.93923
4.33659, 5, 9.05291, 25.7159, 17.2842, 13.6587, -40.4629, -6.83492
4.34461, 5, 8.98157, 25.7795, 17.2561, 13.59, -40.5776, -6.73159
4.35204, 5, 8.91027, 25.8428, 17.2283, 13.4529, -40.635, -6.6802
4.36002, 5, 8.83878, 25.9061, 17.2008, 13.3165, -40.7499, -6.5778
4.36807, 5, 8.76723, 25.9691, 17.1733, 13.1806, -40.8652, -6.47673
4.37603, 5, 8.69556, 26.0319, 17.1463, 13.0454, -40.9806, -6.37642
4.38402, 5, 8.62395, 26.0944, 17.1197, 12.9106, -41.0959, -6.27679
4.39208, 5, 8.55224, 26.1568, 17.0932, 12.7763, -41.2118, -6.17844
4.40003, 5, 8.48054, 26.2189, 17.0668, 12.6427, -41.3275, -6.08093
4.40804, 5, 8.40875, 26.2807, 17.0408, 12.5097, -41.4436, -5.9844
4.41609, 5, 8.3368, 26.3424, 17.0151, 12.3773, -41.5599, -5.88863
4.42403, 5, 8.26479, 26.4038, 16.9896, 12.2454, -41.6763, -5.7942
4.43203, 5, 8.19272, 26.465, 16.9643, 12.1142, -41.7931, -5.70025
4.44008, 5, 8.12059, 26.5259, 16.9394, 11.9833, -41.9098, -5.60745
4.44805, 5, 8.04846, 26.5867, 16.9147, 11.8529, -42.0269, -5.51496
4.45609, 5, 7.97646, 26.6474, 16.8903, 11.7232, -42.1442, -5.42358
4.46403, 5, 7.90435, 26.7078, 16.8661, 11.5941, -42.2616, -5.33289
4.47301, 5, 7.83223, 26.768, 16.8422, 11.4655, -42.3792, -5.24342
4.48008, 5, 7.76009, 26.828, 16.8186, 11.3374, -42.4969, -5.15427
4.48803, 5, 7.68794, 26.8878, 16.7953, 11.2098, -42.6149, -5.06649
4.49608, 5, 7.61589, 26.9473, 16.7724, 11.0825, -42.7329, -4.97951
4.50409, 5, 7.54402, 27.0067, 16.7495, 10.9557, -42.8509, -4.89328
4.51202, 5, 7.47211, 27.0657, 16.7269, 10.8294, -42.9693, -4.80811
4.52003, 5, 7.40014, 27.1246, 16.7046, 10.7039, -43.0876, -4.72381
4.5281, 5, 7.32816, 27.1832, 16.6825, 10.5788, -43.2064, -4.64066
4.53603, 5, 7.25611, 27.2416, 16.6609, 10.4543, -43.3251, -4.55764
4.5441, 5, 7.18397, 27.2997, 16.6393, 10.33, -43.4438, -4.47627
4.55201, 5, 7.11176, 27.3576, 16.618, 10.2061, -43.5631, -4.39487
4.56012, 5, 7.0394, 27.4154, 16.5971, 10.0828, -43.6819, -4.31484
4.56794, 5, 6.96677, 27.4729, 16.5764, 9.95986, -43.8012, -4.2353
4.57601, 5, 6.89398, 27.5302, 16.5561, 9.83765, -43.9204, -4.1568
4.58404, 5, 6.82098, 27.5872, 16.5359, 9.71576, -44.0396, -4.07925
4.59209, 5, 6.74797, 27.644, 16.5159, 9.5945, -44.1592, -4.00211
4.60002, 5, 6.67478, 27.7005, 16.4964, 9.47354, -44.2785, -3.9265
4.6078, 5, 6.60169, 27.7568, 16.477, 9.3528, -44.3984, -3.85098
4.61609, 5, 6.52856, 27.8129, 16.458, 9.23284, -44.518, -3.77696
4.62402, 5, 6.45538, 27.8688, 16.4393, 9.11309, -44.6378, -3.70364
4.63203, 5, 6.38223, 27.9244, 16.4207, 8.99413, -44.758, -3.63072
4.64032, 5, 6.3091, 27.9798, 16.4023, 8.87555, -44.878, -3.55957
4.64824, 5, 6.23603, 28.035, 16.3844, 8.75738, -44.9985, -3.48841
4.65616, 5, 6.16298, 28.0901, 16.3667, 8.63977, -45.119, -3.41825
4.66346, 5, 6.09008, 28.145, 16.3492, 8.52229, -45.2397, -3.34908
4.67158, 5, 6.01704, 28.1996, 16.3322, 8.40533, -45.3606, -3.27997
4.68033, 5, 5.94392, 28.254, 16.3154, 8.28885, -45.4814, -3.21235
4.68758, 5, 5.87066, 28.3082, 16.2987, 8.17273, -45.6026, -3.14514
4.69579, 5, 5.79739, 28.3621, 16.2825, 8.05724, -45.7236, -3.07854
4.70454, 5, 5.72404, 28.4156, 16.2665, 7.94199, -45.8449, -3.01349
4.71158, 5, 5.68736, 28.4423, 16.2585, 7.82719, -45.9662, -2.94839
4.71969, 5, 5.61398, 28.4956, 16.2428, 7.71256, -46.0876, -2.88418
4.72874, 5, 5.50361, 28.5749, 16.2201, 7.59832, -46.2091, -2.82146
4.73696, 5, 5.42994, 28.6274, 16.2051, 7.48443, -46.3304, -2.75871
4.74428, 5, 5.35617, 28.6797, 16.1904, 7.37102, -46.4521, -2.69697
4.75106, 5, 5.31923, 28.7058, 16.1832, 7.31458, -46.5128, -2.66675
4.759, 5, 5.24526, 28.7578, 16.169, 7.20183, -46.6343, -2.60623
4.76705, 5, 5.17122, 28.8097, 16.1551, 7.08948, -46.7561, -2.54598
4.77711, 5, 5.06007, 28.8871, 16.1347, 6.92162, -46.9383, -2.45831
4.78313, 5, 5.02302, 28.9128, 16.1281, 6.86576, -46.9993, -2.42939
4.791, 5, 4.94898, 28.964, 16.1153, 6.75409, -47.1208, -2.37133
4.80128, 5, 4.83805, 29.0404, 16.0965, 6.58754, -47.3034, -2.2866
4.80704, 5, 4.80106, 29.0657, 16.0903, 6.53211, -47.3643, -2.25869
4.81664, 5, 4.69024, 29.1411, 16.072, 6.36666, -47.5468, -2.17482
4.82542, 5, 4.61644, 29.191, 16.0603, 6.25667, -47.6689, -2.12057
4.83106, 5, 4.57954, 29.2159, 16.0545, 6.20179, -47.7298, -2.09372
4.84087, 5, 4.50586, 29.2654, 16.0375, 6.03775, -47.9131, -2.01319
4.84933, 5, 4.43225, 29.3147, 16.0321, 5.98316, -47.9742, -1.98664
4.85499, 5, 4.35864, 29.3637, 16.0213, 5.87421, -48.096, -1.93465
4.86401, 5, 4.28492, 29.4125, 16.011, 5.76562, -48.2183, -1.88353
4.872, 5, 4.21122, 29.461, 16.001, 5.65736, -48.3404, -1.83232
4.88008, 5, 4.13734, 29.5093, 15.9912, 5.54963, -48.4628, -1.78207
4.88802, 5, 4.06333, 29.5575, 15.9817, 5.44211, -48.585, -1.733
4.89606, 5, 3.98921, 29.6055, 15.9725, 5.33493, -48.7074, -1.6845
4.90308, 5, 3.91497, 29.6533, 15.9635, 5.22826, -48.8299, -1.63613
4.91201, 5, 3.84057, 29.7008, 15.955, 5.12165, -48.9523, -1.58885
4.92003, 5, 3.76602, 29.748, 15.9467, 5.01516, -49.075, -1.5427
4.92699, 5, 3.69132, 29.7948, 15.9387, 4.90909, -49.1974, -1.49691
4.93601, 5, 3.61641, 29.8414, 15.931, 4.80334, -49.32, -1.45112
4.94406, 5, 3.54147, 29.8877, 15.9237, 4.69793, -49.4425, -1.40624
4.95099, 5, 3.46666, 29.9336, 15.9165, 4.59285, -49.5648, -1.36266
4.96002, 5, 3.39178, 29.9793, 15.9096, 4.48795, -49.6873, -1.3197
4.97032, 5, 3.31694, 30.0246, 15.9031, 4.38344, -49.8096, -1.27692
4.97499, 5, 3.24207, 30.0696, 15.8969, 4.27903, -49.9322, -1.23447
4.98402, 5, 3.16719, 30.1145, 15.8911, 4.17466, -50.0545, -1.1932
4.99207, 5, 3.09235, 30.159, 15.8857, 4.07074, -50.1768, -1.15268
5.00007, 5, 3.01758, 30.2035, 15.8805, 3.967, -50.2991, -1.11232
5.00805, 5, 2.94287, 30.2476, 15.8756, 3.86362, -50.4212, -1.0721
5.01606, 5, 2.86809, 30.2915, 15.871, 3.76061, -50.5437, -1.03288
5.024, 5, 2.79337, 30.3353, 15.8666, 3.65791, -50.6656, -0.99472
5.03201, 5, 2.71843, 30.3788, 15.8624, 3.55537, -50.788, -0.957167
5.04013, 5, 2.6434, 30.4219, 15.8586, 3.45301, -50.9102, -0.91991
5.04704, 5, 2.56837, 30.4648, 15.8551, 3.35075, -51.0323, -0.882823
5.056, 5, 2.49343, 30.5075, 15.8518, 3.24867, -51.1547, -0.846632
5.0641, 5, 2.41839, 30.5497, 15.8489, 3.14683, -51.2767, -0.811577
5.072, 5, 2.34337, 30.5915, 15.8464, 3.04515, -51.399, -0.777208
5.08047, 5, 2.26813, 30.6331, 15.8442, 2.94402, -51.521, -0.743217
5.08709, 5, 2.19272, 30.6742, 15.8423, 2.84306, -51.6431, -0.709479
5.09518, 5, 2.11724, 30.7151, 15.8408, 2.7422, -51.7653, -0.676217
5.10306, 5, 2.04178, 30.7558, 15.8395, 2.64184, -51.8873, -0.644012
5.11102, 5, 1.9663, 30.7962, 15.8385, 2.5413, -52.0096, -0.612765
5.11911, 5, 1.8909, 30.8364, 15.8379, 2.44082, -52.1315, -0.582131
5.12714, 5, 1.81546, 30.8764, 15.8375, 2.34093, -52.2536, -0.551844
5.13612, 5, 1.73992, 30.9161, 15.8374, 2.24119, -52.3754, -0.521655
5.14405, 5, 1.66435, 30.9557, 15.8373, 2.14162, -52.4974, -0.492134
5.152, 5, 1.58888, 30.995, 15.8374, 2.04255, -52.6194, -0.463784
5.16002, 5, 1.51361, 31.0341, 15.8377, 1.94352, -52.7412, -0.436215
5.16815, 5, 1.43856, 31.0729, 15.8382, 1.84465, -52.8633, -0.409304
5.17545, 5, 1.36362, 31.1114, 15.8391, 1.74619, -52.9851, -0.382809
5.18366, 5, 1.28862, 31.1495, 15.8403, 1.64776, -53.107, -0.356507
5.19214, 5, 1.21353, 31.1873, 15.8419, 1.54929, -53.2287, -0.330401
5.19955, 5, 1.13844, 31.2247, 15.8438, 1.45132, -53.3503, -0.30489
5.20899, 5, 1.06325, 31.2617, 15.8461, 1.35337, -53.4721, -0.28014
5.2161, 5, 0.988005, 31.2984, 15.8486, 1.25591, -53.5934, -0.255584
5.22373, 5, 0.950373, 31.3346, 15.8516, 1.15892, -53.7151, -0.230882
5.23208, 5, 0.837046, 31.3702, 15.8552, 1.06222, -53.8364, -0.205478
5.239, 5, 0.799188, 31.3877, 15.8574, 1.01407, -53.8972, -0.192255
5.2487, 5, 0.685579, 31.4388, 15.866, 0.87056, -54.0804, -0.149666
5.25617, 5, 0.610024, 31.4713, 15.8742, 0.775529, -54.2029, -0.118683
5.26304, 5, 0.572294, 31.4869, 15.8792, 0.728218, -54.2648, -0.102492
5.27319, 5, 0.459835, 31.5308, 15.8991, 0.587818, -54.4522, -0.0503401
5.28037, 5, 0.385334, 31.5571, 15.9176, 0.495532, -54.5797, -0.0117421
5.28698, 5, 0.348234, 31.5693, 15.9287, 0.449872, -54.6443, 0.00892475
5.29503, 5, 0.2744, 31.5914, 15.9549, 0.359806, -54.7751, 0.0528941
5.30455, 6, 0.164429, 31.618, 16.0056, 0.22737, -54.9767, 0.12373
5.31249, 6, 0.0918554, 31.6311, 16.0471, 0.141244, -55.1143, 0.175507
5.3213, 6, 0.0200214, 31.6408, 16.0952, 0.057197, -55.2548, 0.231161
5.32698, 6, -0.0155955, 31.6443, 16.1217, 0.0157536, -55.3259, 0.26007
5.33661, 6, -0.121453, 31.649, 16.2103, -0.104996, -55.5433, 0.351034
5.34533, 6, -0.156364, 31.6488, 16.2429, -0.183088, -55.6909, 0.416134
5.35098, 6, -0.225698, 31.646, 16.3122, -0.220772, -55.7655, 0.449495
5.3611, 6, -0.328559, 31.636, 16.4257, -0.331505, -55.9918, 0.553374
5.36704, 6, -0.362599, 31.6313, 16.4658, -0.367096, -56.068, 0.589629
5.37604, 6, -0.430173, 31.6202, 16.5487, -0.437244, -56.2214, 0.662892
5.384, 6, -0.497151, 31.6073, 16.635, -0.505101, -56.376, 0.738463
5.39199, 6, -0.563705, 31.5929, 16.7238, -0.571552, -56.5314, 0.816702
5.39905, 6, -0.629778, 31.5772, 16.8145, -0.636741, -56.6876, 0.895516
5.407, 6, -0.695373, 31.5605, 16.9065, -0.700459, -56.8443, 0.97674
5.41598, 6, -0.760263, 31.543, 16.9995, -0.763718, -57.0015, 1.05844
5.42304, 6, -0.824772, 31.5252, 17.0929, -0.82538, -57.1594, 1.14141
5.43196, 6, -0.888931, 31.507, 17.1866, -0.887783, -57.3176, 1.22443
5.43999, 6, -0.952642, 31.4885, 17.2808, -0.948506, -57.4763, 1.30737
5.44799, 6, -1.01623, 31.4701, 17.3753, -1.00989, -57.6351, 1.39022
5.45598, 6, -1.07965, 31.4515, 17.4703, -1.07, -57.7946, 1.47209
5.46315, 6, -1.14293, 31.4327, 17.5656, -1.12986, -57.9543, 1.55385
5.47098, 6, -1.20592, 31.4138, 17.6612, -1.18974, -58.1147, 1.63431
5.47999, 6, -1.26875, 31.395, 17.7568, -1.24831, -58.2754, 1.71475
5.48805, 6, -1.33146, 31.376, 17.8525, -1.3077, -58.4367, 1.79378
5.49703, 6, -1.39386, 31.357, 17.9485, -1.36547, -58.5983, 1.8726
5.50406, 6, -1.45608, 31.3381, 18.0449, -1.42352, -58.7605, 1.95071
5.51207, 6, -1.51816, 31.3192, 18.1417, -1.4813, -58.9229, 2.02763
5.51999, 6, -1.58007, 31.3002, 18.2389, -1.53792, -59.0859, 2.10458
5.52813, 6, -1.64188, 31.2812, 18.3363, -1.59543, -59.2495, 2.18037
5.53498, 6, -1.70347, 31.2621, 18.4336, -1.65135, -59.4135, 2.25622
5.54399, 6, -1.76492, 31.2429, 18.531, -1.70745, -59.5782, 2.33084
5.55205, 6, -1.82631, 31.2239, 18.6288, -1.76377, -59.743, 2.40478
5.55999, 6, -1.88757, 31.2048, 18.7269, -1.81866, -59.9082, 2.47869
5.56799, 6, -1.94889, 31.1855, 18.8254, -1.87454, -60.0738, 2.5511
5.57605, 6, -2.01035, 31.1663, 18.9244, -1.92915, -60.2396, 2.62359
5.58399, 6, -2.07179, 31.1471, 19.0233, -1.98354, -60.4059, 2.69499
5.59201, 6, -2.13324, 31.1277, 19.1221, -2.03844, -60.5723, 2.76536
5.60005, 6, -2.19444, 31.1084, 19.2211, -2.09178, -60.7393, 2.83577
5.60798, 6, -2.25572, 31.0892, 19.3204, -2.14565, -60.9065, 2.90467
5.61531, 6, -2.31692, 31.0698, 19.4202, -2.19905, -61.0741, 2.97334
5.62306, 6, -2.37798, 31.0504, 19.5203, -2.25109, -61.242, 3.04165
5.63108, 6, -2.43905, 31.031, 19.6206, -2.30406, -61.4102, 3.10854
5.63923, 6, -2.49989, 31.0116, 19.721, -2.35618, -61.5789, 3.17527
5.64719, 6, -2.56065, 30.9921, 19.8213, -2.40769, -61.7479, 3.24122
5.65537, 6, -2.62116, 30.9727, 19.9217, -2.45994, -61.9174, 3.30636
5.66378, 6, -2.68143, 30.9533, 20.0225, -2.51078, -62.0871, 3.37183
5.67207, 6, -2.74158, 30.9338, 20.1238, -2.56153, -62.2572, 3.43591
5.67953, 6, -2.80131, 30.9145, 20.2254, -2.61293, -62.4278, 3.49924
5.68814, 6, -2.86104, 30.8951, 20.327, -2.66294, -62.5988, 3.5629
5.69551, 6, -2.9208, 30.8757, 20.4287, -2.71329, -62.77, 3.62502
5.70413, 6, -2.98014, 30.8563, 20.5303, -2.76383, -62.9416, 3.68658
5.71186, 6, -3.00979, 30.837, 20.6322, -2.81286, -63.1137, 3.74813
5.72012, 6, -3.09869, 30.8175, 20.7345, -2.86242, -63.286, 3.80832
5.72756, 6, -3.1282, 30.8077, 20.7858, -2.88744, -63.3723, 3.86791
5.73614, 6, -3.2167, 30.7787, 20.94, -2.96023, -63.6318, 3.92742
5.74298, 6, -3.24619, 30.7689, 20.9915, -2.9844, -63.7184, 3.95677
5.75203, 6, -3.33451, 30.7396, 21.1458, -3.05747, -63.9788, 4.04296
5.75897, 6, -3.36394, 30.7299, 21.1973, -3.08109, -64.0657, 4.07175
5.76815, 6, -3.45204, 30.7008, 21.3519, -3.15229, -64.327, 4.15709
5.77502, 6, -3.48136, 30.691, 21.4036, -3.17636, -64.4144, 4.18481
5.78453, 6, -3.56916, 30.6619, 21.5595, -3.2463, -64.6764, 4.2677
5.79234, 6, -3.62747, 30.6425, 21.6636, -3.2932, -64.8516, 4.32244
5.79901, 6, -3.65659, 30.6328, 21.7156, -3.31694, -64.9391, 4.3493
5.80886, 6, -3.74376, 30.6038, 21.8716, -3.38591, -65.2027, 4.42939
5.81648, 6, -3.80163, 30.5844, 21.9757, -3.43199, -65.3788, 4.48282
5.82456, 6, -3.8595, 30.565, 22.0802, -3.4785, -65.555, 4.53495
5.83262, 6, -3.91721, 30.5457, 22.185, -3.5236, -65.7316, 4.58603
5.84072, 6, -3.97477, 30.5264, 22.2902, -3.56894, -65.9085, 4.63715
5.84868, 6, -4.03218, 30.5071, 22.3954, -3.61498, -66.0856, 4.68789
5.856, 6, -4.06081, 30.4974, 22.4479, -3.63747, -66.1743, 4.71277
5.86397, 6, -4.118, 30.4782, 22.5529, -3.68165, -66.352, 4.76178
5.87201, 6, -4.17503, 30.4589, 22.658, -3.72643, -66.53, 4.81058
5.87997, 6, -4.23176, 30.4396, 22.7634, -3.77135, -66.7084, 4.85918
5.88702, 6, -4.28838, 30.4204, 22.8693, -3.81497, -66.887, 4.90644
5.89603, 6, -4.34483, 30.4013, 22.9755, -3.8588, -67.0658, 4.95303
5.90398, 6, -4.40112, 30.3821, 23.0815, -3.90311, -67.2447, 4.99923
5.91202, 6, -4.45731, 30.363, 23.1874, -3.94611, -67.4241, 5.04538
5.91997, 6, -4.51324, 30.3439, 23.2935, -3.98875, -67.6038, 5.09018
5.92799, 6, -4.56898, 30.3248, 23.3997, -4.03216, -67.7835, 5.134
5.93496, 6, -4.62464, 30.3058, 23.5063, -4.07496, -67.9637, 5.17755
5.94396, 6, -4.68, 30.2868, 23.6133, -4.11693, -68.1436, 5.22099
5.95197, 6, -4.73521, 30.2678, 23.7203, -4.15941, -68.324, 5.26361
5.96003, 6, -4.79036, 30.2488, 23.8271, -4.20192, -68.5045, 5.30502
5.96807, 6, -4.84551, 30.2299, 23.9339, -4.24322, -68.6856, 5.34586
5.97599, 6, -4.90052, 30.211, 24.0409, -4.28469, -68.8668, 5.38668
5.98496, 6, -4.95556, 30.1919, 24.1482, -4.3269, -69.0482, 5.42689
5.99196, 6, -5.01042, 30.1731, 24.2559, -4.3682, -69.2299, 5.46625
5.99997, 6, -5.06518, 30.1544, 24.3636, -4.40891, -69.4118, 5.50467
6.00806, 6, -5.11989, 30.1355, 24.4713, -4.45037, -69.594, 5.54293
6.016, 6, -5.17438, 30.1167, 24.5788, -4.49165, -69.7766, 5.58116
6.024, 6, -5.2288, 30.0981, 24.6865, -4.53183, -69.9595, 5.61881
6.03198, 6, -5.28323, 30.0792, 24.7944, -4.57207, -70.1425, 5.65544
6.03997, 6, -5.3375, 30.0605, 24.9027, -4.61296, -70.3258, 5.69107
6.04805, 6, -5.39165, 30.042, 25.0113, -4.65294, -70.5092, 5.72621
6.05597, 6, -5.44557, 30.0234, 25.1197, -4.69228, -70.6926, 5.76113
6.06396, 6, -5.4992, 30.0047, 25.228, -4.73223, -70.8765, 5.79583
6.07205, 6, -5.55272, 29.9862, 25.3363, -4.77229, -71.0604, 5.82955
6.07996, 6, -5.60602, 29.9677, 25.4448, -4.81113, -71.2444, 5.86228
6.08797, 6, -5.65911, 29.9491, 25.5538, -4.84977, -71.4287, 5.8944
6.09606, 6, -5.71212, 29.9306, 25.663, -4.88914, -71.6131, 5.92623
6.10397, 6, -5.765, 29.9123, 25.7722, -4.92822, -71.7978, 5.95792
6.11198, 6, -5.81763, 29.8939, 25.8811, -4.96638, -71.9829, 5.98899
6.12005, 6, -5.87015, 29.8754, 25.9902, -5.00481, -72.1679, 6.01906
6.12796, 6, -5.92246, 29.8571, 26.0994, -5.04384, -72.3531, 6.04827
6.13596, 6, -5.97466, 29.8388, 26.2088, -5.08202, -72.5387, 6.07678
6.14403, 6, -6.02679, 29.8205, 26.3186, -5.11946, -72.7244, 6.10495
6.15203, 6, -6.07874, 29.8024, 26.4285, -5.15739, -72.9103, 6.13291
6.16012, 6, -6.13058, 29.7843, 26.5382, -5.19585, -73.0965, 6.16058
6.16819, 6, -6.18238, 29.766, 26.6478, -5.23342, -73.2828, 6.18747
6.1755, 6, -6.23404, 29.7479, 26.7575, -5.27055, -73.4692, 6.21332
6.18413, 6, -6.28555, 29.7299, 26.8675, -5.3084, -73.6559, 6.23856
6.19147, 6, -6.33706, 29.7119, 26.9778, -5.34641, -73.8426, 6.26289
6.19967, 6, -6.3883, 29.694, 27.0882, -5.38333, -74.0296, 6.28696
6.20818, 6, -6.43929, 29.6763, 27.1984, -5.41992, -74.2167, 6.31077
6.21553, 6, -6.46476, 29.6674, 27.3087, -5.4572, -74.4041, 6.3341
6.22367, 6, -6.54089, 29.6404, 27.419, -5.49459, -74.5915, 6.35708
6.2321, 6, -6.59126, 29.6225, 27.5295, -5.53097, -74.7791, 6.3792
6.23901, 6, -6.61641, 29.6138, 27.5848, -5.54902, -74.8731, 6.38995
6.24702, 6, -6.6667, 29.5961, 27.6957, -5.58548, -75.0609, 6.41087
6.25609, 6, -6.74186, 29.5696, 27.862, -5.64065, -75.3431, 6.44086
6.26296, 6, -6.76681, 29.5608, 27.9173, -5.65856, -75.4371, 6.45055
6.27095, 6, -6.81666, 29.5432, 28.028, -5.69404, -75.6254, 6.46971
6.28019, 6, -6.89107, 29.5166, 28.1944, -5.74812, -75.9079, 6.49784
6.28706, 6, -6.91578, 29.5078, 28.25, -5.76634, -76.0021, 6.50708
6.29645, 6, -6.98974, 29.4819, 28.4169, -5.81979, -76.285, 6.53409
6.30295, 6, -7.01426, 29.4732, 28.4725, -5.83736, -76.3793, 6.54274
6.31245, 6, -7.08752, 29.4471, 28.6393, -5.89099, -76.6628, 6.56738
6.31896, 6, -7.1119, 29.4384, 28.695, -5.90905, -76.7574, 6.57529
6.32849, 6, -7.18478, 29.4125, 28.862, -5.96182, -77.0415, 6.59784
6.33653, 6, -7.23301, 29.3951, 28.9736, -5.99663, -77.2311, 6.61188
6.34295, 6, -7.25706, 29.3865, 29.0295, -6.01426, -77.3259, 6.61875
6.35251, 6, -7.30507, 29.3696, 29.1412, -6.05003, -77.6104, 6.6388
6.35995, 6, -7.35292, 29.3526, 29.2528, -6.08535, -77.7053, 6.64522
6.36695, 6, -7.40059, 29.3354, 29.3644, -6.11996, -77.8953, 6.65792
6.37595, 6, -7.44812, 29.3184, 29.4761, -6.15482, -78.0852, 6.67007
6.38396, 6, -7.49543, 29.3015, 29.5881, -6.19038, -78.2752, 6.68183
6.39095, 6, -7.54262, 29.2846, 29.7, -6.22541, -78.4653, 6.69318
6.39996, 6, -7.58975, 29.2677, 29.812, -6.25974, -78.6553, 6.70405
6.408, 6, -7.63669, 29.251, 29.9239, -6.29415, -78.8454, 6.71426
6.41596, 6, -7.6834, 29.2344, 30.0359, -6.32932, -79.0356, 6.72399
6.42396, 6, -7.73007, 29.2175, 30.148, -6.36424, -79.2258, 6.73311
6.43202, 6, -7.77661, 29.2007, 30.2603, -6.39839, -79.4162, 6.7414
6.43996, 6, -7.82286, 29.1842, 30.3726, -6.43244, -79.6066, 6.74911
6.44795, 6, -7.86887, 29.1677, 30.4848, -6.46712, -79.7973, 6.75613
6.45601, 6, -7.91475, 29.151, 30.597, -6.50173, -79.9881, 6.76242
6.46294, 6, -7.96033, 29.1345, 30.7092, -6.5355, -80.1793, 6.76815
6.47195, 6, -8.00577, 29.1182, 30.8216, -6.56908, -80.3704, 6.77344
6.48094, 6, -8.05117, 29.1019, 30.9342, -6.60318, -80.5618, 6.77819
6.48694, 6, -8.09643, 29.0856, 31.0467, -6.63765, -80.7531, 6.78226
6.49595, 6, -8.14153, 29.0694, 31.1591, -6.67133, -80.9442, 6.78573
6.50401, 6, -8.18652, 29.0534, 31.2715, -6.70477, -81.1357, 6.78874
6.51201, 6, -8.23139, 29.0372, 31.384, -6.73857, -81.327, 6.7912
6.51998, 6, -8.27601, 29.021, 31.4965, -6.77296, -81.5183, 6.79309
6.52801, 6, -8.32045, 29.005, 31.6094, -6.80679, -81.7098, 6.79437
6.53596, 6, -8.36488, 28.9892, 31.7222, -6.84001, -81.9011, 6.79528
6.54395, 6, -8.40914, 28.9733, 31.8347, -6.8735, -82.0924, 6.79585
6.55201, 6, -8.45306, 28.9574, 31.9473, -6.90776, -82.2838, 6.79605
6.55995, 6, -8.4967, 28.9417, 32.0598, -6.94179, -82.4751, 6.79619
6.56795, 6, -8.54031, 28.926, 32.1726, -6.97513, -82.6667, 6.79615
6.57602, 6, -8.58373, 28.9102, 32.2856, -7.00856, -82.8583, 6.79606
6.58395, 6, -8.62682, 28.8945, 32.3985, -7.04274, -83.0498, 6.79579
6.59201, 6, -8.66976, 28.8791, 32.5113, -7.07706, -83.2415, 6.79526
6.59998, 6, -8.7125, 28.8637, 32.6241, -7.11049, -83.4333, 6.79392
6.60712, 6, -8.75498, 28.8482, 32.7369, -7.14364, -83.6252, 6.7914
6.61497, 6, -8.79724, 28.8327, 32.8498, -7.17729, -83.8171, 6.78796
6.62297, 6, -8.83935, 28.8174, 32.963, -7.21139, -84.0089, 6.78376
6.63195, 6, -8.88128, 28.8022, 33.0761, -7.24488, -84.2009, 6.77871
6.64001, 6, -8.92303, 28.7869, 33.189, -7.278, -84.3927, 6.77279
6.64794, 6, -8.96461, 28.7716, 33.3019, -7.31156, -84.5848, 6.76608
6.65595, 6, -9.00615, 28.7565, 33.4148, -7.3457, -84.7768, 6.75882
6.66402, 6, -9.04754, 28.7416, 33.5279, -7.37917, -84.9687, 6.75078
6.67201, 6, -9.08878, 28.7265, 33.6412, -7.41203, -85.1607, 6.74204
6.68005, 6, -9.12976, 28.7114, 33.7544, -7.44494, -85.3525, 6.73267
6.68812, 6, -9.17072, 28.6966, 33.8674, -7.47877, -85.5445, 6.72242
6.69604, 6, -9.21145, 28.6819, 33.9804, -7.51251, -85.7363, 6.71157
6.70357, 6, -9.25185, 28.667, 34.0935, -7.54558, -85.9282, 6.69989
6.71211, 6, -9.29206, 28.6522, 34.2066, -7.57864, -86.1202, 6.68749
6.71957, 6, -9.33216, 28.6376, 34.32, -7.61228, -86.312, 6.67473
6.72821, 6, -9.37199, 28.6231, 34.4332, -7.64611, -86.5038, 6.66137
6.73493, 6, -9.39181, 28.6159, 34.4898, -7.66277, -86.5997, 6.65454
6.74398, 6, -9.45087, 28.594, 34.6595, -7.71227, -86.8874, 6.63351
6.75228, 6, -9.49012, 28.5795, 34.7725, -7.74573, -87.0791, 6.61905
6.75893, 6, -9.50968, 28.5723, 34.8291, -7.76281, -87.1751, 6.61175
6.76809, 6, -9.56801, 28.5509, 34.9992, -7.8135, -87.4628, 6.5891
6.77494, 6, -9.58731, 28.5437, 35.0558, -7.83009, -87.5587, 6.58123
6.78419, 6, -9.64508, 28.5222, 35.2255, -7.88023, -87.8466, 6.55653
6.79093, 6, -9.66419, 28.5151, 35.2821, -7.8973, -87.9425, 6.54798
6.80042, 6, -9.7211, 28.494, 35.4518, -7.94844, -88.2303, 6.52101
6.8084, 6, -9.75886, 28.4799, 35.565, -7.98173, -88.422, 6.50221
6.81492, 6, -9.7777, 28.4727, 35.6218, -7.99829, -88.5178, 6.49259
6.8249, 6, -9.83372, 28.4518, 35.7918, -8.04906, -88.8051, 6.46347
6.83254, 6, -9.87074, 28.4379, 35.9049, -8.08326, -88.9966, 6.44378
6.84057, 6, -9.90757, 28.424, 36.018, -8.1167, -89.1877, 6.42362
6.84868, 6, -9.94436, 28.41, 36.1311, -8.15002, -89.3787, 6.4029
6.8566, 6, -9.9627, 28.4031, 36.2444, -8.18396, -89.5698, 6.38143
6.86393, 6, -9.99916, 28.3894, 36.3011, -8.20115, -89.6652, 6.37036
6.872, 6, -10.0354, 28.3759, 36.4144, -8.23511, -89.8561, 6.34775
6.87998, 6, -10.0715, 28.3623, 36.5275, -8.26849, -90.047, 6.32443
6.88795, 6, -10.1075, 28.3486, 36.6407, -8.30188, -90.238, 6.30067
6.89594, 6, -10.1431, 28.335, 36.7537, -8.33603, -90.429, 6.27638
6.90398, 6, -10.1785, 28.3216, 36.8669, -8.37042, -90.6199, 6.25185
6.91201, 6, -10.2137, 28.3082, 36.9802, -8.40407, -90.8108, 6.2271
6.91994, 6, -10.2488, 28.2947, 37.0934, -8.43762, -91.0017, 6.20164
6.92799, 6, -10.2836, 28.2813, 37.2065, -8.47185, -91.1926, 6.1754
6.93595, 6, -10.3181, 28.268, 37.3195, -8.50661, -91.3833, 6.14825
6.94393, 6, -10.3524, 28.2549, 37.4324, -8.54064, -91.574, 6.12033
6.95205, 6, -10.3864, 28.2418, 37.5456, -8.57439, -91.7645, 6.09214
6.95999, 6, -10.4205, 28.2287, 37.6588, -8.60858, -91.9548, 6.06379
6.96795, 6, -10.4542, 28.2157, 37.7719, -8.64355, -92.1449, 6.03502
6.97605, 6, -10.4876, 28.2028, 37.8849, -8.67807, -92.3348, 6.00551
6.98294, 6, -10.5208, 28.19, 37.9978, -8.71214, -92.5246, 5.97508
6.99199, 6, -10.5537, 28.177, 38.1106, -8.74676, -92.7141, 5.94373
7.00092, 6, -10.5866, 28.164, 38.2236, -8.78217, -92.9036, 5.91223
7.00692, 6, -10.6191, 28.1512, 38.3367, -8.8171, -93.0931, 5.88055
7.016, 6, -10.6513, 28.1385, 38.4497, -8.8515, -93.2824, 5.84818
7.02402, 6, -10.6834, 28.1259, 38.5625, -8.88611, -93.4715, 5.81505
7.03199, 6, -10.7152, 28.1132, 38.6752, -8.9216, -93.6607, 5.78097
7.03997, 6, -10.7469, 28.1004, 38.7878, -8.95689, -93.8497, 5.74636
7.04801, 6, -10.7782, 28.0878, 38.9007, -8.99165, -94.0386, 5.71171
7.05593, 6, -10.8095, 28.0754, 39.0135, -9.02648, -94.2276, 5.67679
7.06393, 6, -10.8405, 28.0631, 39.1263, -9.06217, -94.4164, 5.64104
7.07205, 6, -10.8714, 28.0507, 39.239, -9.09769, -94.6049, 5.60429
7.07993, 6, -10.9021, 28.0382, 39.3516, -9.13256, -94.7934, 5.56669
7.08794, 6, -10.9325, 28.0258, 39.4642, -9.16754, -94.9817, 5.52904
7.09599, 6, -10.9626, 28.0136, 39.5768, -9.20333, -95.1698, 5.49115
7.10395, 6, -10.9926, 28.0016, 39.6895, -9.23918, -95.3578, 5.45252
7.11199, 6, -11.0223, 27.9895, 39.8021, -9.27449, -95.5457, 5.41279
7.12, 6, -11.052, 27.9772, 39.9146, -9.30995, -95.7332, 5.37264
7.12794, 6, -11.0812, 27.9651, 40.027, -9.34628, -95.9208, 5.33257
7.13592, 6, -11.1102, 27.9531, 40.1394, -9.3826, -96.1079, 5.29192
7.144, 6, -11.1389, 27.9411, 40.2519, -9.41814, -96.2951, 5.25037
7.15199, 6, -11.1674, 27.9292, 40.3643, -9.45383, -96.4819, 5.20787
7.15993, 6, -11.1957, 27.9172, 40.4767, -9.49042, -96.6687, 5.16523
7.16802, 6, -11.2238, 27.9053, 40.5891, -9.52718, -96.8552, 5.1224
7.17607, 6, -11.2515, 27.8936, 40.7014, -9.56331, -97.0415, 5.07884
7.18344, 6, -11.279, 27.8819, 40.8136, -9.59962, -97.2275, 5.03429
7.19215, 6, -11.3063, 27.8703, 40.9259, -9.63687, -97.4137, 4.98926
7.20031, 6, -11.3333, 27.8586, 41.0381, -9.67398, -97.5996, 4.94409
7.20751, 6, -11.3603, 27.8469, 41.1502, -9.71038, -97.7854, 4.89824
7.21609, 6, -11.3868, 27.8355, 41.2623, -9.74707, -97.9708, 4.85128
7.22474, 6, -11.4131, 27.824, 41.3744, -9.78469, -98.1563, 4.80399
7.23209, 6, -11.4392, 27.8125, 41.4864, -9.82219, -98.3415, 4.75655
7.24005, 6, -11.465, 27.8009, 41.5985, -9.85901, -98.5266, 4.70814
7.24798, 6, -11.4906, 27.7893, 41.7105, -9.89623, -98.7113, 4.65858
7.25498, 6, -11.5034, 27.7836, 41.7664, -9.91516, -98.8037, 4.6337
7.26413, 6, -11.5413, 27.7667, 41.9341, -9.97167, -99.0802, 4.55891
7.27091, 6, -11.5537, 27.7611, 41.99, -9.99018, -99.1722, 4.5336
7.28017, 6, -11.5906, 27.7442, 42.1575, -10.0462, -99.448, 4.45583
7.28691, 6, -11.6027, 27.7385, 42.2134, -10.0654, -99.5397, 4.42987
7.2949, 6, -11.6264, 27.7271, 42.3249, -10.1034, -99.7228, 4.3777
7.30435, 6, -11.6605, 27.7104, 42.4903, -10.1593, -99.995, 4.29811
7.31091, 6, -11.6715, 27.7049, 42.5446, -10.178, -100.085, 4.27169
7.32045, 6, -11.7028, 27.6887, 42.7031, -10.2337, -100.347, 4.19441
7.32846, 6, -11.7221, 27.6781, 42.8028, -10.2685, -100.514, 4.14437
7.33652, 6, -11.7397, 27.6684, 42.8956, -10.3008, -100.669, 4.09678
7.34456, 6, -11.7478, 27.6598, 42.9791, -10.3302, -100.808, 4.0544
7.35273, 6, -11.7694, 27.6525, 43.0514, -10.3562, -100.929, 4.01759
7.3606, 6, -11.7756, 27.6494, 43.1112, -10.3773, -101.027, 3.98736
7.36796, 6, -11.7866, 27.6442, 43.1362, -10.386, -101.069, 3.97476
7.37595, 6, -11.7957, 27.6405, 43.1768, -10.3998, -101.134, 3.95437
7.38489, 6, -11.8033, 27.6373, 43.2169, -10.4125, -101.195, 3.935
7.39087, 7, -11.8096, 27.6368, 43.2257, -10.415, -101.207, 3.93104
7.3999, 7, -11.8146, 27.6361, 43.2382, -10.4183, -101.224, 3.92577
7.40799, 7, -11.8181, 27.6359, 43.2456, -10.42, -101.233, 3.92307
7.41593, 7, -11.8202, 27.6357, 43.2494, -10.4209, -101.237, 3.92173
7.42391, 7, -11.8214, 27.6357, 43.2512, -10.4213, -101.239, 3.92106
7.43203, 7, -11.8221, 27.6356, 43.2522, -10.4214, -101.24, 3.92075
7.43993, 7, -11.8224, 27.6356, 43.2528, -10.4216, -101.241, 3.92057
7.44793, 7, -11.8226, 27.6356, 43.2533, -10.4217, -101.241, 3.92047
7.45598, 7, -11.8227, 27.6356, 43.2538, -10.4217, -101.241, 3.92038
7.4639, 7, -11.8227, 27.6356, 43.2541, -10.4217, -101.241, 3.92034
7.47197, 7, -11.8228, 27.6356, 43.2543, -10.4217, -101.241, 3.92024
7.47999, 7, -11.8228, 27.6356, 43.2544, -10.4217, -101.241, 3.92027
7.48792, 7, -11.8228, 27.6356, 43.2545, -10.4218, -101.241, 3.92026
7.49591, 7, -11.8229, 27.6355, 43.2546, -10.4218, -101.241, 3.92028
7.50398, 7, -11.8229, 27.6355, 43.2547, -10.4218, -101.241, 3.92027
7.51198, 7, -11.823, 27.6355, 43.2549, -10.4218, -101.241, 3.92027
