hehonglu123/ABB_Primitive_Study/realrobot/movec_30_car/curve_exe_v50_fine.csv
timestamp, cmd_num, J1, J2, J3, J4, J5, J6
0.00283, -1, -11.8215, 27.6362, 43.2517, -10.4215, -101.24, 3.9203
0.142553, -1, -11.3852, 27.455, 42.9949, -9.78972, -100.306, 3.48652
0.14745, -1, -11.3324, 27.4341, 42.9138, -9.59075, -100.011, 3.34866
0.148867, -1, -11.2766, 27.4121, 42.9138, -9.59075, -100.011, 3.34866
0.150062, -1, -11.2766, 27.4121, 42.9138, -9.59075, -100.011, 3.34866
0.152085, -1, -11.2176, 27.389, 42.8697, -9.48275, -99.8511, 3.27358
0.153282, -1, -11.2176, 27.389, 42.8697, -9.48275, -99.8511, 3.27358
0.154539, -1, -11.2176, 27.389, 42.8697, -9.48275, -99.8511, 3.27358
0.157854, -1, -11.1555, 27.3647, 42.8236, -9.37011, -99.6836, 3.19534
0.160056, -1, -11.0904, 27.339, 42.7757, -9.25343, -99.5099, 3.11436
0.161433, -1, -11.0904, 27.339, 42.7757, -9.25343, -99.5099, 3.11436
0.162702, -1, -11.0904, 27.339, 42.7757, -9.25343, -99.5099, 3.11436
0.164742, -1, -11.0224, 27.3122, 42.7264, -9.13315, -99.3309, 3.03091
0.165951, -1, -11.0224, 27.3122, 42.7264, -9.13315, -99.3309, 3.03091
0.168648, -1, -10.9518, 27.2844, 42.6757, -9.00984, -99.1474, 2.94529
0.171833, -1, -10.8789, 27.2558, 42.6239, -8.88396, -98.9602, 2.8579
0.176165, -1, -10.804, 27.2264, 42.571, -8.75593, -98.7698, 2.76914
0.177489, -1, -10.804, 27.2264, 42.571, -8.75593, -98.7698, 2.76914
0.178666, -1, -10.804, 27.2264, 42.571, -8.75593, -98.7698, 2.76914
0.180711, -1, -10.7274, 27.1962, 42.5174, -8.6261, -98.5765, 2.67908
0.181892, -1, -10.7274, 27.1962, 42.5174, -8.6261, -98.5765, 2.67908
0.183871, -1, -10.6495, 27.1656, 42.4631, -8.49485, -98.3812, 2.5879
0.185228, -1, -10.6495, 27.1656, 42.4631, -8.49485, -98.3812, 2.5879
0.187894, -1, -10.5704, 27.1344, 42.4084, -8.36249, -98.1842, 2.49592
0.189348, -1, -10.5704, 27.1344, 42.4084, -8.36249, -98.1842, 2.49592
0.190648, -1, -10.5704, 27.1344, 42.4084, -8.36249, -98.1842, 2.49592
0.199987, -1, -10.3272, 27.0383, 42.2423, -7.96008, -97.5848, 2.21621
0.206712, -1, -10.2448, 27.0058, 42.1865, -7.82475, -97.3831, 2.12189
0.216207, -1, -9.99496, 26.9069, 42.0176, -7.41616, -96.7735, 1.8376
0.224174, -1, -9.82693, 26.8405, 41.9041, -7.1418, -96.3645, 1.64669
0.230726, -1, -9.74286, 26.8072, 41.847, -7.00399, -96.1592, 1.55091
0.240281, -1, -9.49026, 26.7073, 41.675, -6.58909, -95.5402, 1.26223
0.2483, -1, -9.32199, 26.6405, 41.5598, -6.31095, -95.1255, 1.06861
0.256608, -1, -9.15377, 26.5734, 41.4443, -6.0314, -94.7089, 0.87446
0.264291, -1, -9.06952, 26.5398, 41.3865, -5.89127, -94.291, 0.679652
0.271699, -1, -8.90024, 26.4725, 41.2702, -5.6101, -94.0812, 0.581992
0.279752, -1, -8.72977, 26.4049, 41.1532, -5.32764, -93.6602, 0.385931
0.287689, -1, -8.55795, 26.3367, 41.0357, -5.04418, -93.2378, 0.189165
0.295789, -1, -8.38475, 26.2682, 40.9177, -4.75971, -92.8132, -0.00867403
0.303749, -1, -8.21063, 26.1992, 40.7994, -4.47406, -92.3868, -0.207069
0.311695, -1, -8.03523, 26.1298, 40.6807, -4.18745, -91.9593, -0.406225
0.319697, -1, -7.8586, 26.0601, 40.5615, -3.90004, -91.5303, -0.605985
0.327701, -1, -7.68099, 25.9902, 40.4417, -3.6114, -91.1003, -0.806675
0.335816, -1, -7.5027, 25.92, 40.3214, -3.32179, -90.6687, -1.00805
0.343733, -1, -7.32374, 25.8496, 40.2007, -3.03138, -90.2353, -1.21026
0.351773, -1, -7.14457, 25.7793, 40.0797, -2.73984, -89.8004, -1.41277
0.359689, -1, -6.96532, 25.7089, 39.9585, -2.44742, -89.3638, -1.6159
0.367764, -1, -6.78632, 25.6384, 39.8369, -2.1542, -88.9258, -1.81949
0.375766, -1, -6.60739, 25.5677, 39.715, -1.85995, -88.4874, -2.0238
0.383688, -1, -6.42881, 25.4968, 39.5928, -1.56495, -88.048, -2.22869
0.391766, -1, -6.2505, 25.4257, 39.4703, -1.26964, -87.6076, -2.43413
0.40154, -1, -6.07183, 25.3544, 39.3475, -0.973497, -87.1663, -2.74283
0.407713, -1, -5.89273, 25.2829, 39.2244, -0.677016, -86.7238, -2.84598
0.41584, -1, -5.71297, 25.2112, 39.101, -0.380032, -86.2806, -3.05257
0.42474, -1, -5.53246, 25.1392, 38.9774, -0.0822286, -85.8364, -3.25974
0.431674, -1, -5.35107, 25.0671, 38.8537, 0.215715, -85.3916, -3.4669
0.439801, -1, -5.16868, 24.9949, 38.7298, 0.514009, -84.9466, -3.67424
0.447689, -1, -4.98536, 24.9227, 38.6058, 0.812824, -84.5009, -3.88167
0.455766, -1, -4.80147, 24.8505, 38.4816, 1.11156, -84.055, -4.08942
0.463766, -1, -4.61741, 24.7784, 38.3574, 1.41055, -83.609, -4.29722
0.471687, -1, -4.43329, 24.7061, 38.2331, 1.71012, -83.1621, -4.5055
0.479689, -1, -4.24912, 24.6339, 38.1089, 2.00944, -82.7155, -4.71347
0.487797, -1, -4.06532, 24.5618, 37.9847, 2.30896, -82.2687, -4.92142
0.495762, -1, -3.88188, 24.4897, 37.8604, 2.60845, -81.8215, -5.12949
0.50371, -1, -3.69931, 24.4175, 37.7361, 2.90742, -81.3753, -5.33736
0.511767, -1, -3.51757, 24.3453, 37.612, 3.20648, -80.9292, -5.54542
0.519767, -1, -3.33634, 24.2731, 37.4878, 3.50546, -80.4838, -5.75305
0.527688, -1, -3.15604, 24.201, 37.3639, 3.80386, -80.0392, -5.96035
0.535843, -1, -2.97637, 24.129, 37.2401, 4.10207, -79.5945, -6.1674
0.543687, -1, -2.79681, 24.057, 37.1164, 4.39962, -79.1502, -6.37426
0.551694, -1, -2.61731, 23.9852, 36.9931, 4.6965, -78.7067, -6.5808
0.559775, -1, -2.4374, 23.9135, 36.87, 4.99306, -78.2638, -6.78714
0.567689, -1, -2.25704, 23.8421, 36.7472, 5.28901, -77.8229, -6.99276
0.575754, -1, -2.07654, 23.7709, 36.6248, 5.58406, -77.3828, -7.1981
0.58376, -1, -1.89605, 23.6999, 36.5025, 5.8782, -76.9441, -7.40277
0.723204, -1, 1.05328, 22.5329, 34.4958, 10.7088, -69.7362, -10.7612
0.725152, -1, 1.1368, 22.5, 34.4392, 10.8448, -69.5331, -10.8558
0.727228, -1, 1.1368, 22.5, 34.4392, 10.8448, -69.5331, -10.8558
0.729278, -1, 1.2202, 22.4671, 34.3828, 10.9805, -69.3305, -10.9501
0.730576, -1, 1.2202, 22.4671, 34.3828, 10.9805, -69.3305, -10.9501
0.732713, -1, 1.30348, 22.4344, 34.3265, 11.1159, -69.1285, -11.0444
0.734011, -1, 1.30348, 22.4344, 34.3265, 11.1159, -69.1285, -11.0444
0.737935, -1, 1.38664, 22.4017, 34.2705, 11.2508, -68.9271, -11.1384
0.741701, -1, 1.46963, 22.3692, 34.2146, 11.3852, -68.7263, -11.2321
0.742899, -1, 1.46963, 22.3692, 34.2146, 11.3852, -68.7263, -11.2321
0.744904, -1, 1.55241, 22.3367, 34.1588, 11.5193, -68.526, -11.3254
0.746104, -1, 1.55241, 22.3367, 34.1588, 11.5193, -68.526, -11.3254
0.747391, -1, 1.55241, 22.3367, 34.1588, 11.5193, -68.526, -11.3254
0.749333, -1, 1.63499, 22.3043, 34.1033, 11.6531, -68.3262, -11.4183
0.75205, -1, 1.63499, 22.3043, 34.1033, 11.6531, -68.3262, -11.4183
0.754768, -1, 1.71734, 22.2721, 34.0479, 11.7865, -68.1268, -11.511
0.756917, -1, 1.79941, 22.2399, 33.9927, 11.9196, -67.928, -11.6035
0.758145, -1, 1.79941, 22.2399, 33.9927, 11.9196, -67.928, -11.6035
0.759406, -1, 1.79941, 22.2399, 33.9927, 11.9196, -67.928, -11.6035
0.761329, -1, 1.8811, 22.2078, 33.9377, 12.0525, -67.73, -11.6958
0.762625, -1, 1.8811, 22.2078, 33.9377, 12.0525, -67.73, -11.6958
0.765116, -1, 1.96238, 22.1758, 33.8827, 12.1849, -67.5328, -11.7878
0.766631, -1, 1.96238, 22.1758, 33.8827, 12.1849, -67.5328, -11.7878
0.776936, -1, 2.2038, 22.0803, 33.7187, 12.5791, -66.9445, -12.0621
0.783673, -1, 2.28364, 22.0487, 33.6644, 12.7098, -66.7498, -12.153
0.79173, -1, 2.44234, 21.9857, 33.5562, 12.97, -66.3621, -12.3341
0.799772, -1, 2.5995, 21.9232, 33.4489, 13.2283, -65.9762, -12.5138
0.806753, -1, 2.75522, 21.8611, 33.3424, 13.4851, -65.5928, -12.6922
0.815723, -1, 2.9095, 21.7993, 33.2364, 13.7408, -65.2117, -12.8696
0.823678, -1, 3.06255, 21.7378, 33.1308, 13.9944, -64.8331, -13.0458
0.830671, -1, 3.21494, 21.6768, 33.0259, 14.2464, -64.4568, -13.221
0.839702, -1, 3.36701, 21.6161, 32.9218, 14.4968, -64.0832, -13.3955
0.847693, -1, 3.51872, 21.5559, 32.8184, 14.7457, -63.7118, -13.5685
0.854677, -1, 3.67003, 21.496, 32.7159, 14.993, -63.3427, -13.7403
0.863676, -1, 3.82071, 21.4366, 32.614, 15.2386, -62.9762, -13.911
0.871683, -1, 3.97049, 21.3775, 32.5124, 15.4829, -62.6121, -14.0806
0.878674, -1, 4.11958, 21.3189, 32.4114, 15.7253, -62.2504, -14.2492
0.887678, -1, 4.26805, 21.2606, 32.3112, 15.9661, -61.8907, -14.4168
0.895682, -1, 4.41574, 21.2028, 32.2118, 16.2054, -61.5333, -14.5833
0.90467, -1, 4.56259, 21.1455, 32.1133, 16.4433, -61.1782, -14.7485
0.91167, -1, 4.7084, 21.0885, 32.0154, 16.6793, -60.8252, -14.9127
0.919682, -1, 4.85258, 21.0319, 31.9179, 16.9139, -60.475, -15.0755
0.92775, -1, 4.99518, 20.9754, 31.8208, 17.1471, -60.1271, -15.2375
0.935728, -1, 5.13682, 20.9193, 31.7244, 17.3788, -59.7814, -15.3986
0.943893, -1, 5.27722, 20.8635, 31.6287, 17.609, -59.4384, -15.5588
0.951673, -1, 5.41612, 20.8081, 31.5339, 17.8375, -59.0974, -15.718
0.959669, -1, 5.55378, 20.7529, 31.4398, 18.0651, -58.7583, -15.876
0.967758, -1, 5.69012, 20.6981, 31.3461, 18.2909, -58.4213, -16.0329
0.975673, -1, 5.82533, 20.6437, 31.2527, 18.5151, -58.0863, -16.189
0.98367, -1, 5.95991, 20.5895, 31.1598, 18.7381, -57.7532, -16.3441
0.99175, -1, 6.0943, 20.5359, 31.0675, 18.9599, -57.422, -16.4985
0.999671, -1, 6.22839, 20.4827, 30.9761, 19.1801, -57.0933, -16.6519
1.0077, -1, 6.3622, 20.4298, 30.8855, 19.399, -56.7668, -16.8043
1.01574, -1, 6.4956, 20.3773, 30.7954, 19.6165, -56.4422, -16.9555
1.02375, -1, 6.6284, 20.3252, 30.7058, 19.8327, -56.1199, -17.1057
1.03167, -1, 6.76044, 20.2732, 30.6164, 20.0474, -55.7995, -17.255
1.03974, -1, 6.89186, 20.2215, 30.5274, 20.2606, -55.4811, -17.4034
1.04771, -1, 7.02272, 20.1701, 30.4391, 20.4728, -55.1644, -17.5508
1.05567, -1, 7.15289, 20.119, 30.3515, 20.684, -54.8494, -17.6974
1.06373, -1, 7.282, 20.0682, 30.2646, 20.8937, -54.5362, -17.8433
1.07167, -1, 7.40995, 20.0175, 30.1782, 21.1022, -54.2249, -17.9881
1.07971, -1, 7.53694, 19.9672, 30.0922, 21.3093, -53.9155, -18.1323
1.08903, -1, 7.66299, 19.9172, 30.0066, 21.5153, -53.6083, -18.2753
1.0957, -1, 7.78808, 19.8675, 29.9213, 21.7201, -53.3027, -18.4175
1.10383, -1, 7.91232, 19.8182, 29.8366, 21.9235, -52.9989, -18.5591
1.11176, -1, 8.03574, 19.7693, 29.7525, 22.126, -52.697, -18.6998
1.11982, -1, 8.15835, 19.7208, 29.669, 22.3274, -52.3967, -18.8398
1.12777, -1, 8.27984, 19.6725, 29.5861, 22.5279, -52.0982, -18.9792
1.13578, -1, 8.4005, 19.6244, 29.5036, 22.7268, -51.8012, -19.1173
1.14385, -1, 8.52049, 19.5766, 29.4215, 22.9246, -51.5059, -19.2549
1.15167, -1, 8.63969, 19.529, 29.3397, 23.1212, -51.2125, -19.3915
1.1597, -1, 8.75838, 19.4816, 29.2584, 23.3168, -50.9204, -19.5272
1.16776, -1, 8.8766, 19.4345, 29.1775, 23.5113, -50.6299, -19.6624
1.17609, -1, 8.99439, 19.3875, 29.0972, 23.7046, -50.3411, -19.7969
1.18272, -1, 9.05313, 19.3641, 29.0572, 23.8008, -50.1973, -19.8638
1.19198, -1, 9.22874, 19.2944, 28.9379, 24.0883, -49.7686, -20.0639
1.19996, -1, 9.34537, 19.2482, 28.8589, 24.2786, -49.4845, -20.1963
1.20667, -1, 9.40353, 19.2253, 28.8196, 24.3733, -49.3432, -20.2621
1.21604, -1, 9.5771, 19.1569, 28.7023, 24.6559, -48.9214, -20.4586
1.22427, -1, 9.69205, 19.1116, 28.6246, 24.8431, -48.6424, -20.5886
1.23226, -1, 9.80649, 19.0667, 28.5471, 25.0295, -48.3645, -20.7182
1.24048, -1, 9.92031, 19.0221, 28.47, 25.2148, -48.088, -20.847
1.24825, -1, 10.0334, 18.9777, 28.3934, 25.399, -47.8129, -20.9752
1.25632, -1, 10.1458, 18.9335, 28.3173, 25.5824, -47.5391, -21.103
1.26266, -1, 10.2018, 18.9114, 28.2795, 25.6738, -47.4026, -21.1665
1.27239, -1, 10.3133, 18.8674, 28.204, 25.8561, -47.1306, -21.2933
1.28027, -1, 10.4242, 18.8236, 28.1289, 26.0373, -46.8602, -21.4192
1.28765, -1, 10.5344, 18.7799, 28.054, 26.2175, -46.5911, -21.5443
1.29566, -1, 10.6438, 18.7364, 27.9794, 26.3968, -46.3235, -21.6689
1.30371, -1, 10.7528, 18.6931, 27.9052, 26.5753, -46.0572, -21.7929
1.31165, -1, 10.8611, 18.6499, 27.8314, 26.753, -45.7924, -21.9162
1.31967, -1, 10.9686, 18.6071, 27.7581, 26.9297, -45.529, -22.039
1.32766, -1, 11.0755, 18.5644, 27.6851, 27.1055, -45.2668, -22.1613
1.33567, -1, 11.182, 18.5219, 27.6124, 27.2804, -45.006, -22.2832
1.34372, -1, 11.2881, 18.4798, 27.5401, 27.4547, -44.746, -22.4043
1.35166, -1, 11.3936, 18.4379, 27.4682, 27.6283, -44.4872, -22.5247
1.35974, -1, 11.4983, 18.3962, 27.3967, 27.8008, -44.2295, -22.6446
1.3677, -1, 11.6026, 18.3548, 27.3254, 27.9726, -43.9728, -22.7639
1.37567, -1, 11.7065, 18.3136, 27.2544, 28.1435, -43.7174, -22.8826
1.38366, -1, 11.8101, 18.2725, 27.1836, 28.3136, -43.4635, -23.001
1.39066, -1, 11.9134, 18.2317, 27.1132, 28.4833, -43.2107, -23.1188
1.39967, -1, 12.0165, 18.1909, 27.0432, 28.6519, -42.959, -23.236
1.40865, -1, 12.1193, 18.1502, 26.9735, 28.8198, -42.7084, -23.3529
1.41572, -1, 12.2219, 18.1097, 26.9042, 28.987, -42.4589, -23.4694
1.42476, -1, 12.3239, 18.0693, 26.8351, 29.1534, -42.2104, -23.5848
1.43176, -1, 12.4254, 18.029, 26.7663, 29.3195, -41.9632, -23.7003
1.43973, -1, 12.5265, 17.9889, 26.6977, 29.4847, -41.7171, -23.8148
1.44765, -1, 12.6272, 17.949, 26.6295, 29.6489, -41.4719, -23.9288
1.45567, -1, 12.7275, 17.9093, 26.5615, 29.8125, -41.2276, -24.0426
1.46371, -1, 12.8273, 17.8698, 26.4938, 29.9754, -40.9845, -24.1557
1.47165, -1, 12.9266, 17.8306, 26.4265, 30.1378, -40.7424, -24.2685
1.47967, -1, 13.0253, 17.7914, 26.3594, 30.2994, -40.5011, -24.3808
1.48772, -1, 13.1235, 17.7525, 26.2926, 30.4603, -40.2609, -24.4928
1.49567, -1, 13.2211, 17.7138, 26.2262, 30.6204, -40.0217, -24.6045
1.50366, -1, 13.3183, 17.6753, 26.1601, 30.7799, -39.7835, -24.7152
1.51173, -1, 13.4152, 17.6369, 26.0942, 30.9389, -39.5464, -24.8257
1.51966, -1, 13.5117, 17.5987, 26.0285, 31.0973, -39.3102, -24.9356
1.52773, -1, 13.608, 17.5606, 25.9631, 31.2549, -39.0749, -25.0451
1.53573, -1, 13.7039, 17.5226, 25.8978, 31.4118, -38.8407, -25.1544
1.54365, -1, 13.7994, 17.4848, 25.8328, 31.568, -38.6073, -25.2631
1.55166, -1, 13.8946, 17.4471, 25.7681, 31.7237, -38.3749, -25.3715
1.55972, -1, 13.9895, 17.4094, 25.7037, 31.879, -38.1438, -25.4797
1.56765, -1, 14.0841, 17.372, 25.6396, 32.0336, -37.9134, -25.5875
1.57574, -1, 14.1784, 17.3346, 25.5757, 32.1875, -37.6839, -25.6949
1.58365, -1, 14.2721, 17.2973, 25.512, 32.3409, -37.4549, -25.8015
1.59165, -1, 14.3653, 17.2602, 25.4486, 32.4936, -37.2269, -25.9079
1.59991, -1, 14.458, 17.2233, 25.3854, 32.6459, -36.9997, -26.0134
1.60774, -1, 14.5503, 17.1866, 25.3225, 32.7979, -36.7731, -26.1189
1.61575, -1, 14.6421, 17.15, 25.2598, 32.9491, -36.5476, -26.2236
1.62409, -1, 14.7335, 17.1137, 25.1972, 33.0997, -36.3229, -26.3283
1.63176, -1, 14.8246, 17.0774, 25.1349, 33.2495, -36.0989, -26.4324
1.63979, -1, 14.9155, 17.0412, 25.0729, 33.3991, -35.8759, -26.5363
1.64827, -1, 15.0062, 17.0052, 25.0111, 33.5481, -35.6536, -26.64
1.65567, -1, 15.0966, 16.9694, 24.9496, 33.6965, -35.4322, -26.7432
1.66368, -1, 15.1867, 16.9336, 24.8884, 33.8444, -35.2116, -26.8461
1.67251, -1, 15.2766, 16.8979, 24.8273, 33.9916, -34.9918, -26.9484
1.67977, -1, 15.3664, 16.8625, 24.7665, 34.1382, -34.7729, -27.0505
1.68777, -1, 15.4561, 16.8272, 24.7057, 34.2846, -34.5549, -27.1519
1.69679, -1, 15.5455, 16.7918, 24.6452, 34.4305, -34.3374, -27.253
1.7039, -1, 15.6347, 16.7568, 24.5849, 34.5759, -34.1205, -27.354
1.71204, -1, 15.7235, 16.7218, 24.5247, 34.7207, -33.9042, -27.4547
1.71864, -1, 15.7677, 16.7043, 24.4947, 34.793, -33.7965, -27.5048
1.7281, -1, 15.9, 16.652, 24.4051, 35.0087, -33.474, -27.6549
1.73464, -1, 15.944, 16.6347, 24.3753, 35.0804, -33.3668, -27.705
1.74515, -1, 16.0752, 16.5828, 24.2864, 35.2949, -33.0466, -27.8543
1.75072, -1, 16.1187, 16.5654, 24.2568, 35.3662, -32.9403, -27.9041
1.76029, -1, 16.2487, 16.5138, 24.1685, 35.5794, -32.6224, -28.0521
1.76891, -1, 16.2918, 16.4966, 24.1391, 35.7208, -32.4114, -28.1506
1.77617, -1, 16.3779, 16.4625, 24.0805, 35.7914, -32.3062, -28.1995
1.78369, -1, 16.4637, 16.4283, 24.0221, 35.9321, -32.096, -28.2975
1.79165, -1, 16.5491, 16.3944, 23.9638, 36.0724, -31.8867, -28.3947
1.79965, -1, 16.6342, 16.3605, 23.9057, 36.2126, -31.678, -28.4921
1.8077, -1, 16.7193, 16.3268, 23.8478, 36.3522, -31.47, -28.589
1.81564, -1, 16.8041, 16.2932, 23.7901, 36.4913, -31.2627, -28.6859
1.82365, -1, 16.8888, 16.2597, 23.7326, 36.6298, -31.0558, -28.782
1.83169, -1, 16.9733, 16.2264, 23.6752, 36.768, -30.8496, -28.8785
1.83965, -1, 17.0574, 16.1931, 23.6181, 36.9057, -30.6439, -28.9741
1.84765, -1, 17.1412, 16.1599, 23.5612, 37.0432, -30.4389, -29.0699
1.85568, -1, 17.224, 16.1271, 23.5044, 37.18, -30.2348, -29.1648
1.8637, -1, 17.3045, 16.0952, 23.448, 37.3163, -30.0314, -29.2596
1.87166, -1, 17.3819, 16.0647, 23.3919, 37.451, -29.83, -29.3531
1.87968, -1, 17.455, 16.0361, 23.337, 37.5828, -29.6331, -29.445
1.88763, -1, 17.5234, 16.01, 23.2841, 37.7094, -29.4436, -29.5329
1.89565, -1, 17.586, 15.9864, 23.2345, 37.8278, -29.2665, -29.6157
1.90369, -1, 17.6418, 15.9657, 23.1898, 37.9346, -29.1063, -29.6898
1.91271, -1, 17.6914, 15.9472, 23.1513, 38.0261, -28.9685, -29.7542
1.91965, -1, 17.7352, 15.9297, 23.1202, 38.1005, -28.8563, -29.8067
1.9277, -1, 17.7733, 15.9136, 23.0965, 38.1574, -28.7705, -29.8467
1.93564, -1, 17.8055, 15.8997, 23.0797, 38.1968, -28.7095, -29.875
1.94365, -1, 17.8318, 15.8884, 23.0687, 38.2233, -28.6697, -29.8936
1.95167, -1, 17.853, 15.8792, 23.0623, 38.239, -28.6456, -29.9046
1.95963, -1, 17.8686, 15.8725, 23.0587, 38.2477, -28.6323, -29.9105
1.96765, -1, 17.8784, 15.8685, 23.0569, 38.2521, -28.6256, -29.9134
1.97565, 2, 17.8831, 15.8664, 23.0559, 38.2541, -28.6224, -29.9148
1.98363, 2, 17.8852, 15.8654, 23.0553, 38.2551, -28.6209, -29.9154
1.99166, 2, 17.8858, 15.865, 23.0551, 38.2555, -28.6202, -29.9157
1.99977, 2, 17.8852, 15.8648, 23.055, 38.2557, -28.6199, -29.9158
2.00764, 2, 17.8843, 15.8647, 23.0549, 38.2558, -28.6197, -29.9159
2.01565, 2, 17.8836, 15.8646, 23.0549, 38.256, -28.6197, -29.9159
2.02369, 2, 17.8832, 15.8646, 23.0549, 38.256, -28.6197, -29.916
2.03171, 2, 17.883, 15.8645, 23.0548, 38.256, -28.6196, -29.916
2.03966, 2, 17.883, 15.8644, 23.0547, 38.256, -28.6196, -29.916
2.04775, 2, 17.8831, 15.8641, 23.0547, 38.256, -28.6196, -29.916
2.05563, 2, 17.8833, 15.8638, 23.0546, 38.2559, -28.6197, -29.916
2.06365, 2, 17.8837, 15.8635, 23.0546, 38.256, -28.6197, -29.916
2.07169, 2, 17.8841, 15.8633, 23.0545, 38.256, -28.6197, -29.916
2.07965, 2, 17.8847, 15.8631, 23.0544, 38.256, -28.6197, -29.9159
2.08765, 2, 17.8855, 15.8631, 23.0544, 38.256, -28.6198, -29.916
2.09571, 2, 17.8861, 15.8631, 23.0544, 38.256, -28.6198, -29.916
2.10368, 2, 17.8867, 15.8631, 23.0544, 38.256, -28.6198, -29.9159
2.11175, 2, 17.887, 15.8631, 23.0544, 38.256, -28.6198, -29.916
2.11978, 2, 17.8872, 15.8631, 23.0544, 38.2559, -28.6198, -29.916
2.12774, 2, 17.8873, 15.8631, 23.0544, 38.2559, -28.6198, -29.916
2.13576, 2, 17.8874, 15.8631, 23.0544, 38.2559, -28.6199, -29.916
2.14379, 2, 17.8874, 15.863, 23.0544, 38.2559, -28.6199, -29.916
2.15165, 2, 17.8875, 15.863, 23.0544, 38.2559, -28.6199, -29.9159
2.15966, 2, 17.8874, 15.863, 23.0544, 38.2559, -28.6199, -29.9159
2.16772, 2, 17.8873, 15.8629, 23.0544, 38.2559, -28.6199, -29.9159
2.17566, 2, 17.8871, 15.8628, 23.0544, 38.2559, -28.6199, -29.9159
2.18389, 2, 17.8869, 15.8628, 23.0544, 38.2559, -28.62, -29.9159
2.19212, 2, 17.8868, 15.8628, 23.0544, 38.2559, -28.62, -29.9159
2.19864, 2, 17.8868, 15.8628, 23.0544, 38.2559, -28.62, -29.9159
2.208, 2, 17.8867, 15.8628, 23.0544, 38.2559, -28.6201, -29.9159
2.21604, 2, 17.8867, 15.8628, 23.0544, 38.2559, -28.6201, -29.9159
2.22404, 2, 17.8867, 15.8628, 23.0544, 38.2559, -28.6201, -29.9159
2.23067, 2, 17.8867, 15.8628, 23.0544, 38.2559, -28.6201, -29.9159
2.24052, 2, 17.8867, 15.8628, 23.0544, 38.2559, -28.6202, -29.9159
2.24817, 2, 17.8867, 15.8628, 23.0544, 38.2559, -28.6202, -29.9158
2.25639, 2, 17.8867, 15.8628, 23.0544, 38.2559, -28.6202, -29.9158
2.26436, 2, 17.8867, 15.8628, 23.0544, 38.2559, -28.6202, -29.9158
2.27216, 2, 17.8867, 15.8628, 23.0544, 38.2559, -28.6202, -29.9158
2.28021, 2, 17.8867, 15.8628, 23.0544, 38.2559, -28.6202, -29.9158
2.28766, 2, 17.8867, 15.8628, 23.0544, 38.2559, -28.6202, -29.9157
2.29562, 2, 17.8867, 15.8628, 23.0544, 38.2559, -28.6203, -29.9157
2.30364, 2, 17.8866, 15.8628, 23.0544, 38.2559, -28.6203, -29.9157
2.31167, 2, 17.8866, 15.8628, 23.0544, 38.2559, -28.6203, -29.9158
2.31968, 2, 17.8866, 15.8628, 23.0544, 38.2559, -28.6203, -29.9158
2.32764, 2, 17.8866, 15.8628, 23.0544, 38.2559, -28.6204, -29.9157
2.33566, 2, 17.8866, 15.8628, 23.0544, 38.2559, -28.6205, -29.9157
2.34362, 2, 17.8865, 15.8628, 23.0544, 38.2559, -28.6205, -29.9157
2.35165, 2, 17.8865, 15.8628, 23.0544, 38.2559, -28.6205, -29.9158
2.35966, 2, 17.8865, 15.8628, 23.0544, 38.2559, -28.6205, -29.9157
2.36768, 2, 17.8865, 15.8628, 23.0544, 38.2559, -28.6205, -29.9157
2.37563, 2, 17.8865, 15.8628, 23.0544, 38.2559, -28.6205, -29.9157
2.38368, 2, 17.8865, 15.8628, 23.0544, 38.2559, -28.6205, -29.9158
2.39163, 2, 17.8865, 15.8628, 23.0544, 38.2558, -28.6205, -29.9157
2.39963, 2, 17.8865, 15.8628, 23.0544, 38.2558, -28.6206, -29.9157
2.40863, 2, 17.8865, 15.8628, 23.0544, 38.2558, -28.6206, -29.9157
2.41564, 2, 17.8865, 15.8628, 23.0544, 38.2558, -28.6206, -29.9156
2.42462, 2, 17.8864, 15.8628, 23.0544, 38.2558, -28.6206, -29.9156
2.43169, 2, 17.8864, 15.8628, 23.0544, 38.2557, -28.6206, -29.9156
2.43963, 2, 17.8864, 15.8628, 23.0544, 38.2557, -28.6206, -29.9156
2.44765, 2, 17.8864, 15.8628, 23.0544, 38.2558, -28.6207, -29.9156
2.45566, 2, 17.8864, 15.8628, 23.0544, 38.2558, -28.6207, -29.9156
2.46362, 2, 17.8863, 15.8628, 23.0544, 38.2558, -28.6207, -29.9156
2.47161, 2, 17.8863, 15.8629, 23.0544, 38.2558, -28.6208, -29.9156
2.47966, 2, 17.8862, 15.8629, 23.0544, 38.2558, -28.6208, -29.9156
2.48762, 2, 17.8862, 15.8629, 23.0544, 38.2558, -28.6208, -29.9155
2.49564, 2, 17.8862, 15.8628, 23.0544, 38.2557, -28.6208, -29.9156
2.50367, 2, 17.8861, 15.8628, 23.0544, 38.2557, -28.6208, -29.9155
2.51163, 2, 17.8861, 15.8628, 23.0544, 38.2557, -28.6208, -29.9155
2.51963, 2, 17.8861, 15.8628, 23.0544, 38.2557, -28.6208, -29.9155
2.52767, 2, 17.886, 15.8628, 23.0544, 38.2557, -28.6209, -29.9155
2.53568, 2, 17.8859, 15.8628, 23.0544, 38.2557, -28.6208, -29.9155
2.54364, 2, 17.8859, 15.8628, 23.0544, 38.2556, -28.6208, -29.9154
2.55168, 2, 17.8858, 15.8629, 23.0544, 38.2556, -28.6209, -29.9154
2.55964, 2, 17.8858, 15.8628, 23.0544, 38.2557, -28.6209, -29.9153
2.56765, 2, 17.8858, 15.8629, 23.0544, 38.2557, -28.6209, -29.9154
2.57568, 2, 17.8857, 15.8629, 23.0544, 38.2557, -28.6209, -29.9154
2.58364, 2, 17.8857, 15.8629, 23.0544, 38.2557, -28.621, -29.9153
2.59166, 2, 17.8856, 15.8629, 23.0544, 38.2557, -28.621, -29.9153
2.5997, 2, 17.8856, 15.8629, 23.0544, 38.2556, -28.6211, -29.9152
2.60767, 2, 17.8856, 15.8629, 23.0544, 38.2556, -28.6211, -29.9152
2.61573, 2, 17.8855, 15.8629, 23.0544, 38.2556, -28.6211, -29.9152
2.62376, 2, 17.8855, 15.8629, 23.0544, 38.2556, -28.6211, -29.9152
2.63174, 2, 17.8854, 15.8629, 23.0544, 38.2556, -28.6211, -29.9152
2.63975, 2, 17.8854, 15.8629, 23.0544, 38.2556, -28.6211, -29.9152
2.64779, 2, 17.8853, 15.8629, 23.0544, 38.2555, -28.6212, -29.9151
2.65563, 2, 17.8852, 15.8629, 23.0544, 38.2555, -28.6212, -29.9152
2.66367, 2, 17.8852, 15.8629, 23.0544, 38.2554, -28.6212, -29.9151
2.67171, 2, 17.8851, 15.8629, 23.0544, 38.2554, -28.6212, -29.9151
2.67966, 2, 17.8851, 15.8629, 23.0544, 38.2555, -28.6212, -29.9151
2.68777, 2, 17.885, 15.8629, 23.0544, 38.2555, -28.6212, -29.9151
2.69581, 2, 17.885, 15.8629, 23.0544, 38.2555, -28.6212, -29.9151
2.70392, 2, 17.8849, 15.8629, 23.0544, 38.2554, -28.6213, -29.9151
2.71225, 2, 17.8848, 15.8629, 23.0544, 38.2554, -28.6213, -29.9151
2.72, 2, 17.8848, 15.8629, 23.0544, 38.2554, -28.6213, -29.9151
2.72663, 2, 17.8848, 15.8629, 23.0544, 38.2553, -28.6213, -29.9151
2.73651, 2, 17.8847, 15.8629, 23.0544, 38.2553, -28.6212, -29.9151
2.74418, 2, 17.8847, 15.8629, 23.0544, 38.2553, -28.6212, -29.915
2.75219, 2, 17.8846, 15.8629, 23.0544, 38.2553, -28.6213, -29.915
2.7606, 2, 17.8845, 15.8629, 23.0544, 38.2553, -28.6213, -29.9151
2.76826, 2, 17.8845, 15.8629, 23.0544, 38.2553, -28.6213, -29.9151
2.77619, 2, 17.8845, 15.8629, 23.0544, 38.2553, -28.6213, -29.9151
2.78443, 2, 17.8844, 15.8629, 23.0544, 38.2552, -28.6213, -29.915
2.79166, 2, 17.8844, 15.8629, 23.0544, 38.2553, -28.6213, -29.9151
2.79961, 2, 17.8843, 15.8629, 23.0544, 38.2552, -28.6213, -29.9151
2.80854, 2, 17.8843, 15.8629, 23.0544, 38.2552, -28.6213, -29.9151
2.81565, 2, 17.8842, 15.8629, 23.0544, 38.2552, -28.6213, -29.915
2.82362, 2, 17.8842, 15.8629, 23.0544, 38.2552, -28.6213, -29.915
2.83164, 2, 17.8841, 15.8629, 23.0544, 38.2552, -28.6213, -29.915
2.83965, 2, 17.8841, 15.8629, 23.0544, 38.2552, -28.6214, -29.915
2.84759, 2, 17.8841, 15.8629, 23.0544, 38.2552, -28.6214, -29.915
2.85568, 2, 17.8841, 15.8629, 23.0544, 38.2552, -28.6214, -29.9149
2.86364, 2, 17.8841, 15.8629, 23.0544, 38.2552, -28.6214, -29.915
2.87168, 2, 17.8841, 15.8629, 23.0544, 38.2552, -28.6214, -29.915
2.87962, 2, 17.884, 15.8629, 23.0544, 38.2551, -28.6215, -29.915
2.8877, 2, 17.884, 15.8629, 23.0544, 38.2551, -28.6215, -29.915
2.89561, 2, 17.884, 15.8629, 23.0544, 38.2551, -28.6215, -29.915
2.90362, 2, 17.884, 15.8629, 23.0544, 38.2551, -28.6215, -29.915
2.91166, 2, 17.884, 15.8629, 23.0544, 38.255, -28.6215, -29.915
2.92065, 2, 17.8839, 15.8629, 23.0544, 38.255, -28.6215, -29.915
2.92761, 2, 17.8839, 15.8629, 23.0544, 38.2549, -28.6215, -29.9149
2.93668, 2, 17.8839, 15.8629, 23.0544, 38.2549, -28.6215, -29.915
2.9436, 2, 17.8839, 15.8629, 23.0544, 38.2549, -28.6215, -29.915
2.95171, 2, 17.8839, 15.8629, 23.0544, 38.2549, -28.6215, -29.915
2.95965, 2, 17.8839, 15.8629, 23.0544, 38.2549, -28.6215, -29.9149
2.96761, 2, 17.8839, 15.8629, 23.0544, 38.2549, -28.6215, -29.9149
2.97576, 2, 17.8839, 15.8629, 23.0544, 38.2549, -28.6215, -29.9149
2.98458, 2, 17.8838, 15.8629, 23.0544, 38.2549, -28.6215, -29.9149
2.99162, 2, 17.8838, 15.8629, 23.0544, 38.2549, -28.6215, -29.9149
2.9996, 2, 17.8838, 15.8629, 23.0544, 38.2549, -28.6215, -29.9149
3.00768, 2, 17.8838, 15.8629, 23.0544, 38.2549, -28.6215, -29.9149
3.01568, 2, 17.8838, 15.8629, 23.0544, 38.2549, -28.6215, -29.9149
3.02361, 2, 17.8838, 15.8629, 23.0544, 38.2549, -28.6215, -29.9149
3.03165, 2, 17.8838, 15.8629, 23.0544, 38.2548, -28.6215, -29.9149
3.0397, 2, 17.8838, 15.8629, 23.0544, 38.2548, -28.6215, -29.9149
3.04761, 2, 17.8838, 15.8629, 23.0544, 38.2548, -28.6215, -29.9149
3.05566, 2, 17.8837, 15.8629, 23.0544, 38.2547, -28.6216, -29.9149
3.06363, 4, 17.8837, 15.8629, 23.0544, 38.2547, -28.6215, -29.9149
3.0716, 4, 17.8837, 15.8629, 23.0544, 38.2547, -28.6215, -29.9148
3.07966, 4, 17.8837, 15.863, 23.0544, 38.2547, -28.6215, -29.9149
3.08766, 4, 17.8837, 15.863, 23.0544, 38.2547, -28.6216, -29.9149
3.09561, 4, 17.8837, 15.863, 23.0544, 38.2547, -28.6216, -29.9148
3.10371, 4, 17.8837, 15.863, 23.0544, 38.2547, -28.6216, -29.9148
3.1117, 4, 17.8837, 15.863, 23.0544, 38.2546, -28.6216, -29.9148
3.11969, 4, 17.8837, 15.863, 23.0544, 38.2546, -28.6216, -29.9148
3.12775, 4, 17.8836, 15.863, 23.0544, 38.2546, -28.6216, -29.9148
3.13573, 4, 17.8836, 15.863, 23.0544, 38.2546, -28.6216, -29.9147
3.14371, 4, 17.8836, 15.863, 23.0544, 38.2545, -28.6216, -29.9148
3.15177, 4, 17.8836, 15.863, 23.0544, 38.2546, -28.6216, -29.9148
3.15993, 4, 17.8835, 15.863, 23.0544, 38.2546, -28.6216, -29.9148
3.16796, 4, 17.8836, 15.863, 23.0544, 38.2546, -28.6216, -29.9147
3.19072, 4, 17.8835, 15.863, 23.0544, 38.2545, -28.6215, -29.9146
3.19275, 4, 17.8835, 15.863, 23.0544, 38.2545, -28.6215, -29.9146
3.19401, 4, 17.8835, 15.863, 23.0544, 38.2545, -28.6215, -29.9146
3.20069, 4, 17.8835, 15.863, 23.0544, 38.2545, -28.6215, -29.9146
3.20823, 4, 17.8835, 15.863, 23.0544, 38.2545, -28.6216, -29.9146
3.21591, 4, 17.8834, 15.863, 23.0545, 38.2545, -28.6215, -29.9146
3.22477, 4, 17.8829, 15.8633, 23.0544, 38.2545, -28.6215, -29.9146
3.23209, 4, 17.8811, 15.8643, 23.0544, 38.2543, -28.6216, -29.9146
3.23995, 4, 17.8796, 15.8653, 23.0543, 38.2538, -28.6217, -29.9136
3.24898, 4, 17.8736, 15.87, 23.0529, 38.248, -28.6224, -29.9102
3.2564, 4, 17.8694, 15.8744, 23.051, 38.2386, -28.6242, -29.9021
3.26429, 4, 17.8647, 15.88, 23.0479, 38.2238, -28.6271, -29.8877
3.273, 5, 17.862, 15.8833, 23.0434, 38.2031, -28.6315, -29.8669
3.28021, 5, 17.8565, 15.8911, 23.0406, 38.1906, -28.6343, -29.8396
3.28826, 5, 17.851, 15.8998, 23.0341, 38.1615, -28.6445, -29.8065
3.29559, 5, 17.8454, 15.9094, 23.0265, 38.1274, -28.6484, -29.7881
3.30265, 5, 17.8386, 15.9205, 23.018, 38.0899, -28.6566, -29.7493
3.31168, 5, 17.8302, 15.9329, 23.009, 38.0517, -28.6652, -29.7094
3.31959, 5, 17.8206, 15.9464, 22.9999, 38.013, -28.6739, -29.6686
3.32758, 5, 17.8104, 15.9604, 22.9905, 37.9728, -28.6828, -29.6271
3.33567, 5, 17.8001, 15.9746, 22.981, 37.9328, -28.6917, -29.5849
3.3436, 5, 17.7895, 15.9887, 22.9714, 37.8934, -28.7007, -29.5432
3.35165, 5, 17.7787, 16.0031, 22.9616, 37.8535, -28.7097, -29.5018
3.35959, 5, 17.7682, 16.0177, 22.9519, 37.8128, -28.7189, -29.4605
3.36759, 5, 17.7577, 16.0322, 22.9422, 37.7729, -28.7282, -29.4187
3.3746, 5, 17.747, 16.0464, 22.9325, 37.7335, -28.7377, -29.3768
3.38374, 5, 17.7362, 16.0606, 22.9227, 37.6933, -28.7473, -29.3356
3.3916, 5, 17.7255, 16.0749, 22.9129, 37.6529, -28.7573, -29.2946
3.39858, 5, 17.7147, 16.0892, 22.903, 37.6134, -28.7672, -29.2531
3.40842, 5, 17.7039, 16.1034, 22.8933, 37.5737, -28.7773, -29.2112
3.41466, 5, 17.6931, 16.1174, 22.8836, 37.5332, -28.7872, -29.17
3.42368, 5, 17.6825, 16.1316, 22.8737, 37.4935, -28.7968, -29.1291
3.43266, 5, 17.6719, 16.1459, 22.8639, 37.4543, -28.8063, -29.0881
3.43962, 5, 17.6611, 16.1601, 22.8539, 37.4147, -28.8157, -29.0465
3.44766, 5, 17.6503, 16.1743, 22.844, 37.3744, -28.825, -29.005
3.45645, 5, 17.6396, 16.1885, 22.8342, 37.335, -28.8345, -28.9643
3.46359, 5, 17.6289, 16.203, 22.8243, 37.2957, -28.8439, -28.9234
3.47166, 5, 17.6182, 16.2175, 22.8145, 37.2556, -28.8534, -28.882
3.48041, 5, 17.6076, 16.2319, 22.8047, 37.2158, -28.8629, -28.8403
3.48768, 5, 17.5971, 16.2462, 22.7949, 37.1768, -28.8725, -28.7991
3.4956, 5, 17.5865, 16.2607, 22.7852, 37.1374, -28.8823, -28.7583
3.50488, 5, 17.5759, 16.275, 22.7755, 37.0971, -28.8924, -28.7174
3.51165, 5, 17.5653, 16.2891, 22.7657, 37.0576, -28.9026, -28.676
3.51959, 5, 17.5547, 16.3032, 22.7559, 37.0185, -28.9129, -28.6348
3.52758, 5, 17.5439, 16.3174, 22.746, 36.9786, -28.9232, -28.5943
3.53566, 5, 17.5333, 16.3318, 22.7361, 36.9384, -28.9334, -28.5536
3.54365, 5, 17.5226, 16.3461, 22.7263, 36.8992, -28.9434, -28.5126
3.55158, 5, 17.5119, 16.3602, 22.7164, 36.8602, -28.9534, -28.4712
3.55965, 5, 17.5011, 16.3744, 22.7065, 36.8202, -28.9631, -28.4304
3.56759, 5, 17.4904, 16.3888, 22.6967, 36.7805, -28.9729, -28.3902
3.5756, 5, 17.4797, 16.4031, 22.6868, 36.7416, -28.9826, -28.3497
3.58366, 5, 17.4688, 16.4173, 22.6771, 36.7023, -28.9924, -28.3089
3.59159, 5, 17.4582, 16.4315, 22.6675, 36.6624, -29.0021, -28.2679
3.59966, 5, 17.4476, 16.4458, 22.6578, 36.6234, -29.0119, -28.2277
3.60763, 5, 17.4371, 16.4601, 22.6481, 36.5848, -29.0219, -28.1876
3.61567, 5, 17.4264, 16.4743, 22.6383, 36.5454, -29.032, -28.1471
3.62374, 5, 17.4159, 16.4885, 22.6285, 36.5058, -29.0423, -28.1061
3.6317, 5, 17.4055, 16.5027, 22.6187, 36.467, -29.0527, -28.0657
3.63971, 5, 17.3948, 16.5169, 22.609, 36.4282, -29.0633, -28.0258
3.64776, 5, 17.3842, 16.531, 22.5992, 36.3886, -29.0737, -27.9858
3.65571, 5, 17.3737, 16.545, 22.5895, 36.3493, -29.0839, -27.9453
3.66375, 5, 17.3631, 16.5591, 22.5797, 36.3108, -29.094, -27.9046
3.67182, 5, 17.3523, 16.5733, 22.57, 36.2719, -29.1039, -27.8646
3.67963, 5, 17.3416, 16.5876, 22.5604, 36.2322, -29.1138, -27.8246
3.68767, 5, 17.331, 16.6018, 22.5508, 36.1932, -29.1237, -27.7844
3.69578, 5, 17.3203, 16.6158, 22.5411, 36.1546, -29.1335, -27.7437
3.70376, 5, 17.3095, 16.6301, 22.5315, 36.1151, -29.1434, -27.7033
3.71201, 5, 17.2989, 16.6444, 22.5217, 36.0754, -29.1534, -27.6634
3.71988, 5, 17.2883, 16.6585, 22.512, 36.0368, -29.1634, -27.6235
3.72798, 5, 17.2776, 16.6725, 22.5024, 35.9981, -29.1737, -27.5833
3.73608, 5, 17.2669, 16.6867, 22.4926, 35.9585, -29.1841, -27.5427
3.74408, 5, 17.2562, 16.701, 22.4829, 35.9192, -29.1947, -27.5028
3.75057, 5, 17.2509, 16.7082, 22.4781, 35.8999, -29.2001, -27.483
3.76015, 5, 17.2349, 16.7293, 22.4637, 35.8419, -29.2162, -27.4234
3.76818, 5, 17.2242, 16.7434, 22.4542, 35.8024, -29.2268, -27.3832
3.77622, 5, 17.2135, 16.7577, 22.4448, 35.7637, -29.2373, -27.3429
3.78409, 5, 17.2081, 16.7647, 22.44, 35.7447, -29.2425, -27.3231
3.79158, 5, 17.1973, 16.7788, 22.4304, 35.7064, -29.2527, -27.2836
3.79962, 5, 17.1865, 16.7928, 22.4209, 35.6671, -29.2629, -27.2441
3.80759, 5, 17.1758, 16.8069, 22.4112, 35.6283, -29.2731, -27.2042
3.81558, 5, 17.1651, 16.8211, 22.4016, 35.59, -29.2833, -27.1641
3.82365, 5, 17.1543, 16.8353, 22.392, 35.5513, -29.2936, -27.1246
3.83163, 5, 17.1435, 16.8494, 22.3824, 35.512, -29.3039, -27.0853
3.8396, 5, 17.1329, 16.8633, 22.3728, 35.4735, -29.3144, -27.0458
3.84763, 5, 17.1222, 16.8775, 22.3632, 35.4353, -29.325, -27.0059
3.85557, 5, 17.1115, 16.8916, 22.3536, 35.3965, -29.3358, -26.966
3.86358, 5, 17.1009, 16.9056, 22.3441, 35.3573, -29.3467, -26.9269
3.87308, 5, 17.0849, 16.9265, 22.3301, 35.2998, -29.3632, -26.8683
3.87963, 5, 17.0795, 16.9336, 22.3253, 35.2806, -29.3686, -26.8485
3.88759, 5, 17.0688, 16.9478, 22.3159, 35.2414, -29.3793, -26.8087
3.89565, 5, 17.0582, 16.962, 22.3064, 35.2024, -29.3897, -26.7692
3.90357, 5, 17.0474, 16.976, 22.2968, 35.1643, -29.4, -26.7301
3.91158, 5, 17.0366, 16.99, 22.2873, 35.1259, -29.4104, -26.691
3.91964, 5, 17.0259, 17.0043, 22.2779, 35.0867, -29.4207, -26.6514
3.92758, 5, 17.0152, 17.0185, 22.2684, 35.048, -29.4311, -26.6116
3.93558, 5, 17.0045, 17.0325, 22.259, 35.01, -29.4415, -26.5723
3.9436, 5, 16.9938, 17.0464, 22.2496, 34.9714, -29.452, -26.5334
3.95157, 5, 16.9831, 17.0605, 22.2401, 34.9325, -29.4627, -26.4941
3.95961, 5, 16.9724, 17.0747, 22.2307, 34.8944, -29.4736, -26.4545
3.96757, 5, 16.9617, 17.0888, 22.2214, 34.8567, -29.4847, -26.4148
3.97557, 5, 16.951, 17.1027, 22.212, 34.8182, -29.496, -26.376
3.98365, 5, 16.9403, 17.1167, 22.2026, 34.7794, -29.5072, -26.337
3.99159, 5, 16.9296, 17.1308, 22.1932, 34.7416, -29.5183, -26.2979
3.99957, 5, 16.9188, 17.1448, 22.1836, 34.7038, -29.5293, -26.2581
4.00767, 5, 16.908, 17.1587, 22.1742, 34.6651, -29.5401, -26.2189
4.01557, 5, 16.8973, 17.1726, 22.1648, 34.6266, -29.5508, -26.1801
4.02358, 5, 16.8865, 17.1867, 22.1554, 34.5889, -29.5615, -26.1413
4.03165, 5, 16.8755, 17.2008, 22.146, 34.5509, -29.5721, -26.1022
4.03958, 5, 16.8647, 17.2149, 22.1367, 34.5121, -29.5828, -26.0628
4.04763, 5, 16.854, 17.2289, 22.1273, 34.4738, -29.5936, -26.0238
4.05564, 5, 16.8431, 17.243, 22.1181, 34.4362, -29.6045, -25.9854
4.06359, 5, 16.8324, 17.2571, 22.1089, 34.3978, -29.6155, -25.9468
4.07157, 5, 16.8217, 17.271, 22.0997, 34.3588, -29.6267, -25.9078
4.07983, 5, 16.811, 17.2848, 22.0905, 34.3208, -29.6381, -25.8686
4.08757, 5, 16.8003, 17.2987, 22.0811, 34.2833, -29.6495, -25.83
4.09564, 5, 16.7896, 17.3128, 22.0717, 34.245, -29.6608, -25.7918
4.10372, 5, 16.7789, 17.3268, 22.0623, 34.2063, -29.6718, -25.7535
4.11161, 5, 16.7682, 17.3407, 22.053, 34.1686, -29.6828, -25.7146
4.11978, 5, 16.7575, 17.3545, 22.0436, 34.1309, -29.6936, -25.6758
4.12802, 5, 16.7467, 17.3685, 22.0343, 34.0924, -29.7044, -25.6376
4.13567, 5, 16.7359, 17.3825, 22.025, 34.0542, -29.7153, -25.5993
4.14374, 5, 16.7249, 17.3964, 22.0157, 34.0168, -29.726, -25.561
4.15213, 5, 16.714, 17.4101, 22.0065, 33.9794, -29.737, -25.522
4.15976, 5, 16.7032, 17.424, 21.9973, 33.9411, -29.748, -25.4832
4.1677, 5, 16.6923, 17.4381, 21.9881, 33.9031, -29.7593, -25.445
4.17654, 5, 16.6814, 17.4522, 21.979, 33.8658, -29.7707, -25.4068
4.18361, 5, 16.6706, 17.4661, 21.9697, 33.8282, -29.7823, -25.3684
4.19168, 5, 16.6599, 17.48, 21.9604, 33.7899, -29.794, -25.3296
4.20066, 5, 16.6491, 17.494, 21.9512, 33.7523, -29.8057, -25.2911
4.20788, 5, 16.6383, 17.5081, 21.942, 33.7152, -29.8172, -25.2531
4.21588, 5, 16.6277, 17.5219, 21.9328, 33.6774, -29.8285, -25.2151
4.22483, 5, 16.6171, 17.5356, 21.9236, 33.6391, -29.8397, -25.1767
4.23202, 5, 16.6063, 17.5494, 21.9144, 33.6015, -29.8509, -25.138
4.23857, 5, 16.601, 17.5564, 21.9097, 33.5829, -29.8564, -25.1188
4.24887, 5, 16.5851, 17.5772, 21.896, 33.5262, -29.8733, -25.062
4.25618, 5, 16.5743, 17.591, 21.8869, 33.488, -29.8846, -25.0242
4.26412, 5, 16.5635, 17.6047, 21.8777, 33.4507, -29.8959, -24.9861
4.27308, 5, 16.5527, 17.6186, 21.8686, 33.4135, -29.9074, -24.9478
4.28034, 5, 16.5419, 17.6325, 21.8595, 33.3756, -29.9191, -24.9098
4.28807, 5, 16.5365, 17.6394, 21.8548, 33.3565, -29.9251, -24.8911
4.29557, 5, 16.5257, 17.6531, 21.8456, 33.319, -29.937, -24.8535
4.30361, 5, 16.515, 17.6669, 21.8364, 33.282, -29.9488, -24.8157
4.31155, 5, 16.5042, 17.6808, 21.8272, 33.2445, -29.9605, -24.7774
4.3196, 5, 16.4934, 17.6947, 21.818, 33.2065, -29.972, -24.7394
4.3276, 5, 16.4825, 17.7087, 21.8089, 33.1695, -29.9833, -24.702
4.33556, 5, 16.4718, 17.7224, 21.7998, 33.1328, -29.9945, -24.6647
4.34361, 5, 16.461, 17.7362, 21.7907, 33.0954, -30.0058, -24.6271
4.35163, 5, 16.4501, 17.7501, 21.7818, 33.0576, -30.0171, -24.589
4.3596, 5, 16.4394, 17.7638, 21.7727, 33.0206, -30.0285, -24.5511
4.36761, 5, 16.4286, 17.7774, 21.7637, 32.9839, -30.0401, -24.5136
4.37456, 5, 16.4177, 17.791, 21.7547, 32.9464, -30.0517, -24.4761
4.38355, 5, 16.4068, 17.8049, 21.7455, 32.9088, -30.0636, -24.4382
4.39163, 5, 16.396, 17.8187, 21.7363, 32.8721, -30.0757, -24.4
4.39961, 5, 16.3852, 17.8325, 21.7272, 32.8353, -30.0879, -24.3622
4.40758, 5, 16.3743, 17.8461, 21.7181, 32.7977, -30.0999, -24.3249
4.41563, 5, 16.3635, 17.8599, 21.709, 32.7602, -30.1118, -24.2874
4.4256, 5, 16.3473, 17.8807, 21.6954, 32.7052, -30.1293, -24.2304
4.43157, 5, 16.3419, 17.8875, 21.6909, 32.6867, -30.1351, -24.2114
4.43967, 5, 16.3309, 17.9011, 21.6818, 32.6488, -30.1467, -24.1738
4.44762, 5, 16.3201, 17.9148, 21.6728, 32.6114, -30.1583, -24.1364
4.45556, 5, 16.3093, 17.9286, 21.6639, 32.5747, -30.17, -24.0991
4.4636, 5, 16.2984, 17.9423, 21.655, 32.5379, -30.1818, -24.0614
4.47163, 5, 16.2874, 17.9561, 21.6461, 32.5003, -30.1937, -24.0236
4.47967, 5, 16.2766, 17.9697, 21.6371, 32.4632, -30.2058, -23.9862
4.48755, 5, 16.2656, 17.9834, 21.628, 32.4266, -30.2181, -23.9491
4.49559, 5, 16.2546, 17.9972, 21.619, 32.3897, -30.2305, -23.912
4.50362, 5, 16.2436, 18.0108, 21.61, 32.3522, -30.2427, -23.8745
4.51157, 5, 16.2327, 18.0243, 21.601, 32.3154, -30.2547, -23.837
4.51962, 5, 16.2217, 18.0378, 21.592, 32.2792, -30.2665, -23.7998
4.52762, 5, 16.2108, 18.0516, 21.5831, 32.2426, -30.2783, -23.7631
4.53555, 5, 16.2, 18.0653, 21.5741, 32.2053, -30.29, -23.7262
4.54356, 5, 16.1892, 18.079, 21.5652, 32.1686, -30.3017, -23.6889
4.55163, 5, 16.1784, 18.0926, 21.5563, 32.1323, -30.3135, -23.6514
4.55959, 5, 16.1676, 18.1062, 21.5474, 32.0956, -30.3253, -23.6145
4.56757, 5, 16.1569, 18.12, 21.5386, 32.0582, -30.3374, -23.5778
4.57562, 5, 16.1461, 18.1337, 21.5297, 32.0217, -30.3496, -23.5414
4.58355, 5, 16.1353, 18.1472, 21.5207, 31.9857, -30.3621, -23.5045
4.59171, 5, 16.1245, 18.1607, 21.5116, 31.9489, -30.3747, -23.4672
4.5996, 5, 16.1137, 18.1745, 21.5027, 31.9117, -30.3872, -23.4304
4.60759, 5, 16.1029, 18.1882, 21.4938, 31.8751, -30.3996, -23.3939
4.61648, 5, 16.0919, 18.2019, 21.4848, 31.8389, -30.4117, -23.3573
4.62364, 5, 16.0811, 18.2154, 21.4761, 31.8021, -30.4238, -23.3203
4.63165, 5, 16.0702, 18.2291, 21.4672, 31.7649, -30.4358, -23.2831
4.64047, 5, 16.0593, 18.2428, 21.4583, 31.7285, -30.4478, -23.2464
4.64768, 5, 16.0484, 18.2564, 21.4495, 31.6924, -30.4599, -23.2098
4.65569, 5, 16.0376, 18.2699, 21.4408, 31.6556, -30.472, -23.1735
4.66447, 5, 16.0268, 18.2833, 21.432, 31.6185, -30.4842, -23.1366
4.67156, 5, 16.0158, 18.297, 21.4233, 31.5823, -30.4966, -23.0996
4.67965, 5, 16.005, 18.3107, 21.4145, 31.5462, -30.5092, -23.063
4.68849, 5, 15.9943, 18.3243, 21.4055, 31.5096, -30.5218, -23.0268
4.69561, 5, 15.9834, 18.3378, 21.3966, 31.4728, -30.5344, -22.9907
4.70371, 5, 15.9725, 18.3514, 21.3877, 31.4369, -30.5468, -22.9542
4.71264, 5, 15.9617, 18.3651, 21.3789, 31.4012, -30.5589, -22.9175
4.71986, 5, 15.9508, 18.3787, 21.3701, 31.3648, -30.571, -22.881
4.72798, 5, 15.9399, 18.3922, 21.3613, 31.3281, -30.5831, -22.845
4.73598, 5, 15.929, 18.4056, 21.3524, 31.2924, -30.5952, -22.8091
4.74404, 5, 15.9182, 18.4192, 21.3436, 31.2566, -30.6074, -22.7729
4.75054, 5, 15.9127, 18.426, 21.3393, 31.2386, -30.6136, -22.7546
4.76015, 5, 15.8963, 18.4464, 21.3263, 31.1836, -30.6322, -22.7002
4.7681, 5, 15.8855, 18.4599, 21.3176, 31.1479, -30.645, -22.6645
4.77617, 5, 15.8747, 18.4734, 21.3089, 31.1122, -30.658, -22.6289
4.78516, 5, 15.8638, 18.487, 21.3001, 31.0758, -30.671, -22.5929
4.79207, 5, 15.8584, 18.4938, 21.2957, 31.0574, -30.6775, -22.5747
4.80018, 5, 15.8475, 18.5073, 21.2868, 31.0212, -30.6902, -22.5203
4.80755, 5, 15.8368, 18.5207, 21.2781, 30.9857, -30.7028, -22.5025
4.81554, 5, 15.8258, 18.5341, 21.2694, 30.9496, -30.7152, -22.467
4.8236, 5, 15.8149, 18.5477, 21.2607, 30.9128, -30.7276, -22.4316
4.83156, 5, 15.804, 18.5614, 21.2521, 30.8766, -30.74, -22.3958
4.83963, 5, 15.7931, 18.5749, 21.2433, 30.8412, -30.7525, -22.3597
4.84755, 5, 15.782, 18.5883, 21.2345, 30.8054, -30.7651, -22.3238
4.85556, 5, 15.7709, 18.6019, 21.226, 30.7688, -30.7779, -22.2884
4.86361, 5, 15.76, 18.6155, 21.2174, 30.7328, -30.7909, -22.253
4.87154, 5, 15.749, 18.6291, 21.2087, 30.6975, -30.804, -22.2171
4.87959, 5, 15.738, 18.6424, 21.2002, 30.6616, -30.8171, -22.1809
4.88912, 5, 15.7216, 18.6625, 21.1871, 30.6073, -30.8363, -22.1273
4.89554, 5, 15.7162, 18.6693, 21.1826, 30.5895, -30.8426, -22.1097
4.90355, 5, 15.7052, 18.6828, 21.1739, 30.5543, -30.8552, -22.0745
4.9116, 5, 15.6943, 18.6964, 21.1653, 30.519, -30.8677, -22.039
4.91958, 5, 15.6834, 18.7097, 21.1566, 30.4828, -30.8802, -22.003
4.92855, 5, 15.6725, 18.7231, 21.1481, 30.4471, -30.8926, -21.9672
4.9356, 5, 15.6615, 18.7367, 21.1396, 30.4119, -30.9052, -21.9319
4.94355, 5, 15.6506, 18.7501, 21.1309, 30.3765, -30.918, -21.8966
4.9516, 5, 15.6396, 18.7634, 21.1223, 30.3404, -30.931, -21.8614
4.95959, 5, 15.6285, 18.7767, 21.1139, 30.3048, -30.9443, -21.8256
4.96755, 5, 15.6174, 18.7901, 21.1054, 30.2699, -30.9575, -21.7899
4.97559, 5, 15.6065, 18.8037, 21.0969, 30.2346, -30.9707, -21.7547
4.98353, 5, 15.5955, 18.8172, 21.0884, 30.1986, -30.9837, -21.7199
4.99154, 5, 15.5844, 18.8306, 21.0798, 30.1628, -30.9966, -21.6851
4.99969, 5, 15.5735, 18.844, 21.0711, 30.1278, -31.0093, -21.6497
5.00754, 5, 15.5626, 18.8576, 21.0625, 30.0924, -31.0221, -21.6142
5.01553, 5, 15.5516, 18.871, 21.0539, 30.0563, -31.0348, -21.5792
5.02361, 5, 15.5407, 18.8843, 21.0453, 30.0206, -31.0477, -21.5446
5.03154, 5, 15.5297, 18.8976, 21.0368, 29.9857, -31.0606, -21.5101
5.03959, 5, 15.5188, 18.911, 21.0284, 29.9507, -31.0737, -21.4751
5.04762, 5, 15.5077, 18.9246, 21.0197, 29.9147, -31.0871, -21.4396
5.05553, 5, 15.4968, 18.938, 21.0112, 29.8791, -31.1005, -21.4045
5.06354, 5, 15.4858, 18.9514, 21.0028, 29.8443, -31.1138, -21.3699
5.07162, 5, 15.4748, 18.9646, 20.9945, 29.8093, -31.1269, -21.3355
5.07961, 5, 15.4638, 18.978, 20.9861, 29.7737, -31.1399, -21.301
5.08756, 5, 15.4528, 18.9915, 20.9777, 29.7383, -31.1527, -21.266
5.09581, 5, 15.4418, 19.0048, 20.9692, 29.7038, -31.1654, -21.231
5.10354, 5, 15.4307, 19.018, 20.9606, 29.6691, -31.1783, -21.1964
5.11162, 5, 15.4198, 19.0313, 20.9521, 29.6337, -31.1912, -21.162
5.11987, 5, 15.4089, 19.0448, 20.9437, 29.5983, -31.2043, -21.1275
5.12763, 5, 15.3979, 19.0582, 20.9352, 29.5637, -31.2177, -21.0926
5.1357, 5, 15.3868, 19.0716, 20.9268, 29.5291, -31.2313, -21.0574
5.14411, 5, 15.3758, 19.0848, 20.9185, 29.4939, -31.245, -21.0229
5.15165, 5, 15.3648, 19.0982, 20.91, 29.4585, -31.2586, -20.9886
5.15976, 5, 15.3537, 19.1116, 20.9015, 29.4239, -31.2721, -20.9545
5.16829, 5, 15.3426, 19.1249, 20.8932, 29.3895, -31.2853, -20.92
5.17556, 5, 15.3316, 19.138, 20.8849, 29.3544, -31.2985, -20.8849
5.18364, 5, 15.3204, 19.1512, 20.8766, 29.3191, -31.3117, -20.8503
5.19256, 5, 15.3092, 19.1646, 20.8683, 29.2844, -31.3248, -20.8162
5.19968, 5, 15.298, 19.178, 20.8599, 29.2499, -31.338, -20.782
5.20776, 5, 15.2869, 19.1914, 20.8513, 29.2149, -31.3514, -20.7478
5.21665, 5, 15.2758, 19.2046, 20.8428, 29.1792, -31.365, -20.7132
5.22398, 5, 15.2647, 19.2179, 20.8345, 29.1445, -31.3788, -20.6787
5.23189, 5, 15.2538, 19.2313, 20.8261, 29.1101, -31.3926, -20.6446
5.2409, 5, 15.2428, 19.2446, 20.8178, 29.0754, -31.4063, -20.6107
5.24814, 5, 15.2318, 19.2577, 20.8095, 29.0401, -31.4197, -20.5769
5.25603, 5, 15.2208, 19.2709, 20.8011, 29.0054, -31.433, -20.5428
5.2649, 5, 15.2099, 19.2842, 20.7927, 28.9711, -31.4463, -20.5083
5.27215, 5, 15.1989, 19.2976, 20.7845, 28.9365, -31.4595, -20.4742
5.28016, 5, 15.1879, 19.3109, 20.7764, 28.9013, -31.4727, -20.4407
5.28919, 5, 15.1769, 19.3241, 20.7682, 28.8668, -31.4859, -20.4072
5.29612, 5, 15.1713, 19.3307, 20.7641, 28.8498, -31.4926, -20.3736
5.30352, 5, 15.1602, 19.344, 20.7559, 28.8159, -31.5062, -20.3565
5.31153, 5, 15.149, 19.3574, 20.7475, 28.7814, -31.5201, -20.3222
5.31957, 5, 15.1379, 19.3706, 20.739, 28.7465, -31.5343, -20.2882
5.32752, 5, 15.1268, 19.3837, 20.7307, 28.7121, -31.5482, -20.255
5.33554, 5, 15.1157, 19.3968, 20.7224, 28.6782, -31.562, -20.2215
5.34353, 5, 15.1047, 19.4101, 20.7141, 28.6437, -31.5757, -20.1881
5.35154, 5, 15.0936, 19.4234, 20.7058, 28.6088, -31.5892, -20.1542
5.35957, 5, 15.0825, 19.4367, 20.6976, 28.5745, -31.6027, -20.1203
5.36753, 5, 15.0714, 19.4498, 20.6893, 28.5407, -31.6161, -20.0869
5.37552, 5, 15.0605, 19.4629, 20.681, 28.5065, -31.6297, -20.0534
5.38252, 5, 15.0495, 19.4762, 20.6729, 28.4716, -31.6435, -20.02
5.39153, 5, 15.0384, 19.4894, 20.6648, 28.4371, -31.6574, -19.9861
5.39952, 5, 15.0274, 19.5025, 20.6567, 28.4032, -31.6716, -19.9519
5.40772, 5, 15.0163, 19.5155, 20.6486, 28.3692, -31.6857, -19.918
5.41554, 5, 15.0052, 19.5288, 20.6404, 28.3344, -31.6997, -19.8846
5.42451, 5, 14.994, 19.542, 20.632, 28.2998, -31.7135, -19.8514
5.43159, 5, 14.9828, 19.5553, 20.6237, 28.2659, -31.7271, -19.8179
5.44058, 5, 14.9718, 19.5685, 20.6155, 28.2321, -31.7407, -19.7839
5.44753, 5, 14.9606, 19.5816, 20.6074, 28.1976, -31.7542, -19.75
5.45564, 5, 14.9495, 19.5949, 20.5992, 28.163, -31.7677, -19.7166
5.46352, 5, 14.9384, 19.6082, 20.5911, 28.129, -31.7814, -19.6835
5.47153, 5, 14.9273, 19.6213, 20.5829, 28.0954, -31.7953, -19.6503
5.47958, 5, 14.9161, 19.6342, 20.5746, 28.0612, -31.8095, -19.6169
5.48754, 5, 14.9051, 19.6473, 20.5665, 28.0267, -31.8238, -19.5832
5.49558, 5, 14.894, 19.6606, 20.5585, 27.9931, -31.8381, -19.5499
5.50354, 5, 14.8829, 19.6739, 20.5504, 27.9598, -31.8522, -19.517
5.51153, 5, 14.8718, 19.687, 20.5424, 27.9261, -31.8661, -19.4842
5.51958, 5, 14.8607, 19.7, 20.5343, 27.8918, -31.8799, -19.4513
5.52753, 5, 14.8495, 19.7132, 20.5261, 27.858, -31.8937, -19.4181
5.53553, 5, 14.8382, 19.7265, 20.5178, 27.8247, -31.9074, -19.3846
5.54358, 5, 14.827, 19.7396, 20.5096, 27.7912, -31.9212, -19.3517
5.55152, 5, 14.8159, 19.7526, 20.5015, 27.757, -31.9352, -19.3193
5.55953, 5, 14.8047, 19.7656, 20.4934, 27.723, -31.9494, -19.2868
5.56759, 5, 14.7935, 19.7788, 20.4853, 27.6897, -31.9638, -19.254
5.57552, 5, 14.7825, 19.792, 20.4773, 27.6564, -31.9783, -19.2207
5.58371, 5, 14.7714, 19.8052, 20.4691, 27.6224, -31.9925, -19.1877
5.59163, 5, 14.7603, 19.8182, 20.461, 27.5882, -32.0065, -19.1552
5.59952, 5, 14.7493, 19.8312, 20.4531, 27.5547, -32.0203, -19.123
5.60893, 5, 14.7383, 19.8444, 20.4452, 27.5215, -32.0341, -19.0906
5.61555, 5, 14.7272, 19.8575, 20.4373, 27.4877, -32.0479, -19.058
5.62377, 5, 14.7162, 19.8706, 20.4294, 27.4533, -32.0617, -19.0249
5.63162, 5, 14.7051, 19.8834, 20.4214, 27.4197, -32.0757, -18.9924
5.63966, 5, 14.694, 19.8965, 20.4132, 27.3867, -32.0899, -18.96
5.64762, 5, 14.6828, 19.9097, 20.405, 27.3533, -32.1044, -18.9278
5.65563, 5, 14.6716, 19.9228, 20.3969, 27.3192, -32.119, -18.8954
5.66376, 5, 14.6605, 19.9359, 20.3889, 27.2856, -32.1336, -18.8626
5.67155, 5, 14.6494, 19.9488, 20.3808, 27.2525, -32.1479, -18.8296
5.67955, 5, 14.6383, 19.9619, 20.3728, 27.2193, -32.1621, -18.797
5.68762, 5, 14.6272, 19.9751, 20.3648, 27.1854, -32.1761, -18.7651
5.69555, 5, 14.6161, 19.9882, 20.3568, 27.1518, -32.1901, -18.7331
5.70373, 5, 14.6049, 20.0011, 20.3487, 27.1189, -32.2042, -18.7009
5.71175, 5, 14.5939, 20.0139, 20.3408, 27.0862, -32.2183, -18.6683
5.71985, 5, 14.5828, 20.0271, 20.333, 27.0529, -32.2327, -18.6356
5.7279, 5, 14.5717, 20.0402, 20.3251, 27.0192, -32.2472, -18.6035
5.73586, 5, 14.5607, 20.0533, 20.3173, 26.9861, -32.2619, -18.5716
5.74392, 5, 14.5496, 20.0663, 20.3094, 26.9534, -32.2766, -18.5397
5.75299, 5, 14.5384, 20.0793, 20.3013, 26.9203, -32.2908, -18.5075
5.76003, 5, 14.5271, 20.0925, 20.2932, 26.8867, -32.305, -18.4751
5.76803, 5, 14.5159, 20.1055, 20.2853, 26.8535, -32.3191, -18.4428
5.77615, 5, 14.5048, 20.1185, 20.2774, 26.821, -32.3332, -18.4112
5.7841, 5, 14.4991, 20.1313, 20.2695, 26.7883, -32.3472, -18.3796
5.79217, 5, 14.4878, 20.1443, 20.2617, 26.7547, -32.3614, -18.3481
5.80101, 5, 14.4766, 20.1508, 20.2578, 26.7379, -32.3686, -18.3162
5.80751, 5, 14.4655, 20.1639, 20.2499, 26.7048, -32.3832, -18.3
5.81551, 5, 14.4542, 20.1769, 20.2418, 26.6722, -32.3981, -18.2679
5.82353, 5, 14.4429, 20.1898, 20.2339, 26.6392, -32.4131, -18.2363
5.83151, 5, 14.4318, 20.2027, 20.2262, 26.6056, -32.4279, -18.2051
5.83956, 5, 14.4206, 20.2157, 20.2185, 26.5724, -32.4425, -18.174
5.84753, 5, 14.4094, 20.2287, 20.2107, 26.5399, -32.4569, -18.1423
5.85551, 5, 14.3982, 20.2416, 20.2029, 26.5074, -32.4713, -18.1103
5.86353, 5, 14.387, 20.2544, 20.195, 26.4741, -32.4857, -18.0785
5.87152, 5, 14.3757, 20.2673, 20.187, 26.4408, -32.5001, -18.0471
5.87952, 5, 14.3644, 20.2804, 20.179, 26.4082, -32.5147, -18.016
5.88751, 5, 14.3532, 20.2934, 20.1712, 26.3758, -32.5295, -17.9848
5.89556, 5, 14.342, 20.3064, 20.1634, 26.3432, -32.5446, -17.9534
5.90351, 5, 14.3308, 20.3192, 20.1555, 26.3099, -32.5597, -17.9216
5.9115, 5, 14.3196, 20.3322, 20.1478, 26.2773, -32.5746, -17.8901
5.91959, 5, 14.3085, 20.3453, 20.1399, 26.2452, -32.5892, -17.859
5.92855, 5, 14.2973, 20.3581, 20.132, 26.2131, -32.6036, -17.828
5.9355, 5, 14.2862, 20.3709, 20.1242, 26.1801, -32.618, -17.7968
5.94357, 5, 14.2751, 20.3837, 20.1166, 26.1472, -32.6324, -17.7652
5.95254, 5, 14.2641, 20.3967, 20.109, 26.115, -32.6468, -17.7333
5.95958, 5, 14.2529, 20.4097, 20.1014, 26.083, -32.6614, -17.7017
5.96756, 5, 14.2418, 20.4227, 20.0937, 26.0504, -32.6762, -17.6706
5.97552, 5, 14.2306, 20.4356, 20.086, 26.0174, -32.6913, -17.6398
5.98357, 5, 14.2193, 20.4484, 20.078, 25.985, -32.7064, -17.609
5.9915, 5, 14.208, 20.4615, 20.0701, 25.9531, -32.7214, -17.5777
5.99952, 5, 14.1969, 20.4745, 20.0623, 25.921, -32.7362, -17.5462
6.00759, 5, 14.1858, 20.4873, 20.0546, 25.8881, -32.7509, -17.515
6.0155, 5, 14.1746, 20.5001, 20.0469, 25.8555, -32.7655, -17.4842
6.02351, 5, 14.1635, 20.513, 20.0391, 25.8235, -32.7801, -17.4535
6.03167, 5, 14.1525, 20.5259, 20.0314, 25.7915, -32.7948, -17.4228
6.03951, 5, 14.1413, 20.5389, 20.0236, 25.7588, -32.8096, -17.3917
6.04751, 5, 14.1301, 20.5518, 20.0158, 25.7258, -32.8247, -17.3604
6.05557, 5, 14.1191, 20.5645, 20.0082, 25.6936, -32.84, -17.3295
6.06349, 5, 14.108, 20.5773, 20.0006, 25.6617, -32.8553, -17.2991
6.07151, 5, 14.0969, 20.5903, 19.993, 25.6297, -32.8703, -17.2686
6.07957, 5, 14.0857, 20.6032, 19.9854, 25.597, -32.8851, -17.2382
6.08752, 5, 14.0746, 20.6159, 19.9778, 25.5646, -32.8999, -17.2073
6.09567, 5, 14.0632, 20.6286, 19.9701, 25.5327, -32.9145, -17.1761
6.10351, 5, 14.0519, 20.6415, 19.9623, 25.5009, -32.9291, -17.1453
6.11151, 5, 14.0406, 20.6544, 19.9546, 25.4686, -32.9439, -17.1149
6.11974, 5, 14.0294, 20.6673, 19.947, 25.436, -32.9589, -17.0849
6.12765, 5, 14.0181, 20.6801, 19.9394, 25.4043, -32.9742, -17.0547
6.1356, 5, 14.0069, 20.6929, 19.9318, 25.3729, -32.9897, -17.024
6.14392, 5, 13.9958, 20.7058, 19.9242, 25.3412, -33.0051, -16.9932
6.1516, 5, 13.9846, 20.7187, 19.9165, 25.3088, -33.0203, -16.9625
6.15962, 5, 13.9733, 20.7315, 19.9087, 25.2767, -33.0353, -16.9323
6.16808, 5, 13.9622, 20.7442, 19.9011, 25.2451, -33.0503, -16.9025
6.17553, 5, 13.9511, 20.7569, 19.8937, 25.2136, -33.0652, -16.8725
6.18353, 5, 13.9399, 20.7698, 19.8862, 25.1815, -33.08, -16.8423
6.19236, 5, 13.9287, 20.7827, 19.8787, 25.1492, -33.095, -16.8118
6.19954, 5, 13.9175, 20.7955, 19.8712, 25.1176, -33.1102, -16.7813
6.20778, 5, 13.9062, 20.8082, 19.8636, 25.0863, -33.1256, -16.7513
6.21654, 5, 13.8948, 20.8209, 19.8559, 25.0548, -33.1412, -16.7215
6.22376, 5, 13.8835, 20.8338, 19.8481, 25.0225, -33.1565, -16.6916
6.2319, 5, 13.8722, 20.8466, 19.8405, 24.9905, -33.1716, -16.6615
6.2407, 5, 13.8608, 20.8593, 19.833, 24.959, -33.1865, -16.6309
6.24791, 5, 13.8496, 20.8718, 19.8254, 24.9277, -33.2014, -16.6005
6.25641, 5, 13.8383, 20.8845, 19.8179, 24.8958, -33.2162, -16.5704
6.26493, 5, 13.8269, 20.8973, 19.8104, 24.8635, -33.2311, -16.5408
6.27204, 5, 13.8156, 20.91, 19.8028, 24.8318, -33.2462, -16.5113
6.28013, 5, 13.8043, 20.9228, 19.7953, 24.8006, -33.2617, -16.4814
6.28891, 5, 13.7987, 20.9353, 19.7879, 24.7693, -33.2774, -16.4512
6.29615, 5, 13.7875, 20.9417, 19.7806, 24.7372, -33.2931, -16.421
6.30432, 5, 13.7763, 20.9544, 19.7769, 24.7211, -33.3009, -16.4061
6.31149, 5, 13.765, 20.9672, 19.7695, 24.6895, -33.3162, -16.3766
6.31949, 5, 13.7537, 20.9798, 19.7621, 24.6584, -33.3314, -16.3471
6.32754, 5, 13.7423, 20.9924, 19.7547, 24.6272, -33.3465, -16.3176
6.33551, 5, 13.7311, 21.0049, 19.7471, 24.5953, -33.3616, -16.2879
6.34354, 5, 13.7199, 21.0177, 19.7394, 24.5636, -33.3767, -16.2579
6.35151, 5, 13.7086, 21.0305, 19.7319, 24.5327, -33.3921, -16.2281
6.35949, 5, 13.6974, 21.0432, 19.7245, 24.502, -33.4077, -16.1987
6.36753, 5, 13.6863, 21.0558, 19.717, 24.4708, -33.4235, -16.1695
6.37549, 5, 13.6751, 21.0684, 19.7095, 24.439, -33.4393, -16.1404
6.38349, 5, 13.6638, 21.0813, 19.7021, 24.4078, -33.4548, -16.1111
6.3916, 5, 13.6525, 21.0939, 19.6946, 24.3771, -33.4702, -16.0814
6.39949, 5, 13.6413, 21.1065, 19.687, 24.3463, -33.4853, -16.0516
6.40751, 5, 13.63, 21.1189, 19.6796, 24.3149, -33.5004, -16.0222
6.41557, 5, 13.6187, 21.1315, 19.6723, 24.2833, -33.5155, -15.9934
6.42349, 5, 13.6075, 21.1443, 19.6651, 24.2523, -33.5308, -15.9645
6.43248, 5, 13.5961, 21.157, 19.6578, 24.2216, -33.5463, -15.9356
6.43955, 5, 13.5848, 21.1697, 19.6505, 24.1906, -33.5622, -15.9062
6.44748, 5, 13.5735, 21.1822, 19.6432, 24.159, -33.5781, -15.8767
6.4555, 5, 13.5623, 21.1949, 19.6358, 24.1277, -33.5939, -15.8475
6.46361, 5, 13.551, 21.2076, 19.6282, 24.0968, -33.6096, -15.8187
6.47149, 5, 13.5398, 21.2203, 19.6208, 24.0662, -33.625, -15.7899
6.47945, 5, 13.5287, 21.2328, 19.6135, 24.0349, -33.6403, -15.7612
6.4875, 5, 13.5174, 21.2453, 19.6062, 24.0031, -33.6556, -15.7322
6.49549, 5, 13.5061, 21.2579, 19.5989, 23.9721, -33.6711, -15.7029
6.50357, 5, 13.4948, 21.2705, 19.5916, 23.9416, -33.6867, -15.6737
6.51151, 5, 13.4836, 21.2832, 19.5842, 23.911, -33.7027, -15.6451
6.51948, 5, 13.4723, 21.2957, 19.5767, 23.8797, -33.7188, -15.6164
6.52758, 5, 13.4609, 21.3082, 19.5694, 23.8485, -33.7347, -15.5879
6.53548, 5, 13.4496, 21.3208, 19.5622, 23.8177, -33.7504, -15.5588
6.54349, 5, 13.4381, 21.3334, 19.5551, 23.7872, -33.7659, -15.5295
6.55156, 5, 13.4265, 21.346, 19.5478, 23.7564, -33.7813, -15.5
6.55948, 5, 13.4151, 21.3585, 19.5406, 23.7251, -33.7966, -15.471
6.56749, 5, 13.4037, 21.3709, 19.5334, 23.6943, -33.812, -15.4424
6.57556, 5, 13.3923, 21.3835, 19.526, 23.664, -33.8278, -15.4138
6.58348, 5, 13.3809, 21.3962, 19.5185, 23.6339, -33.8437, -15.3854
6.59151, 5, 13.3697, 21.4088, 19.5112, 23.6033, -33.86, -15.3564
6.59961, 5, 13.3584, 21.4213, 19.504, 23.5722, -33.8761, -15.3273
6.60749, 5, 13.3471, 21.4337, 19.4968, 23.5416, -33.8921, -15.2983
6.61555, 5, 13.3359, 21.4463, 19.4895, 23.5115, -33.9079, -15.2698
6.62432, 5, 13.3247, 21.4589, 19.4823, 23.4813, -33.9236, -15.2415
6.63163, 5, 13.3134, 21.4714, 19.4751, 23.4504, -33.9392, -15.2131
6.63963, 5, 13.3021, 21.4838, 19.4677, 23.4196, -33.9548, -15.1847
6.64845, 5, 13.2909, 21.4961, 19.4605, 23.3894, -33.9705, -15.1558
6.65559, 5, 13.2795, 21.5087, 19.4533, 23.3595, -33.9865, -15.127
6.66375, 5, 13.2681, 21.5213, 19.4463, 23.3293, -34.0028, -15.0987
6.67243, 5, 13.2568, 21.5339, 19.4392, 23.2983, -34.0189, -15.0706
6.67951, 5, 13.2455, 21.5463, 19.4322, 23.2675, -34.0348, -15.0428
6.68773, 5, 13.2341, 21.5587, 19.4251, 23.2373, -34.0505, -15.0147
6.69642, 5, 13.2228, 21.5713, 19.4179, 23.2072, -34.0662, -14.9863
6.70359, 5, 13.2115, 21.5839, 19.4105, 23.1767, -34.0817, -14.9577
6.71166, 5, 13.2001, 21.5964, 19.4032, 23.1457, -34.0972, -14.9293
6.72058, 5, 13.1887, 21.6088, 19.3961, 23.1153, -34.113, -14.9014
6.72789, 5, 13.1774, 21.6212, 19.3889, 23.0854, -34.129, -14.8736
6.7366, 5, 13.1661, 21.6337, 19.3817, 23.0556, -34.1454, -14.8459
6.74386, 5, 13.1547, 21.6462, 19.3746, 23.0252, -34.1618, -14.8181
6.75202, 5, 13.1434, 21.6587, 19.3674, 22.9944, -34.178, -14.7898
6.76001, 5, 13.132, 21.6711, 19.3602, 22.9642, -34.194, -14.7615
6.768, 5, 13.1206, 21.6834, 19.3529, 22.9345, -34.2099, -14.7334
6.77609, 5, 13.1092, 21.6958, 19.3458, 22.9047, -34.2256, -14.7057
6.78404, 5, 13.0979, 21.7082, 19.3389, 22.8742, -34.2414, -14.6781
6.79205, 5, 13.0922, 21.7144, 19.3354, 22.8439, -34.2573, -14.6506
6.80023, 5, 13.0751, 21.7328, 19.3249, 22.8142, -34.2735, -14.6229
6.80747, 5, 13.0695, 21.7389, 19.3214, 22.7995, -34.2817, -14.6088
6.81547, 5, 13.0582, 21.7512, 19.3144, 22.77, -34.2982, -14.5807
6.82353, 5, 13.0468, 21.7637, 19.3073, 22.74, -34.3146, -14.553
6.83147, 5, 13.0354, 21.7763, 19.3, 22.7095, -34.3307, -14.5255
6.83947, 5, 13.0241, 21.7887, 19.2928, 22.6797, -34.3467, -14.4981
6.84753, 5, 13.0128, 21.801, 19.2858, 22.6502, -34.3625, -14.4707
6.85548, 5, 13.0014, 21.8135, 19.2788, 22.6208, -34.3783, -14.443
6.8635, 5, 12.9901, 21.8261, 19.2718, 22.5907, -34.3941, -14.4148
6.87147, 5, 12.9787, 21.8385, 19.2648, 22.5604, -34.4102, -14.3867
6.87949, 5, 12.9671, 21.8508, 19.2578, 22.5308, -34.4266, -14.3591
6.88897, 5, 12.9498, 21.8692, 19.2472, 22.4868, -34.4515, -14.3181
6.89547, 5, 12.9441, 21.8754, 19.2436, 22.4721, -34.4597, -14.3045
6.90347, 5, 12.9328, 21.8879, 19.2366, 22.442, -34.4761, -14.2774
6.91154, 5, 12.9214, 21.9003, 19.2297, 22.4118, -34.4923, -14.25
6.92113, 5, 12.91, 21.9127, 19.2194, 22.3677, -34.5165, -14.2084
6.92748, 5, 12.8987, 21.9249, 19.2159, 22.353, -34.5245, -14.1946
6.93553, 5, 12.8874, 21.9373, 19.209, 22.3235, -34.5406, -14.1673
6.94348, 5, 12.876, 21.9497, 19.2021, 22.2931, -34.557, -14.1402
6.95146, 5, 12.8648, 21.9621, 19.195, 22.263, -34.5735, -14.1132
6.95955, 5, 12.8536, 21.9743, 19.1879, 22.2336, -34.5903, -14.0862
6.96754, 5, 12.8422, 21.9865, 19.1808, 22.2044, -34.6069, -14.0591
6.97547, 5, 12.831, 21.9988, 19.1739, 22.175, -34.6232, -14.0314
6.98353, 5, 12.8197, 22.0112, 19.167, 22.1449, -34.6393, -14.0041
6.99148, 5, 12.8083, 22.0236, 19.16, 22.1152, -34.6554, -13.9773
6.99954, 5, 12.7968, 22.0359, 19.1531, 22.086, -34.6714, -13.9505
7.00747, 5, 12.7855, 22.0481, 19.1463, 22.0569, -34.6874, -13.924
7.01551, 5, 12.7742, 22.0604, 19.1393, 22.0275, -34.7038, -13.8973
7.02353, 5, 12.7628, 22.0728, 19.1324, 21.9975, -34.7205, -13.8703
7.03147, 5, 12.7515, 22.085, 19.1255, 21.9681, -34.7373, -13.8429
7.03948, 5, 12.7402, 22.0972, 19.1187, 21.9392, -34.7541, -13.8159
7.04753, 5, 12.7288, 22.1092, 19.1121, 21.9105, -34.7706, -13.7893
7.05548, 5, 12.7173, 22.1215, 19.1053, 21.8813, -34.7869, -13.763
7.06348, 5, 12.7061, 22.1338, 19.0986, 21.8516, -34.8031, -13.7368
7.07153, 5, 12.6947, 22.1461, 19.0918, 21.8223, -34.8193, -13.7105
7.07947, 5, 12.6833, 22.1584, 19.0849, 21.7934, -34.8356, -13.6837
7.08748, 5, 12.6719, 22.1705, 19.0779, 21.7646, -34.8522, -13.6567
7.09556, 5, 12.6605, 22.1827, 19.0709, 21.7353, -34.869, -13.63
7.10347, 5, 12.649, 22.1951, 19.0641, 21.7056, -34.8859, -13.6036
7.11179, 5, 12.6375, 22.2073, 19.0572, 21.6764, -34.9026, -13.5774
7.11947, 5, 12.6261, 22.2194, 19.0504, 21.6477, -34.919, -13.5513
7.12751, 5, 12.6146, 22.2315, 19.0436, 21.6191, -34.9352, -13.5251
7.13585, 5, 12.6032, 22.2437, 19.0368, 21.5899, -34.9514, -13.4986
7.14356, 5, 12.5918, 22.256, 19.0299, 21.5603, -34.9676, -13.4717
7.15162, 5, 12.5804, 22.2683, 19.023, 21.5311, -34.9839, -13.4452
7.15998, 5, 12.5688, 22.2805, 19.0162, 21.5024, -35.0007, -13.4193
7.16758, 5, 12.5574, 22.2926, 19.0095, 21.4737, -35.0176, -13.3934
7.17548, 5, 12.546, 22.3047, 19.003, 21.4444, -35.0347, -13.3676
7.18423, 5, 12.5345, 22.317, 18.9963, 21.4148, -35.0516, -13.3414
7.19157, 5, 12.523, 22.3293, 18.9897, 21.3858, -35.0682, -13.3148
7.19957, 5, 12.5115, 22.3414, 18.983, 21.3572, -35.0846, -13.288
7.20838, 5, 12.4999, 22.3534, 18.9763, 21.3287, -35.101, -13.2614
7.21559, 5, 12.4882, 22.3655, 18.9694, 21.2996, -35.1174, -13.2354
7.22385, 5, 12.4766, 22.3778, 18.9626, 21.2702, -35.134, -13.2097
7.23276, 5, 12.4651, 22.39, 18.9558, 21.2412, -35.1509, -13.1839
7.23978, 5, 12.4535, 22.4021, 18.9492, 21.2127, -35.168, -13.1581
7.24796, 5, 12.442, 22.4142, 18.9425, 21.1843, -35.1851, -13.1322
7.25676, 5, 12.4305, 22.4262, 18.9358, 21.1554, -35.2018, -13.1057
7.26402, 5, 12.4191, 22.4384, 18.9292, 21.1262, -35.2184, -13.0796
7.27245, 5, 12.4076, 22.4505, 18.9225, 21.0977, -35.2348, -13.0538
7.28082, 5, 12.3963, 22.4625, 18.9157, 21.0695, -35.2511, -13.028
7.28802, 5, 12.3849, 22.4744, 18.909, 21.0414, -35.2675, -13.0026
7.29614, 5, 12.3792, 22.4864, 18.9023, 21.0127, -35.2842, -12.9769
7.30495, 5, 12.3678, 22.4924, 18.899, 20.9837, -35.3012, -12.951
7.31146, 5, 12.3564, 22.5046, 18.8925, 20.9694, -35.3098, -12.9379
7.3195, 5, 12.3449, 22.5167, 18.886, 20.9412, -35.327, -12.9116
7.32747, 5, 12.3333, 22.5289, 18.8794, 20.9132, -35.3439, -12.8858
7.33545, 5, 12.3218, 22.5409, 18.8729, 20.8849, -35.3607, -12.8605
7.3435, 5, 12.3104, 22.5529, 18.8663, 20.856, -35.3773, -12.8353
7.35147, 5, 12.299, 22.5652, 18.8595, 20.8272, -35.3939, -12.8103
7.3595, 5, 12.2875, 22.5773, 18.8527, 20.7989, -35.4104, -12.7851
7.36746, 5, 12.2761, 22.5893, 18.846, 20.7709, -35.4272, -12.7592
7.37546, 5, 12.2647, 22.6012, 18.8394, 20.7427, -35.4443, -12.7332
7.38352, 5, 12.2531, 22.6132, 18.8328, 20.7139, -35.4615, -12.7074
7.39145, 5, 12.2416, 22.6253, 18.8263, 20.685, -35.4787, -12.6821
7.39946, 5, 12.2303, 22.6375, 18.8197, 20.6568, -35.4956, -12.6571
7.40754, 5, 12.2188, 22.6495, 18.8131, 20.6289, -35.5123, -12.6322
7.41545, 5, 12.2074, 22.6614, 18.8065, 20.6007, -35.5288, -12.6073
7.42347, 5, 12.1959, 22.6733, 18.7999, 20.5719, -35.5453, -12.5821
7.43244, 5, 12.1843, 22.6855, 18.7933, 20.543, -35.5619, -12.5566
7.43945, 5, 12.1727, 22.6975, 18.7869, 20.5148, -35.5789, -12.531
7.44846, 5, 12.1611, 22.7095, 18.7805, 20.4869, -35.5961, -12.5059
7.45551, 5, 12.1496, 22.7214, 18.7741, 20.4591, -35.6135, -12.4811
7.46346, 5, 12.1381, 22.7333, 18.7677, 20.4306, -35.6308, -12.4563
7.47152, 5, 12.1266, 22.7454, 18.7613, 20.402, -35.6477, -12.4317
7.47946, 5, 12.1151, 22.7575, 18.7548, 20.3739, -35.6646, -12.4067
7.48745, 5, 12.1036, 22.7697, 18.7481, 20.3461, -35.6813, -12.3816
7.49552, 5, 12.092, 22.7816, 18.7414, 20.3182, -35.6981, -12.3561
7.50345, 5, 12.0806, 22.7935, 18.7349, 20.2898, -35.715, -12.3309
7.51145, 5, 12.0691, 22.8056, 18.7284, 20.2613, -35.7321, -12.3063
7.51956, 5, 12.0576, 22.8176, 18.7219, 20.2334, -35.7495, -12.2817
7.52745, 5, 12.0461, 22.8296, 18.7154, 20.2059, -35.7669, -12.2573
7.53545, 5, 12.0346, 22.8414, 18.7089, 20.1786, -35.784, -12.2327
7.54353, 5, 12.0228, 22.8532, 18.7024, 20.1506, -35.8008, -12.2077
7.55148, 5, 12.0111, 22.8651, 18.6959, 20.1222, -35.8175, -12.1822
7.55946, 5, 11.9995, 22.8772, 18.6893, 20.0943, -35.8342, -12.1569
7.56753, 5, 11.9879, 22.8892, 18.6828, 20.0668, -35.8511, -12.132
7.57545, 5, 11.9763, 22.9011, 18.6764, 20.0393, -35.8681, -12.1076
7.58345, 5, 11.9647, 22.9129, 18.6702, 20.0114, -35.8855, -12.0834
7.59153, 5, 11.9532, 22.9249, 18.6639, 19.9832, -35.9031, -12.0591
7.59948, 5, 11.9416, 22.937, 18.6575, 19.9554, -35.9206, -12.0346
7.60752, 5, 11.93, 22.9489, 18.6512, 19.928, -35.9378, -12.0098
7.61564, 5, 11.9186, 22.9608, 18.6448, 19.9008, -35.9548, -11.9848
7.6235, 5, 11.9071, 22.9725, 18.6383, 19.8731, -35.9718, -11.9602
7.63156, 5, 11.8956, 22.9844, 18.6318, 19.8449, -35.9887, -11.9359
7.6404, 5, 11.8841, 22.9964, 18.6253, 19.8169, -36.0058, -11.9116
7.64755, 5, 11.8725, 23.0084, 18.6189, 19.7893, -36.0233, -11.8875
7.65562, 5, 11.8608, 23.0203, 18.6126, 19.7619, -36.041, -11.8633
7.66436, 5, 11.8491, 23.0321, 18.6062, 19.7343, -36.0586, -11.8389
7.67156, 5, 11.8375, 23.0439, 18.5999, 19.7061, -36.0759, -11.8141
7.67962, 5, 11.8259, 23.0559, 18.5936, 19.6781, -36.0929, -11.7896
7.68839, 5, 11.8144, 23.0678, 18.5872, 19.6507, -36.1099, -11.7652
7.69549, 5, 11.8029, 23.0796, 18.5807, 19.6235, -36.1267, -11.7414
7.70355, 5, 11.7913, 23.0914, 18.5743, 19.5963, -36.1437, -11.7176
7.71242, 5, 11.7797, 23.1031, 18.568, 19.5684, -36.1609, -11.6939
7.71965, 5, 11.7682, 23.115, 18.5618, 19.5405, -36.1785, -11.6703
7.72774, 5, 11.7567, 23.1269, 18.5556, 19.5131, -36.1962, -11.6461
7.73659, 5, 11.7452, 23.1388, 18.5494, 19.486, -36.2137, -11.6216
7.74389, 5, 11.7337, 23.1506, 18.5432, 19.4591, -36.231, -11.5973
7.75254, 5, 11.7222, 23.1624, 18.5369, 19.4315, -36.2482, -11.5734
7.75991, 5, 11.7106, 23.1742, 18.5306, 19.4038, -36.2652, -11.5497
7.7681, 5, 11.6989, 23.1861, 18.5241, 19.3764, -36.2823, -11.5263
7.77598, 5, 11.6873, 23.1979, 18.5177, 19.3496, -36.2995, -11.5027
7.78399, 5, 11.6758, 23.2096, 18.5113, 19.3229, -36.317, -11.4791
7.79207, 5, 11.6641, 23.2213, 18.5051, 19.2957, -36.3347, -11.4551
7.79997, 5, 11.6584, 23.2271, 18.502, 19.2819, -36.3523, -11.4309
7.80805, 5, 11.6468, 23.2389, 18.4957, 19.2544, -36.3696, -11.4071
7.81648, 5, 11.6294, 23.2567, 18.4863, 19.2138, -36.3868, -11.3835
7.82343, 5, 11.6236, 23.2626, 18.4832, 19.2004, -36.3953, -11.3718
7.83144, 5, 11.6121, 23.2744, 18.477, 19.1738, -36.4123, -11.3484
7.83949, 5, 11.6005, 23.2861, 18.4707, 19.1466, -36.4293, -11.3251
7.84744, 5, 11.5889, 23.2979, 18.4644, 19.1191, -36.4466, -11.3016
7.85547, 5, 11.5773, 23.3098, 18.4583, 19.0918, -36.4643, -11.2779
7.86344, 5, 11.5657, 23.3215, 18.4522, 19.065, -36.4821, -11.254
7.87145, 5, 11.5539, 23.3332, 18.4462, 19.0385, -36.5, -11.23
7.88086, 5, 11.5363, 23.3507, 18.4371, 18.9979, -36.5262, -11.1949
7.88744, 5, 11.5305, 23.3566, 18.4341, 18.9841, -36.5348, -11.1833
7.89544, 5, 11.5189, 23.3685, 18.428, 18.9568, -36.5521, -11.1603
7.90497, 5, 11.5014, 23.3862, 18.4187, 18.9166, -36.578, -11.1255
7.91145, 5, 11.4956, 23.3921, 18.4156, 18.9033, -36.5867, -11.1138
7.91943, 5, 11.4841, 23.4037, 18.4092, 18.8766, -36.6043, -11.0901
7.9275, 5, 11.4725, 23.4153, 18.403, 18.8491, -36.6221, -11.0661
7.93746, 5, 11.4552, 23.4331, 18.3938, 18.8081, -36.6488, -11.0304
7.94343, 5, 11.4495, 23.439, 18.3907, 18.7946, -36.6575, -11.0187
7.95151, 5, 11.438, 23.4506, 18.3845, 18.768, -36.6748, -10.9955
7.9605, 5, 11.4265, 23.4622, 18.3783, 18.7416, -36.692, -10.9726
7.96743, 5, 11.4149, 23.4737, 18.3722, 18.7147, -36.7091, -10.9497
7.97556, 5, 11.4033, 23.4855, 18.3661, 18.6874, -36.7264, -10.9266
7.98344, 5, 11.3916, 23.4973, 18.3598, 18.6605, -36.7439, -10.9032
7.9915, 5, 11.3799, 23.509, 18.3536, 18.634, -36.7618, -10.8796
7.99943, 5, 11.3684, 23.5207, 18.3475, 18.6076, -36.7799, -10.8562
8.00751, 5, 11.3568, 23.5322, 18.3416, 18.5809, -36.7978, -10.8332
8.01554, 5, 11.3452, 23.5438, 18.3357, 18.5537, -36.8154, -10.8104
8.02343, 5, 11.3337, 23.5556, 18.3298, 18.5268, -36.8329, -10.7876
8.03144, 5, 11.3222, 23.5672, 18.3238, 18.5005, -36.8503, -10.7647
8.0395, 5, 11.3105, 23.5788, 18.3178, 18.4744, -36.8677, -10.7417
8.04745, 5, 11.2991, 23.5902, 18.3118, 18.4484, -36.8854, -10.7183
8.05544, 5, 11.2876, 23.6018, 18.3057, 18.4216, -36.9035, -10.6949
8.06349, 5, 11.276, 23.6135, 18.2995, 18.3947, -36.9217, -10.6717
8.07142, 5, 11.2644, 23.6252, 18.2934, 18.3682, -36.9397, -10.6488
8.07944, 5, 11.2529, 23.6369, 18.2874, 18.3419, -36.9574, -10.6264
8.08753, 5, 11.2411, 23.6484, 18.2814, 18.3158, -36.975, -10.604
8.09544, 5, 11.2294, 23.6599, 18.2754, 18.2894, -36.9923, -10.5818
8.1035, 5, 11.2178, 23.6716, 18.2695, 18.2625, -37.0097, -10.5594
8.11146, 5, 11.2061, 23.6833, 18.2635, 18.2358, -37.0273, -10.5367
8.11944, 5, 11.1944, 23.6949, 18.2576, 18.2096, -37.0452, -10.5136
8.12767, 5, 11.1828, 23.7064, 18.2515, 18.1837, -37.0634, -10.4905
8.13551, 5, 11.1712, 23.7179, 18.2455, 18.1576, -37.0815, -10.468
8.14358, 5, 11.1595, 23.7295, 18.2394, 18.131, -37.0994, -10.4458
8.15184, 5, 11.1479, 23.7411, 18.2335, 18.1042, -37.1171, -10.4237
8.15953, 5, 11.1364, 23.7528, 18.2277, 18.0778, -37.1348, -10.4018
8.16755, 5, 11.1248, 23.7644, 18.2219, 18.0517, -37.1524, -10.3795
8.17602, 5, 11.1132, 23.7758, 18.216, 18.0257, -37.1701, -10.357
8.18344, 5, 11.1016, 23.7873, 18.2102, 17.9993, -37.1881, -10.3343
8.19152, 5, 11.0899, 23.799, 18.2043, 17.9725, -37.2063, -10.3118
8.20025, 5, 11.0782, 23.8106, 18.1984, 17.946, -37.2244, -10.2894
8.20749, 5, 11.0664, 23.8221, 18.1923, 17.9199, -37.2422, -10.2674
8.21556, 5, 11.0548, 23.8335, 18.1862, 17.8941, -37.2598, -10.2455
8.22442, 5, 11.0432, 23.8449, 18.1803, 17.8682, -37.2772, -10.2237
8.23168, 5, 11.0315, 23.8565, 18.1744, 17.8417, -37.2946, -10.2018
8.2399, 5, 11.0199, 23.8681, 18.1685, 17.8151, -37.3121, -10.1796
8.24869, 5, 11.0083, 23.8797, 18.1626, 17.7889, -37.33, -10.1573
8.25585, 5, 10.9966, 23.8912, 18.1568, 17.763, -37.3482, -10.1347
8.26401, 5, 10.985, 23.9025, 18.151, 17.7373, -37.3664, -10.1124
8.27293, 5, 10.9734, 23.914, 18.1451, 17.7113, -37.3845, -10.0904
8.27994, 5, 10.9618, 23.9256, 18.1393, 17.6849, -37.4024, -10.0685
8.28855, 5, 10.9503, 23.937, 18.1333, 17.6588, -37.4202, -10.047
8.29681, 5, 10.9445, 23.9427, 18.1274, 17.6332, -37.4378, -10.0254
8.30397, 5, 10.9329, 23.9541, 18.1246, 17.6204, -37.4555, -10.0036
8.31243, 5, 10.9153, 23.9711, 18.116, 17.5823, -37.4735, -9.98137
8.31942, 5, 10.9095, 23.9768, 18.1132, 17.5693, -37.4826, -9.97015
8.32742, 5, 10.898, 23.9884, 18.1075, 17.5431, -37.5009, -9.94753
8.33547, 5, 10.8864, 23.9999, 18.1018, 17.5171, -37.519, -9.92522
8.34343, 5, 10.8748, 24.0114, 18.0961, 17.4914, -37.537, -9.90338
8.35142, 5, 10.8633, 24.0228, 18.0903, 17.4661, -37.5547, -9.88179
8.35947, 5, 10.8517, 24.0342, 18.0845, 17.4408, -37.5723, -9.86036
8.36743, 5, 10.84, 24.0458, 18.0786, 17.4148, -37.5899, -9.83903
8.37547, 5, 10.8284, 24.0573, 18.0726, 17.3885, -37.6077, -9.81746
8.38522, 5, 10.811, 24.0744, 18.0639, 17.3499, -37.6351, -9.78467
8.39142, 5, 10.8051, 24.08, 18.0611, 17.3372, -37.6445, -9.77372
8.39948, 5, 10.7935, 24.0913, 18.0553, 17.3119, -37.6628, -9.75185
8.40904, 5, 10.7758, 24.1085, 18.0467, 17.2733, -37.69, -9.71959
8.41542, 5, 10.7699, 24.1143, 18.0438, 17.2602, -37.699, -9.70891
8.4235, 5, 10.758, 24.1257, 18.038, 17.2342, -37.7168, -9.68781
8.43326, 5, 10.7463, 24.1371, 18.0323, 17.2085, -37.7437, -9.65604
8.43946, 5, 10.7345, 24.1483, 18.0264, 17.1833, -37.7527, -9.64538
8.44841, 5, 10.7227, 24.1597, 18.0206, 17.1579, -37.7711, -9.62395
8.45541, 5, 10.711, 24.1712, 18.0149, 17.1321, -37.7897, -9.60215
8.46342, 5, 10.6994, 24.1826, 18.0093, 17.1059, -37.8082, -9.58024
8.47148, 5, 10.6877, 24.194, 18.0038, 17.08, -37.8264, -9.55872
8.47949, 5, 10.676, 24.2052, 17.9982, 17.0546, -37.8444, -9.53733
8.48742, 5, 10.6645, 24.2165, 17.9927, 17.0296, -37.8622, -9.51634
8.49543, 5, 10.6529, 24.228, 17.9871, 17.0043, -37.88, -9.49542
8.50342, 5, 10.6412, 24.2395, 17.9815, 16.9786, -37.898, -9.47488
8.51149, 5, 10.6296, 24.2509, 17.9758, 16.9528, -37.9163, -9.45403
8.51942, 5, 10.6178, 24.2622, 17.97, 16.9274, -37.9349, -9.43296
8.52742, 5, 10.6059, 24.2734, 17.9643, 16.9022, -37.9535, -9.4115
8.5355, 5, 10.5941, 24.2847, 17.9586, 16.8771, -37.9718, -9.39006
8.54341, 5, 10.5823, 24.2961, 17.9529, 16.8517, -37.9899, -9.36871
8.55141, 5, 10.5705, 24.3074, 17.9474, 16.8259, -38.0079, -9.34782
8.55949, 5, 10.5586, 24.3186, 17.9418, 16.8002, -38.0259, -9.32719
8.56742, 5, 10.5469, 24.3297, 17.9362, 16.7752, -38.044, -9.30666
8.57544, 5, 10.5351, 24.3409, 17.9307, 16.7505, -38.0625, -9.28617
8.58349, 5, 10.5234, 24.3523, 17.9251, 16.7258, -38.0812, -9.26555
8.59143, 5, 10.5118, 24.3637, 17.9195, 16.7006, -38.0998, -9.24453
8.59941, 5, 10.5002, 24.375, 17.9138, 16.675, -38.1179, -9.22344
8.60751, 5, 10.4885, 24.3863, 17.9081, 16.6498, -38.1359, -9.20241
8.61542, 5, 10.4769, 24.3975, 17.9026, 16.6248, -38.1538, -9.18158
8.62348, 5, 10.4653, 24.4088, 17.8971, 16.6, -38.1717, -9.16099
8.63226, 5, 10.4535, 24.4202, 17.8917, 16.5752, -38.1898, -9.14059
8.6395, 5, 10.4418, 24.4315, 17.8863, 16.5498, -38.2083, -9.12047
8.64763, 5, 10.4303, 24.4428, 17.8809, 16.5244, -38.227, -9.10012
8.65637, 5, 10.4187, 24.4539, 17.8754, 16.4993, -38.2457, -9.07955
8.66351, 5, 10.407, 24.4651, 17.8699, 16.4747, -38.264, -9.05885
8.6716, 5, 10.3955, 24.4765, 17.8644, 16.4501, -38.2822, -9.03786
8.68031, 5, 10.3838, 24.4878, 17.8587, 16.4253, -38.3003, -9.01694
8.68742, 5, 10.3721, 24.4991, 17.853, 16.3999, -38.3184, -8.99626
8.69566, 5, 10.3604, 24.5103, 17.8474, 16.3744, -38.3366, -8.97589
8.70434, 5, 10.3487, 24.5214, 17.8419, 16.3494, -38.3552, -8.95564
8.71151, 5, 10.337, 24.5326, 17.8365, 16.3247, -38.374, -8.9355
8.71958, 5, 10.3253, 24.5439, 17.8309, 16.3, -38.3925, -8.91538
8.72847, 5, 10.3136, 24.5551, 17.8255, 16.275, -38.4108, -8.89506
8.7358, 5, 10.3017, 24.5663, 17.82, 16.2496, -38.4288, -8.87451
8.7437, 5, 10.2898, 24.5774, 17.8146, 16.2243, -38.4468, -8.85362
8.75267, 5, 10.2781, 24.5885, 17.8091, 16.1995, -38.4648, -8.83285
8.75995, 5, 10.2664, 24.5998, 17.8036, 16.1751, -38.4831, -8.81224
8.76791, 5, 10.2546, 24.611, 17.7981, 16.1506, -38.5017, -8.79196
8.77736, 5, 10.243, 24.6223, 17.7928, 16.1257, -38.5205, -8.77193
8.78402, 5, 10.2313, 24.6334, 17.7875, 16.1005, -38.5393, -8.75207
8.79195, 5, 10.2195, 24.6445, 17.7823, 16.0754, -38.5577, -8.73229
8.79997, 5, 10.2136, 24.65, 17.7797, 16.0509, -38.576, -8.7124
8.80806, 5, 10.202, 24.6613, 17.7718, 16.0266, -38.5942, -8.69211
8.81627, 5, 10.1904, 24.6725, 17.7691, 16.0145, -38.6125, -8.6717
8.82341, 5, 10.1788, 24.6836, 17.7639, 15.9899, -38.6217, -8.66145
8.83247, 5, 10.1612, 24.7001, 17.7558, 15.9525, -38.6497, -8.63098
8.8394, 5, 10.1553, 24.7056, 17.7531, 15.9401, -38.6592, -8.62104
8.84741, 5, 10.1435, 24.7167, 17.7475, 15.9157, -38.678, -8.60133
8.85543, 5, 10.1315, 24.7279, 17.742, 15.8915, -38.6965, -8.58172
8.8634, 5, 10.1197, 24.7391, 17.7366, 15.8676, -38.7147, -8.56217
8.87143, 5, 10.1079, 24.7503, 17.7312, 15.8431, -38.7329, -8.54256
8.87945, 5, 10.096, 24.7613, 17.7259, 15.8181, -38.7509, -8.52287
8.88742, 5, 10.0843, 24.7724, 17.7205, 15.7935, -38.7693, -8.50281
8.89693, 5, 10.0667, 24.7892, 17.7125, 15.7571, -38.7974, -8.47243
8.90341, 5, 10.0608, 24.7948, 17.7099, 15.7451, -38.8069, -8.46229
8.91295, 5, 10.0432, 24.8114, 17.7018, 15.7089, -38.835, -8.43244
8.91947, 5, 10.0373, 24.8169, 17.6992, 15.6967, -38.8442, -8.42266
8.92905, 5, 10.0256, 24.8333, 17.6911, 15.6594, -38.8719, -8.39351
8.9354, 5, 10.0139, 24.8389, 17.6884, 15.6472, -38.881, -8.38387
8.94349, 5, 10.0021, 24.8501, 17.6831, 15.623, -38.8992, -8.3647
8.95249, 5, 9.99033, 24.8612, 17.6779, 15.5991, -38.9177, -8.34547
8.9594, 5, 9.97844, 24.8723, 17.6728, 15.5751, -38.9364, -8.32588
8.96748, 5, 9.96659, 24.8833, 17.6676, 15.5507, -38.9555, -8.30603
8.97541, 5, 9.95481, 24.8942, 17.6625, 15.5259, -38.9742, -8.28613
8.98343, 5, 9.94302, 24.9054, 17.6574, 15.5013, -38.9927, -8.2664
8.99146, 5, 9.93125, 24.9166, 17.6522, 15.4771, -39.0111, -8.2468
8.9994, 5, 9.91955, 24.9276, 17.647, 15.4531, -39.0293, -8.2276
9.00746, 5, 9.90777, 24.9386, 17.6418, 15.4291, -39.0475, -8.20861
9.01541, 5, 9.89596, 24.9495, 17.6364, 15.4046, -39.066, -8.18968
9.02342, 5, 9.88426, 24.9605, 17.6311, 15.3798, -39.0849, -8.17071
9.03147, 5, 9.87259, 24.9716, 17.6259, 15.3553, -39.104, -8.1516
9.0394, 5, 9.86085, 24.9827, 17.6207, 15.3312, -39.1229, -8.13219
9.04745, 5, 9.84912, 24.9938, 17.6155, 15.3074, -39.1416, -8.11245
9.05546, 5, 9.83739, 25.0048, 17.6104, 15.2835, -39.1601, -8.09284
9.0634, 5, 9.82552, 25.0156, 17.6052, 15.2592, -39.1785, -8.07353
9.07141, 5, 9.81367, 25.0266, 17.6001, 15.2347, -39.1969, -8.05458
9.07947, 5, 9.80196, 25.0377, 17.595, 15.2105, -39.2156, -8.03577
9.0874, 5, 9.79018, 25.0487, 17.5898, 15.1866, -39.2346, -8.01706
9.09543, 5, 9.77844, 25.0596, 17.5846, 15.1628, -39.2537, -7.9984
9.10348, 5, 9.76678, 25.0704, 17.5794, 15.1391, -39.2725, -7.97973
9.11141, 5, 9.75503, 25.0813, 17.5742, 15.1148, -39.291, -7.96072
9.11967, 5, 9.74321, 25.0923, 17.5691, 15.0904, -39.3094, -7.94158
9.12741, 5, 9.73146, 25.1034, 17.564, 15.0663, -39.3277, -7.92209
9.13543, 5, 9.71977, 25.1144, 17.559, 15.0427, -39.3461, -7.90272
9.14381, 5, 9.70797, 25.1254, 17.5541, 15.0193, -39.3649, -7.88362
9.15151, 5, 9.69618, 25.1363, 17.5491, 14.996, -39.3839, -7.86479
9.15956, 5, 9.68437, 25.1472, 17.5441, 14.972, -39.4031, -7.84609
9.16788, 5, 9.6724, 25.1583, 17.539, 14.9478, -39.422, -7.82757
9.17551, 5, 9.66041, 25.1693, 17.5339, 14.9238, -39.4407, -7.80909
9.18346, 5, 9.64859, 25.1802, 17.5288, 14.9001, -39.4593, -7.79059
9.19209, 5, 9.63674, 25.1911, 17.5235, 14.8767, -39.4778, -7.77172
9.20047, 5, 9.62484, 25.2019, 17.5183, 14.8532, -39.4965, -7.75255
9.20765, 5, 9.61302, 25.2129, 17.5132, 14.8291, -39.5155, -7.73329
9.2164, 5, 9.60123, 25.2239, 17.5082, 14.8049, -39.5347, -7.71407
9.22352, 5, 9.5894, 25.2349, 17.5031, 14.7809, -39.5538, -7.69515
9.23162, 5, 9.57767, 25.2458, 17.4981, 14.7574, -39.5727, -7.6765
9.24057, 5, 9.56601, 25.2566, 17.4931, 14.7342, -39.5913, -7.65822
9.24769, 5, 9.55428, 25.2673, 17.4882, 14.7108, -39.6097, -7.63987
9.25617, 5, 9.54252, 25.2783, 17.4832, 14.687, -39.6282, -7.62177
9.26467, 5, 9.53078, 25.2892, 17.4782, 14.6629, -39.6469, -7.60358
9.27192, 5, 9.51887, 25.3001, 17.4731, 14.639, -39.6659, -7.58516
9.28054, 5, 9.50692, 25.3109, 17.4681, 14.6153, -39.6852, -7.56648
9.28877, 5, 9.49509, 25.3217, 17.4631, 14.592, -39.7043, -7.54759
9.29595, 5, 9.48327, 25.3324, 17.4582, 14.5685, -39.7232, -7.52888
9.3045, 5, 9.47142, 25.3434, 17.4534, 14.5447, -39.7419, -7.51051
9.31276, 5, 9.46553, 25.3488, 17.451, 14.5327, -39.7512, -7.50138
9.3194, 5, 9.45377, 25.3597, 17.4462, 14.5086, -39.7698, -7.4833
9.32743, 5, 9.44194, 25.3705, 17.4414, 14.4849, -39.7886, -7.46534
9.3354, 5, 9.43003, 25.3812, 17.4366, 14.4616, -39.8076, -7.44738
9.34338, 5, 9.41821, 25.3919, 17.4318, 14.4385, -39.8269, -7.42951
9.35271, 5, 9.40049, 25.4082, 17.4245, 14.4033, -39.8557, -7.40238
9.35939, 5, 9.39456, 25.4136, 17.422, 14.3913, -39.8651, -7.39323
9.36744, 5, 9.3827, 25.4244, 17.417, 14.3674, -39.8838, -7.37484
9.37538, 5, 9.37086, 25.4351, 17.4119, 14.3437, -39.9023, -7.35619
9.38343, 5, 9.35887, 25.4457, 17.4069, 14.3204, -39.9209, -7.33785
9.39144, 5, 9.34689, 25.4564, 17.4019, 14.2973, -39.9397, -7.31957
9.39939, 5, 9.33504, 25.4673, 17.397, 14.2741, -39.9589, -7.30177
9.40741, 5, 9.32312, 25.4781, 17.3921, 14.2506, -39.9783, -7.28403
9.41545, 5, 9.31118, 25.4889, 17.3872, 14.2269, -39.9976, -7.26634
9.42513, 5, 9.29344, 25.5049, 17.3799, 14.192, -40.026, -7.24014
9.43142, 5, 9.28749, 25.5102, 17.3775, 14.1805, -40.0354, -7.23131
9.44038, 5, 9.27552, 25.521, 17.3726, 14.1577, -40.0542, -7.21361
9.4474, 5, 9.26367, 25.5319, 17.3677, 14.1348, -40.073, -7.19559
9.45648, 5, 9.25192, 25.5426, 17.3628, 14.1116, -40.092, -7.17741
9.46344, 5, 9.24007, 25.5533, 17.3579, 14.088, -40.1114, -7.15927
9.47139, 5, 9.22819, 25.5639, 17.353, 14.0646, -40.1307, -7.14125
9.47938, 5, 9.21635, 25.5745, 17.3482, 14.0416, -40.1498, -7.12355
9.48964, 5, 9.19826, 25.5907, 17.3412, 14.0074, -40.178, -7.09736
9.49537, 5, 9.19224, 25.5961, 17.3389, 13.9961, -40.1873, -7.08862
9.50345, 5, 9.18024, 25.6068, 17.3342, 13.9729, -40.2059, -7.07122
9.51138, 5, 9.16833, 25.6174, 17.3295, 13.9494, -40.2246, -7.05388
9.51939, 5, 9.15635, 25.628, 17.3249, 13.9259, -40.2437, -7.03635
9.52748, 5, 9.14454, 25.6386, 17.3202, 13.9028, -40.2632, -7.0186
9.53537, 5, 9.13273, 25.6493, 17.3155, 13.88, -40.2826, -7.00056
9.54338, 5, 9.12083, 25.66, 17.3107, 13.8573, -40.3017, -6.98253
9.55151, 5, 9.10894, 25.6707, 17.3058, 13.8343, -40.3206, -6.96474
9.55938, 5, 9.0972, 25.6813, 17.301, 13.8109, -40.3394, -6.94719
9.5674, 5, 9.08541, 25.6918, 17.2961, 13.7874, -40.3583, -6.92998
9.57546, 5, 9.0736, 25.7024, 17.2913, 13.7642, -40.3773, -6.91278
9.58347, 5, 9.06181, 25.7132, 17.2866, 13.7414, -40.3966, -6.8957
9.59137, 5, 9.04988, 25.7238, 17.282, 13.7188, -40.4162, -6.87859
9.59948, 5, 9.03783, 25.7345, 17.2773, 13.6959, -40.4355, -6.86143
9.60739, 5, 9.02594, 25.7451, 17.2726, 13.6726, -40.4545, -6.84411
9.61546, 5, 9.01414, 25.7556, 17.268, 13.649, -40.4733, -6.82654
9.62358, 5, 9.00227, 25.7661, 17.2634, 13.6258, -40.492, -6.80869
9.6314, 5, 8.99045, 25.7768, 17.2587, 13.603, -40.5109, -6.7909
9.63948, 5, 8.97867, 25.7874, 17.2539, 13.5804, -40.5299, -6.77343
9.64827, 5, 8.96672, 25.7979, 17.2492, 13.5579, -40.5493, -6.75621
9.65549, 5, 8.95486, 25.8084, 17.2444, 13.535, -40.5688, -6.73906
9.66354, 5, 8.94308, 25.8188, 17.2398, 13.5117, -40.5881, -6.7221
9.67231, 5, 8.93125, 25.8293, 17.2352, 13.4886, -40.6071, -6.70515
9.67949, 5, 8.91935, 25.84, 17.2306, 13.4658, -40.6261, -6.68827
9.68759, 5, 8.90748, 25.8506, 17.2261, 13.4434, -40.6449, -6.67129
9.69627, 5, 8.89552, 25.8611, 17.2216, 13.4209, -40.6639, -6.65402
9.70343, 5, 8.88347, 25.8716, 17.2171, 13.3981, -40.6833, -6.63643
9.71148, 5, 8.87143, 25.882, 17.2126, 13.3749, -40.7029, -6.61892
9.72038, 5, 8.85957, 25.8926, 17.208, 13.3518, -40.7223, -6.60143
9.72756, 5, 8.84754, 25.9032, 17.2034, 13.3292, -40.7415, -6.58418
9.73562, 5, 8.83556, 25.9137, 17.1987, 13.3069, -40.7605, -6.5671
9.74455, 5, 8.82366, 25.9243, 17.1941, 13.2848, -40.7793, -6.5503
9.75183, 5, 8.81166, 25.9347, 17.1893, 13.2625, -40.7981, -6.5336
9.75976, 5, 8.79962, 25.9451, 17.1847, 13.2397, -40.8171, -6.51687
9.76784, 5, 8.78769, 25.9557, 17.18, 13.2168, -40.8366, -6.50014
9.77598, 5, 8.77577, 25.9663, 17.1755, 13.1941, -40.8563, -6.48345
9.78453, 5, 8.76382, 25.9768, 17.1709, 13.1717, -40.8758, -6.46669
9.79191, 5, 8.75187, 25.9873, 17.1664, 13.1495, -40.895, -6.44958
9.8, 5, 8.73987, 25.9977, 17.1619, 13.1272, -40.9141, -6.43233
9.80857, 5, 8.72771, 26.008, 17.1574, 13.1045, -40.933, -6.41535
9.81536, 5, 8.72166, 26.0133, 17.1552, 13.0931, -40.9424, -6.40701
9.82403, 5, 8.70967, 26.0238, 17.1507, 13.0702, -40.9616, -6.38236
9.83136, 5, 8.69768, 26.0343, 17.1462, 13.0477, -40.9811, -6.37419
9.83936, 5, 8.68563, 26.0447, 17.1417, 13.0255, -41.0007, -6.35777
9.84857, 5, 8.66774, 26.0602, 17.1349, 12.9925, -41.0296, -6.33322
9.85535, 5, 8.66177, 26.0653, 17.1326, 12.9814, -41.0391, -6.32501
9.86545, 5, 8.64382, 26.0811, 17.126, 12.9473, -41.0675, -6.30023
9.87136, 5, 8.63789, 26.0863, 17.1238, 12.9358, -41.0769, -6.29182
9.87938, 5, 8.62608, 26.0968, 17.1195, 12.9131, -41.0959, -6.275
9.8888, 5, 8.60826, 26.1124, 17.1131, 12.8795, -41.125, -6.2496
9.89536, 5, 8.60234, 26.1176, 17.111, 12.8685, -41.135, -6.24114
9.90494, 5, 8.58446, 26.133, 17.1045, 12.8351, -41.1644, -6.21629
9.91142, 5, 8.57845, 26.1383, 17.1024, 12.8238, -41.1741, -6.20813
9.92098, 5, 8.56038, 26.1539, 17.0958, 12.7895, -41.2029, -6.18396
9.92895, 5, 8.55443, 26.1642, 17.0914, 12.7669, -41.2219, -6.16797
9.93545, 5, 8.5425, 26.1694, 17.0892, 12.7558, -41.2315, -6.15996
9.94505, 5, 8.53053, 26.1798, 17.0847, 12.7337, -41.2508, -6.13614
9.95138, 5, 8.51866, 26.19, 17.0802, 12.7119, -41.2704, -6.12811
9.95945, 5, 8.50681, 26.2004, 17.0757, 12.6898, -41.2902, -6.11208
9.96736, 5, 8.49486, 26.211, 17.0711, 12.6673, -41.3097, -6.09578
9.97636, 5, 8.48293, 26.2214, 17.0667, 12.6446, -41.3289, -6.07926
9.98343, 5, 8.47112, 26.2318, 17.0623, 12.6222, -41.3479, -6.06268
9.99138, 5, 8.45927, 26.2422, 17.058, 12.6001, -41.3668, -6.04617
9.99944, 5, 8.44736, 26.2524, 17.0537, 12.5783, -41.3858, -6.02992
10.0074, 5, 8.43549, 26.2629, 17.0494, 12.5565, -41.4052, -6.01397
10.0154, 5, 8.42355, 26.2734, 17.045, 12.5344, -41.425, -5.99804
10.0234, 5, 8.41144, 26.2836, 17.0406, 12.5119, -41.4447, -5.98231
10.0313, 5, 8.39946, 26.2939, 17.0363, 12.4895, -41.4642, -5.96664
10.0394, 5, 8.38748, 26.3041, 17.032, 12.4676, -41.4835, -5.95085
10.0475, 5, 8.37541, 26.3143, 17.0276, 12.4458, -41.5027, -5.93512
10.0554, 5, 8.3634, 26.3246, 17.0232, 12.4243, -41.5218, -5.91913
10.0634, 5, 8.35147, 26.335, 17.0189, 12.4026, -41.5412, -5.90307
10.0714, 5, 8.33946, 26.3453, 17.0145, 12.3804, -41.5609, -5.8867
10.0794, 5, 8.32741, 26.3556, 17.0103, 12.358, -41.5807, -5.87036
10.0874, 5, 8.31554, 26.3658, 17.0062, 12.3359, -41.6002, -5.85422
10.0954, 5, 8.3036, 26.3759, 17.0021, 12.3141, -41.6194, -5.8384
10.1034, 5, 8.29166, 26.3863, 16.9981, 12.2925, -41.6385, -5.82303
10.1114, 5, 8.27976, 26.3967, 16.9939, 12.271, -41.6576, -5.80759
10.1194, 5, 8.26777, 26.4069, 16.9898, 12.249, -41.6767, -5.7921
10.1274, 5, 8.25566, 26.4172, 16.9856, 12.2268, -41.6963, -5.77679
10.1356, 5, 8.24371, 26.4274, 16.9814, 12.2045, -41.7161, -5.76133
10.1434, 5, 8.23177, 26.4375, 16.9773, 12.1826, -41.736, -5.74597
10.1515, 5, 8.21982, 26.4478, 16.9731, 12.161, -41.7555, -5.73026
10.1598, 5, 8.20784, 26.4582, 16.9687, 12.1395, -41.7748, -5.71422
10.1675, 5, 8.19598, 26.4685, 16.9644, 12.1179, -41.7941, -5.69824
10.1755, 5, 8.18401, 26.4788, 16.9601, 12.0959, -41.8133, -5.6821
10.1839, 5, 8.17206, 26.489, 16.9559, 12.0736, -41.8327, -5.66616
10.1914, 5, 8.16011, 26.499, 16.9518, 12.0516, -41.8525, -5.65049
10.1994, 5, 8.14813, 26.5092, 16.9477, 12.0298, -41.8723, -5.63507
10.2082, 5, 8.13613, 26.5195, 16.9436, 12.0083, -41.8921, -5.61986
10.2154, 5, 8.12415, 26.5295, 16.9395, 11.9868, -41.9114, -5.60457
10.2238, 5, 8.11209, 26.5395, 16.9353, 11.965, -41.9306, -5.58932
10.2323, 5, 8.09994, 26.5495, 16.9312, 11.9427, -41.9497, -5.57411
10.2396, 5, 8.08784, 26.5595, 16.927, 11.9205, -41.969, -5.55874
10.2477, 5, 8.07589, 26.5696, 16.9229, 11.8986, -41.9886, -5.54333
10.2565, 5, 8.06394, 26.5798, 16.9188, 11.877, -42.0086, -5.52763
10.2637, 5, 8.05199, 26.59, 16.9146, 11.8556, -42.0285, -5.51173
10.2722, 5, 8.04012, 26.6002, 16.9104, 11.8342, -42.0481, -5.49598
10.2807, 5, 8.02816, 26.6103, 16.9062, 11.8124, -42.0676, -5.4804
10.2879, 5, 8.01618, 26.6203, 16.9022, 11.7904, -42.0869, -5.46505
10.2965, 5, 8.00433, 26.6305, 16.8982, 11.7685, -42.1063, -5.44988
10.3048, 5, 7.9984, 26.6408, 16.8943, 11.7469, -42.1259, -5.43473
10.3119, 5, 7.98645, 26.6459, 16.8924, 11.7362, -42.1457, -5.41974
10.3204, 5, 7.96852, 26.661, 16.8864, 11.7043, -42.1657, -5.40485
10.3274, 5, 7.96256, 26.666, 16.8845, 11.6936, -42.1756, -5.39732
10.3353, 5, 7.9505, 26.676, 16.8805, 11.6721, -42.1951, -5.38237
10.3444, 5, 7.93231, 26.691, 16.8745, 11.6392, -42.2239, -5.3597
10.3514, 5, 7.92632, 26.696, 16.8725, 11.6283, -42.2335, -5.35216
10.3593, 5, 7.91432, 26.7062, 16.8685, 11.6069, -42.2528, -5.33691
10.3691, 5, 7.89622, 26.7213, 16.8623, 11.5752, -42.2822, -5.31385
10.3775, 5, 7.88428, 26.7314, 16.8582, 11.5543, -42.3022, -5.29868
10.3834, 5, 7.87829, 26.7363, 16.8561, 11.5437, -42.3122, -5.29109
10.3929, 5, 7.86022, 26.7512, 16.8499, 11.5114, -42.3418, -5.269
10.4017, 5, 7.84833, 26.7613, 16.8458, 11.4897, -42.3613, -5.25447
10.4074, 5, 7.84239, 26.7664, 16.8438, 11.4789, -42.3709, -5.2472
10.4171, 5, 7.82441, 26.7813, 16.8379, 11.4469, -42.4, -5.2254
10.4233, 5, 7.81845, 26.7863, 16.836, 11.4364, -42.4098, -5.21811
10.4315, 5, 7.80648, 26.7961, 16.8321, 11.4154, -42.4296, -5.20358
10.4394, 5, 7.79434, 26.8059, 16.8282, 11.3942, -42.4497, -5.18887
10.4483, 5, 7.78213, 26.8158, 16.8243, 11.3725, -42.4695, -5.17396
10.4554, 5, 7.77004, 26.8258, 16.8203, 11.3507, -42.4891, -5.1588
10.4633, 5, 7.75793, 26.8358, 16.8164, 11.3291, -42.5084, -5.14364
10.4713, 5, 7.74575, 26.8458, 16.8125, 11.308, -42.5276, -5.12853
10.4794, 5, 7.73364, 26.8558, 16.8087, 11.2871, -42.5469, -5.1135
10.4874, 5, 7.72156, 26.8656, 16.8047, 11.2662, -42.5665, -5.09878
10.4954, 5, 7.70942, 26.8754, 16.8007, 11.2451, -42.5865, -5.08432
10.5033, 5, 7.69734, 26.8855, 16.7968, 11.2235, -42.6065, -5.07015
10.5113, 5, 7.68536, 26.8955, 16.7929, 11.2018, -42.6263, -5.05603
10.5194, 5, 7.67334, 26.9053, 16.7891, 11.1803, -42.6458, -5.04181
10.5273, 5, 7.66135, 26.9152, 16.7855, 11.1591, -42.6653, -5.02771
10.5353, 5, 7.64935, 26.9249, 16.7818, 11.1381, -42.6846, -5.01363
10.5434, 5, 7.63726, 26.9347, 16.7781, 11.1171, -42.7042, -4.99931
10.5513, 5, 7.62515, 26.9447, 16.7744, 11.0958, -42.724, -4.98495
10.5594, 5, 7.6132, 26.9547, 16.7707, 11.0742, -42.7441, -4.9705
10.5674, 5, 7.60128, 26.9646, 16.7669, 11.0526, -42.7639, -4.9557
10.5753, 5, 7.58933, 26.9745, 16.7632, 11.0314, -42.7834, -4.94104
10.5833, 5, 7.57744, 26.9844, 16.7594, 11.0103, -42.8027, -4.92655
10.5914, 5, 7.56551, 26.9941, 16.7556, 10.9896, -42.8219, -4.91223
10.5993, 5, 7.55346, 27.004, 16.7518, 10.9688, -42.8413, -4.89811
10.6074, 5, 7.54141, 27.0141, 16.7478, 10.9476, -42.861, -4.88412
10.6154, 5, 7.5294, 27.0239, 16.7438, 10.9261, -42.8811, -4.87008
10.6233, 5, 7.51734, 27.0337, 16.7399, 10.9047, -42.9011, -4.85619
10.6314, 5, 7.50521, 27.0434, 16.7361, 10.8835, -42.921, -4.84234
10.6396, 5, 7.49311, 27.0531, 16.7323, 10.8626, -42.9406, -4.82845
10.6474, 5, 7.48092, 27.0628, 16.7286, 10.8419, -42.9601, -4.81436
10.6555, 5, 7.46866, 27.0727, 16.7249, 10.8212, -42.9796, -4.80012
10.6644, 5, 7.45653, 27.0826, 16.7211, 10.8, -42.9993, -4.78585
10.6714, 5, 7.44442, 27.0924, 16.7174, 10.7787, -43.0194, -4.77136
10.6795, 5, 7.43229, 27.1022, 16.7136, 10.7576, -43.0396, -4.75683
10.6883, 5, 7.42032, 27.1118, 16.7099, 10.7369, -43.0595, -4.74248
10.6953, 5, 7.40836, 27.1216, 16.7061, 10.7163, -43.0791, -4.72838
10.7036, 5, 7.3963, 27.1315, 16.7024, 10.696, -43.0985, -4.71453
10.7123, 5, 7.38426, 27.1414, 16.6987, 10.6755, -43.1179, -4.70096
10.7194, 5, 7.37234, 27.1512, 16.695, 10.6544, -43.1374, -4.68755
10.7275, 5, 7.36033, 27.161, 16.6912, 10.6332, -43.1573, -4.67392
10.7364, 5, 7.34831, 27.1706, 16.6874, 10.6122, -43.1775, -4.66053
10.7437, 5, 7.3363, 27.1803, 16.6837, 10.5915, -43.1976, -4.64706
10.7524, 5, 7.32409, 27.1901, 16.6801, 10.5711, -43.2173, -4.63333
10.7597, 5, 7.3118, 27.2, 16.6766, 10.5507, -43.2369, -4.61947
10.7679, 5, 7.29963, 27.2097, 16.6732, 10.5301, -43.2564, -4.60549
10.7765, 5, 7.28748, 27.2194, 16.6698, 10.5092, -43.276, -4.59127
10.7838, 5, 7.27529, 27.2291, 16.6663, 10.4879, -43.2959, -4.57703
10.792, 5, 7.26324, 27.2386, 16.6628, 10.467, -43.316, -4.56295
10.8005, 5, 7.2512, 27.2483, 16.6593, 10.4463, -43.3363, -4.54897
10.8079, 5, 7.24517, 27.2581, 16.6558, 10.4258, -43.3561, -4.53533
10.816, 5, 7.23312, 27.263, 16.6522, 10.4055, -43.3756, -4.52184
10.8233, 5, 7.22116, 27.2725, 16.6505, 10.3952, -43.3854, -4.51504
10.8313, 5, 7.2092, 27.2822, 16.6469, 10.3744, -43.4048, -4.5017
10.8394, 5, 7.19717, 27.2918, 16.6433, 10.3533, -43.4243, -4.48852
10.8473, 5, 7.1852, 27.3013, 16.6397, 10.3322, -43.4441, -4.47509
10.8573, 5, 7.16716, 27.3158, 16.6341, 10.3011, -43.4745, -4.45495
10.8634, 5, 7.16108, 27.3207, 16.6323, 10.2909, -43.4846, -4.44819
10.8713, 5, 7.14895, 27.3305, 16.6286, 10.2705, -43.5046, -4.43455
10.8793, 5, 7.13695, 27.3402, 16.625, 10.2501, -43.5242, -4.42083
10.8873, 5, 7.12492, 27.3499, 16.6215, 10.2293, -43.5439, -4.40704
10.8968, 5, 7.1069, 27.3642, 16.6163, 10.1975, -43.5733, -4.38613
10.9048, 5, 7.09493, 27.3739, 16.6128, 10.1767, -43.5932, -4.37255
10.913, 5, 7.08276, 27.3837, 16.6094, 10.1561, -43.6134, -4.35898
10.9209, 5, 7.07068, 27.3933, 16.6059, 10.1359, -43.6336, -4.34578
10.9289, 5, 7.05875, 27.4028, 16.6024, 10.1157, -43.6533, -4.33259
10.9354, 5, 7.05275, 27.4076, 16.6007, 10.1055, -43.663, -4.32605
10.9433, 5, 7.04069, 27.4171, 16.5973, 10.0849, -43.6824, -4.31287
10.9514, 5, 7.02862, 27.4266, 16.5938, 10.0641, -43.7019, -4.2998
10.9604, 5, 7.01655, 27.4362, 16.5904, 10.0433, -43.7214, -4.28682
10.9683, 5, 7.00436, 27.4459, 16.5869, 10.0228, -43.7413, -4.27361
10.9763, 5, 6.99216, 27.4555, 16.5833, 10.0025, -43.7616, -4.26048
10.9844, 5, 6.98011, 27.4651, 16.5798, 9.98239, -43.7818, -4.24718
10.9913, 5, 6.96795, 27.4746, 16.5763, 9.96219, -43.8017, -4.23372
10.9994, 5, 6.95581, 27.484, 16.5728, 9.94161, -43.8214, -4.22035
11.0073, 5, 6.94374, 27.4935, 16.5695, 9.92076, -43.8409, -4.20702
11.0154, 5, 6.93162, 27.5032, 16.5662, 9.90001, -43.8606, -4.19345
11.0233, 5, 6.91945, 27.5127, 16.563, 9.87968, -43.8806, -4.18019
11.0313, 5, 6.90742, 27.5221, 16.5597, 9.85962, -43.9009, -4.16723
11.0394, 5, 6.89538, 27.5317, 16.5565, 9.83975, -43.9211, -4.15443
11.0473, 5, 6.88325, 27.5411, 16.5532, 9.81991, -43.9411, -4.14177
11.0553, 5, 6.87114, 27.5505, 16.5499, 9.79964, -43.9607, -4.12921
11.0634, 5, 6.85893, 27.5601, 16.5466, 9.77907, -43.9802, -4.1166
11.0713, 5, 6.84659, 27.5697, 16.5432, 9.75846, -43.9998, -4.10404
11.0793, 5, 6.83436, 27.5792, 16.5399, 9.73825, -44.0195, -4.09135
11.0874, 5, 6.82221, 27.5888, 16.5366, 9.71817, -44.0397, -4.07854
11.0953, 5, 6.81, 27.5983, 16.5332, 9.6982, -44.0601, -4.06565
11.1033, 5, 6.79782, 27.6076, 16.5297, 9.67829, -44.0801, -4.05251
11.1114, 5, 6.78573, 27.617, 16.5262, 9.658, -44.1, -4.03926
11.1193, 5, 6.77362, 27.6267, 16.5227, 9.63744, -44.1197, -4.02589
11.1276, 5, 6.76152, 27.6362, 16.5193, 9.61685, -44.1394, -4.01277
11.1353, 5, 6.74955, 27.6455, 16.5159, 9.59669, -44.1592, -3.99989
11.1433, 5, 6.73758, 27.6549, 16.5126, 9.57672, -44.1793, -3.98702
11.1516, 5, 6.72558, 27.6642, 16.5094, 9.55699, -44.1997, -3.97448
11.1594, 5, 6.71357, 27.6735, 16.5061, 9.53725, -44.2199, -3.96208
11.1675, 5, 6.70147, 27.6829, 16.5029, 9.51707, -44.2397, -3.94968
11.1758, 5, 6.68925, 27.6925, 16.4997, 9.49654, -44.2593, -3.93752
11.1834, 5, 6.67712, 27.7019, 16.4964, 9.47595, -44.2789, -3.92538
11.1915, 5, 6.66508, 27.7114, 16.4932, 9.45562, -44.2985, -3.91301
11.2001, 5, 6.65299, 27.7209, 16.49, 9.4355, -44.3185, -3.90076
11.2074, 5, 6.64096, 27.7302, 16.4868, 9.41555, -44.3389, -3.88838
11.2154, 5, 6.62897, 27.7395, 16.4836, 9.39571, -44.3592, -3.87581
11.2243, 5, 6.61686, 27.7491, 16.4804, 9.37562, -44.3792, -3.86323
11.2315, 5, 6.60474, 27.7586, 16.4771, 9.35516, -44.3991, -3.85039
11.2397, 5, 6.59272, 27.7679, 16.4739, 9.33461, -44.4188, -3.83761
11.2485, 5, 6.58069, 27.7773, 16.4706, 9.31433, -44.4384, -3.82492
11.2556, 5, 6.56859, 27.7866, 16.4673, 9.29438, -44.4584, -3.81236
11.2638, 5, 6.5565, 27.7958, 16.4641, 9.27466, -44.4787, -3.80004
11.2725, 5, 6.54436, 27.8051, 16.461, 9.25508, -44.499, -3.7878
11.2799, 5, 6.53211, 27.8146, 16.458, 9.23524, -44.519, -3.77577
11.2885, 5, 6.51996, 27.824, 16.455, 9.2151, -44.5387, -3.76382
11.2959, 5, 6.50791, 27.8334, 16.452, 9.19462, -44.5583, -3.75178
11.3044, 5, 6.49573, 27.8427, 16.4491, 9.17444, -44.5779, -3.73981
11.3119, 5, 6.48964, 27.8474, 16.4476, 9.15453, -44.5977, -3.72793
11.3199, 5, 6.47755, 27.8565, 16.4446, 9.14466, -44.6078, -3.72191
11.3285, 5, 6.45939, 27.8706, 16.4401, 9.11534, -44.6385, -3.70364
11.3354, 5, 6.45331, 27.8753, 16.4385, 9.10557, -44.6487, -3.69759
11.3433, 5, 6.44117, 27.8847, 16.4355, 9.08575, -44.6688, -3.68529
11.3524, 5, 6.42309, 27.8987, 16.431, 9.0555, -44.6986, -3.66662
11.3593, 5, 6.41701, 27.9033, 16.4295, 9.04542, -44.7084, -3.66043
11.3673, 5, 6.4049, 27.9125, 16.4265, 9.0255, -44.7282, -3.64803
11.3753, 5, 6.39279, 27.9217, 16.4234, 9.00595, -44.7482, -3.63575
11.3833, 5, 6.38053, 27.931, 16.4202, 8.9866, -44.7687, -3.62338
11.3913, 5, 6.36819, 27.9404, 16.417, 8.96736, -44.7892, -3.61148
11.4008, 5, 6.34983, 27.9543, 16.4122, 8.938, -44.8193, -3.59372
11.4089, 5, 6.33758, 27.9636, 16.409, 8.91794, -44.8391, -3.58214
11.4169, 5, 6.32542, 27.9727, 16.4058, 8.89783, -44.8588, -3.57068
11.4249, 5, 6.31328, 27.9817, 16.4027, 8.87802, -44.8785, -3.55926
11.4331, 5, 6.30106, 27.9909, 16.3996, 8.85846, -44.8986, -3.54765
11.4393, 5, 6.29492, 27.9956, 16.3981, 8.84875, -44.9088, -3.54189
11.4491, 5, 6.28276, 28.0049, 16.3951, 8.81982, -44.9396, -3.52446
11.4554, 5, 6.27064, 28.014, 16.3921, 8.81006, -44.9497, -3.51859
11.4644, 5, 6.25845, 28.0231, 16.3891, 8.79031, -44.9698, -3.50677
11.4723, 5, 6.24627, 28.0322, 16.3861, 8.77025, -44.9898, -3.49467
11.4794, 5, 6.23409, 28.0412, 16.3831, 8.75026, -45.0097, -3.4826
11.4873, 5, 6.2217, 28.0504, 16.3801, 8.73065, -45.0297, -3.47031
11.4953, 5, 6.20932, 28.0597, 16.3771, 8.71119, -45.05, -3.45819
11.5033, 5, 6.19709, 28.069, 16.3742, 8.69196, -45.0707, -3.44627
11.5113, 5, 6.18485, 28.0782, 16.3713, 8.67274, -45.091, -3.43438
11.5194, 5, 6.17263, 28.0875, 16.3683, 8.65317, -45.1111, -3.42269
11.5273, 5, 6.16048, 28.0966, 16.3653, 8.63319, -45.131, -3.41127
11.5353, 5, 6.14827, 28.1056, 16.3623, 8.61317, -45.1507, -3.39984
11.5435, 5, 6.13602, 28.1148, 16.3593, 8.59344, -45.1706, -3.38856
11.5513, 5, 6.12394, 28.1242, 16.3563, 8.5739, -45.1909, -3.37732
11.5593, 5, 6.11184, 28.1333, 16.3533, 8.55462, -45.2115, -3.36602
11.5674, 5, 6.09968, 28.1423, 16.3504, 8.53533, -45.232, -3.35479
11.5753, 5, 6.08754, 28.1515, 16.3476, 8.51585, -45.2522, -3.34326
11.5833, 5, 6.07536, 28.1604, 16.3449, 8.49598, -45.2722, -3.33168
11.5914, 5, 6.06306, 28.1693, 16.3422, 8.47593, -45.2921, -3.32006
11.5993, 5, 6.0508, 28.1785, 16.3395, 8.45605, -45.312, -3.30828
11.6073, 5, 6.03866, 28.1877, 16.3368, 8.4365, -45.3322, -3.29643
11.6154, 5, 6.02642, 28.1968, 16.3341, 8.41721, -45.3526, -3.28457
11.6233, 5, 6.01421, 28.2059, 16.3314, 8.39811, -45.3731, -3.27278
11.6315, 5, 6.0021, 28.215, 16.3286, 8.37886, -45.3933, -3.261
11.6394, 5, 5.98984, 28.224, 16.3259, 8.35933, -45.4132, -3.24956
11.6473, 5, 5.97752, 28.2329, 16.3232, 8.33953, -45.4328, -3.23828
11.6562, 5, 5.96535, 28.2421, 16.3204, 8.31975, -45.4526, -3.22722
11.6636, 5, 5.95314, 28.2514, 16.3177, 8.3003, -45.4726, -3.21624
11.6714, 5, 5.94089, 28.2603, 16.3149, 8.28108, -45.4931, -3.20531
11.6802, 5, 5.92866, 28.2694, 16.3121, 8.26202, -45.5137, -3.19433
11.6879, 5, 5.91629, 28.2784, 16.3093, 8.24297, -45.534, -3.18333
11.6963, 5, 5.90382, 28.2873, 16.3064, 8.22368, -45.5541, -3.17234
11.7042, 5, 5.89145, 28.2962, 16.3035, 8.20405, -45.5741, -3.16145
11.7121, 5, 5.87916, 28.3053, 16.3006, 8.1843, -45.5939, -3.15032
11.7194, 5, 5.86679, 28.3144, 16.2977, 8.16479, -45.614, -3.13904
11.7283, 5, 5.85449, 28.3234, 16.2949, 8.14568, -45.6345, -3.12773
11.7363, 5, 5.84227, 28.3325, 16.2922, 8.12676, -45.655, -3.11635
11.7435, 5, 5.82999, 28.3414, 16.2895, 8.10803, -45.6754, -3.10496
11.7525, 5, 5.81778, 28.3502, 16.2868, 8.08916, -45.6954, -3.09358
11.7604, 5, 5.80566, 28.3591, 16.2842, 8.06989, -45.7152, -3.08237
11.7677, 5, 5.79348, 28.3681, 16.2816, 8.05033, -45.735, -3.07125
11.7772, 5, 5.78128, 28.3771, 16.2789, 8.03076, -45.7548, -3.06011
11.7846, 5, 5.76909, 28.3859, 16.2762, 8.01159, -45.7752, -3.04927
11.7919, 5, 5.75675, 28.3949, 16.2736, 7.99255, -45.7958, -3.03855
11.8012, 5, 5.74433, 28.4037, 16.271, 7.97367, -45.8163, -3.02799
11.8087, 5, 5.73206, 28.4125, 16.2683, 7.95477, -45.8365, -3.01752
11.8159, 5, 5.71978, 28.4213, 16.2657, 7.93561, -45.8565, -3.00708
11.8252, 5, 5.70748, 28.4303, 16.2631, 7.9161, -45.8764, -2.99667
11.8313, 5, 5.70137, 28.4348, 16.2618, 7.90628, -45.8864, -2.99146
11.8402, 5, 5.68918, 28.4437, 16.2579, 7.87711, -45.9167, -2.97563
11.8473, 5, 5.67692, 28.4526, 16.2566, 7.86754, -45.927, -2.97034
11.8553, 5, 5.66459, 28.4616, 16.2539, 7.84863, -45.9476, -2.95961
11.8633, 5, 5.65245, 28.4703, 16.2512, 7.82993, -45.968, -2.94878
11.8734, 5, 5.63414, 28.4836, 16.2471, 7.8017, -45.998, -2.93237
11.8793, 5, 5.62802, 28.4881, 16.2458, 7.79216, -46.0079, -2.92688
11.8873, 5, 5.61581, 28.4971, 16.243, 7.77279, -46.0277, -2.91571
11.8953, 5, 5.60354, 28.5059, 16.2404, 7.75326, -46.0477, -2.90447
11.9056, 5, 5.58495, 28.5192, 16.2366, 7.72432, -46.0783, -2.88793
11.9113, 5, 5.57879, 28.5237, 16.2354, 7.7148, -46.0887, -2.88252
11.9209, 5, 5.56029, 28.5367, 16.2318, 7.68649, -46.1193, -2.86675
11.9273, 5, 5.55414, 28.5411, 16.2306, 7.67706, -46.1293, -2.86147
11.9353, 5, 5.54185, 28.55, 16.2282, 7.65812, -46.1494, -2.85109
11.9449, 5, 5.5296, 28.5589, 16.2258, 7.62913, -46.1792, -2.83578
11.9523, 5, 5.51725, 28.5677, 16.2233, 7.61936, -46.1893, -2.83064
11.9593, 5, 5.50487, 28.5765, 16.2209, 7.5999, -46.2096, -2.8206
11.9673, 5, 5.49266, 28.5853, 16.2185, 7.58077, -46.2302, -2.81055
11.9753, 5, 5.48043, 28.594, 16.216, 7.56196, -46.2507, -2.80045
11.9833, 5, 5.46815, 28.6026, 16.2136, 7.54328, -46.2708, -2.79024
