hehonglu123/ABB_Primitive_Study/execution/movelll_30_car/curve_exe_v1000_z1.csv
timestamp, cmd_num, J1, J2, J3, J4, J5, J6
0, -1, -13.4393, 43.6787, 12.5946, -11.6275, -87.029, 7.42441
0.002, -1, -13.4393, 43.6787, 12.5946, -11.6275, -87.029, 7.42441
0.006, -1, -13.4393, 43.6787, 12.5946, -11.6275, -87.029, 7.42441
0.008, -1, -13.4393, 43.6787, 12.5946, -11.6275, -87.029, 7.42441
0.011, -1, -13.4393, 43.6787, 12.5946, -11.6275, -87.029, 7.42441
0.016, -1, -13.4393, 43.6787, 12.5946, -11.6275, -87.029, 7.42441
0.02, -1, -13.4393, 43.6787, 12.5946, -11.6275, -87.029, 7.42441
0.024, -1, -13.4393, 43.6787, 12.5946, -11.6275, -87.029, 7.42441
0.028, -1, -13.4393, 43.6787, 12.5946, -11.6275, -87.029, 7.42441
0.032, -1, -13.4393, 43.6787, 12.5946, -11.6275, -87.029, 7.42441
0.036, -1, -13.4392, 43.6786, 12.5946, -11.6275, -87.029, 7.42441
0.04, -1, -13.439, 43.6785, 12.5946, -11.6275, -87.029, 7.42441
0.044, -1, -13.4384, 43.678, 12.5947, -11.6275, -87.029, 7.42439
0.048, -1, -13.4372, 43.6772, 12.5949, -11.6274, -87.0289, 7.42434
0.052, -1, -13.4355, 43.6758, 12.5951, -11.6273, -87.0287, 7.42422
0.056, -1, -13.433, 43.6738, 12.5955, -11.627, -87.0284, 7.42397
0.06, -1, -13.4296, 43.671, 12.5961, -11.6264, -87.0277, 7.42349
0.064, -1, -13.4254, 43.6675, 12.5969, -11.6253, -87.0264, 7.42266
0.068, -1, -13.4203, 43.6631, 12.598, -11.6236, -87.0244, 7.42132
0.072, -1, -13.4141, 43.6579, 12.5994, -11.6209, -87.0213, 7.41928
0.076, -1, -13.4066, 43.6516, 12.6011, -11.617, -87.0167, 7.4163
0.08, -1, -13.3977, 43.6442, 12.6034, -11.6115, -87.0103, 7.41213
0.084, -1, -13.3869, 43.6352, 12.6062, -11.604, -87.0016, 7.40644
0.088, -1, -13.3743, 43.6247, 12.6097, -11.5941, -86.9899, 7.39892
0.092, -1, -13.3596, 43.6124, 12.6138, -11.5812, -86.9748, 7.38918
0.096, -1, -13.3427, 43.5982, 12.6186, -11.5648, -86.9557, 7.37685
0.1, -1, -13.3235, 43.582, 12.6243, -11.5444, -86.9319, 7.36155
0.104, -1, -13.3019, 43.5636, 12.6308, -11.5196, -86.9029, 7.3429
0.108, -1, -13.2776, 43.5427, 12.6382, -11.4899, -86.868, 7.32054
0.112, -1, -13.2505, 43.5193, 12.6467, -11.4547, -86.8269, 7.29416
0.116, -1, -13.2206, 43.4932, 12.6562, -11.4137, -86.7789, 7.26346
0.12, -1, -13.1877, 43.4644, 12.6669, -11.3667, -86.7238, 7.22818
0.124, -1, -13.1519, 43.4328, 12.6786, -11.3132, -86.6612, 7.18814
0.128, -1, -13.113, 43.3984, 12.6916, -11.2532, -86.591, 7.14319
0.131, -1, -13.071, 43.3611, 12.7056, -11.1865, -86.5129, 7.09326
0.136, -1, -13.026, 43.321, 12.7209, -11.1131, -86.4269, 7.03835
0.139, -1, -12.9779, 43.2779, 12.7373, -11.0331, -86.3333, 6.9785
0.144, -1, -12.9267, 43.232, 12.7548, -10.9467, -86.2321, 6.91384
0.148, -1, -12.8726, 43.1833, 12.7734, -10.854, -86.1236, 6.84454
0.152, -1, -12.8155, 43.132, 12.7932, -10.7555, -86.0082, 6.77084
0.156, -1, -12.7557, 43.0781, 12.8139, -10.6514, -85.8863, 6.69301
0.16, -1, -12.6932, 43.0219, 12.8355, -10.5422, -85.7585, 6.61137
0.164, -1, -12.6282, 42.9633, 12.8581, -10.4284, -85.6253, 6.52627
0.168, -1, -12.5607, 42.9025, 12.8815, -10.3105, -85.4872, 6.43809
0.172, -1, -12.4909, 42.8396, 12.9056, -10.189, -85.3449, 6.34721
0.176, -1, -12.4189, 42.7749, 12.9305, -10.0644, -85.1989, 6.25399
0.18, -1, -12.345, 42.7085, 12.956, -9.93711, -85.0499, 6.15879
0.184, -1, -12.2694, 42.6406, 12.9821, -9.80765, -84.8983, 6.06194
0.188, -1, -12.1925, 42.5714, 13.0086, -9.6764, -84.7446, 5.96375
0.192, -1, -12.1142, 42.5011, 13.0356, -9.54373, -84.5892, 5.86449
0.196, -1, -12.0348, 42.4297, 13.0629, -9.40995, -84.4326, 5.76439
0.2, -1, -11.9542, 42.3573, 13.0906, -9.27534, -84.2749, 5.66366
0.204, -1, -11.8724, 42.2841, 13.1185, -9.14011, -84.1166, 5.56246
0.208, -1, -11.7897, 42.21, 13.1466, -9.00443, -83.9577, 5.46092
0.212, -1, -11.7061, 42.1354, 13.1749, -8.86843, -83.7985, 5.35913
0.216, -1, -11.6218, 42.0602, 13.2033, -8.7322, -83.6389, 5.25717
0.22, -1, -11.5371, 41.9847, 13.2318, -8.5958, -83.4792, 5.15507
0.224, -1, -11.452, 41.909, 13.2603, -8.45928, -83.3194, 5.05288
0.228, -1, -11.3667, 41.8332, 13.2889, -8.32266, -83.1594, 4.95062
0.232, -1, -11.2813, 41.7572, 13.3176, -8.18597, -82.9993, 4.8483
0.236, -1, -11.1957, 41.6811, 13.3462, -8.04922, -82.8392, 4.74595
0.24, -1, -11.11, 41.605, 13.3749, -7.91243, -82.679, 4.64355
0.244, -1, -11.0243, 41.5288, 13.4035, -7.77561, -82.5188, 4.54114
0.248, -1, -10.9386, 41.4526, 13.4322, -7.63876, -82.3586, 4.4387
0.252, -1, -10.8528, 41.3764, 13.4609, -7.50189, -82.1983, 4.33625
0.256, -1, -10.767, 41.3002, 13.4896, -7.36501, -82.0381, 4.2338
0.26, -1, -10.6811, 41.2239, 13.5183, -7.22813, -81.8778, 4.13133
0.264, -1, -10.5953, 41.1477, 13.547, -7.09125, -81.7175, 4.02887
0.268, -1, -10.5094, 41.0714, 13.5757, -6.95436, -81.5572, 3.92641
0.272, -1, -10.4236, 40.9952, 13.6044, -6.81749, -81.397, 3.82396
0.276, -1, -10.3378, 40.9189, 13.6331, -6.68063, -81.2367, 3.72151
0.28, -1, -10.252, 40.8427, 13.6618, -6.54379, -81.0765, 3.61908
0.284, -1, -10.1661, 40.7665, 13.6904, -6.40697, -80.9163, 3.51666
0.288, -1, -10.0803, 40.6903, 13.7191, -6.27017, -80.7561, 3.41427
0.292, -1, -9.99456, 40.6141, 13.7478, -6.13341, -80.596, 3.31189
0.296, -1, -9.9088, 40.538, 13.7764, -5.99668, -80.4359, 3.20955
0.3, -1, -9.82306, 40.4618, 13.8051, -5.85999, -80.2758, 3.10723
0.304, -1, -9.73734, 40.3857, 13.8337, -5.72334, -80.1158, 3.00494
0.308, -1, -9.65166, 40.3096, 13.8624, -5.58674, -79.9558, 2.90269
0.312, -1, -9.566, 40.2336, 13.891, -5.45019, -79.796, 2.80048
0.316, -1, -9.48038, 40.1575, 13.9196, -5.31369, -79.6361, 2.69831
0.32, -1, -9.3948, 40.0815, 13.9482, -5.17726, -79.4764, 2.59618
0.324, -1, -9.30925, 40.0055, 13.9768, -5.04089, -79.3167, 2.4941
0.328, -1, -9.22375, 39.9296, 14.0054, -4.90458, -79.1571, 2.39207
0.332, -1, -9.13829, 39.8537, 14.0339, -4.76835, -78.9976, 2.2901
0.336, -1, -9.05287, 39.7778, 14.0625, -4.63219, -78.8382, 2.18818
0.34, -1, -8.9675, 39.702, 14.091, -4.49612, -78.6788, 2.08632
0.344, -1, -8.88219, 39.6262, 14.1195, -4.36012, -78.5196, 1.98452
0.348, -1, -8.79692, 39.5505, 14.148, -4.22421, -78.3604, 1.88279
0.352, -1, -8.71172, 39.4748, 14.1765, -4.0884, -78.2014, 1.78113
0.356, -1, -8.62657, 39.3992, 14.2049, -3.95267, -78.0425, 1.67953
0.36, -1, -8.54148, 39.3236, 14.2334, -3.81705, -77.8837, 1.57801
0.364, -1, -8.45646, 39.2481, 14.2618, -3.68152, -77.725, 1.47657
0.368, -1, -8.3715, 39.1727, 14.2902, -3.54611, -77.5664, 1.3752
0.372, -1, -8.28661, 39.0973, 14.3185, -3.4108, -77.408, 1.27392
0.376, -1, -8.20179, 39.0219, 14.3469, -3.2756, -77.2497, 1.17272
0.38, -1, -8.11704, 38.9467, 14.3752, -3.14052, -77.0915, 1.07161
0.384, -1, -8.03237, 38.8715, 14.4035, -3.00557, -76.9335, 0.970588
0.388, -1, -7.94777, 38.7963, 14.4318, -2.87073, -76.7756, 0.869659
0.392, -1, -7.86325, 38.7212, 14.46, -2.73602, -76.6179, 0.768825
0.396, -1, -7.77881, 38.6463, 14.4882, -2.60145, -76.4603, 0.668089
0.4, -1, -7.69446, 38.5713, 14.5164, -2.467, -76.3029, 0.567454
0.404, -1, -7.61019, 38.4965, 14.5446, -2.3327, -76.1456, 0.466921
0.408, -1, -7.526, 38.4217, 14.5727, -2.19854, -75.9885, 0.366494
0.412, -1, -7.44191, 38.347, 14.6008, -2.06452, -75.8316, 0.266176
0.416, -1, -7.35791, 38.2724, 14.6288, -1.93064, -75.6748, 0.165968
0.42, -1, -7.274, 38.1979, 14.6569, -1.79692, -75.5183, 0.0658724
0.424, -1, -7.19019, 38.1235, 14.6849, -1.66336, -75.3619, -0.0341072
0.428, -1, -7.10648, 38.0491, 14.7128, -1.52995, -75.2057, -0.133969
0.432, -1, -7.02287, 37.9748, 14.7408, -1.3967, -75.0496, -0.233711
0.436, -1, -6.93935, 37.9007, 14.7687, -1.26362, -74.8938, -0.33333
0.44, -1, -6.85595, 37.8266, 14.7965, -1.1307, -74.7382, -0.432824
0.444, -1, -6.77264, 37.7526, 14.8244, -0.99795, -74.5827, -0.532191
0.448, -1, -6.68945, 37.6787, 14.8522, -0.865375, -74.4275, -0.631429
0.452, -1, -6.60636, 37.6049, 14.8799, -0.732975, -74.2725, -0.730535
0.456, -1, -6.52339, 37.5312, 14.9077, -0.600755, -74.1176, -0.829507
0.46, -1, -6.44053, 37.4576, 14.9353, -0.468716, -73.963, -0.928344
0.464, -1, -6.35778, 37.3842, 14.963, -0.336861, -73.8086, -1.02704
0.468, -1, -6.27515, 37.3108, 14.9906, -0.205193, -73.6545, -1.1256
0.472, -1, -6.19264, 37.2375, 15.0181, -0.0737153, -73.5005, -1.22402
0.476, -1, -6.11024, 37.1643, 15.0457, 0.0575699, -73.3468, -1.32229
0.48, -1, -6.02797, 37.0912, 15.0732, 0.18866, -73.1933, -1.42042
0.484, -1, -5.94582, 37.0183, 15.1006, 0.319552, -73.04, -1.51839
0.488, -1, -5.8638, 36.9454, 15.128, 0.450244, -72.887, -1.61622
0.492, -1, -5.7819, 36.8727, 15.1554, 0.580734, -72.7342, -1.7139
0.496, -1, -5.70012, 36.8001, 15.1827, 0.711018, -72.5817, -1.81142
0.5, -1, -5.61848, 36.7276, 15.2099, 0.841096, -72.4294, -1.90879
0.504, -1, -5.53697, 36.6552, 15.2372, 0.970964, -72.2773, -2.006
0.508, -1, -5.45558, 36.5829, 15.2644, 1.10062, -72.1255, -2.10306
0.512, -1, -5.37433, 36.5108, 15.2915, 1.23006, -71.9739, -2.19995
0.516, -1, -5.29321, 36.4387, 15.3186, 1.35929, -71.8226, -2.29668
0.52, -1, -5.21223, 36.3668, 15.3456, 1.4883, -71.6715, -2.39325
0.524, -1, -5.13138, 36.295, 15.3726, 1.6171, -71.5207, -2.48966
0.528, -1, -5.05067, 36.2233, 15.3996, 1.74567, -71.3702, -2.5859
0.532, -1, -4.97009, 36.1518, 15.4265, 1.87402, -71.2199, -2.68198
0.536, -1, -4.88966, 36.0803, 15.4534, 2.00215, -71.0698, -2.77789
0.54, -1, -4.80936, 36.009, 15.4802, 2.13005, -70.9201, -2.87363
0.544, -1, -4.7292, 35.9378, 15.507, 2.25773, -70.7706, -2.9692
0.548, -1, -4.64919, 35.8668, 15.5337, 2.38518, -70.6213, -3.0646
0.552, -1, -4.56931, 35.7959, 15.5604, 2.51241, -70.4724, -3.15984
0.556, -1, -4.48958, 35.725, 15.587, 2.6394, -70.3237, -3.2549
0.56, -1, -4.41, 35.6544, 15.6136, 2.76617, -70.1752, -3.34979
0.564, -1, -4.33056, 35.5838, 15.6401, 2.8927, -70.0271, -3.44451
0.568, -1, -4.25126, 35.5134, 15.6666, 3.01901, -69.8792, -3.53905
0.572, -1, -4.17211, 35.4431, 15.693, 3.14508, -69.7316, -3.63342
0.576, -1, -4.0931, 35.373, 15.7194, 3.27092, -69.5842, -3.72761
0.58, -1, -4.01424, 35.3029, 15.7458, 3.39652, -69.4372, -3.82163
0.584, -1, -3.93553, 35.233, 15.772, 3.52189, -69.2904, -3.91547
0.588, -1, -3.85696, 35.1633, 15.7983, 3.64702, -69.1438, -4.00914
0.592, -1, -3.77855, 35.0936, 15.8245, 3.77191, -68.9976, -4.10263
0.596, -1, -3.70028, 35.0241, 15.8506, 3.89657, -68.8516, -4.19594
0.6, -1, -3.62216, 34.9548, 15.8767, 4.02099, -68.7059, -4.28908
0.604, -1, -3.54419, 34.8855, 15.9027, 4.14517, -68.5605, -4.38203
0.608, -1, -3.46637, 34.8164, 15.9287, 4.26911, -68.4154, -4.47481
0.612, -1, -3.3887, 34.7474, 15.9547, 4.39281, -68.2706, -4.5674
0.616, -1, -3.31118, 34.6786, 15.9806, 4.51628, -68.126, -4.65982
0.62, -1, -3.23382, 34.6099, 16.0064, 4.63949, -67.9817, -4.75205
0.624, -1, -3.1566, 34.5413, 16.0322, 4.76247, -67.8377, -4.84411
0.628, -1, -3.07954, 34.4729, 16.0579, 4.88521, -67.694, -4.93598
0.632, -1, -3.00262, 34.4046, 16.0836, 5.0077, -67.5506, -5.02767
0.636, -1, -2.92586, 34.3364, 16.1092, 5.12995, -67.4074, -5.11918
0.64, -1, -2.84926, 34.2684, 16.1348, 5.25195, -67.2646, -5.2105
0.644, -1, -2.7728, 34.2005, 16.1604, 5.37371, -67.122, -5.30165
0.648, -1, -2.6965, 34.1328, 16.1858, 5.49523, -66.9797, -5.39261
0.652, -1, -2.62035, 34.0652, 16.2113, 5.6165, -66.8377, -5.48338
0.656, -1, -2.54436, 33.9977, 16.2366, 5.73753, -66.696, -5.57398
0.66, -1, -2.46852, 33.9303, 16.262, 5.85831, -66.5546, -5.66439
0.664, -1, -2.39283, 33.8631, 16.2872, 5.97884, -66.4135, -5.75461
0.668, -1, -2.3173, 33.7961, 16.3125, 6.09913, -66.2726, -5.84465
0.672, -1, -2.24192, 33.7291, 16.3376, 6.21917, -66.1321, -5.93451
0.676, -1, -2.1667, 33.6623, 16.3628, 6.33897, -65.9918, -6.02418
0.68, -1, -2.09163, 33.5957, 16.3878, 6.45851, -65.8518, -6.11367
0.684, -1, -2.01672, 33.5292, 16.4129, 6.57781, -65.7121, -6.20297
0.688, -1, -1.94196, 33.4628, 16.4378, 6.69687, -65.5727, -6.29208
0.692, -1, -1.86736, 33.3965, 16.4627, 6.81567, -65.4336, -6.38101
0.696, -1, -1.79291, 33.3304, 16.4876, 6.93423, -65.2948, -6.46976
0.7, -1, -1.71862, 33.2645, 16.5124, 7.05254, -65.1562, -6.55832
0.704, -1, -1.64448, 33.1986, 16.5372, 7.1706, -65.018, -6.64669
0.708, -1, -1.5705, 33.1329, 16.5619, 7.28841, -64.8801, -6.73488
0.712, -1, -1.49668, 33.0674, 16.5865, 7.40597, -64.7424, -6.82288
0.716, -1, -1.42301, 33.002, 16.6111, 7.52329, -64.605, -6.9107
0.72, -1, -1.34949, 32.9367, 16.6357, 7.64036, -64.468, -6.99833
0.724, -1, -1.27614, 32.8715, 16.6602, 7.75718, -64.3312, -7.08577
0.728, -1, -1.20293, 32.8065, 16.6846, 7.87375, -64.1947, -7.17303
0.732, -1, -1.12989, 32.7417, 16.709, 7.99007, -64.0585, -7.2601
0.736, -1, -1.057, 32.677, 16.7333, 8.10615, -63.9226, -7.34699
0.74, -1, -0.984259, 32.6124, 16.7576, 8.22197, -63.7869, -7.43369
0.744, -1, -0.911678, 32.5479, 16.7819, 8.33755, -63.6516, -7.52021
0.748, -1, -0.839252, 32.4836, 16.8061, 8.45288, -63.5166, -7.60653
0.752, -1, -0.766981, 32.4194, 16.8302, 8.56796, -63.3818, -7.69268
0.756, -1, -0.694864, 32.3554, 16.8543, 8.6828, -63.2474, -7.77864
0.76, -1, -0.622901, 32.2915, 16.8783, 8.79738, -63.1132, -7.86441
0.764, -1, -0.551092, 32.2277, 16.9023, 8.91172, -62.9793, -7.95
0.768, -1, -0.479437, 32.1641, 16.9262, 9.02582, -62.8457, -8.0354
0.772, -1, -0.407935, 32.1006, 16.9501, 9.13966, -62.7124, -8.12062
0.776, -1, -0.336586, 32.0373, 16.9739, 9.25326, -62.5794, -8.20566
0.78, -1, -0.26539, 31.9741, 16.9977, 9.36662, -62.4467, -8.29051
0.784, -1, -0.194346, 31.911, 17.0214, 9.47973, -62.3142, -8.37518
0.788, -1, -0.123455, 31.848, 17.0451, 9.5926, -62.182, -8.45966
0.792, -1, -0.0527154, 31.7852, 17.0687, 9.70522, -62.0502, -8.54397
0.796, -1, 0.0178725, 31.7226, 17.0923, 9.81761, -61.9186, -8.62809
0.8, -1, 0.0883091, 31.66, 17.1158, 9.92975, -61.7873, -8.71204
0.804, -1, 0.158595, 31.5976, 17.1393, 10.0417, -61.6562, -8.7958
0.808, -1, 0.22873, 31.5353, 17.1627, 10.1533, -61.5255, -8.87938
0.812, -1, 0.298716, 31.4732, 17.186, 10.2647, -61.395, -8.96279
0.816, -1, 0.368552, 31.4112, 17.2094, 10.3759, -61.2648, -9.04602
0.82, -1, 0.438239, 31.3493, 17.2326, 10.4869, -61.1349, -9.12907
0.824, -1, 0.507778, 31.2876, 17.2559, 10.5976, -61.0053, -9.21194
0.828, -1, 0.577169, 31.226, 17.279, 10.7081, -60.8759, -9.29464
0.832, -1, 0.646413, 31.1645, 17.3021, 10.8183, -60.7468, -9.37716
0.836, -1, 0.71551, 31.1031, 17.3252, 10.9283, -60.618, -9.45951
0.84, -1, 0.78446, 31.0419, 17.3482, 11.0381, -60.4895, -9.54168
0.844, -1, 0.853266, 30.9808, 17.3712, 11.1476, -60.3612, -9.62368
0.848, -1, 0.921925, 30.9199, 17.3941, 11.2569, -60.2332, -9.7055
0.852, -1, 0.990441, 30.859, 17.417, 11.366, -60.1055, -9.78716
0.856, -1, 1.05881, 30.7983, 17.4398, 11.4749, -59.9781, -9.86864
0.86, -1, 1.12704, 30.7378, 17.4626, 11.5835, -59.8509, -9.94995
0.864, -1, 1.19512, 30.6773, 17.4854, 11.6919, -59.7239, -10.0311
0.868, -1, 1.26307, 30.617, 17.508, 11.8001, -59.5973, -10.1121
0.872, -1, 1.33087, 30.5568, 17.5307, 11.908, -59.4709, -10.1929
0.876, -1, 1.39853, 30.4967, 17.5533, 12.0157, -59.3448, -10.2735
0.88, -1, 1.46604, 30.4368, 17.5758, 12.1232, -59.2189, -10.354
0.884, -1, 1.53342, 30.377, 17.5983, 12.2305, -59.0933, -10.4343
0.888, -1, 1.60066, 30.3173, 17.6208, 12.3375, -58.9679, -10.5144
0.892, -1, 1.66775, 30.2577, 17.6432, 12.4444, -58.8429, -10.5943
0.896, -1, 1.73471, 30.1982, 17.6655, 12.551, -58.718, -10.6741
0.9, -1, 1.80153, 30.1389, 17.6878, 12.6574, -58.5935, -10.7538
0.904, -1, 1.86821, 30.0797, 17.7101, 12.7635, -58.4692, -10.8332
0.908, -1, 1.93476, 30.0206, 17.7323, 12.8695, -58.3451, -10.9125
0.912, -1, 2.00117, 29.9617, 17.7545, 12.9752, -58.2213, -10.9917
0.916, -1, 2.06744, 29.9028, 17.7766, 13.0807, -58.0978, -11.0707
0.92, -1, 2.13357, 29.8441, 17.7987, 13.186, -57.9745, -11.1495
0.924, -1, 2.19957, 29.7855, 17.8207, 13.2911, -57.8514, -11.2281
0.928, -1, 2.26543, 29.727, 17.8427, 13.3959, -57.7287, -11.3066
0.932, -1, 2.33116, 29.6687, 17.8647, 13.5006, -57.6061, -11.385
0.936, -1, 2.39676, 29.6104, 17.8866, 13.605, -57.4838, -11.4631
0.94, -1, 2.46222, 29.5523, 17.9084, 13.7092, -57.3618, -11.5412
0.944, -1, 2.52755, 29.4943, 17.9303, 13.8133, -57.24, -11.619
0.948, -1, 2.59275, 29.4364, 17.952, 13.9171, -57.1185, -11.6967
0.952, -1, 2.65781, 29.3787, 17.9738, 14.0206, -56.9972, -11.7743
0.956, -1, 2.72274, 29.321, 17.9954, 14.124, -56.8761, -11.8516
0.96, -1, 2.78755, 29.2635, 18.0171, 14.2272, -56.7553, -11.9289
0.964, -1, 2.85222, 29.2061, 18.0387, 14.3302, -56.6348, -12.0059
0.968, -1, 2.91676, 29.1488, 18.0602, 14.4329, -56.5144, -12.0829
0.972, -1, 2.98117, 29.0916, 18.0817, 14.5355, -56.3944, -12.1596
0.976, -1, 3.04545, 29.0345, 18.1032, 14.6378, -56.2745, -12.2362
0.98, -1, 3.10961, 28.9775, 18.1246, 14.7399, -56.1549, -12.3127
0.984, -1, 3.17363, 28.9207, 18.146, 14.8419, -56.0356, -12.389
0.988, -1, 3.23753, 28.864, 18.1673, 14.9436, -55.9165, -12.4651
0.992, -1, 3.3013, 28.8074, 18.1886, 15.0451, -55.7976, -12.5411
0.996, -1, 3.36494, 28.7508, 18.2099, 15.1465, -55.6789, -12.617
1, -1, 3.42846, 28.6945, 18.2311, 15.2476, -55.5605, -12.6927
1.004, -1, 3.49185, 28.6382, 18.2523, 15.3485, -55.4423, -12.7682
1.008, -1, 3.55512, 28.582, 18.2734, 15.4492, -55.3244, -12.8436
1.012, -1, 3.61826, 28.5259, 18.2945, 15.5498, -55.2067, -12.9189
1.016, -1, 3.68127, 28.47, 18.3155, 15.6501, -55.0892, -12.994
1.02, -1, 3.74416, 28.4142, 18.3365, 15.7502, -54.972, -13.0689
1.024, -1, 3.80693, 28.3584, 18.3575, 15.8502, -54.855, -13.1437
1.027, -1, 3.86958, 28.3028, 18.3784, 15.9499, -54.7382, -13.2184
1.032, -1, 3.9321, 28.2473, 18.3993, 16.0494, -54.6216, -13.2929
1.036, -1, 3.9945, 28.1919, 18.4201, 16.1488, -54.5053, -13.3673
1.04, -1, 4.05678, 28.1366, 18.4409, 16.2479, -54.3892, -13.4415
1.044, -1, 4.11893, 28.0814, 18.4616, 16.3469, -54.2733, -13.5156
1.048, -1, 4.18097, 28.0263, 18.4824, 16.4457, -54.1577, -13.5895
1.052, -1, 4.24289, 27.9714, 18.503, 16.5442, -54.0422, -13.6633
1.055, -1, 4.30468, 27.9165, 18.5237, 16.6426, -53.927, -13.7369
1.06, -1, 4.36636, 27.8617, 18.5443, 16.7408, -53.8121, -13.8104
1.064, -1, 4.42792, 27.8071, 18.5648, 16.8388, -53.6973, -13.8838
1.068, -1, 4.48936, 27.7525, 18.5853, 16.9366, -53.5828, -13.957
1.072, -1, 4.55068, 27.6981, 18.6058, 17.0343, -53.4685, -14.0301
1.076, -1, 4.61188, 27.6438, 18.6262, 17.1317, -53.3544, -14.103
1.08, -1, 4.67297, 27.5895, 18.6466, 17.229, -53.2405, -14.1758
1.084, -1, 4.73394, 27.5354, 18.667, 17.326, -53.1268, -14.2485
1.088, -1, 4.7948, 27.4814, 18.6873, 17.4229, -53.0134, -14.321
1.091, -1, 4.85554, 27.4274, 18.7076, 17.5196, -52.9002, -14.3934
1.096, -1, 4.91617, 27.3736, 18.7278, 17.6161, -52.7871, -14.4656
1.1, -1, 4.97668, 27.3199, 18.7481, 17.7125, -52.6743, -14.5378
1.104, -1, 5.03708, 27.2663, 18.7682, 17.8086, -52.5618, -14.6097
1.108, -1, 5.09737, 27.2127, 18.7883, 17.9046, -52.4494, -14.6816
1.112, -1, 5.15754, 27.1593, 18.8084, 18.0004, -52.3372, -14.7533
1.116, -1, 5.2176, 27.106, 18.8285, 18.096, -52.2253, -14.8249
1.119, -1, 5.27755, 27.0528, 18.8485, 18.1915, -52.1135, -14.8963
1.124, -1, 5.33739, 26.9996, 18.8685, 18.2867, -52.0019, -14.9676
1.128, -1, 5.39712, 26.9466, 18.8884, 18.3818, -51.8906, -15.0388
1.132, -1, 5.45673, 26.8937, 18.9083, 18.4767, -51.7795, -15.1098
1.136, -1, 5.51624, 26.8408, 18.9282, 18.5715, -51.6685, -15.1807
1.14, -1, 5.57564, 26.7881, 18.948, 18.666, -51.5578, -15.2515
1.144, -1, 5.63493, 26.7355, 18.9678, 18.7604, -51.4473, -15.3222
1.147, -1, 5.69412, 26.6829, 18.9876, 18.8547, -51.337, -15.3927
1.152, -1, 5.75319, 26.6305, 19.0073, 18.9487, -51.2268, -15.4631
1.156, -1, 5.81216, 26.5781, 19.027, 19.0426, -51.1169, -15.5334
1.16, -1, 5.87103, 26.5259, 19.0467, 19.1363, -51.0072, -15.6035
1.164, -1, 5.92979, 26.4737, 19.0663, 19.2298, -50.8976, -15.6736
1.168, -1, 5.98844, 26.4216, 19.0859, 19.3232, -50.7883, -15.7435
1.172, -1, 6.04699, 26.3696, 19.1054, 19.4164, -50.6792, -15.8132
1.175, -1, 6.10543, 26.3177, 19.1249, 19.5095, -50.5702, -15.8829
1.18, -1, 6.16377, 26.266, 19.1444, 19.6024, -50.4614, -15.9524
1.184, -1, 6.22201, 26.2142, 19.1639, 19.6951, -50.3529, -16.0218
1.188, -1, 6.28015, 26.1626, 19.1833, 19.7876, -50.2445, -16.0911
1.192, -1, 6.33818, 26.1111, 19.2027, 19.88, -50.1363, -16.1603
1.196, -1, 6.39611, 26.0597, 19.222, 19.9723, -50.0283, -16.2293
1.2, -1, 6.45394, 26.0083, 19.2413, 20.0643, -49.9205, -16.2982
1.204, -1, 6.51167, 25.9571, 19.2606, 20.1562, -49.8129, -16.367
1.208, -1, 6.5693, 25.9059, 19.2798, 20.248, -49.7055, -16.4357
1.212, -1, 6.62683, 25.8548, 19.299, 20.3396, -49.5982, -16.5042
1.216, -1, 6.68426, 25.8038, 19.3182, 20.431, -49.4912, -16.5727
1.22, -1, 6.74159, 25.7529, 19.3374, 20.5223, -49.3843, -16.641
1.224, -1, 6.79882, 25.7021, 19.3565, 20.6134, -49.2776, -16.7092
1.228, -1, 6.85596, 25.6514, 19.3756, 20.7044, -49.1711, -16.7773
1.232, -1, 6.91299, 25.6008, 19.3946, 20.7952, -49.0648, -16.8453
1.236, -1, 6.96993, 25.5502, 19.4136, 20.8858, -48.9586, -16.9131
1.24, -1, 7.02678, 25.4997, 19.4326, 20.9763, -48.8526, -16.9809
1.244, -1, 7.08352, 25.4494, 19.4515, 21.0667, -48.7469, -17.0485
1.248, -1, 7.14018, 25.3991, 19.4705, 21.1569, -48.6413, -17.116
1.252, -1, 7.19673, 25.3488, 19.4893, 21.2469, -48.5358, -17.1834
1.256, -1, 7.25319, 25.2987, 19.5082, 21.3368, -48.4306, -17.2507
1.26, -1, 7.30956, 25.2487, 19.527, 21.4266, -48.3255, -17.3179
1.264, -1, 7.36583, 25.1987, 19.5458, 21.5161, -48.2206, -17.385
1.267, -1, 7.42201, 25.1488, 19.5646, 21.6056, -48.1158, -17.4519
1.272, -1, 7.4781, 25.099, 19.5833, 21.6949, -48.0113, -17.5188
1.276, -1, 7.53409, 25.0493, 19.602, 21.784, -47.9069, -17.5855
1.28, -1, 7.58999, 24.9997, 19.6207, 21.873, -47.8027, -17.6521
1.284, -1, 7.6458, 24.9501, 19.6393, 21.9619, -47.6986, -17.7186
1.288, -1, 7.70152, 24.9007, 19.6579, 22.0506, -47.5948, -17.785
1.292, -1, 7.75715, 24.8513, 19.6765, 22.1392, -47.4911, -17.8513
1.295, -1, 7.81268, 24.802, 19.695, 22.2276, -47.3875, -17.9175
1.3, -1, 7.86813, 24.7528, 19.7135, 22.3159, -47.2842, -17.9836
1.304, -1, 7.92348, 24.7036, 19.732, 22.404, -47.181, -18.0496
1.308, -1, 7.97875, 24.6545, 19.7505, 22.492, -47.0779, -18.1154
1.312, -1, 8.03393, 24.6055, 19.7689, 22.5798, -46.9751, -18.1812
1.316, -1, 8.08901, 24.5566, 19.7873, 22.6675, -46.8724, -18.2468
1.32, -1, 8.14401, 24.5078, 19.8057, 22.7551, -46.7699, -18.3124
1.324, -1, 8.19893, 24.4591, 19.824, 22.8425, -46.6675, -18.3778
1.328, -1, 8.25375, 24.4104, 19.8423, 22.9298, -46.5653, -18.4432
1.332, -1, 8.30849, 24.3618, 19.8606, 23.017, -46.4632, -18.5084
1.336, -1, 8.36314, 24.3133, 19.8788, 23.104, -46.3614, -18.5735
1.34, -1, 8.4177, 24.2648, 19.8971, 23.1909, -46.2596, -18.6386
1.344, -1, 8.47218, 24.2165, 19.9153, 23.2776, -46.1581, -18.7035
1.348, -1, 8.52657, 24.1682, 19.9334, 23.3642, -46.0567, -18.7683
1.352, -1, 8.58088, 24.1199, 19.9515, 23.4507, -45.9554, -18.833
1.356, -1, 8.6351, 24.0718, 19.9697, 23.537, -45.8543, -18.8976
1.36, -1, 8.68923, 24.0237, 19.9877, 23.6232, -45.7534, -18.9622
1.364, -1, 8.74328, 23.9757, 20.0058, 23.7092, -45.6526, -19.0266
1.368, -1, 8.79725, 23.9278, 20.0238, 23.7952, -45.552, -19.0909
1.372, -1, 8.85114, 23.88, 20.0418, 23.881, -45.4516, -19.1551
1.376, -1, 8.90494, 23.8322, 20.0598, 23.9666, -45.3513, -19.2192
1.38, -1, 8.95866, 23.7845, 20.0777, 24.0521, -45.2511, -19.2833
1.384, -1, 9.01229, 23.7369, 20.0956, 24.1375, -45.1511, -19.3472
1.388, -1, 9.06584, 23.6894, 20.1135, 24.2228, -45.0513, -19.411
1.392, -1, 9.11932, 23.6419, 20.1314, 24.3079, -44.9516, -19.4747
1.396, -1, 9.1727, 23.5945, 20.1492, 24.393, -44.8521, -19.5384
1.4, -1, 9.22601, 23.5472, 20.167, 24.4778, -44.7527, -19.6019
1.404, -1, 9.27924, 23.4999, 20.1848, 24.5626, -44.6535, -19.6653
1.408, -1, 9.33239, 23.4527, 20.2025, 24.6472, -44.5544, -19.7287
1.412, -1, 9.38546, 23.4056, 20.2202, 24.7317, -44.4554, -19.7919
1.416, -1, 9.43844, 23.3585, 20.2379, 24.8161, -44.3567, -19.8551
1.42, -1, 9.49135, 23.3116, 20.2556, 24.9003, -44.258, -19.9181
1.424, -1, 9.54418, 23.2647, 20.2732, 24.9844, -44.1595, -19.9811
1.428, -1, 9.59693, 23.2178, 20.2908, 25.0684, -44.0612, -20.044
1.432, -1, 9.6496, 23.1711, 20.3084, 25.1523, -43.963, -20.1067
1.436, -1, 9.7022, 23.1244, 20.326, 25.236, -43.865, -20.1694
1.44, -1, 9.75472, 23.0777, 20.3435, 25.3196, -43.767, -20.232
1.444, -1, 9.80716, 23.0312, 20.361, 25.4031, -43.6693, -20.2945
1.448, -1, 9.85952, 22.9847, 20.3785, 25.4865, -43.5717, -20.3569
1.452, -1, 9.91181, 22.9383, 20.396, 25.5697, -43.4742, -20.4192
1.456, -1, 9.96403, 22.8919, 20.4134, 25.6528, -43.3769, -20.4814
1.46, -1, 10.0162, 22.8456, 20.4308, 25.7358, -43.2797, -20.5436
1.464, -1, 10.0682, 22.7994, 20.4482, 25.8187, -43.1826, -20.6056
1.468, -1, 10.1202, 22.7533, 20.4656, 25.9015, -43.0857, -20.6676
1.472, -1, 10.1721, 22.7072, 20.4829, 25.9841, -42.989, -20.7294
1.476, -1, 10.224, 22.6612, 20.5002, 26.0666, -42.8923, -20.7912
1.48, -1, 10.2757, 22.6152, 20.5175, 26.149, -42.7958, -20.8529
1.484, -1, 10.3274, 22.5693, 20.5348, 26.2313, -42.6995, -20.9145
1.488, -1, 10.379, 22.5235, 20.552, 26.3135, -42.6033, -20.976
1.492, -1, 10.4306, 22.4777, 20.5692, 26.3956, -42.5072, -21.0374
1.496, -1, 10.482, 22.432, 20.5864, 26.4775, -42.4113, -21.0987
1.5, -1, 10.5334, 22.3864, 20.6035, 26.5593, -42.3154, -21.16
1.504, -1, 10.5848, 22.3408, 20.6207, 26.641, -42.2198, -21.2212
1.508, -1, 10.636, 22.2953, 20.6378, 26.7226, -42.1242, -21.2822
1.512, -1, 10.6872, 22.2499, 20.6549, 26.8041, -42.0288, -21.3432
1.516, -1, 10.7383, 22.2045, 20.6719, 26.8855, -41.9336, -21.4041
1.52, -1, 10.7893, 22.1592, 20.689, 26.9667, -41.8384, -21.4649
1.524, -1, 10.8403, 22.114, 20.706, 27.0479, -41.7434, -21.5257
1.528, -1, 10.8912, 22.0688, 20.723, 27.1289, -41.6485, -21.5863
1.532, -1, 10.942, 22.0237, 20.74, 27.2098, -41.5538, -21.6469
1.536, -1, 10.9928, 21.9786, 20.7569, 27.2906, -41.4592, -21.7074
1.54, -1, 11.0435, 21.9336, 20.7738, 27.3713, -41.3647, -21.7678
1.544, -1, 11.0941, 21.8887, 20.7908, 27.4519, -41.2703, -21.8281
1.548, -1, 11.1446, 21.8438, 20.8076, 27.5324, -41.1761, -21.8884
1.552, -1, 11.1951, 21.799, 20.8245, 27.6127, -41.082, -21.9485
1.556, -1, 11.2455, 21.7542, 20.8413, 27.693, -40.988, -22.0086
1.56, -1, 11.2959, 21.7095, 20.8581, 27.7732, -40.8941, -22.0686
1.564, -1, 11.3462, 21.6649, 20.8749, 27.8532, -40.8004, -22.1285
1.568, -1, 11.3964, 21.6203, 20.8917, 27.9331, -40.7068, -22.1884
1.572, -1, 11.4465, 21.5758, 20.9084, 28.013, -40.6133, -22.2481
1.576, -1, 11.4966, 21.5313, 20.9251, 28.0927, -40.52, -22.3078
1.58, -1, 11.5466, 21.4869, 20.9418, 28.1723, -40.4268, -22.3674
1.584, -1, 11.5965, 21.4426, 20.9585, 28.2518, -40.3336, -22.4269
1.588, -1, 11.6464, 21.3983, 20.9752, 28.3313, -40.2407, -22.4864
1.592, -1, 11.6962, 21.3541, 20.9918, 28.4106, -40.1478, -22.5457
1.596, -1, 11.746, 21.3099, 21.0084, 28.4898, -40.0551, -22.605
1.6, -1, 11.7957, 21.2658, 21.025, 28.5689, -39.9624, -22.6642
1.604, -1, 11.8453, 21.2217, 21.0416, 28.6479, -39.8699, -22.7234
1.608, -1, 11.8948, 21.1778, 21.0581, 28.7268, -39.7776, -22.7824
1.612, -1, 11.9443, 21.1338, 21.0747, 28.8055, -39.6853, -22.8414
1.616, -1, 11.9938, 21.0899, 21.0912, 28.8842, -39.5932, -22.9003
1.62, -1, 12.0431, 21.0461, 21.1076, 28.9628, -39.5011, -22.9591
1.624, -1, 12.0924, 21.0023, 21.1241, 29.0413, -39.4092, -23.0179
1.628, -1, 12.1417, 20.9586, 21.1405, 29.1197, -39.3174, -23.0765
1.632, -1, 12.1908, 20.915, 21.157, 29.198, -39.2258, -23.1352
1.636, -1, 12.2399, 20.8714, 21.1734, 29.2762, -39.1342, -23.1937
1.64, -1, 12.289, 20.8278, 21.1897, 29.3543, -39.0428, -23.2521
1.644, -1, 12.338, 20.7843, 21.2061, 29.4323, -38.9515, -23.3105
1.648, -1, 12.3869, 20.7409, 21.2224, 29.5102, -38.8603, -23.3688
1.652, -1, 12.4358, 20.6975, 21.2388, 29.588, -38.7692, -23.4271
1.656, -1, 12.4846, 20.6542, 21.2551, 29.6657, -38.6782, -23.4852
1.66, -1, 12.5333, 20.6109, 21.2713, 29.7433, -38.5873, -23.5433
1.664, -1, 12.582, 20.5677, 21.2876, 29.8208, -38.4966, -23.6013
1.668, -1, 12.6306, 20.5245, 21.3038, 29.8982, -38.4059, -23.6593
1.672, -1, 12.6792, 20.4814, 21.32, 29.9755, -38.3154, -23.7171
1.676, -1, 12.7277, 20.4384, 21.3362, 30.0527, -38.225, -23.7749
1.68, -1, 12.7761, 20.3953, 21.3524, 30.1298, -38.1347, -23.8327
1.684, -1, 12.8245, 20.3524, 21.3686, 30.2069, -38.0445, -23.8903
1.688, -1, 12.8728, 20.3095, 21.3847, 30.2838, -37.9544, -23.9479
1.692, -1, 12.9211, 20.2666, 21.4008, 30.3606, -37.8644, -24.0054
1.696, -1, 12.9693, 20.2238, 21.4169, 30.4374, -37.7746, -24.0629
1.7, -1, 13.0174, 20.1811, 21.433, 30.514, -37.6848, -24.1203
1.704, -1, 13.0655, 20.1384, 21.449, 30.5906, -37.5951, -24.1776
1.708, -1, 13.1136, 20.0958, 21.4651, 30.6671, -37.5056, -24.2348
1.712, -1, 13.1615, 20.0532, 21.4811, 30.7435, -37.4162, -24.292
1.716, -1, 13.2094, 20.0106, 21.4971, 30.8197, -37.3269, -24.3491
1.72, -1, 13.2573, 19.9681, 21.5131, 30.8959, -37.2376, -24.4061
1.724, -1, 13.3051, 19.9257, 21.529, 30.972, -37.1485, -24.4631
1.728, -1, 13.3528, 19.8833, 21.545, 31.0481, -37.0595, -24.52
1.732, -1, 13.4005, 19.841, 21.5609, 31.124, -36.9706, -24.5768
1.736, -1, 13.4482, 19.7987, 21.5768, 31.1998, -36.8818, -24.6336
1.74, -1, 13.4957, 19.7565, 21.5927, 31.2756, -36.7931, -24.6903
1.744, -1, 13.5433, 19.7143, 21.6086, 31.3512, -36.7045, -24.7469
1.748, -1, 13.5907, 19.6721, 21.6244, 31.4268, -36.6161, -24.8035
1.752, -1, 13.6381, 19.63, 21.6402, 31.5023, -36.5277, -24.86
1.756, -1, 13.6855, 19.588, 21.6561, 31.5776, -36.4394, -24.9164
1.76, -1, 13.7328, 19.546, 21.6719, 31.6529, -36.3512, -24.9728
1.764, -1, 13.78, 19.5041, 21.6876, 31.7282, -36.2632, -25.0291
1.768, -1, 13.8272, 19.4622, 21.7034, 31.8033, -36.1752, -25.0853
1.772, -1, 13.8743, 19.4203, 21.7191, 31.8783, -36.0873, -25.1415
1.776, -1, 13.9214, 19.3785, 21.7348, 31.9533, -35.9996, -25.1976
1.78, -1, 13.9684, 19.3368, 21.7505, 32.0281, -35.9119, -25.2536
1.784, -1, 14.0154, 19.2951, 21.7662, 32.1029, -35.8243, -25.3096
1.788, -1, 14.0623, 19.2534, 21.7819, 32.1776, -35.7369, -25.3655
1.792, -1, 14.1092, 19.2118, 21.7975, 32.2522, -35.6495, -25.4214
1.796, -1, 14.156, 19.1703, 21.8132, 32.3268, -35.5622, -25.4772
1.8, -1, 14.2027, 19.1288, 21.8288, 32.4012, -35.4751, -25.5329
1.804, -1, 14.2494, 19.0873, 21.8444, 32.4756, -35.388, -25.5886
1.808, -1, 14.2961, 19.0459, 21.86, 32.5498, -35.301, -25.6442
1.812, -1, 14.3427, 19.0045, 21.8755, 32.624, -35.2142, -25.6997
1.816, -1, 14.3892, 18.9632, 21.8911, 32.6981, -35.1274, -25.7552
1.82, -1, 14.4357, 18.9219, 21.9066, 32.7722, -35.0407, -25.8106
1.824, -1, 14.4822, 18.8807, 21.9221, 32.8461, -34.9541, -25.8659
1.828, -1, 14.5286, 18.8395, 21.9376, 32.92, -34.8676, -25.9212
1.832, -1, 14.5749, 18.7983, 21.9531, 32.9938, -34.7813, -25.9764
1.836, -1, 14.6212, 18.7572, 21.9685, 33.0675, -34.695, -26.0316
1.84, -1, 14.6674, 18.7162, 21.984, 33.1411, -34.6088, -26.0867
1.844, -1, 14.7136, 18.6752, 21.9994, 33.2146, -34.5227, -26.1418
1.848, -1, 14.7598, 18.6342, 22.0148, 33.2881, -34.4367, -26.1967
1.852, -1, 14.8058, 18.5933, 22.0302, 33.3614, -34.3507, -26.2517
1.856, -1, 14.8519, 18.5524, 22.0456, 33.4347, -34.2649, -26.3065
1.86, -1, 14.8979, 18.5116, 22.0609, 33.5079, -34.1792, -26.3613
1.864, -1, 14.9438, 18.4708, 22.0762, 33.5811, -34.0936, -26.4161
1.868, -1, 14.9897, 18.4301, 22.0916, 33.6541, -34.008, -26.4708
1.872, -1, 15.0355, 18.3894, 22.1069, 33.7271, -33.9226, -26.5254
1.876, -1, 15.0813, 18.3487, 22.1222, 33.8, -33.8372, -26.58
1.88, -1, 15.127, 18.3081, 22.1374, 33.8728, -33.7519, -26.6345
1.884, -1, 15.1727, 18.2676, 22.1527, 33.9456, -33.6668, -26.6889
1.888, -1, 15.2184, 18.227, 22.1679, 34.0182, -33.5817, -26.7433
1.892, -1, 15.264, 18.1866, 22.1832, 34.0908, -33.4967, -26.7976
1.896, -1, 15.3095, 18.1461, 22.1984, 34.1633, -33.4118, -26.8519
1.9, -1, 15.355, 18.1057, 22.2136, 34.2358, -33.3269, -26.9062
1.904, -1, 15.4004, 18.0654, 22.2287, 34.3081, -33.2422, -26.9603
1.908, -1, 15.4458, 18.0251, 22.2439, 34.3804, -33.1576, -27.0144
1.912, -1, 15.4912, 17.9848, 22.259, 34.4526, -33.073, -27.0685
1.916, -1, 15.5365, 17.9446, 22.2742, 34.5248, -32.9886, -27.1225
1.92, -1, 15.5818, 17.9044, 22.2893, 34.5968, -32.9042, -27.1764
1.924, -1, 15.627, 17.8643, 22.3044, 34.6688, -32.8199, -27.2303
1.928, -1, 15.6721, 17.8242, 22.3195, 34.7407, -32.7357, -27.2841
1.932, -1, 15.7173, 17.7841, 22.3345, 34.8126, -32.6516, -27.3379
1.936, -1, 15.7623, 17.7441, 22.3496, 34.8843, -32.5676, -27.3916
1.94, -1, 15.8073, 17.7041, 22.3646, 34.956, -32.4836, -27.4453
1.944, -1, 15.8523, 17.6642, 22.3796, 35.0276, -32.3997, -27.4989
1.948, -1, 15.8973, 17.6243, 22.3946, 35.0992, -32.316, -27.5524
1.952, -1, 15.9422, 17.5844, 22.4096, 35.1707, -32.2323, -27.6059
1.956, -1, 15.987, 17.5446, 22.4246, 35.2421, -32.1487, -27.6594
1.96, -1, 16.0318, 17.5048, 22.4396, 35.3134, -32.0652, -27.7128
1.964, -1, 16.0765, 17.4651, 22.4545, 35.3846, -31.9817, -27.7661
1.968, -1, 16.1212, 17.4254, 22.4694, 35.4558, -31.8984, -27.8194
1.972, -1, 16.1659, 17.3858, 22.4844, 35.5269, -31.8151, -27.8726
1.976, -1, 16.2105, 17.3461, 22.4993, 35.598, -31.7319, -27.9258
1.98, -1, 16.2551, 17.3066, 22.5141, 35.6689, -31.6488, -27.9789
1.984, -1, 16.2996, 17.267, 22.529, 35.7398, -31.5658, -28.032
1.988, -1, 16.3441, 17.2275, 22.5439, 35.8107, -31.4829, -28.085
1.992, -1, 16.3886, 17.1881, 22.5587, 35.8814, -31.4, -28.138
1.996, -1, 16.433, 17.1487, 22.5735, 35.9521, -31.3173, -28.1909
1.999, -1, 16.4773, 17.1093, 22.5883, 36.0228, -31.2346, -28.2438
2.004, -1, 16.5216, 17.0699, 22.6031, 36.0933, -31.1519, -28.2966
2.008, -1, 16.5659, 17.0306, 22.6179, 36.1638, -31.0694, -28.3493
2.012, -1, 16.6101, 16.9914, 22.6327, 36.2342, -30.987, -28.4021
2.015, -1, 16.6543, 16.9521, 22.6474, 36.3046, -30.9046, -28.4547
2.019, -1, 16.6984, 16.9129, 22.6622, 36.3748, -30.8223, -28.5073
2.024, -1, 16.7425, 16.8738, 22.6769, 36.445, -30.7401, -28.5599
2.028, -1, 16.7866, 16.8347, 22.6916, 36.5152, -30.658, -28.6124
2.031, -1, 16.8306, 16.7956, 22.7063, 36.5853, -30.5759, -28.6648
2.036, -1, 16.8746, 16.7566, 22.721, 36.6553, -30.4939, -28.7172
2.04, -1, 16.9185, 16.7176, 22.7357, 36.7252, -30.412, -28.7696
2.044, -1, 16.9624, 16.6786, 22.7503, 36.7951, -30.3302, -28.8219
2.048, -1, 17.0062, 16.6397, 22.765, 36.8649, -30.2485, -28.8742
2.051, -1, 17.05, 16.6008, 22.7796, 36.9346, -30.1668, -28.9264
2.055, -1, 17.0938, 16.5619, 22.7942, 37.0043, -30.0852, -28.9785
2.06, -1, 17.1375, 16.5231, 22.8088, 37.0739, -30.0037, -29.0306
2.064, -1, 17.1811, 16.4844, 22.8234, 37.1435, -29.9223, -29.0827
2.068, -1, 17.2244, 16.4458, 22.8379, 37.2129, -29.841, -29.1347
2.071, -1, 17.2671, 16.4077, 22.8523, 37.2823, -29.7597, -29.1866
2.076, -1, 17.3088, 16.3701, 22.8666, 37.3515, -29.6787, -29.2384
2.08, -1, 17.3495, 16.3335, 22.8807, 37.4204, -29.5981, -29.29
2.084, -1, 17.3888, 16.2979, 22.8945, 37.4888, -29.518, -29.3412
2.087, -1, 17.4267, 16.2635, 22.9079, 37.5564, -29.4389, -29.3918
2.092, -1, 17.4632, 16.2306, 22.921, 37.6229, -29.3611, -29.4417
2.096, -1, 17.4983, 16.1992, 22.9337, 37.6879, -29.2851, -29.4903
2.1, -1, 17.5321, 16.1694, 22.9459, 37.7508, -29.2115, -29.5374
2.104, -1, 17.5644, 16.1411, 22.9576, 37.8112, -29.1408, -29.5827
2.107, -1, 17.5951, 16.1145, 22.9686, 37.8686, -29.0737, -29.6257
2.111, -1, 17.624, 16.0896, 22.9791, 37.9226, -29.0106, -29.6661
2.116, -1, 17.6513, 16.0662, 22.9888, 37.9726, -28.9521, -29.7035
2.12, -1, 17.6768, 16.044, 22.9978, 38.0183, -28.8986, -29.7378
2.124, -1, 17.7009, 16.023, 23.0061, 38.0595, -28.8504, -29.7686
2.127, -1, 17.7234, 16.0029, 23.0137, 38.0959, -28.8078, -29.7958
2.132, -1, 17.7446, 15.9838, 23.0205, 38.1275, -28.7707, -29.8195
2.136, -1, 17.7642, 15.9657, 23.0267, 38.1546, -28.739, -29.8397
2.14, -1, 17.7823, 15.9489, 23.0321, 38.1772, -28.7125, -29.8566
2.143, -1, 17.7986, 15.9337, 23.0368, 38.1957, -28.6907, -29.8705
2.148, -1, 17.8131, 15.9202, 23.0409, 38.2106, -28.6732, -29.8816
2.152, -1, 17.8259, 15.9085, 23.0443, 38.2223, -28.6594, -29.8904
2.156, -1, 17.8371, 15.8987, 23.0471, 38.2313, -28.6488, -29.8971
2.16, -1, 17.8467, 15.8905, 23.0494, 38.2381, -28.6409, -29.9021
2.163, -1, 17.855, 15.8838, 23.0513, 38.243, -28.635, -29.9058
2.168, -1, 17.8619, 15.8785, 23.0527, 38.2465, -28.6308, -29.9084
2.172, -1, 17.8674, 15.8744, 23.0538, 38.249, -28.6279, -29.9103
2.176, 2, 17.8716, 15.8714, 23.0546, 38.2507, -28.6258, -29.9115
2.179, 2, 17.8747, 15.8692, 23.0552, 38.2519, -28.6245, -29.9124
2.184, 2, 17.8769, 15.8677, 23.0556, 38.2527, -28.6235, -29.913
2.188, 2, 17.8784, 15.8667, 23.0558, 38.2532, -28.6229, -29.9134
2.192, 2, 17.8794, 15.866, 23.056, 38.2536, -28.6224, -29.9137
2.196, 2, 17.8801, 15.8655, 23.0561, 38.2538, -28.6221, -29.9138
2.199, 2, 17.8806, 15.8652, 23.0562, 38.254, -28.6219, -29.914
2.204, 2, 17.8809, 15.865, 23.0563, 38.2541, -28.6218, -29.9141
2.208, 2, 17.8811, 15.8649, 23.0563, 38.2542, -28.6217, -29.9141
2.212, 2, 17.8813, 15.8648, 23.0563, 38.2543, -28.6217, -29.9141
2.216, 2, 17.8814, 15.8647, 23.0564, 38.2543, -28.6216, -29.9142
2.219, 2, 17.8814, 15.8646, 23.0564, 38.2543, -28.6216, -29.9142
2.224, 2, 17.8815, 15.8646, 23.0564, 38.2543, -28.6216, -29.9142
2.228, 2, 17.8815, 15.8646, 23.0564, 38.2543, -28.6215, -29.9142
2.232, 2, 17.8815, 15.8646, 23.0564, 38.2543, -28.6215, -29.9142
2.235, 2, 17.8815, 15.8646, 23.0564, 38.2544, -28.6215, -29.9142
2.24, 2, 17.8815, 15.8646, 23.0564, 38.2544, -28.6215, -29.9142
2.244, 2, 17.8816, 15.8646, 23.0564, 38.2544, -28.6215, -29.9142
2.248, 2, 17.8816, 15.8646, 23.0564, 38.2544, -28.6215, -29.9142
2.252, 2, 17.8816, 15.8646, 23.0564, 38.2544, -28.6215, -29.9142
2.255, 2, 17.8816, 15.8646, 23.0564, 38.2544, -28.6215, -29.9142
2.259, 2, 17.8816, 15.8646, 23.0564, 38.2544, -28.6215, -29.9142
2.264, 2, 17.8816, 15.8645, 23.0564, 38.2544, -28.6215, -29.9142
2.268, 2, 17.8816, 15.8645, 23.0564, 38.2544, -28.6215, -29.9142
2.272, 2, 17.8816, 15.8645, 23.0564, 38.2544, -28.6215, -29.9142
2.275, 2, 17.8816, 15.8645, 23.0564, 38.2544, -28.6215, -29.9142
2.28, 2, 17.8816, 15.8645, 23.0564, 38.2544, -28.6215, -29.9142
2.284, 2, 17.8816, 15.8645, 23.0564, 38.2544, -28.6215, -29.9142
2.288, 2, 17.8816, 15.8645, 23.0564, 38.2544, -28.6215, -29.9142
2.291, 2, 17.8816, 15.8645, 23.0564, 38.2544, -28.6215, -29.9142
2.296, 2, 17.8816, 15.8645, 23.0564, 38.2544, -28.6215, -29.9142
2.3, 2, 17.8816, 15.8645, 23.0564, 38.2544, -28.6215, -29.9142
2.304, 2, 17.8816, 15.8645, 23.0564, 38.2544, -28.6215, -29.9142
2.308, 2, 17.8816, 15.8645, 23.0564, 38.2544, -28.6215, -29.9142
2.311, 2, 17.8816, 15.8645, 23.0564, 38.2544, -28.6215, -29.9142
2.316, 2, 17.8816, 15.8645, 23.0564, 38.2544, -28.6215, -29.9142
2.32, 2, 17.8816, 15.8645, 23.0564, 38.2544, -28.6215, -29.9142
2.324, 2, 17.8816, 15.8645, 23.0564, 38.2544, -28.6215, -29.9142
2.328, 2, 17.8816, 15.8645, 23.0564, 38.2544, -28.6215, -29.9142
2.331, 2, 17.8816, 15.8645, 23.0564, 38.2544, -28.6215, -29.9142
2.336, 2, 17.8816, 15.8645, 23.0564, 38.2544, -28.6215, -29.9142
2.34, 2, 17.8816, 15.8645, 23.0564, 38.2544, -28.6215, -29.9142
2.344, 2, 17.8816, 15.8645, 23.0564, 38.2544, -28.6215, -29.9142
2.347, 2, 17.8816, 15.8645, 23.0564, 38.2544, -28.6215, -29.9142
2.352, 2, 17.8816, 15.8645, 23.0564, 38.2544, -28.6215, -29.9142
2.356, 2, 17.8816, 15.8645, 23.0564, 38.2544, -28.6215, -29.9142
2.36, 2, 17.8816, 15.8645, 23.0564, 38.2544, -28.6215, -29.9142
2.364, 2, 17.8816, 15.8645, 23.0564, 38.2544, -28.6215, -29.9142
2.367, 2, 17.8816, 15.8645, 23.0564, 38.2544, -28.6215, -29.9142
2.372, 2, 17.8816, 15.8645, 23.0564, 38.2544, -28.6215, -29.9142
2.376, 2, 17.8816, 15.8645, 23.0564, 38.2544, -28.6215, -29.9142
2.38, 2, 17.8816, 15.8645, 23.0564, 38.2544, -28.6215, -29.9142
2.383, 2, 17.8816, 15.8645, 23.0564, 38.2544, -28.6215, -29.9142
2.388, 2, 17.8816, 15.8645, 23.0564, 38.2544, -28.6215, -29.9142
2.392, 2, 17.8816, 15.8645, 23.0564, 38.2544, -28.6215, -29.9142
2.396, 2, 17.8816, 15.8645, 23.0564, 38.2544, -28.6215, -29.9142
2.4, 2, 17.8816, 15.8645, 23.0564, 38.2544, -28.6215, -29.9142
2.403, 2, 17.8816, 15.8645, 23.0564, 38.2544, -28.6215, -29.9142
2.408, 2, 17.8816, 15.8645, 23.0564, 38.2544, -28.6215, -29.9142
2.412, 2, 17.8816, 15.8645, 23.0564, 38.2544, -28.6215, -29.9142
2.416, 2, 17.8816, 15.8645, 23.0564, 38.2544, -28.6215, -29.9142
2.42, 2, 17.8816, 15.8645, 23.0564, 38.2544, -28.6215, -29.9142
2.423, 2, 17.8816, 15.8645, 23.0564, 38.2544, -28.6215, -29.9142
2.428, 2, 17.8816, 15.8645, 23.0564, 38.2544, -28.6215, -29.9142
2.432, 2, 17.8816, 15.8645, 23.0564, 38.2544, -28.6215, -29.9142
2.436, 2, 17.8816, 15.8645, 23.0564, 38.2544, -28.6215, -29.9142
2.439, 2, 17.8816, 15.8645, 23.0564, 38.2544, -28.6215, -29.9142
2.444, 2, 17.8816, 15.8645, 23.0564, 38.2544, -28.6215, -29.9142
2.448, 2, 17.8816, 15.8645, 23.0564, 38.2544, -28.6215, -29.9142
2.452, 2, 17.8816, 15.8645, 23.0564, 38.2544, -28.6215, -29.9142
2.456, 2, 17.8816, 15.8645, 23.0564, 38.2544, -28.6215, -29.9142
2.459, 2, 17.8816, 15.8645, 23.0564, 38.2544, -28.6215, -29.9142
2.464, 2, 17.8816, 15.8645, 23.0564, 38.2544, -28.6215, -29.9142
2.468, 2, 17.8816, 15.8645, 23.0564, 38.2544, -28.6215, -29.9142
2.472, 2, 17.8816, 15.8645, 23.0564, 38.2544, -28.6215, -29.9142
2.476, 2, 17.8816, 15.8645, 23.0564, 38.2544, -28.6215, -29.9142
2.479, 2, 17.8816, 15.8645, 23.0564, 38.2544, -28.6215, -29.9142
2.484, 2, 17.8816, 15.8645, 23.0564, 38.2544, -28.6215, -29.9142
2.488, 2, 17.8816, 15.8645, 23.0564, 38.2544, -28.6215, -29.9142
2.492, 2, 17.8816, 15.8645, 23.0564, 38.2544, -28.6215, -29.9142
2.495, 2, 17.8816, 15.8645, 23.0564, 38.2544, -28.6215, -29.9142
2.5, 2, 17.8816, 15.8645, 23.0564, 38.2544, -28.6215, -29.9142
2.504, 2, 17.8816, 15.8645, 23.0564, 38.2544, -28.6215, -29.9142
2.508, 2, 17.8816, 15.8645, 23.0564, 38.2544, -28.6215, -29.9142
2.512, 2, 17.8816, 15.8645, 23.0564, 38.2544, -28.6215, -29.9142
2.515, 2, 17.8816, 15.8645, 23.0564, 38.2544, -28.6215, -29.9142
2.52, 2, 17.8816, 15.8645, 23.0564, 38.2544, -28.6215, -29.9142
2.524, 2, 17.8816, 15.8645, 23.0564, 38.2544, -28.6215, -29.9142
2.528, 2, 17.8816, 15.8645, 23.0564, 38.2544, -28.6215, -29.9142
2.531, 2, 17.8816, 15.8645, 23.0564, 38.2544, -28.6215, -29.9142
2.536, 2, 17.8816, 15.8645, 23.0564, 38.2544, -28.6215, -29.9142
2.54, 2, 17.8816, 15.8645, 23.0564, 38.2544, -28.6215, -29.9142
2.544, 2, 17.8816, 15.8645, 23.0564, 38.2544, -28.6215, -29.9142
2.548, 2, 17.8816, 15.8645, 23.0564, 38.2544, -28.6215, -29.9142
2.551, 2, 17.8816, 15.8645, 23.0564, 38.2544, -28.6215, -29.9142
2.556, 2, 17.8816, 15.8645, 23.0564, 38.2544, -28.6215, -29.9142
2.56, 2, 17.8816, 15.8645, 23.0564, 38.2544, -28.6215, -29.9142
2.564, 2, 17.8816, 15.8645, 23.0564, 38.2544, -28.6215, -29.9142
2.568, 2, 17.8816, 15.8645, 23.0564, 38.2544, -28.6215, -29.9142
2.571, 2, 17.8816, 15.8645, 23.0564, 38.2544, -28.6215, -29.9142
2.576, 2, 17.8816, 15.8645, 23.0564, 38.2544, -28.6215, -29.9142
2.58, 2, 17.8816, 15.8645, 23.0564, 38.2544, -28.6215, -29.9142
2.584, 2, 17.8816, 15.8645, 23.0564, 38.2544, -28.6215, -29.9142
2.587, 2, 17.8816, 15.8645, 23.0564, 38.2544, -28.6215, -29.9142
2.592, 2, 17.8816, 15.8645, 23.0564, 38.2544, -28.6215, -29.9142
2.596, 2, 17.8816, 15.8645, 23.0564, 38.2544, -28.6215, -29.9142
2.6, 2, 17.8816, 15.8645, 23.0564, 38.2544, -28.6215, -29.9142
2.604, 2, 17.8816, 15.8645, 23.0564, 38.2544, -28.6215, -29.9142
2.607, 2, 17.8816, 15.8645, 23.0564, 38.2544, -28.6215, -29.9142
2.612, 2, 17.8816, 15.8645, 23.0564, 38.2544, -28.6215, -29.9142
2.616, 2, 17.8816, 15.8645, 23.0564, 38.2544, -28.6215, -29.9142
2.62, 2, 17.8816, 15.8645, 23.0564, 38.2544, -28.6215, -29.9142
2.624, 2, 17.8816, 15.8645, 23.0564, 38.2544, -28.6215, -29.9142
2.627, 2, 17.8816, 15.8645, 23.0564, 38.2544, -28.6215, -29.9142
2.632, 2, 17.8816, 15.8645, 23.0564, 38.2544, -28.6215, -29.9142
2.636, 2, 17.8816, 15.8645, 23.0564, 38.2544, -28.6215, -29.9142
2.64, 2, 17.8816, 15.8645, 23.0564, 38.2544, -28.6215, -29.9142
2.643, 2, 17.8816, 15.8645, 23.0564, 38.2544, -28.6215, -29.9142
2.648, 2, 17.8816, 15.8645, 23.0564, 38.2544, -28.6215, -29.9142
2.652, 2, 17.8816, 15.8645, 23.0564, 38.2544, -28.6215, -29.9142
2.656, 2, 17.8816, 15.8645, 23.0564, 38.2544, -28.6215, -29.9142
2.66, 2, 17.8816, 15.8645, 23.0564, 38.2544, -28.6215, -29.9142
2.663, 2, 17.8816, 15.8645, 23.0564, 38.2544, -28.6215, -29.9142
2.668, 2, 17.8816, 15.8645, 23.0564, 38.2544, -28.6215, -29.9142
2.672, 2, 17.8816, 15.8645, 23.0564, 38.2544, -28.6215, -29.9142
2.676, 2, 17.8816, 15.8645, 23.0564, 38.2544, -28.6215, -29.9142
2.679, 2, 17.8816, 15.8645, 23.0564, 38.2544, -28.6215, -29.9142
2.684, 2, 17.8816, 15.8645, 23.0564, 38.2544, -28.6215, -29.9142
2.688, 2, 17.8816, 15.8645, 23.0564, 38.2544, -28.6215, -29.9142
2.692, 2, 17.8816, 15.8645, 23.0564, 38.2544, -28.6215, -29.9142
2.696, 2, 17.8816, 15.8645, 23.0564, 38.2544, -28.6215, -29.9142
2.699, 2, 17.8816, 15.8645, 23.0564, 38.2544, -28.6215, -29.9142
2.704, 2, 17.8816, 15.8645, 23.0564, 38.2544, -28.6215, -29.9142
2.708, 2, 17.8816, 15.8645, 23.0564, 38.2544, -28.6215, -29.9142
2.712, 2, 17.8816, 15.8645, 23.0564, 38.2544, -28.6215, -29.9142
2.716, 2, 17.8816, 15.8645, 23.0564, 38.2544, -28.6215, -29.9142
2.719, 2, 17.8816, 15.8645, 23.0564, 38.2544, -28.6215, -29.9142
2.724, 2, 17.8816, 15.8645, 23.0564, 38.2544, -28.6215, -29.9142
2.728, 2, 17.8816, 15.8645, 23.0564, 38.2544, -28.6215, -29.9142
2.732, 2, 17.8816, 15.8645, 23.0564, 38.2544, -28.6215, -29.9142
2.735, 2, 17.8816, 15.8645, 23.0564, 38.2544, -28.6215, -29.9142
2.74, 2, 17.8816, 15.8645, 23.0564, 38.2544, -28.6215, -29.9142
2.744, 2, 17.8816, 15.8645, 23.0564, 38.2544, -28.6215, -29.9142
2.748, 2, 17.8816, 15.8645, 23.0564, 38.2544, -28.6215, -29.9142
2.752, 2, 17.8816, 15.8645, 23.0564, 38.2544, -28.6215, -29.9142
2.755, 2, 17.8816, 15.8645, 23.0564, 38.2544, -28.6215, -29.9142
2.76, 2, 17.8816, 15.8645, 23.0564, 38.2544, -28.6215, -29.9142
2.764, 2, 17.8816, 15.8645, 23.0564, 38.2544, -28.6215, -29.9142
2.768, 2, 17.8816, 15.8645, 23.0564, 38.2544, -28.6215, -29.9142
2.772, 2, 17.8816, 15.8645, 23.0564, 38.2544, -28.6215, -29.9142
2.775, 2, 17.8816, 15.8645, 23.0564, 38.2544, -28.6215, -29.9142
2.78, 2, 17.8816, 15.8645, 23.0564, 38.2544, -28.6215, -29.9142
2.784, 2, 17.8816, 15.8645, 23.0564, 38.2544, -28.6215, -29.9142
2.788, 2, 17.8816, 15.8645, 23.0564, 38.2544, -28.6215, -29.9142
2.791, 2, 17.8816, 15.8645, 23.0564, 38.2544, -28.6215, -29.9142
2.796, 2, 17.8816, 15.8645, 23.0564, 38.2544, -28.6215, -29.9142
2.8, 2, 17.8816, 15.8645, 23.0564, 38.2544, -28.6215, -29.9142
2.804, 2, 17.8816, 15.8645, 23.0564, 38.2544, -28.6215, -29.9142
2.808, 2, 17.8816, 15.8645, 23.0564, 38.2544, -28.6215, -29.9142
2.811, 2, 17.8816, 15.8645, 23.0564, 38.2544, -28.6215, -29.9142
2.816, 2, 17.8816, 15.8645, 23.0564, 38.2544, -28.6215, -29.9142
2.82, 2, 17.8816, 15.8645, 23.0564, 38.2544, -28.6215, -29.9142
2.824, 2, 17.8816, 15.8645, 23.0564, 38.2544, -28.6215, -29.9142
2.828, 2, 17.8816, 15.8645, 23.0564, 38.2544, -28.6215, -29.9142
2.831, 2, 17.8816, 15.8645, 23.0564, 38.2544, -28.6215, -29.9142
2.836, 2, 17.8816, 15.8645, 23.0564, 38.2544, -28.6215, -29.9142
2.84, 2, 17.8816, 15.8645, 23.0564, 38.2544, -28.6215, -29.9142
2.844, 2, 17.8816, 15.8645, 23.0564, 38.2544, -28.6215, -29.9142
2.847, 2, 17.8816, 15.8645, 23.0564, 38.2544, -28.6215, -29.9142
2.852, 2, 17.8816, 15.8645, 23.0564, 38.2544, -28.6215, -29.9142
2.856, 2, 17.8816, 15.8645, 23.0564, 38.2544, -28.6215, -29.9142
2.86, 2, 17.8816, 15.8645, 23.0564, 38.2544, -28.6215, -29.9142
2.864, 2, 17.8816, 15.8645, 23.0564, 38.2544, -28.6215, -29.9142
2.867, 2, 17.8816, 15.8645, 23.0564, 38.2544, -28.6215, -29.9142
2.872, 2, 17.8816, 15.8645, 23.0564, 38.2544, -28.6215, -29.9142
2.876, 2, 17.8816, 15.8645, 23.0564, 38.2544, -28.6215, -29.9142
2.88, 2, 17.8816, 15.8645, 23.0564, 38.2544, -28.6215, -29.9142
2.883, 2, 17.8816, 15.8645, 23.0564, 38.2544, -28.6215, -29.9142
2.888, 2, 17.8816, 15.8645, 23.0564, 38.2544, -28.6215, -29.9142
2.892, 2, 17.8816, 15.8645, 23.0564, 38.2544, -28.6215, -29.9142
2.896, 2, 17.8816, 15.8645, 23.0564, 38.2544, -28.6215, -29.9142
2.9, 2, 17.8816, 15.8645, 23.0564, 38.2544, -28.6215, -29.9142
2.903, 2, 17.8816, 15.8645, 23.0564, 38.2544, -28.6215, -29.9142
2.908, 2, 17.8816, 15.8645, 23.0564, 38.2544, -28.6215, -29.9142
2.912, 2, 17.8816, 15.8645, 23.0564, 38.2544, -28.6215, -29.9142
2.916, 2, 17.8816, 15.8645, 23.0564, 38.2544, -28.6215, -29.9142
2.92, 2, 17.8816, 15.8645, 23.0564, 38.2544, -28.6215, -29.9142
2.923, 2, 17.8816, 15.8645, 23.0564, 38.2544, -28.6215, -29.9142
2.928, 2, 17.8816, 15.8645, 23.0564, 38.2544, -28.6215, -29.9142
2.932, 2, 17.8816, 15.8645, 23.0564, 38.2544, -28.6215, -29.9142
2.936, 2, 17.8816, 15.8645, 23.0564, 38.2544, -28.6215, -29.9142
2.939, 2, 17.8816, 15.8645, 23.0564, 38.2544, -28.6215, -29.9142
2.944, 2, 17.8816, 15.8645, 23.0564, 38.2544, -28.6215, -29.9142
2.948, 2, 17.8816, 15.8645, 23.0564, 38.2544, -28.6215, -29.9142
2.952, 2, 17.8816, 15.8645, 23.0564, 38.2544, -28.6215, -29.9142
2.956, 2, 17.8816, 15.8645, 23.0564, 38.2544, -28.6215, -29.9142
2.959, 2, 17.8816, 15.8645, 23.0564, 38.2544, -28.6215, -29.9142
2.964, 2, 17.8816, 15.8645, 23.0564, 38.2544, -28.6215, -29.9142
2.968, 2, 17.8816, 15.8645, 23.0564, 38.2544, -28.6215, -29.9142
2.972, 2, 17.8816, 15.8645, 23.0564, 38.2544, -28.6215, -29.9142
2.976, 2, 17.8816, 15.8645, 23.0564, 38.2544, -28.6215, -29.9142
2.98, 2, 17.8816, 15.8645, 23.0564, 38.2544, -28.6215, -29.9142
2.984, 2, 17.8816, 15.8645, 23.0564, 38.2544, -28.6215, -29.9142
2.988, 2, 17.8816, 15.8645, 23.0564, 38.2544, -28.6215, -29.9142
2.992, 2, 17.8816, 15.8645, 23.0564, 38.2544, -28.6215, -29.9142
2.995, 2, 17.8816, 15.8645, 23.0564, 38.2544, -28.6215, -29.9142
3, 2, 17.8816, 15.8645, 23.0564, 38.2544, -28.6215, -29.9142
3.004, 2, 17.8816, 15.8645, 23.0564, 38.2544, -28.6215, -29.9142
3.008, 2, 17.8816, 15.8645, 23.0564, 38.2544, -28.6215, -29.9142
3.012, 2, 17.8816, 15.8645, 23.0564, 38.2544, -28.6215, -29.9142
3.015, 2, 17.8816, 15.8645, 23.0564, 38.2544, -28.6215, -29.9142
3.02, 2, 17.8816, 15.8645, 23.0564, 38.2544, -28.6215, -29.9142
3.024, 2, 17.8816, 15.8645, 23.0564, 38.2544, -28.6215, -29.9142
3.028, 2, 17.8816, 15.8645, 23.0564, 38.2544, -28.6215, -29.9142
3.031, 2, 17.8816, 15.8645, 23.0564, 38.2544, -28.6215, -29.9142
3.036, 2, 17.8816, 15.8645, 23.0564, 38.2544, -28.6215, -29.9142
3.04, 2, 17.8816, 15.8645, 23.0564, 38.2544, -28.6215, -29.9142
3.044, 2, 17.8816, 15.8645, 23.0564, 38.2544, -28.6215, -29.9142
3.048, 2, 17.8816, 15.8645, 23.0564, 38.2544, -28.6215, -29.9142
3.051, 2, 17.8816, 15.8645, 23.0564, 38.2544, -28.6215, -29.9142
3.056, 2, 17.8816, 15.8645, 23.0564, 38.2544, -28.6215, -29.9142
3.06, 2, 17.8816, 15.8645, 23.0564, 38.2544, -28.6215, -29.9142
3.064, 2, 17.8816, 15.8645, 23.0564, 38.2544, -28.6215, -29.9142
3.068, 2, 17.8816, 15.8645, 23.0564, 38.2544, -28.6215, -29.9142
3.071, 2, 17.8816, 15.8645, 23.0564, 38.2544, -28.6215, -29.9142
3.076, 2, 17.8816, 15.8645, 23.0564, 38.2544, -28.6215, -29.9142
3.08, 2, 17.8816, 15.8645, 23.0564, 38.2544, -28.6215, -29.9142
3.084, 2, 17.8816, 15.8645, 23.0564, 38.2544, -28.6215, -29.9142
3.087, 2, 17.8816, 15.8645, 23.0564, 38.2544, -28.6215, -29.9142
3.092, 2, 17.8816, 15.8645, 23.0564, 38.2544, -28.6215, -29.9142
3.096, 2, 17.8816, 15.8645, 23.0564, 38.2544, -28.6215, -29.9142
3.1, 2, 17.8816, 15.8645, 23.0564, 38.2544, -28.6215, -29.9142
3.104, 2, 17.8816, 15.8645, 23.0564, 38.2544, -28.6215, -29.9142
3.107, 2, 17.8816, 15.8645, 23.0564, 38.2544, -28.6215, -29.9142
3.112, 2, 17.8816, 15.8645, 23.0564, 38.2544, -28.6215, -29.9142
3.116, 2, 17.8816, 15.8645, 23.0564, 38.2544, -28.6215, -29.9142
3.12, 2, 17.8816, 15.8645, 23.0564, 38.2544, -28.6215, -29.9142
3.124, 2, 17.8816, 15.8645, 23.0564, 38.2544, -28.6215, -29.9142
3.128, 2, 17.8816, 15.8645, 23.0564, 38.2544, -28.6215, -29.9142
3.132, 2, 17.8816, 15.8645, 23.0564, 38.2544, -28.6215, -29.9142
3.136, 2, 17.8816, 15.8645, 23.0564, 38.2544, -28.6215, -29.9142
3.14, 2, 17.8816, 15.8645, 23.0564, 38.2544, -28.6215, -29.9142
3.143, 2, 17.8816, 15.8645, 23.0564, 38.2544, -28.6215, -29.9142
3.148, 2, 17.8816, 15.8645, 23.0564, 38.2544, -28.6215, -29.9142
3.152, 2, 17.8816, 15.8645, 23.0564, 38.2544, -28.6215, -29.9142
3.156, 2, 17.8816, 15.8645, 23.0564, 38.2544, -28.6215, -29.9142
3.16, 2, 17.8816, 15.8645, 23.0564, 38.2544, -28.6215, -29.9142
3.163, 2, 17.8816, 15.8645, 23.0564, 38.2544, -28.6215, -29.9142
3.168, 2, 17.8816, 15.8645, 23.0564, 38.2544, -28.6215, -29.9142
3.172, 2, 17.8816, 15.8645, 23.0564, 38.2544, -28.6215, -29.9142
3.176, 2, 17.8816, 15.8645, 23.0564, 38.2544, -28.6215, -29.9142
3.179, 2, 17.8816, 15.8645, 23.0564, 38.2544, -28.6215, -29.9142
3.184, 2, 17.8816, 15.8645, 23.0564, 38.2544, -28.6215, -29.9142
3.188, 2, 17.8816, 15.8645, 23.0564, 38.2544, -28.6215, -29.9142
3.192, 2, 17.8816, 15.8645, 23.0564, 38.2544, -28.6215, -29.9142
3.196, 2, 17.8816, 15.8645, 23.0564, 38.2544, -28.6215, -29.9142
3.199, 2, 17.8816, 15.8645, 23.0564, 38.2544, -28.6215, -29.9142
3.204, 2, 17.8816, 15.8645, 23.0564, 38.2544, -28.6215, -29.9142
3.208, 2, 17.8816, 15.8645, 23.0564, 38.2544, -28.6215, -29.9142
3.212, 2, 17.8816, 15.8645, 23.0564, 38.2544, -28.6215, -29.9142
3.216, 2, 17.8816, 15.8645, 23.0564, 38.2544, -28.6215, -29.9142
3.22, 2, 17.8816, 15.8645, 23.0564, 38.2544, -28.6215, -29.9142
3.224, 2, 17.8816, 15.8645, 23.0564, 38.2544, -28.6215, -29.9142
3.228, 2, 17.8816, 15.8645, 23.0564, 38.2544, -28.6215, -29.9142
3.232, 2, 17.8816, 15.8645, 23.0564, 38.2544, -28.6215, -29.9142
3.235, 2, 17.8816, 15.8645, 23.0564, 38.2544, -28.6215, -29.9142
3.24, 2, 17.8816, 15.8645, 23.0564, 38.2544, -28.6215, -29.9142
3.244, 2, 17.8816, 15.8645, 23.0564, 38.2544, -28.6215, -29.9142
3.248, 4, 17.8816, 15.8645, 23.0564, 38.2544, -28.6215, -29.9142
3.252, 4, 17.8816, 15.8645, 23.0564, 38.2544, -28.6215, -29.9142
3.255, 4, 17.8816, 15.8645, 23.0564, 38.2544, -28.6215, -29.9142
3.26, 4, 17.8816, 15.8645, 23.0564, 38.2544, -28.6215, -29.9142
3.264, 4, 17.8816, 15.8645, 23.0564, 38.2544, -28.6215, -29.9142
3.268, 4, 17.8816, 15.8645, 23.0564, 38.2544, -28.6215, -29.9142
3.272, 4, 17.8816, 15.8645, 23.0564, 38.2544, -28.6215, -29.9142
3.276, 4, 17.8816, 15.8645, 23.0564, 38.2544, -28.6215, -29.9142
3.28, 4, 17.8816, 15.8645, 23.0564, 38.2544, -28.6215, -29.9142
3.284, 4, 17.8816, 15.8645, 23.0564, 38.2544, -28.6215, -29.9142
3.288, 4, 17.8816, 15.8645, 23.0564, 38.2544, -28.6215, -29.9142
3.291, 4, 17.8816, 15.8645, 23.0564, 38.2544, -28.6215, -29.9142
3.296, 4, 17.8816, 15.8645, 23.0564, 38.2544, -28.6215, -29.9142
3.3, 4, 17.8816, 15.8645, 23.0564, 38.2544, -28.6215, -29.9142
3.304, 4, 17.8816, 15.8645, 23.0564, 38.2544, -28.6215, -29.9142
3.308, 4, 17.8816, 15.8645, 23.0564, 38.2544, -28.6215, -29.9142
3.312, 4, 17.8816, 15.8645, 23.0564, 38.2544, -28.6215, -29.9142
3.316, 4, 17.8816, 15.8645, 23.0564, 38.2544, -28.6215, -29.9142
3.32, 4, 17.8816, 15.8645, 23.0564, 38.2544, -28.6215, -29.9142
3.324, 4, 17.8816, 15.8645, 23.0564, 38.2544, -28.6215, -29.9142
3.328, 4, 17.8816, 15.8645, 23.0564, 38.2544, -28.6215, -29.9142
3.332, 4, 17.8816, 15.8645, 23.0564, 38.2544, -28.6215, -29.9142
3.336, 4, 17.8816, 15.8645, 23.0564, 38.2544, -28.6215, -29.9142
3.34, 4, 17.8816, 15.8645, 23.0564, 38.2544, -28.6215, -29.9142
3.344, 4, 17.8816, 15.8645, 23.0564, 38.2544, -28.6215, -29.9142
3.347, 4, 17.8816, 15.8645, 23.0564, 38.2544, -28.6215, -29.9142
3.354, 4, 17.8816, 15.8645, 23.0564, 38.2544, -28.6215, -29.9142
3.358, 4, 17.8816, 15.8645, 23.0564, 38.2544, -28.6215, -29.9142
3.362, 4, 17.8816, 15.8645, 23.0564, 38.2544, -28.6215, -29.9142
3.366, 4, 17.8816, 15.8645, 23.0564, 38.2544, -28.6215, -29.9142
3.37, 4, 17.8816, 15.8645, 23.0564, 38.2544, -28.6215, -29.9142
3.372, 4, 17.8816, 15.8645, 23.0564, 38.2544, -28.6215, -29.9142
3.378, 4, 17.8816, 15.8645, 23.0564, 38.2544, -28.6215, -29.9142
3.38, 4, 17.8816, 15.8645, 23.0564, 38.2544, -28.6215, -29.9142
3.383, 4, 17.8816, 15.8645, 23.0564, 38.2544, -28.6215, -29.9142
3.388, 4, 17.8816, 15.8645, 23.0564, 38.2544, -28.6215, -29.9142
3.392, 4, 17.8816, 15.8645, 23.0564, 38.2544, -28.6215, -29.9142
3.396, 4, 17.8816, 15.8645, 23.0564, 38.2544, -28.6215, -29.9142
3.4, 4, 17.8815, 15.8645, 23.0564, 38.2544, -28.6215, -29.9142
3.403, 4, 17.8812, 15.8645, 23.0564, 38.2543, -28.6215, -29.9142
3.408, 4, 17.8806, 15.8645, 23.0565, 38.2542, -28.6216, -29.9141
3.412, 4, 17.8793, 15.8645, 23.0566, 38.2539, -28.6217, -29.9139
3.416, 4, 17.8773, 15.8644, 23.0569, 38.2532, -28.6219, -29.9133
3.42, 4, 17.8745, 15.8643, 23.0576, 38.2517, -28.6225, -29.912
3.426, 4, 17.8657, 15.8636, 23.0603, 38.2441, -28.6252, -29.9053
3.428, 4, 17.8657, 15.8636, 23.0603, 38.2441, -28.6252, -29.9053
3.432, 4, 17.8595, 15.863, 23.063, 38.2364, -28.628, -29.8984
3.436, 4, 17.8518, 15.862, 23.067, 38.2246, -28.6323, -29.8881
3.439, 4, 17.8424, 15.8607, 23.0727, 38.2075, -28.6384, -29.873
3.444, 5, 17.831, 15.8589, 23.0804, 38.1836, -28.647, -29.8519
3.448, 5, 17.817, 15.8565, 23.0909, 38.1512, -28.6587, -29.8232
3.452, 5, 17.8002, 15.8533, 23.1045, 38.1085, -28.6742, -29.7854
3.456, 5, 17.7803, 15.8493, 23.122, 38.0534, -28.6942, -29.7368
3.46, 5, 17.7571, 15.8443, 23.1439, 37.984, -28.7195, -29.6754
3.464, 5, 17.7302, 15.8382, 23.1708, 37.8982, -28.7509, -29.5995
3.468, 5, 17.6995, 15.8309, 23.2033, 37.7942, -28.7892, -29.5075
3.472, 5, 17.6645, 15.8222, 23.242, 37.6701, -28.8351, -29.3978
3.476, 5, 17.6249, 15.8121, 23.2873, 37.5243, -28.8894, -29.2689
3.48, 5, 17.5804, 15.8005, 23.3398, 37.3556, -28.9527, -29.1198
3.484, 5, 17.5307, 15.7874, 23.3997, 37.1628, -29.0257, -28.9496
3.488, 5, 17.4758, 15.7727, 23.4674, 36.9453, -29.1087, -28.7576
3.492, 5, 17.4156, 15.7565, 23.5429, 36.7024, -29.2024, -28.5435
3.495, 5, 17.3505, 15.7387, 23.6264, 36.4343, -29.3068, -28.3072
3.5, 5, 17.2804, 15.7193, 23.7176, 36.1412, -29.4223, -28.0491
3.504, 5, 17.2056, 15.6986, 23.8165, 35.8241, -29.5487, -27.7702
3.508, 5, 17.1264, 15.6765, 23.9225, 35.4845, -29.6858, -27.4717
3.512, 5, 17.0428, 15.6533, 24.0353, 35.1241, -29.8331, -27.1554
3.516, 5, 16.9554, 15.629, 24.1541, 34.7453, -29.99, -26.8232
3.52, 5, 16.8647, 15.604, 24.2782, 34.3508, -30.1557, -26.4778
3.524, 5, 16.7712, 15.5783, 24.4067, 33.9436, -30.3291, -26.1216
3.528, 5, 16.6757, 15.5522, 24.5386, 33.5269, -30.509, -25.7575
3.531, 5, 16.5789, 15.526, 24.6729, 33.104, -30.6943, -25.3886
3.536, 5, 16.4811, 15.4998, 24.8084, 32.6786, -30.8833, -25.018
3.54, 5, 16.3826, 15.474, 24.944, 32.2543, -31.0745, -24.6488
3.544, 5, 16.2835, 15.4487, 25.0786, 31.8345, -31.2664, -24.2842
3.548, 5, 16.1838, 15.4243, 25.2113, 31.4225, -31.4573, -23.9268
3.552, 5, 16.0832, 15.401, 25.3411, 31.0213, -31.6459, -23.5793
3.556, 5, 15.982, 15.379, 25.4673, 30.633, -31.831, -23.2435
3.56, 6, 15.8802, 15.3585, 25.5895, 30.2592, -32.0117, -22.9207
3.564, 6, 15.7779, 15.3394, 25.7073, 29.9005, -32.1874, -22.6114
3.568, 6, 15.6752, 15.322, 25.8208, 29.5568, -32.3582, -22.3155
3.572, 6, 15.5721, 15.306, 25.9302, 29.2272, -32.5244, -22.0322
3.576, 6, 15.4688, 15.2914, 26.036, 28.91, -32.6866, -21.7601
3.58, 6, 15.3653, 15.278, 26.1388, 28.6032, -32.8458, -21.4973
3.584, 6, 15.2617, 15.2657, 26.2394, 28.3043, -33.0033, -21.2417
3.587, 6, 15.1577, 15.2543, 26.3387, 28.0105, -33.1605, -20.991
3.592, 6, 15.0534, 15.2436, 26.4375, 27.7191, -33.3188, -20.7428
3.596, 6, 14.9488, 15.2334, 26.5368, 27.4271, -33.4798, -20.4945
3.6, 6, 14.8442, 15.2235, 26.6373, 27.1321, -33.6449, -20.2441
3.604, 6, 14.7393, 15.2138, 26.7397, 26.8319, -33.8154, -19.9897
3.608, 6, 14.6341, 15.204, 26.8446, 26.5247, -33.9923, -19.7299
3.612, 6, 14.5285, 15.1942, 26.9522, 26.2096, -34.1763, -19.464
3.616, 6, 14.4224, 15.1843, 27.0628, 25.8863, -34.3676, -19.1915
3.62, 6, 14.3156, 15.1743, 27.1761, 25.5551, -34.5661, -18.913
3.624, 6, 14.208, 15.1644, 27.2919, 25.2171, -34.7713, -18.6293
3.628, 6, 14.0996, 15.1546, 27.4098, 24.8737, -34.9826, -18.3415
3.632, 6, 13.9903, 15.145, 27.5291, 24.5267, -35.1987, -18.0513
3.636, 6, 13.8806, 15.1359, 27.6492, 24.1781, -35.4186, -17.7603
3.64, 6, 13.7706, 15.1271, 27.7694, 23.8301, -35.641, -17.4703
3.644, 6, 13.6608, 15.1189, 27.8888, 23.4848, -35.8643, -17.1832
3.648, 6, 13.5511, 15.1113, 28.0068, 23.1445, -36.0871, -16.9007
3.652, 6, 13.4417, 15.1045, 28.1226, 22.8112, -36.3079, -16.6246
3.656, 6, 13.3326, 15.0987, 28.2356, 22.4869, -36.5253, -16.3566
3.66, 6, 13.2236, 15.0941, 28.3452, 22.1732, -36.7381, -16.0977
3.664, 7, 13.1148, 15.0908, 28.451, 21.8712, -36.9453, -15.8489
3.668, 7, 13.0062, 15.089, 28.5528, 21.5814, -37.1464, -15.6107
3.672, 7, 12.8977, 15.0885, 28.6505, 21.3038, -37.3412, -15.383
3.676, 7, 12.7893, 15.0894, 28.7444, 21.038, -37.53, -15.1653
3.679, 7, 12.6809, 15.0916, 28.8349, 20.7828, -37.7133, -14.9567
3.684, 7, 12.5726, 15.0949, 28.9223, 20.5366, -37.8923, -14.756
3.688, 7, 12.4643, 15.0993, 29.0072, 20.2976, -38.0681, -14.5615
3.692, 7, 12.3558, 15.1046, 29.0906, 20.0638, -38.2423, -14.3717
3.696, 7, 12.2469, 15.1108, 29.1729, 19.8328, -38.4164, -14.1846
3.7, 7, 12.1378, 15.1177, 29.2551, 19.6025, -38.5922, -13.9985
3.704, 7, 12.0284, 15.1252, 29.3378, 19.3708, -38.7713, -13.8117
3.708, 7, 11.9188, 15.133, 29.4218, 19.1355, -38.9552, -13.6225
3.712, 7, 11.809, 15.1411, 29.5074, 18.8952, -39.1453, -13.4297
3.716, 7, 11.6988, 15.1492, 29.5952, 18.6488, -39.3425, -13.2324
3.72, 7, 11.5882, 15.1573, 29.6853, 18.3957, -39.5472, -13.0303
3.724, 7, 11.477, 15.1656, 29.7777, 18.1358, -39.7597, -12.8233
3.728, 7, 11.365, 15.174, 29.8723, 17.8697, -39.9796, -12.6118
3.732, 7, 11.2522, 15.1828, 29.9686, 17.5983, -40.2062, -12.3966
3.735, 7, 11.1384, 15.192, 30.0664, 17.3229, -40.4386, -12.1787
3.74, 7, 11.024, 15.2017, 30.165, 17.045, -40.6755, -11.9594
3.744, 7, 10.9092, 15.2119, 30.2639, 16.7663, -40.9155, -11.7399
3.748, 7, 10.7944, 15.2226, 30.3624, 16.4884, -41.1572, -11.5217
3.752, 7, 10.6797, 15.2338, 30.46, 16.2132, -41.399, -11.306
3.756, 7, 10.5654, 15.2457, 30.556, 15.9424, -41.6393, -11.0944
3.76, 7, 10.4514, 15.2582, 30.6497, 15.6777, -41.8764, -10.8879
3.764, 7, 10.3377, 15.2717, 30.7408, 15.4206, -42.109, -10.6879
3.768, 7, 10.2243, 15.2862, 30.8288, 15.1722, -42.3358, -10.495
3.772, 8, 10.1111, 15.3019, 30.9133, 14.9332, -42.556, -10.3099
3.776, 8, 9.9982, 15.3188, 30.9944, 14.7039, -42.7692, -10.1327
3.78, 8, 9.88544, 15.3369, 31.072, 14.4843, -42.9754, -9.96339
3.784, 8, 9.77279, 15.3562, 31.1463, 14.2736, -43.175, -9.80132
3.788, 8, 9.6603, 15.3765, 31.2178, 14.0709, -43.369, -9.64575
3.792, 8, 9.54794, 15.3977, 31.2867, 13.8748, -43.5585, -9.49562
3.796, 8, 9.43558, 15.4199, 31.3538, 13.6837, -43.7449, -9.34974
3.8, 8, 9.32302, 15.4432, 31.4195, 13.496, -43.93, -9.20678
3.804, 8, 9.21015, 15.4674, 31.4846, 13.3097, -44.1154, -9.06534
3.808, 8, 9.097, 15.4926, 31.5496, 13.1231, -44.303, -8.92407
3.812, 8, 8.98364, 15.5185, 31.615, 12.9345, -44.4945, -8.78167
3.816, 8, 8.87009, 15.5447, 31.6815, 12.7423, -44.6915, -8.63704
3.82, 8, 8.75628, 15.571, 31.7494, 12.5455, -44.8952, -8.48933
3.824, 8, 8.64212, 15.5972, 31.819, 12.3432, -45.1064, -8.33797
3.828, 8, 8.52746, 15.6235, 31.8903, 12.1351, -45.3256, -8.18275
3.832, 8, 8.41214, 15.6497, 31.9633, 11.9214, -45.5526, -8.02381
3.836, 8, 8.29599, 15.6764, 32.0378, 11.7027, -45.7871, -7.86155
3.84, 8, 8.17896, 15.7036, 32.1135, 11.4797, -46.028, -7.69664
3.844, 8, 8.06113, 15.7316, 32.19, 11.2536, -46.2744, -7.52991
3.848, 8, 7.94274, 15.7603, 32.2669, 11.0257, -46.5249, -7.36231
3.852, 8, 7.82415, 15.7897, 32.3437, 10.7974, -46.7779, -7.19486
3.856, 8, 7.70568, 15.8197, 32.4198, 10.57, -47.0319, -7.02862
3.86, 8, 7.58753, 15.8502, 32.4948, 10.3452, -47.2851, -6.86466
3.864, 8, 7.46975, 15.8812, 32.5682, 10.1243, -47.5359, -6.70402
3.868, 8, 7.35234, 15.9128, 32.6395, 9.90858, -47.7827, -6.54762
3.872, 8, 7.23528, 15.9452, 32.7084, 9.6993, -48.0239, -6.39626
3.876, 8, 7.11857, 15.9786, 32.7745, 9.49727, -48.2587, -6.25053
3.88, 9, 7.00219, 16.0129, 32.8377, 9.30301, -48.486, -6.11076
3.884, 9, 6.88609, 16.0483, 32.8979, 9.11666, -48.7059, -5.97702
3.888, 9, 6.77018, 16.0846, 32.9553, 8.93795, -48.9182, -5.84911
3.892, 9, 6.65445, 16.1218, 33.0099, 8.76628, -49.1239, -5.72656
3.896, 9, 6.53892, 16.1599, 33.0622, 8.60071, -49.3237, -5.6087
3.9, 9, 6.42355, 16.1988, 33.1125, 8.44009, -49.5191, -5.4947
3.904, 9, 6.30817, 16.2387, 33.1613, 8.28306, -49.7118, -5.38358
3.908, 9, 6.19258, 16.2798, 33.2089, 8.12817, -49.9033, -5.27432
3.912, 9, 6.07674, 16.322, 33.256, 7.97389, -50.0956, -5.16586
3.916, 9, 5.96075, 16.365, 33.303, 7.81874, -50.2906, -5.05715
3.92, 9, 5.84476, 16.4087, 33.3503, 7.66134, -50.4899, -4.94725
3.924, 9, 5.72884, 16.4525, 33.3983, 7.50054, -50.6952, -4.83537
3.928, 9, 5.61303, 16.4961, 33.4474, 7.3355, -50.9073, -4.72095
3.932, 9, 5.49734, 16.5393, 33.4975, 7.16576, -51.1271, -4.60369
3.936, 9, 5.38176, 16.5822, 33.5487, 6.99126, -51.3546, -4.48355
3.94, 9, 5.26614, 16.6251, 33.601, 6.81234, -51.5895, -4.36079
3.944, 9, 5.15028, 16.6684, 33.654, 6.62968, -51.8308, -4.23586
3.948, 9, 5.03403, 16.7123, 33.7074, 6.44422, -52.0775, -4.10944
3.952, 9, 4.91746, 16.757, 33.7609, 6.25708, -52.3281, -3.98226
3.956, 9, 4.80084, 16.8024, 33.8141, 6.06948, -52.5808, -3.85517
3.96, 9, 4.68453, 16.8484, 33.8666, 5.88272, -52.834, -3.72905
3.964, 9, 4.56888, 16.8947, 33.918, 5.69811, -53.0859, -3.60476
3.968, 9, 4.45424, 16.941, 33.9681, 5.51695, -53.3346, -3.48316
3.972, 9, 4.34107, 16.9873, 34.0164, 5.3405, -53.5783, -3.36507
3.976, 9, 4.2299, 17.0332, 34.0625, 5.16988, -53.8153, -3.25122
3.98, 9, 4.12116, 17.0789, 34.1063, 5.0061, -54.0441, -3.14225
3.984, 9, 4.01517, 17.1244, 34.1474, 4.85, -54.2634, -3.03866
3.988, 9, 3.91209, 17.1697, 34.1856, 4.7022, -54.4721, -2.94083
3.992, 9, 3.81197, 17.2152, 34.2205, 4.5631, -54.6696, -2.84899
3.996, 9, 3.71474, 17.2609, 34.2522, 4.43283, -54.8555, -2.76319
3.999, 10, 3.6202, 17.3071, 34.2803, 4.31126, -55.0298, -2.6833
4.004, 10, 3.52802, 17.3539, 34.305, 4.19797, -55.1929, -2.60903
4.008, 10, 3.43785, 17.4017, 34.3261, 4.09228, -55.3459, -2.53988
4.012, 10, 3.34934, 17.4505, 34.3437, 3.99325, -55.4898, -2.47524
4.016, 10, 3.26222, 17.5008, 34.3578, 3.8997, -55.6265, -2.41433
4.02, 10, 3.1762, 17.5526, 34.3686, 3.81032, -55.7577, -2.35629
4.024, 10, 3.09085, 17.6063, 34.3762, 3.72369, -55.8855, -2.30019
4.028, 10, 3.00574, 17.6622, 34.3806, 3.63831, -56.012, -2.24507
4.032, 10, 2.92051, 17.7204, 34.3822, 3.55269, -56.1395, -2.18996
4.036, 10, 2.83486, 17.7809, 34.3811, 3.46536, -56.2702, -2.13394
4.04, 10, 2.74849, 17.8439, 34.3775, 3.37495, -56.4062, -2.07614
4.044, 10, 2.66106, 17.9095, 34.3717, 3.28025, -56.5493, -2.01579
4.048, 10, 2.57216, 17.9781, 34.364, 3.18025, -56.7011, -1.95228
4.052, 10, 2.48132, 18.0498, 34.3543, 3.07421, -56.8629, -1.88514
4.056, 10, 2.38801, 18.1251, 34.3429, 2.96167, -57.0353, -1.81411
4.06, 10, 2.29165, 18.2045, 34.3298, 2.84242, -57.2189, -1.73907
4.064, 10, 2.19172, 18.288, 34.315, 2.71648, -57.4137, -1.66005
4.068, 10, 2.08786, 18.376, 34.2984, 2.58409, -57.6196, -1.57723
4.072, 10, 1.9799, 18.4685, 34.2803, 2.4456, -57.836, -1.49084
4.076, 10, 1.86789, 18.5652, 34.2604, 2.30151, -58.0624, -1.40122
4.08, 10, 1.75198, 18.6659, 34.2389, 2.15238, -58.298, -1.30874
4.084, 10, 1.63239, 18.7705, 34.2157, 1.99882, -58.5419, -1.2138
4.088, 10, 1.50928, 18.8786, 34.1908, 1.84149, -58.7932, -1.11684
4.092, 10, 1.38284, 18.9901, 34.1641, 1.68106, -59.051, -1.01827
4.096, 10, 1.25332, 19.105, 34.1357, 1.51818, -59.3143, -0.918515
4.1, 10, 1.12101, 19.2231, 34.1056, 1.35345, -59.5821, -0.817956
4.104, 10, 0.986318, 19.3441, 34.0738, 1.18743, -59.8538, -0.716948
4.108, 10, 0.849737, 19.468, 34.0403, 1.02063, -60.1284, -0.615802
4.112, 10, 0.711834, 19.5943, 34.0052, 0.853487, -60.4052, -0.514793
4.116, 10, 0.573145, 19.7227, 33.9686, 0.686393, -60.6838, -0.414165
4.12, 10, 0.434111, 19.8527, 33.9306, 0.51971, -60.9634, -0.314134
4.124, 10, 0.295067, 19.9839, 33.8912, 0.353776, -61.2435, -0.214901
4.128, 10, 0.156278, 20.1158, 33.8505, 0.188913, -61.5234, -0.116654
4.132, 10, 0.0179709, 20.2483, 33.8087, 0.0254397, -61.8028, -0.0195732
4.136, 10, -0.119612, 20.3807, 33.7658, -0.13633, -62.0809, 0.0761639
4.14, 10, -0.256162, 20.5129, 33.722, -0.296075, -62.3571, 0.170381
4.144, 10, -0.391286, 20.6442, 33.6774, -0.453468, -62.6308, 0.262899
4.148, 10, -0.524541, 20.7744, 33.6323, -0.608162, -62.9014, 0.353531
4.152, 10, -0.6555, 20.903, 33.5867, -0.759793, -63.168, 0.442082
4.156, 10, -0.783813, 21.0296, 33.5409, -0.907976, -63.43, 0.528349
4.16, 10, -0.909228, 21.1541, 33.4949, -1.05231, -63.6865, 0.612123
4.164, 10, -1.03155, 21.2761, 33.4491, -1.19241, -63.9367, 0.693197
4.168, 10, -1.15057, 21.3953, 33.4036, -1.32787, -64.1798, 0.771372
4.172, 10, -1.26606, 21.5116, 33.3585, -1.45835, -64.415, 0.84647
4.176, 10, -1.37778, 21.6246, 33.314, -1.58353, -64.6417, 0.918332
4.18, 10, -1.48545, 21.734, 33.2704, -1.70313, -64.8592, 0.986828
4.184, 10, -1.5889, 21.8397, 33.2278, -1.81694, -65.067, 1.05185
4.188, 10, -1.68814, 21.9419, 33.1862, -1.92479, -65.2647, 1.11333
4.192, 10, -1.78333, 22.0408, 33.1455, -2.02655, -65.4519, 1.17122
4.196, 10, -1.87482, 22.1368, 33.1058, -2.1222, -65.6284, 1.22554
4.2, 11, -1.96297, 22.2302, 33.0666, -2.21181, -65.7944, 1.27634
4.204, 11, -2.04816, 22.3216, 33.028, -2.29555, -65.95, 1.32375
4.208, 11, -2.13069, 22.4112, 32.9895, -2.37376, -66.0958, 1.36798
4.212, 11, -2.21086, 22.4995, 32.9508, -2.4469, -66.2327, 1.4093
4.216, 11, -2.28898, 22.5868, 32.9116, -2.51555, -66.3616, 1.44806
4.22, 11, -2.36535, 22.6735, 32.8715, -2.5804, -66.4838, 1.48465
4.224, 11, -2.44028, 22.7603, 32.83, -2.64221, -66.6008, 1.51951
4.228, 11, -2.5141, 22.8476, 32.7866, -2.7018, -66.714, 1.5531
4.232, 11, -2.58717, 22.936, 32.7407, -2.75999, -66.8251, 1.5859
4.236, 11, -2.65971, 23.0258, 32.692, -2.81763, -66.9355, 1.61837
4.24, 11, -2.73182, 23.1174, 32.64, -2.87555, -67.047, 1.65099
4.244, 11, -2.80356, 23.2109, 32.5845, -2.93452, -67.161, 1.68419
4.248, 11, -2.87511, 23.3068, 32.5252, -2.99525, -67.2788, 1.71835
4.252, 11, -2.94679, 23.4055, 32.4617, -3.05833, -67.4016, 1.75381
4.256, 11, -3.019, 23.5075, 32.394, -3.12424, -67.5303, 1.79082
4.26, 11, -3.09216, 23.6133, 32.3219, -3.19329, -67.6656, 1.82957
4.264, 11, -3.16667, 23.7233, 32.2452, -3.26566, -67.8078, 1.87014
4.268, 11, -3.2428, 23.8376, 32.1641, -3.34142, -67.957, 1.91257
4.272, 11, -3.32064, 23.9562, 32.0785, -3.42048, -68.1132, 1.95683
4.276, 11, -3.40011, 24.0786, 31.9888, -3.5027, -68.2761, 2.00282
4.28, 11, -3.48091, 24.2042, 31.8952, -3.58778, -68.4452, 2.05038
4.284, 11, -3.56267, 24.3327, 31.798, -3.67539, -68.6198, 2.09933
4.288, 11, -3.64509, 24.4637, 31.6977, -3.76507, -68.7991, 2.14942
4.292, 11, -3.72801, 24.5967, 31.5946, -3.85634, -68.9821, 2.20036
4.296, 11, -3.81133, 24.7316, 31.4892, -3.94863, -69.1677, 2.25187
4.3, 11, -3.89492, 24.8678, 31.3821, -4.04139, -69.3547, 2.30362
4.304, 11, -3.97861, 25.005, 31.2739, -4.13403, -69.542, 2.3553
4.308, 11, -4.06223, 25.1426, 31.1651, -4.22599, -69.7285, 2.4066
4.312, 11, -4.14567, 25.2799, 31.0564, -4.31673, -69.9131, 2.45721
4.316, 11, -4.22893, 25.4167, 30.9483, -4.40572, -70.0946, 2.50686
4.32, 11, -4.31209, 25.553, 30.8411, -4.49253, -70.2721, 2.5553
4.324, 11, -4.3953, 25.6886, 30.735, -4.57679, -70.4448, 2.60234
4.328, 12, -4.4787, 25.8237, 30.6304, -4.65827, -70.6123, 2.64784
4.332, 12, -4.56248, 25.9585, 30.5273, -4.73686, -70.7742, 2.69177
4.336, 12, -4.64672, 26.0929, 30.4257, -4.81263, -70.9308, 2.73415
4.34, 12, -4.73139, 26.2269, 30.3256, -4.88578, -71.0822, 2.7751
4.344, 12, -4.8163, 26.3605, 30.2266, -4.95662, -71.2293, 2.81479
4.348, 12, -4.90124, 26.4937, 30.1285, -5.02559, -71.3728, 2.85346
4.352, 12, -4.98615, 26.6268, 30.0308, -5.09317, -71.5138, 2.89139
4.356, 12, -5.07105, 26.7601, 29.933, -5.1599, -71.6534, 2.92887
4.36, 12, -5.15596, 26.8941, 29.8343, -5.22633, -71.7926, 2.96621
4.364, 12, -5.24083, 27.029, 29.7342, -5.29301, -71.9328, 3.00373
4.368, 12, -5.32549, 27.1647, 29.632, -5.36048, -72.075, 3.04172
4.372, 12, -5.4098, 27.3013, 29.5275, -5.42922, -72.2203, 3.08046
4.376, 12, -5.49365, 27.4387, 29.4201, -5.49962, -72.3694, 3.12017
4.38, 12, -5.577, 27.5771, 29.3096, -5.57195, -72.5231, 3.16099
4.384, 12, -5.6599, 27.7164, 29.1958, -5.64634, -72.6816, 3.20302
4.388, 12, -5.74247, 27.8569, 29.0785, -5.7228, -72.8449, 3.24626
4.392, 12, -5.82489, 27.9989, 28.9577, -5.80118, -73.0127, 3.29063
4.396, 12, -5.90729, 28.1424, 28.8336, -5.88125, -73.1846, 3.33601
4.4, 12, -5.98967, 28.2874, 28.7064, -5.96266, -73.3599, 3.38222
4.404, 12, -6.07196, 28.4338, 28.5766, -6.04503, -73.5376, 3.42904
4.408, 12, -6.15404, 28.5813, 28.4447, -6.12793, -73.717, 3.47624
4.412, 12, -6.2358, 28.7293, 28.3114, -6.21091, -73.897, 3.52357
4.416, 12, -6.31726, 28.8775, 28.1773, -6.29348, -74.0765, 3.57075
4.42, 12, -6.39849, 29.0257, 28.0429, -6.37518, -74.2546, 3.61752
4.424, 12, -6.47952, 29.1735, 27.9091, -6.45556, -74.4303, 3.66364
4.428, 12, -6.56031, 29.3204, 27.7762, -6.53421, -74.6026, 3.70886
4.432, 12, -6.64083, 29.4662, 27.6449, -6.61077, -74.7707, 3.75299
4.436, 12, -6.72106, 29.6108, 27.5155, -6.68498, -74.934, 3.79587
4.44, 12, -6.80096, 29.754, 27.3884, -6.75665, -75.0921, 3.83739
4.444, 13, -6.88057, 29.8958, 27.2636, -6.82571, -75.2447, 3.87751
4.448, 13, -6.95996, 30.0362, 27.1413, -6.89217, -75.392, 3.91622
4.452, 13, -7.03928, 30.1754, 27.0213, -6.95616, -75.534, 3.95361
4.456, 13, -7.11863, 30.3135, 26.9033, -7.0179, -75.6714, 3.98979
4.46, 13, -7.19799, 30.4507, 26.787, -7.07771, -75.8048, 4.02495
4.464, 13, -7.27731, 30.5874, 26.6719, -7.13595, -75.935, 4.0593
4.468, 13, -7.35657, 30.7238, 26.5574, -7.19305, -76.0629, 4.09308
4.472, 13, -7.43579, 30.8604, 26.4428, -7.24946, -76.1896, 4.12656
4.476, 13, -7.51494, 30.9975, 26.3273, -7.30565, -76.3161, 4.16002
4.48, 13, -7.59388, 31.1354, 26.2101, -7.36208, -76.4434, 4.19374
4.484, 13, -7.67246, 31.274, 26.0908, -7.41919, -76.5726, 4.22798
4.488, 13, -7.7505, 31.4134, 25.9686, -7.47738, -76.7046, 4.26297
4.492, 13, -7.82793, 31.5535, 25.8432, -7.53694, -76.8401, 4.29891
4.496, 13, -7.90471, 31.6946, 25.7143, -7.5981, -76.9795, 4.33592
4.5, 13, -7.98091, 31.8368, 25.5815, -7.66095, -77.1231, 4.37408
4.504, 13, -8.05668, 31.9802, 25.4448, -7.72546, -77.2709, 4.41337
4.508, 13, -8.1322, 32.125, 25.3043, -7.7915, -77.4225, 4.45375
4.512, 13, -8.2076, 32.2715, 25.16, -7.85885, -77.5776, 4.49507
4.516, 13, -8.28288, 32.4195, 25.0124, -7.92724, -77.7354, 4.5372
4.52, 13, -8.35796, 32.5688, 24.862, -7.99634, -77.8952, 4.57993
4.524, 13, -8.43278, 32.719, 24.7093, -8.0658, -78.0562, 4.62306
4.528, 13, -8.50729, 32.8697, 24.5553, -8.13522, -78.2175, 4.66635
4.532, 13, -8.58152, 33.0206, 24.4005, -8.20424, -78.3782, 4.70958
4.536, 13, -8.65558, 33.1713, 24.2457, -8.27245, -78.5374, 4.7525
4.54, 13, -8.72951, 33.3216, 24.0916, -8.33951, -78.6942, 4.79489
4.544, 13, -8.80327, 33.4709, 23.9388, -8.40508, -78.8479, 4.83653
4.548, 13, -8.8768, 33.619, 23.788, -8.46889, -78.9979, 4.87726
4.552, 13, -8.95008, 33.7658, 23.6395, -8.53072, -79.1434, 4.91692
4.556, 13, -9.02311, 33.9111, 23.4938, -8.59042, -79.2843, 4.95542
4.56, 14, -9.09589, 34.0548, 23.351, -8.64795, -79.4203, 4.99271
4.564, 14, -9.16854, 34.1971, 23.211, -8.70331, -79.5514, 5.02879
4.568, 14, -9.24122, 34.338, 23.0738, -8.75661, -79.6779, 5.06372
4.572, 14, -9.31402, 34.4778, 22.9391, -8.80804, -79.8003, 5.09761
4.576, 14, -9.38694, 34.6168, 22.8065, -8.85784, -79.919, 5.13062
4.58, 14, -9.45989, 34.7551, 22.6753, -8.90633, -80.0348, 5.16294
4.584, 14, -9.53281, 34.893, 22.5449, -8.95384, -80.1485, 5.1948
4.588, 14, -9.6057, 35.0311, 22.4145, -9.00074, -80.261, 5.22644
4.592, 14, -9.67848, 35.1695, 22.2833, -9.04741, -80.3733, 5.25812
4.596, 14, -9.75102, 35.3087, 22.1503, -9.09423, -80.4861, 5.29008
4.6, 14, -9.82314, 35.4485, 22.0149, -9.14155, -80.6005, 5.32259
4.604, 14, -9.89468, 35.5892, 21.8765, -9.18969, -80.7172, 5.35585
4.608, 14, -9.96555, 35.7307, 21.7346, -9.23891, -80.8367, 5.39005
4.612, 14, -10.0357, 35.8732, 21.5886, -9.28937, -80.9596, 5.42532
4.616, 14, -10.1053, 36.0169, 21.4384, -9.34115, -81.086, 5.46173
4.62, 14, -10.1743, 36.162, 21.2838, -9.39425, -81.216, 5.49928
4.624, 14, -10.2431, 36.3087, 21.1248, -9.44857, -81.3493, 5.53793
4.628, 14, -10.3116, 36.4572, 20.9617, -9.50393, -81.4855, 5.57757
4.632, 14, -10.3799, 36.6072, 20.7948, -9.56013, -81.6241, 5.61807
4.636, 14, -10.448, 36.7586, 20.6247, -9.6169, -81.7645, 5.65925
4.64, 14, -10.5158, 36.9109, 20.452, -9.67397, -81.9059, 5.70094
4.644, 14, -10.5832, 37.0636, 20.2776, -9.73103, -82.0476, 5.7429
4.648, 14, -10.6504, 37.2166, 20.1023, -9.78778, -82.1889, 5.78493
4.652, 14, -10.7174, 37.3695, 19.9269, -9.84391, -82.329, 5.8268
4.656, 14, -10.7844, 37.522, 19.7522, -9.89912, -82.4672, 5.8683
4.66, 14, -10.8513, 37.6736, 19.5789, -9.95315, -82.6027, 5.90921
4.664, 14, -10.918, 37.8241, 19.4076, -10.0058, -82.735, 5.94935
4.668, 14, -10.9845, 37.9732, 19.239, -10.0568, -82.8636, 5.98858
4.672, 14, -11.0509, 38.1207, 19.0735, -10.1061, -82.9881, 6.02678
4.676, 15, -11.1172, 38.2667, 18.9113, -10.1536, -83.1083, 6.06388
4.68, 15, -11.1833, 38.4111, 18.7524, -10.1993, -83.2243, 6.09987
4.684, 15, -11.2496, 38.5542, 18.5968, -10.2433, -83.3361, 6.13479
4.688, 15, -11.3161, 38.6961, 18.4442, -10.2857, -83.4441, 6.16871
4.692, 15, -11.3829, 38.8372, 18.2941, -10.3267, -83.5487, 6.20178
4.696, 15, -11.4498, 38.9774, 18.146, -10.3664, -83.6506, 6.23417
4.7, 15, -11.5167, 39.1171, 17.9991, -10.4053, -83.7503, 6.26609
4.704, 15, -11.5837, 39.2567, 17.8525, -10.4436, -83.8487, 6.29777
4.708, 15, -11.6507, 39.3966, 17.7053, -10.4815, -83.9465, 6.32946
4.712, 15, -11.7173, 39.5368, 17.5567, -10.5194, -84.0445, 6.36141
4.716, 15, -11.7834, 39.6776, 17.4058, -10.5575, -84.1434, 6.39385
4.72, 15, -11.8487, 39.8188, 17.2519, -10.5962, -84.244, 6.42702
4.724, 15, -11.9128, 39.9604, 17.0946, -10.6355, -84.3468, 6.46108
4.728, 15, -11.9758, 40.1023, 16.9333, -10.6758, -84.4521, 6.49618
4.732, 15, -12.0374, 40.2446, 16.7679, -10.7169, -84.5601, 6.53236
4.736, 15, -12.0976, 40.3874, 16.5984, -10.7589, -84.6708, 6.56962
4.74, 15, -12.1567, 40.5307, 16.4249, -10.8017, -84.7838, 6.60788
4.744, 15, -12.2149, 40.6747, 16.2478, -10.8451, -84.8988, 6.64703
4.748, 15, -12.2724, 40.8196, 16.0675, -10.8889, -85.0151, 6.68687
4.752, 15, -12.3294, 40.9649, 15.8849, -10.9329, -85.1322, 6.72719
4.756, 15, -12.386, 41.1104, 15.701, -10.9767, -85.2493, 6.76778
4.76, 15, -12.4422, 41.2556, 15.5167, -11.0202, -85.3657, 6.80838
4.764, 15, -12.4981, 41.4, 15.333, -11.063, -85.4807, 6.84875
4.768, 15, -12.5537, 41.5433, 15.151, -11.1049, -85.5936, 6.88862
4.772, 15, -12.6089, 41.685, 14.9717, -11.1457, -85.7037, 6.92777
4.776, 15, -12.6636, 41.8245, 14.7959, -11.1851, -85.8104, 6.96598
4.78, 15, -12.7177, 41.9612, 14.6245, -11.223, -85.9132, 7.00304
4.784, 15, -12.7707, 42.0945, 14.4583, -11.2593, -86.0118, 7.03881
4.788, 15, -12.8224, 42.2237, 14.2979, -11.2937, -86.1058, 7.07315
4.792, 15, -12.8723, 42.3481, 14.1442, -11.3264, -86.1951, 7.10595
4.796, 15, -12.9201, 42.467, 13.9975, -11.3572, -86.2794, 7.13715
4.8, 15, -12.9656, 42.58, 13.8582, -11.3861, -86.3588, 7.16668
4.804, 15, -13.0087, 42.6868, 13.7268, -11.4131, -86.4332, 7.19448
4.808, 15, -13.0492, 42.7872, 13.6033, -11.4382, -86.5024, 7.22053
4.812, 15, -13.0871, 42.8812, 13.4879, -11.4614, -86.5666, 7.2448
4.816, 15, -13.1227, 42.9688, 13.3807, -11.4828, -86.6258, 7.26728
4.82, 15, -13.1557, 43.0501, 13.2818, -11.5023, -86.68, 7.28796
4.824, 15, -13.1864, 43.1251, 13.191, -11.52, -86.7293, 7.30685
4.828, 15, -13.2147, 43.1938, 13.1083, -11.536, -86.7739, 7.32399
4.832, 15, -13.2407, 43.2564, 13.0335, -11.5504, -86.8138, 7.33941
4.836, 15, -13.2645, 43.3132, 12.9665, -11.5631, -86.8492, 7.35316
4.84, 15, -13.2861, 43.3642, 12.9069, -11.5743, -86.8804, 7.36531
4.844, 15, -13.3058, 43.4099, 12.8544, -11.584, -86.9076, 7.37592
4.848, 15, -13.3237, 43.4506, 12.8085, -11.5923, -86.9309, 7.3851
4.852, 15, -13.3398, 43.4867, 12.7688, -11.5995, -86.9508, 7.39292
4.856, 15, -13.3543, 43.5184, 12.7349, -11.6054, -86.9675, 7.39952
4.86, 15, -13.3673, 43.546, 12.7063, -11.6104, -86.9813, 7.40501
4.864, 15, -13.3788, 43.5697, 12.6824, -11.6144, -86.9925, 7.4095
4.868, 15, -13.3889, 43.5899, 12.6627, -11.6176, -87.0016, 7.41313
4.872, 15, -13.3976, 43.607, 12.6467, -11.6202, -87.0087, 7.41601
4.876, 15, -13.4052, 43.6214, 12.6339, -11.6222, -87.0143, 7.41826
4.88, 15, -13.4117, 43.6334, 12.6239, -11.6237, -87.0185, 7.41999
4.884, 15, -13.4175, 43.6435, 12.616, -11.6248, -87.0216, 7.42128
4.888, 15, -13.4224, 43.6519, 12.6101, -11.6256, -87.0239, 7.42222
4.892, 15, -13.4266, 43.6588, 12.6056, -11.6262, -87.0255, 7.4229
4.896, 15, -13.43, 43.6644, 12.6023, -11.6266, -87.0266, 7.42338
4.9, 16, -13.4327, 43.6686, 12.5999, -11.6269, -87.0274, 7.42371
4.904, 16, -13.4347, 43.6718, 12.5982, -11.6271, -87.0279, 7.42394
4.908, 16, -13.4362, 43.674, 12.597, -11.6272, -87.0282, 7.42409
4.912, 16, -13.4372, 43.6755, 12.5963, -11.6273, -87.0285, 7.42419
4.916, 16, -13.4379, 43.6765, 12.5957, -11.6274, -87.0286, 7.42426
4.92, 16, -13.4383, 43.6772, 12.5954, -11.6274, -87.0288, 7.42431
4.924, 16, -13.4386, 43.6777, 12.5951, -11.6275, -87.0288, 7.42434
4.928, 16, -13.4389, 43.678, 12.595, -11.6275, -87.0289, 7.42436
4.932, 16, -13.439, 43.6782, 12.5948, -11.6275, -87.0289, 7.42438
4.936, 16, -13.4391, 43.6783, 12.5948, -11.6275, -87.0289, 7.42439
4.94, 16, -13.4392, 43.6784, 12.5947, -11.6275, -87.029, 7.4244
4.944, 16, -13.4392, 43.6785, 12.5947, -11.6275, -87.029, 7.4244
4.948, 16, -13.4392, 43.6786, 12.5947, -11.6275, -87.029, 7.4244
4.952, 16, -13.4393, 43.6786, 12.5946, -11.6275, -87.029, 7.42441
4.956, 16, -13.4393, 43.6786, 12.5946, -11.6275, -87.029, 7.42441
4.96, 16, -13.4393, 43.6786, 12.5946, -11.6275, -87.029, 7.42441
4.964, 16, -13.4393, 43.6786, 12.5946, -11.6275, -87.029, 7.42441
4.968, 16, -13.4393, 43.6786, 12.5946, -11.6275, -87.029, 7.42441
4.972, 16, -13.4393, 43.6786, 12.5946, -11.6275, -87.029, 7.42441
4.976, 16, -13.4393, 43.6786, 12.5946, -11.6275, -87.029, 7.42441
4.98, 16, -13.4393, 43.6787, 12.5946, -11.6275, -87.029, 7.42441
4.984, 16, -13.4393, 43.6787, 12.5946, -11.6275, -87.029, 7.42441
4.988, 16, -13.4393, 43.6787, 12.5946, -11.6275, -87.029, 7.42441
4.992, 16, -13.4393, 43.6787, 12.5946, -11.6275, -87.029, 7.42441
4.996, 16, -13.4393, 43.6787, 12.5946, -11.6275, -87.029, 7.42441
5, 16, -13.4393, 43.6787, 12.5946, -11.6275, -87.029, 7.42441
5.004, 16, -13.4393, 43.6787, 12.5946, -11.6275, -87.029, 7.42441
5.008, 16, -13.4393, 43.6787, 12.5946, -11.6275, -87.029, 7.42441
5.012, 16, -13.4393, 43.6787, 12.5946, -11.6275, -87.029, 7.42441
5.016, 16, -13.4393, 43.6787, 12.5946, -11.6275, -87.029, 7.42441
