hehonglu123/ABB_Primitive_Study/execution/movelll_30_car/curve_exe_v500_z10.csv
timestamp, cmd_num, J1, J2, J3, J4, J5, J6
0, -1, -13.4393, 43.6787, 12.5946, -11.6275, -87.029, 7.42441
0.003, -1, -13.4393, 43.6787, 12.5946, -11.6275, -87.029, 7.42441
0.006, -1, -13.4393, 43.6787, 12.5946, -11.6275, -87.029, 7.42441
0.008, -1, -13.4393, 43.6787, 12.5946, -11.6275, -87.029, 7.42441
0.011, -1, -13.4393, 43.6787, 12.5946, -11.6275, -87.029, 7.42441
0.016, -1, -13.4393, 43.6787, 12.5946, -11.6275, -87.029, 7.42441
0.02, -1, -13.4393, 43.6787, 12.5946, -11.6275, -87.029, 7.42441
0.024, -1, -13.4393, 43.6787, 12.5946, -11.6275, -87.029, 7.42441
0.028, -1, -13.4393, 43.6787, 12.5946, -11.6275, -87.029, 7.42441
0.032, -1, -13.4393, 43.6787, 12.5946, -11.6275, -87.029, 7.42441
0.036, -1, -13.4392, 43.6786, 12.5946, -11.6275, -87.029, 7.42441
0.04, -1, -13.439, 43.6785, 12.5946, -11.6275, -87.029, 7.42441
0.044, -1, -13.4384, 43.678, 12.5947, -11.6275, -87.029, 7.42439
0.048, -1, -13.4372, 43.6772, 12.5949, -11.6274, -87.0289, 7.42434
0.052, -1, -13.4355, 43.6758, 12.5951, -11.6273, -87.0287, 7.42422
0.056, -1, -13.433, 43.6738, 12.5955, -11.627, -87.0284, 7.42397
0.06, -1, -13.4296, 43.671, 12.5961, -11.6264, -87.0277, 7.42349
0.064, -1, -13.4254, 43.6675, 12.5969, -11.6253, -87.0264, 7.42266
0.068, -1, -13.4203, 43.6631, 12.598, -11.6236, -87.0244, 7.42132
0.072, -1, -13.4141, 43.6579, 12.5994, -11.6209, -87.0213, 7.41928
0.076, -1, -13.4066, 43.6516, 12.6011, -11.617, -87.0167, 7.4163
0.08, -1, -13.3977, 43.6442, 12.6034, -11.6115, -87.0103, 7.41213
0.084, -1, -13.3869, 43.6352, 12.6062, -11.604, -87.0016, 7.40644
0.088, -1, -13.3743, 43.6247, 12.6097, -11.5941, -86.9899, 7.39892
0.092, -1, -13.3596, 43.6124, 12.6138, -11.5812, -86.9748, 7.38918
0.096, -1, -13.3427, 43.5982, 12.6186, -11.5648, -86.9557, 7.37685
0.1, -1, -13.3235, 43.582, 12.6243, -11.5444, -86.9319, 7.36155
0.104, -1, -13.3019, 43.5636, 12.6308, -11.5196, -86.9029, 7.3429
0.108, -1, -13.2776, 43.5427, 12.6382, -11.4899, -86.868, 7.32054
0.112, -1, -13.2505, 43.5193, 12.6467, -11.4547, -86.8269, 7.29416
0.116, -1, -13.2206, 43.4932, 12.6562, -11.4137, -86.7789, 7.26346
0.12, -1, -13.1877, 43.4644, 12.6669, -11.3667, -86.7238, 7.22818
0.124, -1, -13.1519, 43.4328, 12.6786, -11.3132, -86.6612, 7.18814
0.128, -1, -13.113, 43.3984, 12.6916, -11.2532, -86.591, 7.14319
0.131, -1, -13.071, 43.3611, 12.7056, -11.1865, -86.5129, 7.09326
0.136, -1, -13.026, 43.321, 12.7209, -11.1131, -86.4269, 7.03835
0.139, -1, -12.9779, 43.2779, 12.7373, -11.0331, -86.3333, 6.9785
0.144, -1, -12.9267, 43.232, 12.7548, -10.9467, -86.2321, 6.91384
0.148, -1, -12.8726, 43.1833, 12.7734, -10.854, -86.1236, 6.84454
0.152, -1, -12.8155, 43.132, 12.7932, -10.7555, -86.0082, 6.77084
0.156, -1, -12.7557, 43.0781, 12.8139, -10.6514, -85.8863, 6.69301
0.16, -1, -12.6932, 43.0219, 12.8355, -10.5422, -85.7585, 6.61137
0.164, -1, -12.6282, 42.9633, 12.8581, -10.4284, -85.6253, 6.52627
0.168, -1, -12.5607, 42.9025, 12.8815, -10.3105, -85.4872, 6.43809
0.172, -1, -12.4909, 42.8396, 12.9056, -10.189, -85.3449, 6.34721
0.176, -1, -12.4189, 42.7749, 12.9305, -10.0644, -85.1989, 6.25399
0.18, -1, -12.345, 42.7085, 12.956, -9.93711, -85.0499, 6.15879
0.184, -1, -12.2694, 42.6406, 12.9821, -9.80765, -84.8983, 6.06194
0.188, -1, -12.1925, 42.5714, 13.0086, -9.6764, -84.7446, 5.96375
0.192, -1, -12.1142, 42.5011, 13.0356, -9.54373, -84.5892, 5.86449
0.196, -1, -12.0348, 42.4297, 13.0629, -9.40995, -84.4326, 5.76439
0.2, -1, -11.9542, 42.3573, 13.0906, -9.27534, -84.2749, 5.66366
0.204, -1, -11.8724, 42.2841, 13.1185, -9.14011, -84.1166, 5.56246
0.208, -1, -11.7897, 42.21, 13.1466, -9.00443, -83.9577, 5.46092
0.212, -1, -11.7061, 42.1354, 13.1749, -8.86843, -83.7985, 5.35913
0.216, -1, -11.6218, 42.0602, 13.2033, -8.7322, -83.6389, 5.25717
0.22, -1, -11.5371, 41.9847, 13.2318, -8.5958, -83.4792, 5.15507
0.224, -1, -11.452, 41.909, 13.2603, -8.45928, -83.3194, 5.05288
0.228, -1, -11.3667, 41.8332, 13.2889, -8.32266, -83.1594, 4.95062
0.232, -1, -11.2813, 41.7572, 13.3176, -8.18597, -82.9993, 4.8483
0.236, -1, -11.1957, 41.6811, 13.3462, -8.04922, -82.8392, 4.74595
0.24, -1, -11.11, 41.605, 13.3749, -7.91243, -82.679, 4.64355
0.244, -1, -11.0243, 41.5288, 13.4035, -7.77561, -82.5188, 4.54114
0.248, -1, -10.9386, 41.4526, 13.4322, -7.63876, -82.3586, 4.4387
0.252, -1, -10.8528, 41.3764, 13.4609, -7.50189, -82.1983, 4.33625
0.256, -1, -10.767, 41.3002, 13.4896, -7.36501, -82.0381, 4.2338
0.26, -1, -10.6811, 41.2239, 13.5183, -7.22813, -81.8778, 4.13133
0.264, -1, -10.5953, 41.1477, 13.547, -7.09125, -81.7175, 4.02887
0.268, -1, -10.5094, 41.0714, 13.5757, -6.95436, -81.5572, 3.92641
0.272, -1, -10.4236, 40.9952, 13.6044, -6.81749, -81.397, 3.82396
0.276, -1, -10.3378, 40.9189, 13.6331, -6.68063, -81.2367, 3.72151
0.28, -1, -10.252, 40.8427, 13.6618, -6.54379, -81.0765, 3.61908
0.284, -1, -10.1661, 40.7665, 13.6904, -6.40697, -80.9163, 3.51666
0.288, -1, -10.0803, 40.6903, 13.7191, -6.27017, -80.7561, 3.41427
0.292, -1, -9.99456, 40.6141, 13.7478, -6.13341, -80.596, 3.31189
0.296, -1, -9.9088, 40.538, 13.7764, -5.99668, -80.4359, 3.20955
0.3, -1, -9.82306, 40.4618, 13.8051, -5.85999, -80.2758, 3.10723
0.304, -1, -9.73734, 40.3857, 13.8337, -5.72334, -80.1158, 3.00494
0.308, -1, -9.65166, 40.3096, 13.8624, -5.58674, -79.9558, 2.90269
0.312, -1, -9.566, 40.2336, 13.891, -5.45019, -79.796, 2.80048
0.316, -1, -9.48038, 40.1575, 13.9196, -5.31369, -79.6361, 2.69831
0.32, -1, -9.3948, 40.0815, 13.9482, -5.17726, -79.4764, 2.59618
0.324, -1, -9.30925, 40.0055, 13.9768, -5.04089, -79.3167, 2.4941
0.328, -1, -9.22375, 39.9296, 14.0054, -4.90458, -79.1571, 2.39207
0.332, -1, -9.13829, 39.8537, 14.0339, -4.76835, -78.9976, 2.2901
0.336, -1, -9.05287, 39.7778, 14.0625, -4.63219, -78.8382, 2.18818
0.34, -1, -8.9675, 39.702, 14.091, -4.49612, -78.6788, 2.08632
0.344, -1, -8.88219, 39.6262, 14.1195, -4.36012, -78.5196, 1.98452
0.348, -1, -8.79693, 39.5505, 14.148, -4.22421, -78.3604, 1.88279
0.352, -1, -8.71172, 39.4748, 14.1765, -4.0884, -78.2014, 1.78113
0.356, -1, -8.62657, 39.3992, 14.2049, -3.95267, -78.0425, 1.67953
0.36, -1, -8.54148, 39.3236, 14.2334, -3.81705, -77.8837, 1.57801
0.364, -1, -8.45646, 39.2481, 14.2618, -3.68152, -77.725, 1.47657
0.368, -1, -8.3715, 39.1727, 14.2902, -3.54611, -77.5664, 1.3752
0.372, -1, -8.28661, 39.0973, 14.3185, -3.4108, -77.408, 1.27392
0.376, -1, -8.20179, 39.0219, 14.3469, -3.2756, -77.2497, 1.17272
0.38, -1, -8.11704, 38.9467, 14.3752, -3.14052, -77.0915, 1.07161
0.384, -1, -8.03237, 38.8715, 14.4035, -3.00557, -76.9335, 0.970588
0.388, -1, -7.94777, 38.7963, 14.4318, -2.87073, -76.7756, 0.869659
0.392, -1, -7.86325, 38.7212, 14.46, -2.73602, -76.6179, 0.768825
0.396, -1, -7.77881, 38.6463, 14.4882, -2.60145, -76.4603, 0.668089
0.4, -1, -7.69446, 38.5713, 14.5164, -2.467, -76.3029, 0.567454
0.404, -1, -7.61019, 38.4965, 14.5446, -2.3327, -76.1456, 0.466921
0.408, -1, -7.526, 38.4217, 14.5727, -2.19854, -75.9885, 0.366494
0.412, -1, -7.44191, 38.347, 14.6008, -2.06452, -75.8316, 0.266176
0.416, -1, -7.35791, 38.2724, 14.6288, -1.93064, -75.6748, 0.165968
0.42, -1, -7.274, 38.1979, 14.6569, -1.79692, -75.5183, 0.0658724
0.424, -1, -7.19019, 38.1235, 14.6849, -1.66336, -75.3619, -0.0341072
0.428, -1, -7.10648, 38.0491, 14.7128, -1.52995, -75.2057, -0.133969
0.432, -1, -7.02287, 37.9748, 14.7408, -1.3967, -75.0496, -0.233711
0.436, -1, -6.93935, 37.9007, 14.7687, -1.26362, -74.8938, -0.33333
0.44, -1, -6.85595, 37.8266, 14.7965, -1.1307, -74.7382, -0.432824
0.444, -1, -6.77264, 37.7526, 14.8244, -0.99795, -74.5827, -0.532191
0.448, -1, -6.68945, 37.6787, 14.8522, -0.865375, -74.4275, -0.631429
0.452, -1, -6.60636, 37.6049, 14.8799, -0.732975, -74.2725, -0.730535
0.456, -1, -6.52339, 37.5312, 14.9077, -0.600755, -74.1176, -0.829507
0.46, -1, -6.44053, 37.4576, 14.9353, -0.468716, -73.963, -0.928344
0.464, -1, -6.35778, 37.3842, 14.963, -0.336861, -73.8086, -1.02704
0.468, -1, -6.27515, 37.3108, 14.9906, -0.205193, -73.6545, -1.1256
0.472, -1, -6.19264, 37.2375, 15.0181, -0.0737153, -73.5005, -1.22402
0.476, -1, -6.11024, 37.1643, 15.0457, 0.0575699, -73.3468, -1.32229
0.48, -1, -6.02797, 37.0912, 15.0732, 0.18866, -73.1933, -1.42042
0.484, -1, -5.94582, 37.0183, 15.1006, 0.319552, -73.04, -1.51839
0.488, -1, -5.8638, 36.9454, 15.128, 0.450244, -72.887, -1.61622
0.492, -1, -5.7819, 36.8727, 15.1554, 0.580734, -72.7342, -1.7139
0.496, -1, -5.70012, 36.8001, 15.1827, 0.711018, -72.5817, -1.81142
0.5, -1, -5.61848, 36.7276, 15.2099, 0.841096, -72.4294, -1.90879
0.504, -1, -5.53697, 36.6552, 15.2372, 0.970964, -72.2773, -2.006
0.508, -1, -5.45558, 36.5829, 15.2644, 1.10062, -72.1255, -2.10306
0.512, -1, -5.37433, 36.5108, 15.2915, 1.23006, -71.9739, -2.19995
0.516, -1, -5.29321, 36.4387, 15.3186, 1.35929, -71.8226, -2.29668
0.52, -1, -5.21223, 36.3668, 15.3456, 1.4883, -71.6715, -2.39325
0.524, -1, -5.13138, 36.295, 15.3726, 1.6171, -71.5207, -2.48966
0.528, -1, -5.05067, 36.2233, 15.3996, 1.74567, -71.3702, -2.5859
0.532, -1, -4.97009, 36.1518, 15.4265, 1.87402, -71.2199, -2.68198
0.536, -1, -4.88966, 36.0803, 15.4534, 2.00215, -71.0698, -2.77789
0.54, -1, -4.80936, 36.009, 15.4802, 2.13005, -70.9201, -2.87363
0.544, -1, -4.7292, 35.9378, 15.507, 2.25773, -70.7706, -2.9692
0.548, -1, -4.64919, 35.8668, 15.5337, 2.38518, -70.6213, -3.0646
0.552, -1, -4.56931, 35.7959, 15.5604, 2.51241, -70.4724, -3.15984
0.556, -1, -4.48958, 35.725, 15.587, 2.6394, -70.3237, -3.2549
0.56, -1, -4.41, 35.6544, 15.6136, 2.76617, -70.1752, -3.34979
0.564, -1, -4.33056, 35.5838, 15.6401, 2.8927, -70.0271, -3.44451
0.568, -1, -4.25126, 35.5134, 15.6666, 3.01901, -69.8792, -3.53905
0.572, -1, -4.17211, 35.4431, 15.693, 3.14508, -69.7316, -3.63342
0.576, -1, -4.0931, 35.373, 15.7194, 3.27092, -69.5842, -3.72761
0.58, -1, -4.01424, 35.3029, 15.7458, 3.39652, -69.4372, -3.82163
0.584, -1, -3.93553, 35.233, 15.772, 3.52189, -69.2904, -3.91547
0.588, -1, -3.85696, 35.1633, 15.7983, 3.64702, -69.1438, -4.00914
0.592, -1, -3.77855, 35.0936, 15.8245, 3.77191, -68.9976, -4.10263
0.596, -1, -3.70028, 35.0241, 15.8506, 3.89657, -68.8516, -4.19594
0.6, -1, -3.62216, 34.9548, 15.8767, 4.02099, -68.7059, -4.28908
0.604, -1, -3.54419, 34.8855, 15.9027, 4.14517, -68.5605, -4.38203
0.608, -1, -3.46637, 34.8164, 15.9287, 4.26911, -68.4154, -4.47481
0.612, -1, -3.3887, 34.7474, 15.9547, 4.39281, -68.2706, -4.5674
0.616, -1, -3.31118, 34.6786, 15.9806, 4.51628, -68.126, -4.65982
0.62, -1, -3.23382, 34.6099, 16.0064, 4.63949, -67.9817, -4.75205
0.624, -1, -3.1566, 34.5413, 16.0322, 4.76247, -67.8377, -4.84411
0.628, -1, -3.07954, 34.4729, 16.0579, 4.88521, -67.694, -4.93598
0.632, -1, -3.00262, 34.4046, 16.0836, 5.0077, -67.5506, -5.02767
0.636, -1, -2.92586, 34.3364, 16.1092, 5.12995, -67.4074, -5.11918
0.64, -1, -2.84926, 34.2684, 16.1348, 5.25195, -67.2646, -5.2105
0.644, -1, -2.7728, 34.2005, 16.1604, 5.37371, -67.122, -5.30165
0.648, -1, -2.6965, 34.1328, 16.1858, 5.49523, -66.9797, -5.39261
0.652, -1, -2.62035, 34.0652, 16.2113, 5.6165, -66.8377, -5.48338
0.656, -1, -2.54436, 33.9977, 16.2366, 5.73753, -66.696, -5.57398
0.66, -1, -2.46852, 33.9303, 16.262, 5.85831, -66.5546, -5.66439
0.664, -1, -2.39283, 33.8631, 16.2872, 5.97884, -66.4135, -5.75461
0.668, -1, -2.3173, 33.7961, 16.3125, 6.09913, -66.2726, -5.84465
0.672, -1, -2.24192, 33.7291, 16.3376, 6.21917, -66.1321, -5.93451
0.676, -1, -2.1667, 33.6623, 16.3628, 6.33897, -65.9918, -6.02418
0.68, -1, -2.09163, 33.5957, 16.3878, 6.45851, -65.8518, -6.11367
0.684, -1, -2.01672, 33.5292, 16.4129, 6.57781, -65.7121, -6.20297
0.688, -1, -1.94196, 33.4628, 16.4378, 6.69687, -65.5727, -6.29208
0.692, -1, -1.86736, 33.3965, 16.4627, 6.81567, -65.4336, -6.38101
0.696, -1, -1.79291, 33.3304, 16.4876, 6.93423, -65.2948, -6.46976
0.7, -1, -1.71862, 33.2645, 16.5124, 7.05254, -65.1562, -6.55832
0.704, -1, -1.64448, 33.1986, 16.5372, 7.1706, -65.018, -6.64669
0.708, -1, -1.5705, 33.1329, 16.5619, 7.28841, -64.8801, -6.73488
0.712, -1, -1.49668, 33.0674, 16.5865, 7.40597, -64.7424, -6.82288
0.716, -1, -1.42301, 33.002, 16.6111, 7.52329, -64.605, -6.9107
0.72, -1, -1.34949, 32.9367, 16.6357, 7.64036, -64.468, -6.99833
0.724, -1, -1.27614, 32.8715, 16.6602, 7.75718, -64.3312, -7.08577
0.728, -1, -1.20293, 32.8065, 16.6846, 7.87375, -64.1947, -7.17303
0.732, -1, -1.12989, 32.7417, 16.709, 7.99007, -64.0585, -7.2601
0.736, -1, -1.057, 32.677, 16.7333, 8.10615, -63.9226, -7.34699
0.74, -1, -0.984259, 32.6124, 16.7576, 8.22197, -63.7869, -7.43369
0.744, -1, -0.911678, 32.5479, 16.7819, 8.33755, -63.6516, -7.52021
0.748, -1, -0.839252, 32.4836, 16.8061, 8.45288, -63.5166, -7.60653
0.752, -1, -0.766981, 32.4194, 16.8302, 8.56796, -63.3818, -7.69268
0.756, -1, -0.694864, 32.3554, 16.8543, 8.6828, -63.2474, -7.77864
0.76, -1, -0.622901, 32.2915, 16.8783, 8.79738, -63.1132, -7.86441
0.764, -1, -0.551092, 32.2277, 16.9023, 8.91172, -62.9793, -7.95
0.768, -1, -0.479437, 32.1641, 16.9262, 9.02582, -62.8457, -8.0354
0.772, -1, -0.407935, 32.1006, 16.9501, 9.13966, -62.7124, -8.12062
0.776, -1, -0.336586, 32.0373, 16.9739, 9.25326, -62.5794, -8.20566
0.78, -1, -0.26539, 31.9741, 16.9977, 9.36662, -62.4467, -8.29051
0.784, -1, -0.194346, 31.911, 17.0214, 9.47973, -62.3142, -8.37518
0.788, -1, -0.123455, 31.848, 17.0451, 9.5926, -62.182, -8.45966
0.792, -1, -0.0527154, 31.7852, 17.0687, 9.70522, -62.0502, -8.54397
0.796, -1, 0.0178725, 31.7226, 17.0923, 9.81761, -61.9186, -8.62809
0.8, -1, 0.0883091, 31.66, 17.1158, 9.92975, -61.7873, -8.71204
0.804, -1, 0.158595, 31.5976, 17.1393, 10.0417, -61.6562, -8.7958
0.808, -1, 0.22873, 31.5353, 17.1627, 10.1533, -61.5255, -8.87938
0.812, -1, 0.298716, 31.4732, 17.186, 10.2647, -61.395, -8.96279
0.816, -1, 0.368552, 31.4112, 17.2094, 10.3759, -61.2648, -9.04602
0.82, -1, 0.438239, 31.3493, 17.2326, 10.4869, -61.1349, -9.12907
0.824, -1, 0.507778, 31.2876, 17.2559, 10.5976, -61.0053, -9.21194
0.828, -1, 0.577169, 31.226, 17.279, 10.7081, -60.8759, -9.29464
0.832, -1, 0.646413, 31.1645, 17.3021, 10.8183, -60.7468, -9.37716
0.836, -1, 0.71551, 31.1031, 17.3252, 10.9283, -60.618, -9.45951
0.84, -1, 0.78446, 31.0419, 17.3482, 11.0381, -60.4895, -9.54168
0.844, -1, 0.853266, 30.9808, 17.3712, 11.1476, -60.3612, -9.62368
0.848, -1, 0.921925, 30.9199, 17.3941, 11.2569, -60.2332, -9.7055
0.852, -1, 0.990441, 30.859, 17.417, 11.366, -60.1055, -9.78716
0.856, -1, 1.05881, 30.7983, 17.4398, 11.4749, -59.9781, -9.86864
0.86, -1, 1.12704, 30.7378, 17.4626, 11.5835, -59.8509, -9.94995
0.864, -1, 1.19512, 30.6773, 17.4854, 11.6919, -59.7239, -10.0311
0.868, -1, 1.26307, 30.617, 17.508, 11.8001, -59.5973, -10.1121
0.872, -1, 1.33087, 30.5568, 17.5307, 11.908, -59.4709, -10.1929
0.876, -1, 1.39853, 30.4967, 17.5533, 12.0157, -59.3448, -10.2735
0.88, -1, 1.46604, 30.4368, 17.5758, 12.1232, -59.2189, -10.354
0.884, -1, 1.53342, 30.377, 17.5983, 12.2305, -59.0933, -10.4343
0.888, -1, 1.60066, 30.3173, 17.6208, 12.3375, -58.9679, -10.5144
0.892, -1, 1.66775, 30.2577, 17.6432, 12.4444, -58.8429, -10.5943
0.896, -1, 1.73471, 30.1982, 17.6655, 12.551, -58.718, -10.6741
0.9, -1, 1.80153, 30.1389, 17.6878, 12.6574, -58.5935, -10.7538
0.904, -1, 1.86821, 30.0797, 17.7101, 12.7635, -58.4692, -10.8332
0.908, -1, 1.93476, 30.0206, 17.7323, 12.8695, -58.3451, -10.9125
0.912, -1, 2.00117, 29.9617, 17.7545, 12.9752, -58.2213, -10.9917
0.916, -1, 2.06744, 29.9028, 17.7766, 13.0807, -58.0978, -11.0707
0.92, -1, 2.13357, 29.8441, 17.7987, 13.186, -57.9745, -11.1495
0.924, -1, 2.19957, 29.7855, 17.8207, 13.2911, -57.8514, -11.2281
0.928, -1, 2.26543, 29.727, 17.8427, 13.3959, -57.7287, -11.3066
0.932, -1, 2.33116, 29.6687, 17.8647, 13.5006, -57.6061, -11.385
0.936, -1, 2.39676, 29.6104, 17.8866, 13.605, -57.4838, -11.4631
0.94, -1, 2.46222, 29.5523, 17.9084, 13.7092, -57.3618, -11.5412
0.944, -1, 2.52755, 29.4943, 17.9303, 13.8133, -57.24, -11.619
0.948, -1, 2.59275, 29.4364, 17.952, 13.9171, -57.1185, -11.6967
0.952, -1, 2.65781, 29.3787, 17.9738, 14.0206, -56.9972, -11.7743
0.956, -1, 2.72274, 29.321, 17.9954, 14.124, -56.8761, -11.8516
0.96, -1, 2.78755, 29.2635, 18.0171, 14.2272, -56.7553, -11.9289
0.964, -1, 2.85222, 29.2061, 18.0387, 14.3302, -56.6348, -12.0059
0.968, -1, 2.91676, 29.1488, 18.0602, 14.4329, -56.5144, -12.0829
0.972, -1, 2.98117, 29.0916, 18.0817, 14.5355, -56.3944, -12.1596
0.976, -1, 3.04545, 29.0345, 18.1032, 14.6378, -56.2745, -12.2362
0.98, -1, 3.10961, 28.9775, 18.1246, 14.7399, -56.1549, -12.3127
0.984, -1, 3.17363, 28.9207, 18.146, 14.8419, -56.0356, -12.389
0.988, -1, 3.23753, 28.864, 18.1673, 14.9436, -55.9165, -12.4651
0.992, -1, 3.3013, 28.8074, 18.1886, 15.0451, -55.7976, -12.5411
0.996, -1, 3.36494, 28.7508, 18.2099, 15.1465, -55.6789, -12.617
1, -1, 3.42846, 28.6945, 18.2311, 15.2476, -55.5605, -12.6927
1.004, -1, 3.49185, 28.6382, 18.2523, 15.3485, -55.4423, -12.7682
1.008, -1, 3.55512, 28.582, 18.2734, 15.4492, -55.3244, -12.8436
1.012, -1, 3.61826, 28.5259, 18.2945, 15.5498, -55.2067, -12.9189
1.016, -1, 3.68127, 28.47, 18.3155, 15.6501, -55.0892, -12.994
1.02, -1, 3.74416, 28.4142, 18.3365, 15.7502, -54.972, -13.0689
1.024, -1, 3.80693, 28.3584, 18.3575, 15.8502, -54.855, -13.1437
1.027, -1, 3.86958, 28.3028, 18.3784, 15.9499, -54.7382, -13.2184
1.032, -1, 3.9321, 28.2473, 18.3993, 16.0494, -54.6216, -13.2929
1.036, -1, 3.9945, 28.1919, 18.4201, 16.1488, -54.5053, -13.3673
1.04, -1, 4.05678, 28.1366, 18.4409, 16.2479, -54.3892, -13.4415
1.044, -1, 4.11893, 28.0814, 18.4616, 16.3469, -54.2733, -13.5156
1.048, -1, 4.18097, 28.0263, 18.4824, 16.4457, -54.1577, -13.5895
1.052, -1, 4.24289, 27.9714, 18.503, 16.5442, -54.0422, -13.6633
1.055, -1, 4.30468, 27.9165, 18.5237, 16.6426, -53.927, -13.7369
1.06, -1, 4.36636, 27.8617, 18.5443, 16.7408, -53.8121, -13.8104
1.064, -1, 4.42792, 27.8071, 18.5648, 16.8388, -53.6973, -13.8838
1.068, -1, 4.48936, 27.7525, 18.5853, 16.9366, -53.5828, -13.957
1.072, -1, 4.55068, 27.6981, 18.6058, 17.0343, -53.4685, -14.0301
1.076, -1, 4.61188, 27.6438, 18.6262, 17.1317, -53.3544, -14.103
1.08, -1, 4.67297, 27.5895, 18.6466, 17.229, -53.2405, -14.1758
1.084, -1, 4.73394, 27.5354, 18.667, 17.326, -53.1268, -14.2485
1.088, -1, 4.7948, 27.4814, 18.6873, 17.4229, -53.0134, -14.321
1.091, -1, 4.85554, 27.4274, 18.7076, 17.5196, -52.9002, -14.3934
1.096, -1, 4.91617, 27.3736, 18.7278, 17.6161, -52.7871, -14.4656
1.1, -1, 4.97668, 27.3199, 18.7481, 17.7125, -52.6743, -14.5378
1.104, -1, 5.03708, 27.2663, 18.7682, 17.8086, -52.5618, -14.6097
1.108, -1, 5.09737, 27.2127, 18.7883, 17.9046, -52.4494, -14.6816
1.112, -1, 5.15754, 27.1593, 18.8084, 18.0004, -52.3372, -14.7533
1.116, -1, 5.2176, 27.106, 18.8285, 18.096, -52.2253, -14.8249
1.119, -1, 5.27755, 27.0528, 18.8485, 18.1915, -52.1135, -14.8963
1.124, -1, 5.33739, 26.9996, 18.8685, 18.2867, -52.0019, -14.9676
1.128, -1, 5.39712, 26.9466, 18.8884, 18.3818, -51.8906, -15.0388
1.132, -1, 5.45673, 26.8937, 18.9083, 18.4767, -51.7795, -15.1098
1.136, -1, 5.51624, 26.8408, 18.9282, 18.5715, -51.6685, -15.1807
1.14, -1, 5.57564, 26.7881, 18.948, 18.666, -51.5578, -15.2515
1.144, -1, 5.63493, 26.7355, 18.9678, 18.7604, -51.4473, -15.3222
1.147, -1, 5.69412, 26.6829, 18.9876, 18.8547, -51.337, -15.3927
1.152, -1, 5.75319, 26.6305, 19.0073, 18.9487, -51.2268, -15.4631
1.156, -1, 5.81216, 26.5781, 19.027, 19.0426, -51.1169, -15.5334
1.16, -1, 5.87103, 26.5259, 19.0467, 19.1363, -51.0072, -15.6035
1.164, -1, 5.92979, 26.4737, 19.0663, 19.2298, -50.8976, -15.6736
1.168, -1, 5.98844, 26.4216, 19.0859, 19.3232, -50.7883, -15.7435
1.172, -1, 6.04699, 26.3696, 19.1054, 19.4164, -50.6792, -15.8132
1.175, -1, 6.10543, 26.3177, 19.1249, 19.5095, -50.5702, -15.8829
1.18, -1, 6.16377, 26.266, 19.1444, 19.6024, -50.4614, -15.9524
1.184, -1, 6.22201, 26.2142, 19.1639, 19.6951, -50.3529, -16.0218
1.188, -1, 6.28015, 26.1626, 19.1833, 19.7876, -50.2445, -16.0911
1.192, -1, 6.33818, 26.1111, 19.2027, 19.88, -50.1363, -16.1603
1.196, -1, 6.39611, 26.0597, 19.222, 19.9723, -50.0283, -16.2293
1.2, -1, 6.45394, 26.0083, 19.2413, 20.0643, -49.9205, -16.2982
1.204, -1, 6.51167, 25.9571, 19.2606, 20.1562, -49.8129, -16.367
1.208, -1, 6.5693, 25.9059, 19.2798, 20.248, -49.7055, -16.4357
1.212, -1, 6.62683, 25.8548, 19.299, 20.3396, -49.5982, -16.5042
1.216, -1, 6.68426, 25.8038, 19.3182, 20.431, -49.4912, -16.5727
1.22, -1, 6.74159, 25.7529, 19.3374, 20.5223, -49.3843, -16.641
1.224, -1, 6.79882, 25.7021, 19.3565, 20.6134, -49.2776, -16.7092
1.228, -1, 6.85596, 25.6514, 19.3756, 20.7044, -49.1711, -16.7773
1.232, -1, 6.91299, 25.6008, 19.3946, 20.7952, -49.0648, -16.8453
1.236, -1, 6.96993, 25.5502, 19.4136, 20.8858, -48.9586, -16.9131
1.24, -1, 7.02678, 25.4997, 19.4326, 20.9763, -48.8526, -16.9809
1.244, -1, 7.08352, 25.4494, 19.4515, 21.0667, -48.7469, -17.0485
1.248, -1, 7.14018, 25.3991, 19.4705, 21.1569, -48.6413, -17.116
1.252, -1, 7.19673, 25.3488, 19.4893, 21.2469, -48.5358, -17.1834
1.256, -1, 7.25319, 25.2987, 19.5082, 21.3368, -48.4306, -17.2507
1.26, -1, 7.30956, 25.2487, 19.527, 21.4266, -48.3255, -17.3179
1.264, -1, 7.36583, 25.1987, 19.5458, 21.5161, -48.2206, -17.385
1.267, -1, 7.42201, 25.1488, 19.5646, 21.6056, -48.1158, -17.4519
1.272, -1, 7.4781, 25.099, 19.5833, 21.6949, -48.0113, -17.5188
1.276, -1, 7.53409, 25.0493, 19.602, 21.784, -47.9069, -17.5855
1.28, -1, 7.58999, 24.9997, 19.6207, 21.873, -47.8027, -17.6521
1.284, -1, 7.6458, 24.9501, 19.6393, 21.9619, -47.6986, -17.7186
1.288, -1, 7.70152, 24.9007, 19.6579, 22.0506, -47.5948, -17.785
1.292, -1, 7.75715, 24.8513, 19.6765, 22.1392, -47.4911, -17.8513
1.295, -1, 7.81268, 24.802, 19.695, 22.2276, -47.3875, -17.9175
1.3, -1, 7.86813, 24.7528, 19.7135, 22.3159, -47.2842, -17.9836
1.304, -1, 7.92348, 24.7036, 19.732, 22.404, -47.181, -18.0496
1.308, -1, 7.97875, 24.6545, 19.7505, 22.492, -47.0779, -18.1154
1.312, -1, 8.03393, 24.6055, 19.7689, 22.5798, -46.9751, -18.1812
1.316, -1, 8.08901, 24.5566, 19.7873, 22.6675, -46.8724, -18.2468
1.32, -1, 8.14401, 24.5078, 19.8057, 22.7551, -46.7699, -18.3124
1.324, -1, 8.19893, 24.4591, 19.824, 22.8425, -46.6675, -18.3778
1.328, -1, 8.25375, 24.4104, 19.8423, 22.9298, -46.5653, -18.4432
1.332, -1, 8.30849, 24.3618, 19.8606, 23.017, -46.4632, -18.5084
1.336, -1, 8.36314, 24.3133, 19.8788, 23.104, -46.3614, -18.5735
1.34, -1, 8.4177, 24.2648, 19.8971, 23.1909, -46.2596, -18.6386
1.344, -1, 8.47218, 24.2165, 19.9153, 23.2776, -46.1581, -18.7035
1.348, -1, 8.52657, 24.1682, 19.9334, 23.3642, -46.0567, -18.7683
1.352, -1, 8.58088, 24.1199, 19.9515, 23.4507, -45.9554, -18.833
1.356, -1, 8.6351, 24.0718, 19.9697, 23.537, -45.8543, -18.8976
1.36, -1, 8.68923, 24.0237, 19.9877, 23.6232, -45.7534, -18.9622
1.364, -1, 8.74328, 23.9757, 20.0058, 23.7092, -45.6526, -19.0266
1.368, -1, 8.79725, 23.9278, 20.0238, 23.7952, -45.552, -19.0909
1.372, -1, 8.85114, 23.88, 20.0418, 23.881, -45.4516, -19.1551
1.376, -1, 8.90494, 23.8322, 20.0598, 23.9666, -45.3513, -19.2192
1.38, -1, 8.95866, 23.7845, 20.0777, 24.0521, -45.2511, -19.2833
1.384, -1, 9.01229, 23.7369, 20.0956, 24.1375, -45.1511, -19.3472
1.388, -1, 9.06584, 23.6894, 20.1135, 24.2228, -45.0513, -19.411
1.392, -1, 9.11932, 23.6419, 20.1314, 24.3079, -44.9516, -19.4747
1.396, -1, 9.1727, 23.5945, 20.1492, 24.393, -44.8521, -19.5384
1.4, -1, 9.22601, 23.5472, 20.167, 24.4778, -44.7527, -19.6019
1.404, -1, 9.27924, 23.4999, 20.1848, 24.5626, -44.6535, -19.6653
1.408, -1, 9.33239, 23.4527, 20.2025, 24.6472, -44.5544, -19.7287
1.412, -1, 9.38546, 23.4056, 20.2202, 24.7317, -44.4554, -19.7919
1.416, -1, 9.43844, 23.3585, 20.2379, 24.8161, -44.3567, -19.8551
1.42, -1, 9.49135, 23.3116, 20.2556, 24.9003, -44.258, -19.9181
1.424, -1, 9.54418, 23.2647, 20.2732, 24.9844, -44.1595, -19.9811
1.428, -1, 9.59693, 23.2178, 20.2908, 25.0684, -44.0612, -20.044
1.432, -1, 9.6496, 23.1711, 20.3084, 25.1523, -43.963, -20.1067
1.436, -1, 9.7022, 23.1244, 20.326, 25.236, -43.865, -20.1694
1.44, -1, 9.75472, 23.0777, 20.3435, 25.3196, -43.767, -20.232
1.444, -1, 9.80716, 23.0312, 20.361, 25.4031, -43.6693, -20.2945
1.448, -1, 9.85952, 22.9847, 20.3785, 25.4865, -43.5717, -20.3569
1.452, -1, 9.91181, 22.9383, 20.396, 25.5697, -43.4742, -20.4192
1.456, -1, 9.96403, 22.8919, 20.4134, 25.6528, -43.3769, -20.4814
1.46, -1, 10.0162, 22.8456, 20.4308, 25.7358, -43.2797, -20.5436
1.464, -1, 10.0682, 22.7994, 20.4482, 25.8187, -43.1826, -20.6056
1.468, -1, 10.1202, 22.7533, 20.4656, 25.9015, -43.0857, -20.6676
1.472, -1, 10.1721, 22.7072, 20.4829, 25.9841, -42.989, -20.7294
1.476, -1, 10.224, 22.6612, 20.5002, 26.0666, -42.8923, -20.7912
1.48, -1, 10.2757, 22.6152, 20.5175, 26.149, -42.7958, -20.8529
1.484, -1, 10.3274, 22.5693, 20.5348, 26.2313, -42.6995, -20.9145
1.488, -1, 10.379, 22.5235, 20.552, 26.3135, -42.6033, -20.976
1.492, -1, 10.4306, 22.4777, 20.5692, 26.3956, -42.5072, -21.0374
1.496, -1, 10.482, 22.432, 20.5864, 26.4775, -42.4113, -21.0987
1.5, -1, 10.5334, 22.3864, 20.6035, 26.5593, -42.3154, -21.16
1.504, -1, 10.5848, 22.3408, 20.6207, 26.641, -42.2198, -21.2212
1.508, -1, 10.636, 22.2953, 20.6378, 26.7226, -42.1242, -21.2822
1.512, -1, 10.6872, 22.2499, 20.6549, 26.8041, -42.0288, -21.3432
1.516, -1, 10.7383, 22.2045, 20.6719, 26.8855, -41.9336, -21.4041
1.52, -1, 10.7893, 22.1592, 20.689, 26.9667, -41.8384, -21.4649
1.524, -1, 10.8403, 22.114, 20.706, 27.0479, -41.7434, -21.5257
1.528, -1, 10.8912, 22.0688, 20.723, 27.1289, -41.6485, -21.5863
1.532, -1, 10.942, 22.0237, 20.74, 27.2098, -41.5538, -21.6469
1.536, -1, 10.9928, 21.9786, 20.7569, 27.2906, -41.4592, -21.7074
1.54, -1, 11.0435, 21.9336, 20.7738, 27.3713, -41.3647, -21.7678
1.544, -1, 11.0941, 21.8887, 20.7908, 27.4519, -41.2703, -21.8281
1.548, -1, 11.1446, 21.8438, 20.8076, 27.5324, -41.1761, -21.8884
1.552, -1, 11.1951, 21.799, 20.8245, 27.6127, -41.082, -21.9485
1.556, -1, 11.2455, 21.7542, 20.8413, 27.693, -40.988, -22.0086
1.56, -1, 11.2959, 21.7095, 20.8581, 27.7732, -40.8941, -22.0686
1.564, -1, 11.3462, 21.6649, 20.8749, 27.8532, -40.8004, -22.1285
1.568, -1, 11.3964, 21.6203, 20.8917, 27.9331, -40.7068, -22.1884
1.572, -1, 11.4465, 21.5758, 20.9084, 28.013, -40.6133, -22.2481
1.576, -1, 11.4966, 21.5313, 20.9251, 28.0927, -40.52, -22.3078
1.58, -1, 11.5466, 21.4869, 20.9418, 28.1723, -40.4268, -22.3674
1.584, -1, 11.5965, 21.4426, 20.9585, 28.2518, -40.3336, -22.4269
1.588, -1, 11.6464, 21.3983, 20.9752, 28.3313, -40.2407, -22.4864
1.592, -1, 11.6962, 21.3541, 20.9918, 28.4106, -40.1478, -22.5457
1.596, -1, 11.746, 21.3099, 21.0084, 28.4898, -40.0551, -22.605
1.6, -1, 11.7957, 21.2658, 21.025, 28.5689, -39.9624, -22.6642
1.604, -1, 11.8453, 21.2217, 21.0416, 28.6479, -39.8699, -22.7234
1.608, -1, 11.8948, 21.1778, 21.0581, 28.7268, -39.7776, -22.7824
1.612, -1, 11.9443, 21.1338, 21.0747, 28.8055, -39.6853, -22.8414
1.616, -1, 11.9938, 21.0899, 21.0912, 28.8842, -39.5932, -22.9003
1.62, -1, 12.0431, 21.0461, 21.1076, 28.9628, -39.5011, -22.9591
1.624, -1, 12.0924, 21.0023, 21.1241, 29.0413, -39.4092, -23.0179
1.628, -1, 12.1417, 20.9586, 21.1405, 29.1197, -39.3174, -23.0765
1.632, -1, 12.1908, 20.915, 21.157, 29.198, -39.2258, -23.1352
1.636, -1, 12.2399, 20.8714, 21.1734, 29.2762, -39.1342, -23.1937
1.64, -1, 12.289, 20.8278, 21.1897, 29.3543, -39.0428, -23.2521
1.644, -1, 12.338, 20.7843, 21.2061, 29.4323, -38.9515, -23.3105
1.648, -1, 12.3869, 20.7409, 21.2224, 29.5102, -38.8603, -23.3688
1.652, -1, 12.4358, 20.6975, 21.2388, 29.588, -38.7692, -23.4271
1.656, -1, 12.4846, 20.6542, 21.2551, 29.6657, -38.6782, -23.4852
1.66, -1, 12.5333, 20.6109, 21.2713, 29.7433, -38.5873, -23.5433
1.664, -1, 12.582, 20.5677, 21.2876, 29.8208, -38.4966, -23.6013
1.668, -1, 12.6306, 20.5245, 21.3038, 29.8982, -38.4059, -23.6593
1.672, -1, 12.6792, 20.4814, 21.32, 29.9755, -38.3154, -23.7171
1.676, -1, 12.7277, 20.4384, 21.3362, 30.0527, -38.225, -23.7749
1.68, -1, 12.7761, 20.3953, 21.3524, 30.1298, -38.1347, -23.8327
1.684, -1, 12.8245, 20.3524, 21.3686, 30.2069, -38.0445, -23.8903
1.688, -1, 12.8728, 20.3095, 21.3847, 30.2838, -37.9544, -23.9479
1.692, -1, 12.9211, 20.2666, 21.4008, 30.3606, -37.8644, -24.0054
1.696, -1, 12.9693, 20.2238, 21.4169, 30.4374, -37.7746, -24.0629
1.7, -1, 13.0174, 20.1811, 21.433, 30.514, -37.6848, -24.1203
1.704, -1, 13.0655, 20.1384, 21.449, 30.5906, -37.5951, -24.1776
1.708, -1, 13.1136, 20.0958, 21.4651, 30.6671, -37.5056, -24.2348
1.712, -1, 13.1615, 20.0532, 21.4811, 30.7435, -37.4162, -24.292
1.716, -1, 13.2094, 20.0106, 21.4971, 30.8197, -37.3269, -24.3491
1.72, -1, 13.2573, 19.9681, 21.5131, 30.8959, -37.2376, -24.4061
1.724, -1, 13.3051, 19.9257, 21.529, 30.972, -37.1485, -24.4631
1.728, -1, 13.3528, 19.8833, 21.545, 31.0481, -37.0595, -24.52
1.732, -1, 13.4005, 19.841, 21.5609, 31.124, -36.9706, -24.5768
1.736, -1, 13.4482, 19.7987, 21.5768, 31.1998, -36.8818, -24.6336
1.74, -1, 13.4957, 19.7565, 21.5927, 31.2756, -36.7931, -24.6903
1.744, -1, 13.5433, 19.7143, 21.6086, 31.3512, -36.7045, -24.7469
1.748, -1, 13.5907, 19.6721, 21.6244, 31.4268, -36.6161, -24.8035
1.752, -1, 13.6381, 19.63, 21.6402, 31.5023, -36.5277, -24.86
1.756, -1, 13.6855, 19.588, 21.6561, 31.5776, -36.4394, -24.9164
1.76, -1, 13.7328, 19.546, 21.6719, 31.6529, -36.3512, -24.9728
1.764, -1, 13.78, 19.5041, 21.6876, 31.7282, -36.2632, -25.0291
1.768, -1, 13.8272, 19.4622, 21.7034, 31.8033, -36.1752, -25.0853
1.772, -1, 13.8743, 19.4203, 21.7191, 31.8783, -36.0873, -25.1415
1.776, -1, 13.9214, 19.3785, 21.7348, 31.9533, -35.9996, -25.1976
1.78, -1, 13.9684, 19.3368, 21.7505, 32.0281, -35.9119, -25.2536
1.784, -1, 14.0154, 19.2951, 21.7662, 32.1029, -35.8243, -25.3096
1.788, -1, 14.0623, 19.2534, 21.7819, 32.1776, -35.7369, -25.3655
1.792, -1, 14.1092, 19.2118, 21.7975, 32.2522, -35.6495, -25.4214
1.796, -1, 14.156, 19.1703, 21.8132, 32.3268, -35.5622, -25.4772
1.8, -1, 14.2027, 19.1288, 21.8288, 32.4012, -35.4751, -25.5329
1.804, -1, 14.2494, 19.0873, 21.8444, 32.4756, -35.388, -25.5886
1.808, -1, 14.2961, 19.0459, 21.86, 32.5498, -35.301, -25.6442
1.812, -1, 14.3427, 19.0045, 21.8755, 32.624, -35.2142, -25.6997
1.816, -1, 14.3892, 18.9632, 21.8911, 32.6981, -35.1274, -25.7552
1.82, -1, 14.4357, 18.9219, 21.9066, 32.7722, -35.0407, -25.8106
1.824, -1, 14.4822, 18.8807, 21.9221, 32.8461, -34.9541, -25.8659
1.828, -1, 14.5286, 18.8395, 21.9376, 32.92, -34.8676, -25.9212
1.832, -1, 14.5749, 18.7983, 21.9531, 32.9938, -34.7813, -25.9764
1.836, -1, 14.6212, 18.7572, 21.9685, 33.0675, -34.695, -26.0316
1.84, -1, 14.6674, 18.7162, 21.984, 33.1411, -34.6088, -26.0867
1.844, -1, 14.7136, 18.6752, 21.9994, 33.2146, -34.5227, -26.1418
1.848, -1, 14.7598, 18.6342, 22.0148, 33.2881, -34.4367, -26.1967
1.852, -1, 14.8058, 18.5933, 22.0302, 33.3614, -34.3507, -26.2517
1.856, -1, 14.8519, 18.5524, 22.0456, 33.4347, -34.2649, -26.3065
1.86, -1, 14.8979, 18.5116, 22.0609, 33.5079, -34.1792, -26.3613
1.864, -1, 14.9438, 18.4708, 22.0762, 33.5811, -34.0936, -26.4161
1.868, -1, 14.9897, 18.4301, 22.0916, 33.6541, -34.008, -26.4708
1.872, -1, 15.0355, 18.3894, 22.1069, 33.7271, -33.9226, -26.5254
1.876, -1, 15.0813, 18.3487, 22.1222, 33.8, -33.8372, -26.58
1.88, -1, 15.127, 18.3081, 22.1374, 33.8728, -33.7519, -26.6345
1.884, -1, 15.1727, 18.2676, 22.1527, 33.9456, -33.6668, -26.6889
1.888, -1, 15.2184, 18.227, 22.1679, 34.0182, -33.5817, -26.7433
1.892, -1, 15.264, 18.1866, 22.1832, 34.0908, -33.4967, -26.7976
1.896, -1, 15.3095, 18.1461, 22.1984, 34.1633, -33.4118, -26.8519
1.9, -1, 15.355, 18.1057, 22.2136, 34.2358, -33.3269, -26.9062
1.904, -1, 15.4004, 18.0654, 22.2287, 34.3081, -33.2422, -26.9603
1.908, -1, 15.4458, 18.0251, 22.2439, 34.3804, -33.1576, -27.0144
1.912, -1, 15.4912, 17.9848, 22.259, 34.4526, -33.073, -27.0685
1.916, -1, 15.5365, 17.9446, 22.2742, 34.5248, -32.9886, -27.1225
1.92, -1, 15.5818, 17.9044, 22.2893, 34.5968, -32.9042, -27.1764
1.924, -1, 15.627, 17.8643, 22.3044, 34.6688, -32.8199, -27.2303
1.928, -1, 15.6721, 17.8242, 22.3195, 34.7407, -32.7357, -27.2841
1.932, -1, 15.7173, 17.7841, 22.3345, 34.8126, -32.6516, -27.3379
1.936, -1, 15.7623, 17.7441, 22.3496, 34.8843, -32.5676, -27.3916
1.94, -1, 15.8073, 17.7041, 22.3646, 34.956, -32.4836, -27.4453
1.944, -1, 15.8523, 17.6642, 22.3796, 35.0276, -32.3997, -27.4989
1.948, -1, 15.8973, 17.6243, 22.3946, 35.0992, -32.316, -27.5524
1.952, -1, 15.9422, 17.5844, 22.4096, 35.1707, -32.2323, -27.6059
1.956, -1, 15.987, 17.5446, 22.4246, 35.2421, -32.1487, -27.6594
1.96, -1, 16.0318, 17.5048, 22.4396, 35.3134, -32.0652, -27.7128
1.964, -1, 16.0765, 17.4651, 22.4545, 35.3846, -31.9817, -27.7661
1.968, -1, 16.1212, 17.4254, 22.4694, 35.4558, -31.8984, -27.8194
1.972, -1, 16.1659, 17.3858, 22.4844, 35.5269, -31.8151, -27.8726
1.976, -1, 16.2105, 17.3461, 22.4993, 35.598, -31.7319, -27.9258
1.98, -1, 16.2551, 17.3066, 22.5141, 35.6689, -31.6488, -27.9789
1.984, -1, 16.2996, 17.267, 22.529, 35.7398, -31.5658, -28.032
1.988, -1, 16.3441, 17.2275, 22.5439, 35.8107, -31.4829, -28.085
1.992, -1, 16.3886, 17.1881, 22.5587, 35.8814, -31.4, -28.138
1.996, -1, 16.433, 17.1487, 22.5735, 35.9521, -31.3173, -28.1909
1.999, -1, 16.4773, 17.1093, 22.5883, 36.0228, -31.2346, -28.2438
2.004, -1, 16.5216, 17.0699, 22.6031, 36.0933, -31.1519, -28.2966
2.008, -1, 16.5659, 17.0306, 22.6179, 36.1638, -31.0694, -28.3493
2.012, -1, 16.6101, 16.9914, 22.6327, 36.2342, -30.987, -28.4021
2.015, -1, 16.6543, 16.9521, 22.6474, 36.3046, -30.9046, -28.4547
2.019, -1, 16.6984, 16.9129, 22.6622, 36.3748, -30.8223, -28.5073
2.024, -1, 16.7425, 16.8738, 22.6769, 36.445, -30.7401, -28.5599
2.028, -1, 16.7866, 16.8347, 22.6916, 36.5152, -30.658, -28.6124
2.031, -1, 16.8306, 16.7956, 22.7063, 36.5853, -30.5759, -28.6648
2.036, -1, 16.8746, 16.7566, 22.721, 36.6553, -30.4939, -28.7172
2.04, -1, 16.9185, 16.7176, 22.7357, 36.7252, -30.412, -28.7696
2.044, -1, 16.9624, 16.6786, 22.7503, 36.7951, -30.3302, -28.8219
2.048, -1, 17.0062, 16.6397, 22.765, 36.8649, -30.2485, -28.8742
2.051, -1, 17.05, 16.6008, 22.7796, 36.9346, -30.1668, -28.9264
2.055, -1, 17.0938, 16.5619, 22.7942, 37.0043, -30.0852, -28.9785
2.06, -1, 17.1375, 16.5231, 22.8088, 37.0739, -30.0037, -29.0306
2.064, -1, 17.1811, 16.4844, 22.8234, 37.1435, -29.9223, -29.0827
2.068, -1, 17.2244, 16.4458, 22.8379, 37.2129, -29.841, -29.1347
2.071, -1, 17.2671, 16.4077, 22.8523, 37.2823, -29.7597, -29.1866
2.076, -1, 17.3088, 16.3701, 22.8666, 37.3515, -29.6787, -29.2384
2.08, -1, 17.3495, 16.3335, 22.8807, 37.4204, -29.5981, -29.29
2.084, -1, 17.3888, 16.2979, 22.8945, 37.4888, -29.518, -29.3412
2.087, -1, 17.4267, 16.2635, 22.9079, 37.5564, -29.4389, -29.3918
2.092, -1, 17.4632, 16.2306, 22.921, 37.6229, -29.3611, -29.4417
2.096, -1, 17.4983, 16.1992, 22.9337, 37.6879, -29.2851, -29.4903
2.1, -1, 17.5321, 16.1694, 22.9459, 37.7508, -29.2115, -29.5374
2.104, -1, 17.5644, 16.1411, 22.9576, 37.8112, -29.1408, -29.5827
2.107, -1, 17.5951, 16.1145, 22.9686, 37.8686, -29.0737, -29.6257
2.111, -1, 17.624, 16.0896, 22.9791, 37.9226, -29.0106, -29.6661
2.116, -1, 17.6513, 16.0662, 22.9888, 37.9726, -28.9521, -29.7035
2.12, -1, 17.6768, 16.044, 22.9978, 38.0183, -28.8986, -29.7378
2.124, -1, 17.7009, 16.023, 23.0061, 38.0595, -28.8504, -29.7686
2.127, -1, 17.7234, 16.0029, 23.0136, 38.0959, -28.8078, -29.7958
2.132, -1, 17.7446, 15.9838, 23.0205, 38.1275, -28.7707, -29.8195
2.136, -1, 17.7642, 15.9657, 23.0267, 38.1546, -28.739, -29.8397
2.14, -1, 17.7823, 15.9489, 23.0321, 38.1772, -28.7125, -29.8566
2.143, -1, 17.7986, 15.9337, 23.0368, 38.1957, -28.6907, -29.8705
2.148, -1, 17.8131, 15.9202, 23.0409, 38.2106, -28.6732, -29.8816
2.152, -1, 17.8259, 15.9085, 23.0443, 38.2223, -28.6594, -29.8904
2.156, -1, 17.8371, 15.8987, 23.0471, 38.2313, -28.6488, -29.8971
2.16, -1, 17.8467, 15.8905, 23.0494, 38.2381, -28.6409, -29.9021
2.163, -1, 17.855, 15.8838, 23.0513, 38.243, -28.635, -29.9058
2.168, -1, 17.8619, 15.8785, 23.0527, 38.2465, -28.6308, -29.9084
2.172, -1, 17.8674, 15.8744, 23.0538, 38.249, -28.6279, -29.9103
2.176, 2, 17.8716, 15.8714, 23.0546, 38.2507, -28.6258, -29.9115
2.179, 2, 17.8747, 15.8692, 23.0552, 38.2519, -28.6245, -29.9124
2.184, 2, 17.8769, 15.8677, 23.0556, 38.2527, -28.6235, -29.913
2.188, 2, 17.8784, 15.8667, 23.0558, 38.2532, -28.6229, -29.9134
2.192, 2, 17.8794, 15.866, 23.056, 38.2536, -28.6224, -29.9137
2.196, 2, 17.8801, 15.8655, 23.0561, 38.2538, -28.6221, -29.9138
2.199, 2, 17.8806, 15.8652, 23.0562, 38.254, -28.6219, -29.914
2.204, 2, 17.8809, 15.865, 23.0563, 38.2541, -28.6218, -29.9141
2.208, 2, 17.8811, 15.8649, 23.0563, 38.2542, -28.6217, -29.9141
2.212, 2, 17.8813, 15.8648, 23.0563, 38.2543, -28.6217, -29.9141
2.216, 2, 17.8814, 15.8647, 23.0564, 38.2543, -28.6216, -29.9142
2.219, 2, 17.8814, 15.8646, 23.0564, 38.2543, -28.6216, -29.9142
2.224, 2, 17.8815, 15.8646, 23.0564, 38.2543, -28.6216, -29.9142
2.228, 2, 17.8815, 15.8646, 23.0564, 38.2543, -28.6215, -29.9142
2.232, 2, 17.8815, 15.8646, 23.0564, 38.2543, -28.6215, -29.9142
2.235, 2, 17.8815, 15.8646, 23.0564, 38.2544, -28.6215, -29.9142
2.24, 2, 17.8815, 15.8646, 23.0564, 38.2544, -28.6215, -29.9142
2.244, 2, 17.8816, 15.8646, 23.0564, 38.2544, -28.6215, -29.9142
2.248, 2, 17.8816, 15.8646, 23.0564, 38.2544, -28.6215, -29.9142
2.252, 2, 17.8816, 15.8646, 23.0564, 38.2544, -28.6215, -29.9142
2.255, 2, 17.8816, 15.8646, 23.0564, 38.2544, -28.6215, -29.9142
2.259, 2, 17.8816, 15.8646, 23.0564, 38.2544, -28.6215, -29.9142
2.264, 2, 17.8816, 15.8645, 23.0564, 38.2544, -28.6215, -29.9142
2.268, 2, 17.8816, 15.8645, 23.0564, 38.2544, -28.6215, -29.9142
2.272, 2, 17.8816, 15.8645, 23.0564, 38.2544, -28.6215, -29.9142
2.275, 2, 17.8816, 15.8645, 23.0564, 38.2544, -28.6215, -29.9142
2.28, 2, 17.8816, 15.8645, 23.0564, 38.2544, -28.6215, -29.9142
2.284, 2, 17.8816, 15.8645, 23.0564, 38.2544, -28.6215, -29.9142
2.288, 2, 17.8816, 15.8645, 23.0564, 38.2544, -28.6215, -29.9142
2.291, 2, 17.8816, 15.8645, 23.0564, 38.2544, -28.6215, -29.9142
2.296, 2, 17.8816, 15.8645, 23.0564, 38.2544, -28.6215, -29.9142
2.3, 2, 17.8816, 15.8645, 23.0564, 38.2544, -28.6215, -29.9142
2.304, 2, 17.8816, 15.8645, 23.0564, 38.2544, -28.6215, -29.9142
2.308, 2, 17.8816, 15.8645, 23.0564, 38.2544, -28.6215, -29.9142
2.311, 2, 17.8816, 15.8645, 23.0564, 38.2544, -28.6215, -29.9142
2.316, 2, 17.8816, 15.8645, 23.0564, 38.2544, -28.6215, -29.9142
2.32, 2, 17.8816, 15.8645, 23.0564, 38.2544, -28.6215, -29.9142
2.324, 2, 17.8816, 15.8645, 23.0564, 38.2544, -28.6215, -29.9142
2.328, 2, 17.8816, 15.8645, 23.0564, 38.2544, -28.6215, -29.9142
2.331, 2, 17.8816, 15.8645, 23.0564, 38.2544, -28.6215, -29.9142
2.336, 2, 17.8816, 15.8645, 23.0564, 38.2544, -28.6215, -29.9142
2.34, 2, 17.8816, 15.8645, 23.0564, 38.2544, -28.6215, -29.9142
2.344, 2, 17.8816, 15.8645, 23.0564, 38.2544, -28.6215, -29.9142
2.347, 2, 17.8816, 15.8645, 23.0564, 38.2544, -28.6215, -29.9142
2.352, 2, 17.8816, 15.8645, 23.0564, 38.2544, -28.6215, -29.9142
2.356, 2, 17.8816, 15.8645, 23.0564, 38.2544, -28.6215, -29.9142
2.36, 2, 17.8816, 15.8645, 23.0564, 38.2544, -28.6215, -29.9142
2.364, 2, 17.8816, 15.8645, 23.0564, 38.2544, -28.6215, -29.9142
2.367, 2, 17.8816, 15.8645, 23.0564, 38.2544, -28.6215, -29.9142
2.372, 2, 17.8816, 15.8645, 23.0564, 38.2544, -28.6215, -29.9142
2.376, 2, 17.8816, 15.8645, 23.0564, 38.2544, -28.6215, -29.9142
2.38, 2, 17.8816, 15.8645, 23.0564, 38.2544, -28.6215, -29.9142
2.383, 2, 17.8816, 15.8645, 23.0564, 38.2544, -28.6215, -29.9142
2.388, 2, 17.8816, 15.8645, 23.0564, 38.2544, -28.6215, -29.9142
2.392, 2, 17.8816, 15.8645, 23.0564, 38.2544, -28.6215, -29.9142
2.396, 2, 17.8816, 15.8645, 23.0564, 38.2544, -28.6215, -29.9142
2.4, 2, 17.8816, 15.8645, 23.0564, 38.2544, -28.6215, -29.9142
2.403, 2, 17.8816, 15.8645, 23.0564, 38.2544, -28.6215, -29.9142
2.408, 2, 17.8816, 15.8645, 23.0564, 38.2544, -28.6215, -29.9142
2.412, 2, 17.8816, 15.8645, 23.0564, 38.2544, -28.6215, -29.9142
2.416, 2, 17.8816, 15.8645, 23.0564, 38.2544, -28.6215, -29.9142
2.42, 2, 17.8816, 15.8645, 23.0564, 38.2544, -28.6215, -29.9142
2.423, 2, 17.8816, 15.8645, 23.0564, 38.2544, -28.6215, -29.9142
2.428, 2, 17.8816, 15.8645, 23.0564, 38.2544, -28.6215, -29.9142
2.432, 2, 17.8816, 15.8645, 23.0564, 38.2544, -28.6215, -29.9142
2.436, 2, 17.8816, 15.8645, 23.0564, 38.2544, -28.6215, -29.9142
2.439, 2, 17.8816, 15.8645, 23.0564, 38.2544, -28.6215, -29.9142
2.444, 2, 17.8816, 15.8645, 23.0564, 38.2544, -28.6215, -29.9142
2.448, 2, 17.8816, 15.8645, 23.0564, 38.2544, -28.6215, -29.9142
2.452, 2, 17.8816, 15.8645, 23.0564, 38.2544, -28.6215, -29.9142
2.456, 2, 17.8816, 15.8645, 23.0564, 38.2544, -28.6215, -29.9142
2.459, 2, 17.8816, 15.8645, 23.0564, 38.2544, -28.6215, -29.9142
2.464, 2, 17.8816, 15.8645, 23.0564, 38.2544, -28.6215, -29.9142
2.468, 2, 17.8816, 15.8645, 23.0564, 38.2544, -28.6215, -29.9142
2.472, 2, 17.8816, 15.8645, 23.0564, 38.2544, -28.6215, -29.9142
2.476, 2, 17.8816, 15.8645, 23.0564, 38.2544, -28.6215, -29.9142
2.479, 2, 17.8816, 15.8645, 23.0564, 38.2544, -28.6215, -29.9142
2.484, 2, 17.8816, 15.8645, 23.0564, 38.2544, -28.6215, -29.9142
2.488, 2, 17.8816, 15.8645, 23.0564, 38.2544, -28.6215, -29.9142
2.492, 2, 17.8816, 15.8645, 23.0564, 38.2544, -28.6215, -29.9142
2.495, 2, 17.8816, 15.8645, 23.0564, 38.2544, -28.6215, -29.9142
2.5, 2, 17.8816, 15.8645, 23.0564, 38.2544, -28.6215, -29.9142
2.504, 2, 17.8816, 15.8645, 23.0564, 38.2544, -28.6215, -29.9142
2.508, 2, 17.8816, 15.8645, 23.0564, 38.2544, -28.6215, -29.9142
2.512, 2, 17.8816, 15.8645, 23.0564, 38.2544, -28.6215, -29.9142
2.515, 2, 17.8816, 15.8645, 23.0564, 38.2544, -28.6215, -29.9142
2.52, 2, 17.8816, 15.8645, 23.0564, 38.2544, -28.6215, -29.9142
2.524, 2, 17.8816, 15.8645, 23.0564, 38.2544, -28.6215, -29.9142
2.528, 2, 17.8816, 15.8645, 23.0564, 38.2544, -28.6215, -29.9142
2.531, 2, 17.8816, 15.8645, 23.0564, 38.2544, -28.6215, -29.9142
2.536, 2, 17.8816, 15.8645, 23.0564, 38.2544, -28.6215, -29.9142
2.54, 2, 17.8816, 15.8645, 23.0564, 38.2544, -28.6215, -29.9142
2.544, 2, 17.8816, 15.8645, 23.0564, 38.2544, -28.6215, -29.9142
2.548, 2, 17.8816, 15.8645, 23.0564, 38.2544, -28.6215, -29.9142
2.551, 2, 17.8816, 15.8645, 23.0564, 38.2544, -28.6215, -29.9142
2.556, 2, 17.8816, 15.8645, 23.0564, 38.2544, -28.6215, -29.9142
2.56, 2, 17.8816, 15.8645, 23.0564, 38.2544, -28.6215, -29.9142
2.564, 2, 17.8816, 15.8645, 23.0564, 38.2544, -28.6215, -29.9142
2.568, 2, 17.8816, 15.8645, 23.0564, 38.2544, -28.6215, -29.9142
2.571, 2, 17.8816, 15.8645, 23.0564, 38.2544, -28.6215, -29.9142
2.576, 2, 17.8816, 15.8645, 23.0564, 38.2544, -28.6215, -29.9142
2.58, 2, 17.8816, 15.8645, 23.0564, 38.2544, -28.6215, -29.9142
2.584, 2, 17.8816, 15.8645, 23.0564, 38.2544, -28.6215, -29.9142
2.587, 2, 17.8816, 15.8645, 23.0564, 38.2544, -28.6215, -29.9142
2.592, 2, 17.8816, 15.8645, 23.0564, 38.2544, -28.6215, -29.9142
2.596, 2, 17.8816, 15.8645, 23.0564, 38.2544, -28.6215, -29.9142
2.6, 2, 17.8816, 15.8645, 23.0564, 38.2544, -28.6215, -29.9142
2.604, 2, 17.8816, 15.8645, 23.0564, 38.2544, -28.6215, -29.9142
2.607, 2, 17.8816, 15.8645, 23.0564, 38.2544, -28.6215, -29.9142
2.612, 2, 17.8816, 15.8645, 23.0564, 38.2544, -28.6215, -29.9142
2.616, 2, 17.8816, 15.8645, 23.0564, 38.2544, -28.6215, -29.9142
2.62, 2, 17.8816, 15.8645, 23.0564, 38.2544, -28.6215, -29.9142
2.624, 2, 17.8816, 15.8645, 23.0564, 38.2544, -28.6215, -29.9142
2.627, 2, 17.8816, 15.8645, 23.0564, 38.2544, -28.6215, -29.9142
2.632, 2, 17.8816, 15.8645, 23.0564, 38.2544, -28.6215, -29.9142
2.636, 2, 17.8816, 15.8645, 23.0564, 38.2544, -28.6215, -29.9142
2.64, 2, 17.8816, 15.8645, 23.0564, 38.2544, -28.6215, -29.9142
2.643, 2, 17.8816, 15.8645, 23.0564, 38.2544, -28.6215, -29.9142
2.648, 2, 17.8816, 15.8645, 23.0564, 38.2544, -28.6215, -29.9142
2.652, 2, 17.8816, 15.8645, 23.0564, 38.2544, -28.6215, -29.9142
2.656, 2, 17.8816, 15.8645, 23.0564, 38.2544, -28.6215, -29.9142
2.66, 2, 17.8816, 15.8645, 23.0564, 38.2544, -28.6215, -29.9142
2.663, 2, 17.8816, 15.8645, 23.0564, 38.2544, -28.6215, -29.9142
2.668, 2, 17.8816, 15.8645, 23.0564, 38.2544, -28.6215, -29.9142
2.672, 2, 17.8816, 15.8645, 23.0564, 38.2544, -28.6215, -29.9142
2.676, 2, 17.8816, 15.8645, 23.0564, 38.2544, -28.6215, -29.9142
2.679, 2, 17.8816, 15.8645, 23.0564, 38.2544, -28.6215, -29.9142
2.684, 2, 17.8816, 15.8645, 23.0564, 38.2544, -28.6215, -29.9142
2.688, 2, 17.8816, 15.8645, 23.0564, 38.2544, -28.6215, -29.9142
2.692, 2, 17.8816, 15.8645, 23.0564, 38.2544, -28.6215, -29.9142
2.696, 2, 17.8816, 15.8645, 23.0564, 38.2544, -28.6215, -29.9142
2.699, 2, 17.8816, 15.8645, 23.0564, 38.2544, -28.6215, -29.9142
2.704, 2, 17.8816, 15.8645, 23.0564, 38.2544, -28.6215, -29.9142
2.708, 2, 17.8816, 15.8645, 23.0564, 38.2544, -28.6215, -29.9142
2.712, 2, 17.8816, 15.8645, 23.0564, 38.2544, -28.6215, -29.9142
2.716, 2, 17.8816, 15.8645, 23.0564, 38.2544, -28.6215, -29.9142
2.719, 2, 17.8816, 15.8645, 23.0564, 38.2544, -28.6215, -29.9142
2.724, 2, 17.8816, 15.8645, 23.0564, 38.2544, -28.6215, -29.9142
2.728, 2, 17.8816, 15.8645, 23.0564, 38.2544, -28.6215, -29.9142
2.732, 2, 17.8816, 15.8645, 23.0564, 38.2544, -28.6215, -29.9142
2.735, 2, 17.8816, 15.8645, 23.0564, 38.2544, -28.6215, -29.9142
2.74, 2, 17.8816, 15.8645, 23.0564, 38.2544, -28.6215, -29.9142
2.744, 2, 17.8816, 15.8645, 23.0564, 38.2544, -28.6215, -29.9142
2.748, 2, 17.8816, 15.8645, 23.0564, 38.2544, -28.6215, -29.9142
2.752, 2, 17.8816, 15.8645, 23.0564, 38.2544, -28.6215, -29.9142
2.755, 2, 17.8816, 15.8645, 23.0564, 38.2544, -28.6215, -29.9142
2.76, 2, 17.8816, 15.8645, 23.0564, 38.2544, -28.6215, -29.9142
2.764, 2, 17.8816, 15.8645, 23.0564, 38.2544, -28.6215, -29.9142
2.768, 2, 17.8816, 15.8645, 23.0564, 38.2544, -28.6215, -29.9142
2.772, 2, 17.8816, 15.8645, 23.0564, 38.2544, -28.6215, -29.9142
2.775, 2, 17.8816, 15.8645, 23.0564, 38.2544, -28.6215, -29.9142
2.78, 2, 17.8816, 15.8645, 23.0564, 38.2544, -28.6215, -29.9142
2.784, 2, 17.8816, 15.8645, 23.0564, 38.2544, -28.6215, -29.9142
2.788, 2, 17.8816, 15.8645, 23.0564, 38.2544, -28.6215, -29.9142
2.791, 2, 17.8816, 15.8645, 23.0564, 38.2544, -28.6215, -29.9142
2.796, 2, 17.8816, 15.8645, 23.0564, 38.2544, -28.6215, -29.9142
2.8, 2, 17.8816, 15.8645, 23.0564, 38.2544, -28.6215, -29.9142
2.804, 2, 17.8816, 15.8645, 23.0564, 38.2544, -28.6215, -29.9142
2.808, 2, 17.8816, 15.8645, 23.0564, 38.2544, -28.6215, -29.9142
2.811, 2, 17.8816, 15.8645, 23.0564, 38.2544, -28.6215, -29.9142
2.816, 2, 17.8816, 15.8645, 23.0564, 38.2544, -28.6215, -29.9142
2.82, 2, 17.8816, 15.8645, 23.0564, 38.2544, -28.6215, -29.9142
2.824, 2, 17.8816, 15.8645, 23.0564, 38.2544, -28.6215, -29.9142
2.828, 2, 17.8816, 15.8645, 23.0564, 38.2544, -28.6215, -29.9142
2.831, 2, 17.8816, 15.8645, 23.0564, 38.2544, -28.6215, -29.9142
2.836, 2, 17.8816, 15.8645, 23.0564, 38.2544, -28.6215, -29.9142
2.84, 2, 17.8816, 15.8645, 23.0564, 38.2544, -28.6215, -29.9142
2.844, 2, 17.8816, 15.8645, 23.0564, 38.2544, -28.6215, -29.9142
2.847, 2, 17.8816, 15.8645, 23.0564, 38.2544, -28.6215, -29.9142
2.852, 2, 17.8816, 15.8645, 23.0564, 38.2544, -28.6215, -29.9142
2.856, 2, 17.8816, 15.8645, 23.0564, 38.2544, -28.6215, -29.9142
2.86, 2, 17.8816, 15.8645, 23.0564, 38.2544, -28.6215, -29.9142
2.864, 2, 17.8816, 15.8645, 23.0564, 38.2544, -28.6215, -29.9142
2.867, 2, 17.8816, 15.8645, 23.0564, 38.2544, -28.6215, -29.9142
2.872, 2, 17.8816, 15.8645, 23.0564, 38.2544, -28.6215, -29.9142
2.876, 2, 17.8816, 15.8645, 23.0564, 38.2544, -28.6215, -29.9142
2.88, 2, 17.8816, 15.8645, 23.0564, 38.2544, -28.6215, -29.9142
2.883, 2, 17.8816, 15.8645, 23.0564, 38.2544, -28.6215, -29.9142
2.888, 2, 17.8816, 15.8645, 23.0564, 38.2544, -28.6215, -29.9142
2.892, 2, 17.8816, 15.8645, 23.0564, 38.2544, -28.6215, -29.9142
2.896, 2, 17.8816, 15.8645, 23.0564, 38.2544, -28.6215, -29.9142
2.9, 2, 17.8816, 15.8645, 23.0564, 38.2544, -28.6215, -29.9142
2.903, 2, 17.8816, 15.8645, 23.0564, 38.2544, -28.6215, -29.9142
2.908, 2, 17.8816, 15.8645, 23.0564, 38.2544, -28.6215, -29.9142
2.912, 2, 17.8816, 15.8645, 23.0564, 38.2544, -28.6215, -29.9142
2.916, 2, 17.8816, 15.8645, 23.0564, 38.2544, -28.6215, -29.9142
2.92, 2, 17.8816, 15.8645, 23.0564, 38.2544, -28.6215, -29.9142
2.923, 2, 17.8816, 15.8645, 23.0564, 38.2544, -28.6215, -29.9142
2.928, 2, 17.8816, 15.8645, 23.0564, 38.2544, -28.6215, -29.9142
2.932, 2, 17.8816, 15.8645, 23.0564, 38.2544, -28.6215, -29.9142
2.936, 2, 17.8816, 15.8645, 23.0564, 38.2544, -28.6215, -29.9142
2.939, 2, 17.8816, 15.8645, 23.0564, 38.2544, -28.6215, -29.9142
2.944, 2, 17.8816, 15.8645, 23.0564, 38.2544, -28.6215, -29.9142
2.948, 2, 17.8816, 15.8645, 23.0564, 38.2544, -28.6215, -29.9142
2.952, 2, 17.8816, 15.8645, 23.0564, 38.2544, -28.6215, -29.9142
2.956, 2, 17.8816, 15.8645, 23.0564, 38.2544, -28.6215, -29.9142
2.959, 2, 17.8816, 15.8645, 23.0564, 38.2544, -28.6215, -29.9142
2.964, 2, 17.8816, 15.8645, 23.0564, 38.2544, -28.6215, -29.9142
2.968, 2, 17.8816, 15.8645, 23.0564, 38.2544, -28.6215, -29.9142
2.972, 2, 17.8816, 15.8645, 23.0564, 38.2544, -28.6215, -29.9142
2.976, 2, 17.8816, 15.8645, 23.0564, 38.2544, -28.6215, -29.9142
2.98, 2, 17.8816, 15.8645, 23.0564, 38.2544, -28.6215, -29.9142
2.984, 2, 17.8816, 15.8645, 23.0564, 38.2544, -28.6215, -29.9142
2.988, 2, 17.8816, 15.8645, 23.0564, 38.2544, -28.6215, -29.9142
2.992, 2, 17.8816, 15.8645, 23.0564, 38.2544, -28.6215, -29.9142
2.995, 2, 17.8816, 15.8645, 23.0564, 38.2544, -28.6215, -29.9142
3, 2, 17.8816, 15.8645, 23.0564, 38.2544, -28.6215, -29.9142
3.004, 2, 17.8816, 15.8645, 23.0564, 38.2544, -28.6215, -29.9142
3.008, 2, 17.8816, 15.8645, 23.0564, 38.2544, -28.6215, -29.9142
3.012, 2, 17.8816, 15.8645, 23.0564, 38.2544, -28.6215, -29.9142
3.015, 2, 17.8816, 15.8645, 23.0564, 38.2544, -28.6215, -29.9142
3.02, 2, 17.8816, 15.8645, 23.0564, 38.2544, -28.6215, -29.9142
3.024, 2, 17.8816, 15.8645, 23.0564, 38.2544, -28.6215, -29.9142
3.028, 2, 17.8816, 15.8645, 23.0564, 38.2544, -28.6215, -29.9142
3.031, 2, 17.8816, 15.8645, 23.0564, 38.2544, -28.6215, -29.9142
3.036, 2, 17.8816, 15.8645, 23.0564, 38.2544, -28.6215, -29.9142
3.04, 2, 17.8816, 15.8645, 23.0564, 38.2544, -28.6215, -29.9142
3.044, 2, 17.8816, 15.8645, 23.0564, 38.2544, -28.6215, -29.9142
3.048, 2, 17.8816, 15.8645, 23.0564, 38.2544, -28.6215, -29.9142
3.051, 2, 17.8816, 15.8645, 23.0564, 38.2544, -28.6215, -29.9142
3.056, 2, 17.8816, 15.8645, 23.0564, 38.2544, -28.6215, -29.9142
3.06, 2, 17.8816, 15.8645, 23.0564, 38.2544, -28.6215, -29.9142
3.064, 2, 17.8816, 15.8645, 23.0564, 38.2544, -28.6215, -29.9142
3.068, 2, 17.8816, 15.8645, 23.0564, 38.2544, -28.6215, -29.9142
3.071, 2, 17.8816, 15.8645, 23.0564, 38.2544, -28.6215, -29.9142
3.076, 2, 17.8816, 15.8645, 23.0564, 38.2544, -28.6215, -29.9142
3.08, 2, 17.8816, 15.8645, 23.0564, 38.2544, -28.6215, -29.9142
3.084, 2, 17.8816, 15.8645, 23.0564, 38.2544, -28.6215, -29.9142
3.087, 2, 17.8816, 15.8645, 23.0564, 38.2544, -28.6215, -29.9142
3.092, 2, 17.8816, 15.8645, 23.0564, 38.2544, -28.6215, -29.9142
3.096, 2, 17.8816, 15.8645, 23.0564, 38.2544, -28.6215, -29.9142
3.1, 2, 17.8816, 15.8645, 23.0564, 38.2544, -28.6215, -29.9142
3.104, 2, 17.8816, 15.8645, 23.0564, 38.2544, -28.6215, -29.9142
3.107, 2, 17.8816, 15.8645, 23.0564, 38.2544, -28.6215, -29.9142
3.112, 2, 17.8816, 15.8645, 23.0564, 38.2544, -28.6215, -29.9142
3.116, 2, 17.8816, 15.8645, 23.0564, 38.2544, -28.6215, -29.9142
3.12, 2, 17.8816, 15.8645, 23.0564, 38.2544, -28.6215, -29.9142
3.124, 2, 17.8816, 15.8645, 23.0564, 38.2544, -28.6215, -29.9142
3.128, 2, 17.8816, 15.8645, 23.0564, 38.2544, -28.6215, -29.9142
3.132, 2, 17.8816, 15.8645, 23.0564, 38.2544, -28.6215, -29.9142
3.136, 2, 17.8816, 15.8645, 23.0564, 38.2544, -28.6215, -29.9142
3.14, 2, 17.8816, 15.8645, 23.0564, 38.2544, -28.6215, -29.9142
3.143, 2, 17.8816, 15.8645, 23.0564, 38.2544, -28.6215, -29.9142
3.148, 2, 17.8816, 15.8645, 23.0564, 38.2544, -28.6215, -29.9142
3.152, 2, 17.8816, 15.8645, 23.0564, 38.2544, -28.6215, -29.9142
3.156, 2, 17.8816, 15.8645, 23.0564, 38.2544, -28.6215, -29.9142
3.16, 2, 17.8816, 15.8645, 23.0564, 38.2544, -28.6215, -29.9142
3.163, 2, 17.8816, 15.8645, 23.0564, 38.2544, -28.6215, -29.9142
3.168, 2, 17.8816, 15.8645, 23.0564, 38.2544, -28.6215, -29.9142
3.172, 2, 17.8816, 15.8645, 23.0564, 38.2544, -28.6215, -29.9142
3.176, 2, 17.8816, 15.8645, 23.0564, 38.2544, -28.6215, -29.9142
3.179, 2, 17.8816, 15.8645, 23.0564, 38.2544, -28.6215, -29.9142
3.184, 2, 17.8816, 15.8645, 23.0564, 38.2544, -28.6215, -29.9142
3.188, 2, 17.8816, 15.8645, 23.0564, 38.2544, -28.6215, -29.9142
3.192, 2, 17.8816, 15.8645, 23.0564, 38.2544, -28.6215, -29.9142
3.196, 2, 17.8816, 15.8645, 23.0564, 38.2544, -28.6215, -29.9142
3.199, 2, 17.8816, 15.8645, 23.0564, 38.2544, -28.6215, -29.9142
3.204, 2, 17.8816, 15.8645, 23.0564, 38.2544, -28.6215, -29.9142
3.208, 2, 17.8816, 15.8645, 23.0564, 38.2544, -28.6215, -29.9142
3.212, 2, 17.8816, 15.8645, 23.0564, 38.2544, -28.6215, -29.9142
3.216, 2, 17.8816, 15.8645, 23.0564, 38.2544, -28.6215, -29.9142
3.22, 2, 17.8816, 15.8645, 23.0564, 38.2544, -28.6215, -29.9142
3.224, 2, 17.8816, 15.8645, 23.0564, 38.2544, -28.6215, -29.9142
3.228, 2, 17.8816, 15.8645, 23.0564, 38.2544, -28.6215, -29.9142
3.232, 2, 17.8816, 15.8645, 23.0564, 38.2544, -28.6215, -29.9142
3.235, 2, 17.8816, 15.8645, 23.0564, 38.2544, -28.6215, -29.9142
3.24, 2, 17.8816, 15.8645, 23.0564, 38.2544, -28.6215, -29.9142
3.244, 2, 17.8816, 15.8645, 23.0564, 38.2544, -28.6215, -29.9142
3.248, 4, 17.8816, 15.8645, 23.0564, 38.2544, -28.6215, -29.9142
3.252, 4, 17.8816, 15.8645, 23.0564, 38.2544, -28.6215, -29.9142
3.255, 4, 17.8816, 15.8645, 23.0564, 38.2544, -28.6215, -29.9142
3.26, 4, 17.8816, 15.8645, 23.0564, 38.2544, -28.6215, -29.9142
3.264, 4, 17.8816, 15.8645, 23.0564, 38.2544, -28.6215, -29.9142
3.268, 4, 17.8816, 15.8645, 23.0564, 38.2544, -28.6215, -29.9142
3.272, 4, 17.8816, 15.8645, 23.0564, 38.2544, -28.6215, -29.9142
3.276, 4, 17.8816, 15.8645, 23.0564, 38.2544, -28.6215, -29.9142
3.28, 4, 17.8816, 15.8645, 23.0564, 38.2544, -28.6215, -29.9142
3.284, 4, 17.8816, 15.8645, 23.0564, 38.2544, -28.6215, -29.9142
3.288, 4, 17.8816, 15.8645, 23.0564, 38.2544, -28.6215, -29.9142
3.291, 4, 17.8816, 15.8645, 23.0564, 38.2544, -28.6215, -29.9142
3.296, 4, 17.8816, 15.8645, 23.0564, 38.2544, -28.6215, -29.9142
3.3, 4, 17.8816, 15.8645, 23.0564, 38.2544, -28.6215, -29.9142
3.304, 4, 17.8816, 15.8645, 23.0564, 38.2544, -28.6215, -29.9142
3.308, 4, 17.8816, 15.8645, 23.0564, 38.2544, -28.6215, -29.9142
3.312, 4, 17.8816, 15.8645, 23.0564, 38.2544, -28.6215, -29.9142
3.316, 4, 17.8816, 15.8645, 23.0564, 38.2544, -28.6215, -29.9142
3.32, 4, 17.8816, 15.8645, 23.0564, 38.2544, -28.6215, -29.9142
3.324, 4, 17.8816, 15.8645, 23.0564, 38.2544, -28.6215, -29.9142
3.328, 4, 17.8816, 15.8645, 23.0564, 38.2544, -28.6215, -29.9142
3.332, 4, 17.8816, 15.8645, 23.0564, 38.2544, -28.6215, -29.9142
3.336, 4, 17.8816, 15.8645, 23.0564, 38.2544, -28.6215, -29.9142
3.34, 4, 17.8816, 15.8645, 23.0564, 38.2544, -28.6215, -29.9142
3.344, 4, 17.8816, 15.8645, 23.0564, 38.2544, -28.6215, -29.9142
3.347, 4, 17.8816, 15.8645, 23.0564, 38.2544, -28.6215, -29.9142
3.352, 4, 17.8816, 15.8645, 23.0564, 38.2544, -28.6215, -29.9142
3.358, 4, 17.8816, 15.8645, 23.0564, 38.2544, -28.6215, -29.9142
3.362, 4, 17.8816, 15.8645, 23.0564, 38.2544, -28.6215, -29.9142
3.366, 4, 17.8816, 15.8645, 23.0564, 38.2544, -28.6215, -29.9142
3.37, 4, 17.8816, 15.8645, 23.0564, 38.2544, -28.6215, -29.9142
3.372, 4, 17.8816, 15.8645, 23.0564, 38.2544, -28.6215, -29.9142
3.376, 4, 17.8816, 15.8645, 23.0564, 38.2544, -28.6215, -29.9142
3.38, 4, 17.8816, 15.8645, 23.0564, 38.2544, -28.6215, -29.9142
3.383, 4, 17.8816, 15.8645, 23.0564, 38.2544, -28.6215, -29.9142
3.388, 4, 17.8815, 15.8645, 23.0564, 38.2544, -28.6215, -29.9142
3.392, 4, 17.8812, 15.8645, 23.0564, 38.2543, -28.6215, -29.9142
3.396, 4, 17.8806, 15.8645, 23.0565, 38.2542, -28.6216, -29.9141
3.4, 4, 17.8793, 15.8645, 23.0566, 38.2539, -28.6217, -29.9139
3.403, 4, 17.8773, 15.8644, 23.0569, 38.2532, -28.6219, -29.9133
3.408, 4, 17.8745, 15.8643, 23.0576, 38.2517, -28.6225, -29.912
3.412, 4, 17.8706, 15.864, 23.0586, 38.2489, -28.6235, -29.9095
3.416, 4, 17.8657, 15.8636, 23.0603, 38.2441, -28.6252, -29.9053
3.42, 5, 17.8595, 15.863, 23.063, 38.2364, -28.628, -29.8984
3.424, 5, 17.8519, 15.862, 23.067, 38.2246, -28.6323, -29.8881
3.428, 5, 17.8425, 15.8607, 23.0726, 38.2075, -28.6384, -29.873
3.432, 5, 17.8311, 15.8589, 23.0804, 38.1837, -28.647, -29.8519
3.436, 5, 17.8174, 15.8565, 23.0908, 38.1514, -28.6587, -29.8234
3.439, 5, 17.801, 15.8533, 23.1043, 38.1089, -28.674, -29.7858
3.444, 5, 17.7821, 15.8494, 23.1216, 38.0543, -28.6938, -29.7375
3.448, 5, 17.7607, 15.8444, 23.143, 37.9859, -28.7187, -29.677
3.452, 5, 17.7368, 15.8384, 23.1691, 37.9021, -28.7494, -29.6029
3.456, 5, 17.7105, 15.8313, 23.2001, 37.8018, -28.7862, -29.5141
3.46, 5, 17.6816, 15.823, 23.2364, 37.684, -28.8296, -29.4099
3.464, 5, 17.6502, 15.8134, 23.2781, 37.5487, -28.8797, -29.2902
3.468, 5, 17.6159, 15.8027, 23.325, 37.3959, -28.9366, -29.155
3.472, 5, 17.5788, 15.7909, 23.3771, 37.2262, -29.0002, -29.005
3.476, 5, 17.5389, 15.778, 23.434, 37.0407, -29.0701, -28.8411
3.48, 5, 17.4963, 15.7642, 23.4954, 36.8407, -29.146, -28.6644
3.484, 5, 17.4512, 15.7495, 23.5609, 36.6277, -29.2273, -28.4764
3.488, 5, 17.4039, 15.7341, 23.6299, 36.4036, -29.3135, -28.2787
3.492, 5, 17.3545, 15.7181, 23.7019, 36.1704, -29.404, -28.073
3.495, 5, 17.3028, 15.7018, 23.7762, 35.9299, -29.498, -27.8611
3.5, 5, 17.2491, 15.6851, 23.8525, 35.684, -29.5949, -27.6445
3.504, 5, 17.1932, 15.6683, 23.9302, 35.4344, -29.6942, -27.4249
3.508, 5, 17.1354, 15.6515, 24.0088, 35.1825, -29.7954, -27.2035
3.512, 5, 17.0757, 15.6346, 24.0881, 34.9294, -29.898, -26.9812
3.516, 5, 17.0146, 15.6179, 24.1678, 34.6759, -30.0018, -26.7588
3.52, 5, 16.9524, 15.6014, 24.2477, 34.4226, -30.1065, -26.5367
3.524, 5, 16.8893, 15.585, 24.3275, 34.17, -30.2119, -26.3155
3.528, 5, 16.8256, 15.5688, 24.4073, 33.9183, -30.3181, -26.0952
3.531, 5, 16.7615, 15.5529, 24.487, 33.6677, -30.4249, -25.876
3.536, 5, 16.6971, 15.5373, 24.5665, 33.4183, -30.5323, -25.6582
3.54, 5, 16.6324, 15.5218, 24.6457, 33.1701, -30.6402, -25.4416
3.544, 5, 16.5676, 15.5067, 24.7248, 32.9233, -30.7486, -25.2264
3.548, 5, 16.5025, 15.4918, 24.8036, 32.6779, -30.8574, -25.0126
3.552, 5, 16.4374, 15.4771, 24.8821, 32.4338, -30.9668, -24.8002
3.556, 5, 16.3721, 15.4628, 24.9604, 32.1912, -31.0766, -24.5893
3.56, 5, 16.3067, 15.4487, 25.0384, 31.9499, -31.1869, -24.3797
3.564, 5, 16.2412, 15.4349, 25.1161, 31.71, -31.2976, -24.1716
3.568, 5, 16.1756, 15.4213, 25.1936, 31.4715, -31.4087, -23.9649
3.572, 5, 16.1099, 15.408, 25.2707, 31.2345, -31.5203, -23.7595
3.576, 5, 16.0441, 15.395, 25.3477, 30.9987, -31.6323, -23.5556
3.58, 5, 15.9782, 15.3822, 25.4243, 30.7644, -31.7448, -23.3531
3.584, 5, 15.9122, 15.3697, 25.5007, 30.5314, -31.8576, -23.1519
3.587, 5, 15.8462, 15.3575, 25.5767, 30.2998, -31.9709, -22.9522
3.592, 5, 15.78, 15.3456, 25.6526, 30.0695, -32.0846, -22.7538
3.596, 5, 15.7137, 15.3339, 25.7281, 29.8406, -32.1987, -22.5568
3.6, 6, 15.6474, 15.3225, 25.8033, 29.613, -32.3132, -22.3611
3.604, 6, 15.581, 15.3114, 25.8783, 29.3867, -32.4281, -22.1667
3.608, 6, 15.5145, 15.3006, 25.953, 29.1618, -32.5434, -21.9737
3.612, 6, 15.4479, 15.29, 26.0274, 28.9381, -32.6591, -21.782
3.616, 6, 15.3812, 15.2797, 26.1016, 28.7158, -32.7752, -21.5917
3.62, 6, 15.3144, 15.2697, 26.1754, 28.4947, -32.8916, -21.4026
3.624, 6, 15.2475, 15.2599, 26.249, 28.2749, -33.0085, -21.2149
3.628, 6, 15.1805, 15.2504, 26.3223, 28.0564, -33.1257, -21.0284
3.632, 6, 15.1135, 15.2412, 26.3953, 27.8392, -33.2433, -20.8432
3.636, 6, 15.0464, 15.2323, 26.4681, 27.6231, -33.3613, -20.6593
3.64, 6, 14.9791, 15.2236, 26.5405, 27.4084, -33.4796, -20.4766
3.644, 6, 14.9118, 15.2152, 26.6127, 27.1949, -33.5983, -20.2952
3.648, 6, 14.8444, 15.2071, 26.6846, 26.9826, -33.7174, -20.115
3.652, 6, 14.777, 15.1992, 26.7562, 26.7715, -33.8368, -19.9361
3.656, 6, 14.7094, 15.1917, 26.8276, 26.5616, -33.9566, -19.7584
3.66, 6, 14.6418, 15.1844, 26.8986, 26.3529, -34.0768, -19.5819
3.664, 6, 14.574, 15.1774, 26.9694, 26.1454, -34.1972, -19.4066
3.668, 6, 14.5062, 15.1706, 27.0399, 25.9391, -34.3181, -19.2326
3.672, 6, 14.4383, 15.1642, 27.1101, 25.7339, -34.4393, -19.0597
3.676, 6, 14.3703, 15.158, 27.1801, 25.53, -34.5608, -18.888
3.681, 6, 14.3023, 15.1521, 27.2497, 25.3271, -34.6826, -18.7174
3.684, 6, 14.2341, 15.1464, 27.3191, 25.1254, -34.8048, -18.5481
3.688, 6, 14.1659, 15.1411, 27.3882, 24.9249, -34.9273, -18.3798
3.692, 6, 14.0976, 15.136, 27.457, 24.7255, -35.0502, -18.2128
3.696, 6, 14.0292, 15.1312, 27.5255, 24.5272, -35.1733, -18.0468
3.7, 6, 13.9607, 15.1266, 27.5937, 24.33, -35.2968, -17.882
3.704, 6, 13.8921, 15.1224, 27.6617, 24.1339, -35.4206, -17.7184
3.708, 6, 13.8235, 15.1184, 27.7294, 23.9389, -35.5447, -17.5558
3.712, 6, 13.7547, 15.1147, 27.7967, 23.745, -35.6692, -17.3944
3.716, 6, 13.6859, 15.1113, 27.8638, 23.5521, -35.7939, -17.234
3.72, 6, 13.617, 15.1082, 27.9307, 23.3604, -35.9189, -17.0747
3.724, 6, 13.548, 15.1053, 27.9972, 23.1697, -36.0443, -16.9165
3.728, 6, 13.479, 15.1027, 28.0634, 22.98, -36.1699, -16.7594
3.732, 6, 13.4099, 15.1004, 28.1294, 22.7914, -36.2959, -16.6034
3.735, 6, 13.3406, 15.0984, 28.1951, 22.6039, -36.4221, -16.4484
3.74, 6, 13.2713, 15.0966, 28.2604, 22.4173, -36.5486, -16.2944
3.744, 6, 13.202, 15.0952, 28.3255, 22.2318, -36.6755, -16.1415
3.748, 6, 13.1325, 15.094, 28.3903, 22.0473, -36.8026, -15.9897
3.752, 6, 13.063, 15.0931, 28.4549, 21.8638, -36.93, -15.8388
3.756, 6, 12.9934, 15.0924, 28.5191, 21.6814, -37.0576, -15.689
3.76, 6, 12.9237, 15.0921, 28.583, 21.4999, -37.1856, -15.5402
3.764, 6, 12.8539, 15.092, 28.6467, 21.3193, -37.3138, -15.3924
3.768, 7, 12.7841, 15.0922, 28.7101, 21.1398, -37.4423, -15.2456
3.772, 7, 12.7142, 15.0927, 28.7732, 20.9612, -37.5711, -15.0998
3.776, 7, 12.6442, 15.0935, 28.836, 20.7836, -37.7001, -14.9549
3.78, 7, 12.5741, 15.0945, 28.8985, 20.607, -37.8294, -14.8111
3.784, 7, 12.5039, 15.0958, 28.9607, 20.4313, -37.959, -14.6682
3.788, 7, 12.4337, 15.0974, 29.0226, 20.2565, -38.0888, -14.5262
3.792, 7, 12.3634, 15.0993, 29.0843, 20.0827, -38.2189, -14.3852
3.796, 7, 12.293, 15.1015, 29.1456, 19.9097, -38.3492, -14.2452
3.8, 7, 12.2226, 15.1039, 29.2067, 19.7377, -38.4798, -14.1061
3.804, 7, 12.152, 15.1067, 29.2674, 19.5667, -38.6107, -13.9679
3.808, 7, 12.0814, 15.1097, 29.3279, 19.3965, -38.7418, -13.8306
3.812, 7, 12.0108, 15.1129, 29.3881, 19.2272, -38.8731, -13.6943
3.816, 7, 11.94, 15.1165, 29.448, 19.0588, -39.0047, -13.5589
3.82, 7, 11.8692, 15.1204, 29.5076, 18.8913, -39.1365, -13.4243
3.824, 7, 11.7983, 15.1245, 29.5669, 18.7246, -39.2686, -13.2907
3.828, 7, 11.7273, 15.1289, 29.626, 18.5588, -39.4009, -13.1579
3.832, 7, 11.6563, 15.1336, 29.6847, 18.3939, -39.5334, -13.0261
3.836, 7, 11.5852, 15.1386, 29.7431, 18.2298, -39.6662, -12.8951
3.84, 7, 11.514, 15.1438, 29.8013, 18.0666, -39.7992, -12.7649
3.844, 7, 11.4427, 15.1494, 29.8591, 17.9043, -39.9324, -12.6357
3.848, 7, 11.3714, 15.1552, 29.9167, 17.7427, -40.0659, -12.5073
3.852, 7, 11.3, 15.1613, 29.974, 17.582, -40.1996, -12.3797
3.856, 7, 11.2285, 15.1677, 30.0309, 17.4221, -40.3335, -12.253
3.86, 7, 11.157, 15.1743, 30.0876, 17.263, -40.4676, -12.1271
3.864, 7, 11.0854, 15.1813, 30.144, 17.1047, -40.602, -12.002
3.868, 7, 11.0137, 15.1885, 30.2001, 16.9473, -40.7365, -11.8778
3.872, 7, 10.942, 15.196, 30.2559, 16.7906, -40.8713, -11.7543
3.876, 7, 10.8702, 15.2038, 30.3114, 16.6347, -41.0063, -11.6317
3.88, 7, 10.7983, 15.2119, 30.3666, 16.4796, -41.1415, -11.5099
3.884, 7, 10.7263, 15.2202, 30.4215, 16.3252, -41.2769, -11.3889
3.888, 7, 10.6543, 15.2289, 30.4761, 16.1717, -41.4125, -11.2686
3.892, 7, 10.5823, 15.2378, 30.5304, 16.0189, -41.5482, -11.1492
3.896, 7, 10.5101, 15.247, 30.5844, 15.8668, -41.6842, -11.0305
3.9, 7, 10.4379, 15.2565, 30.6381, 15.7155, -41.8204, -10.9126
3.904, 7, 10.3656, 15.2662, 30.6916, 15.565, -41.9568, -10.7955
3.908, 7, 10.2933, 15.2763, 30.7447, 15.4152, -42.0934, -10.6791
3.912, 7, 10.2209, 15.2866, 30.7975, 15.2661, -42.2302, -10.5635
3.916, 7, 10.1484, 15.2972, 30.85, 15.1178, -42.3672, -10.4486
3.92, 7, 10.0759, 15.3081, 30.9023, 14.9702, -42.5043, -10.3345
3.924, 7, 10.0033, 15.3193, 30.9542, 14.8233, -42.6416, -10.2212
3.928, 7, 9.93059, 15.3308, 31.0058, 14.6771, -42.7792, -10.1085
3.932, 7, 9.85786, 15.3425, 31.0572, 14.5316, -42.9169, -9.99659
3.936, 8, 9.78508, 15.3545, 31.1082, 14.3869, -43.0548, -9.8854
3.94, 8, 9.71222, 15.3668, 31.1589, 14.2428, -43.1928, -9.77492
3.944, 8, 9.63931, 15.3794, 31.2093, 14.0994, -43.3311, -9.66516
3.948, 8, 9.56634, 15.3923, 31.2595, 13.9567, -43.4695, -9.5561
3.952, 8, 9.49331, 15.4054, 31.3093, 13.8147, -43.6081, -9.44774
3.956, 8, 9.42022, 15.4188, 31.3588, 13.6734, -43.7468, -9.34008
3.96, 8, 9.34707, 15.4325, 31.4081, 13.5327, -43.8858, -9.2331
3.964, 8, 9.27386, 15.4465, 31.457, 13.3927, -44.0248, -9.12681
3.968, 8, 9.20058, 15.4608, 31.5056, 13.2534, -44.1641, -9.0212
3.972, 8, 9.12725, 15.4754, 31.5539, 13.1147, -44.3035, -8.91627
3.976, 8, 9.05386, 15.4902, 31.6019, 12.9766, -44.4431, -8.81201
3.98, 8, 8.98042, 15.5053, 31.6497, 12.8392, -44.5829, -8.7084
3.984, 8, 8.90691, 15.5207, 31.6971, 12.7025, -44.7228, -8.60546
3.988, 8, 8.83335, 15.5364, 31.7442, 12.5664, -44.8628, -8.50318
3.992, 8, 8.75973, 15.5524, 31.791, 12.4309, -45.003, -8.40154
3.996, 8, 8.68605, 15.5686, 31.8375, 12.296, -45.1434, -8.30055
3.999, 8, 8.61232, 15.5851, 31.8837, 12.1618, -45.2839, -8.2002
4.004, 8, 8.53854, 15.6019, 31.9296, 12.0281, -45.4246, -8.10048
4.008, 8, 8.4647, 15.619, 31.9752, 11.8951, -45.5654, -8.00139
4.012, 8, 8.39081, 15.6364, 32.0205, 11.7627, -45.7064, -7.90293
4.016, 8, 8.31686, 15.654, 32.0654, 11.6309, -45.8475, -7.80509
4.02, 8, 8.24286, 15.6719, 32.1101, 11.4996, -45.9887, -7.70786
4.024, 8, 8.16881, 15.6901, 32.1545, 11.369, -46.1301, -7.61125
4.028, 8, 8.0947, 15.7086, 32.1985, 11.239, -46.2716, -7.51524
4.032, 8, 8.02054, 15.7274, 32.2423, 11.1095, -46.4133, -7.41984
4.036, 8, 7.94633, 15.7464, 32.2857, 10.9806, -46.5551, -7.32503
4.04, 8, 7.87207, 15.7657, 32.3289, 10.8523, -46.697, -7.23081
4.044, 8, 7.79776, 15.7853, 32.3717, 10.7246, -46.839, -7.13719
4.048, 8, 7.7234, 15.8052, 32.4142, 10.5974, -46.9812, -7.04415
4.052, 8, 7.64898, 15.8254, 32.4565, 10.4708, -47.1236, -6.95169
4.056, 8, 7.57452, 15.8458, 32.4984, 10.3447, -47.266, -6.8598
4.06, 8, 7.50001, 15.8665, 32.54, 10.2192, -47.4086, -6.76849
4.064, 8, 7.42546, 15.8875, 32.5813, 10.0943, -47.5512, -6.67774
4.068, 8, 7.35085, 15.9088, 32.6222, 9.96987, -47.694, -6.58756
4.072, 8, 7.27619, 15.9303, 32.6629, 9.846, -47.837, -6.49794
4.076, 8, 7.20149, 15.9522, 32.7033, 9.72266, -47.98, -6.40888
4.08, 8, 7.12674, 15.9743, 32.7433, 9.59986, -48.1232, -6.32036
4.084, 8, 7.05195, 15.9967, 32.7831, 9.47759, -48.2664, -6.2324
4.088, 8, 6.97711, 16.0193, 32.8225, 9.35584, -48.4098, -6.14497
4.092, 8, 6.90222, 16.0423, 32.8616, 9.23461, -48.5533, -6.05809
4.096, 8, 6.82729, 16.0655, 32.9004, 9.1139, -48.6969, -5.97174
4.1, 9, 6.75232, 16.089, 32.9389, 8.9937, -48.8406, -5.88593
4.104, 9, 6.6773, 16.1128, 32.9771, 8.87401, -48.9845, -5.80064
4.108, 9, 6.60223, 16.1368, 33.015, 8.75483, -49.1284, -5.71588
4.112, 9, 6.52713, 16.1611, 33.0525, 8.63614, -49.2724, -5.63164
4.116, 9, 6.45198, 16.1858, 33.0898, 8.51796, -49.4165, -5.54791
4.12, 9, 6.3768, 16.2106, 33.1267, 8.40027, -49.5608, -5.4647
4.124, 9, 6.30157, 16.2358, 33.1633, 8.28307, -49.7051, -5.382
4.128, 9, 6.2263, 16.2613, 33.1996, 8.16635, -49.8495, -5.2998
4.132, 9, 6.15099, 16.287, 33.2355, 8.05012, -49.994, -5.2181
4.136, 9, 6.07563, 16.313, 33.2712, 7.93437, -50.1387, -5.1369
4.14, 9, 6.00025, 16.3393, 33.3065, 7.81909, -50.2834, -5.0562
4.144, 9, 5.92482, 16.3658, 33.3415, 7.70429, -50.4282, -4.97598
4.148, 9, 5.84935, 16.3926, 33.3762, 7.58995, -50.573, -4.89626
4.152, 9, 5.77384, 16.4197, 33.4106, 7.47609, -50.718, -4.81702
4.156, 9, 5.6983, 16.4471, 33.4447, 7.36268, -50.8631, -4.73825
4.16, 9, 5.62272, 16.4748, 33.4784, 7.24973, -51.0082, -4.65997
4.164, 9, 5.5471, 16.5027, 33.5118, 7.13724, -51.1534, -4.58216
4.168, 9, 5.47145, 16.5309, 33.5449, 7.0252, -51.2987, -4.50482
4.172, 9, 5.39576, 16.5594, 33.5777, 6.91361, -51.4441, -4.42794
4.176, 9, 5.32004, 16.5881, 33.6102, 6.80246, -51.5896, -4.35153
4.18, 9, 5.24428, 16.6171, 33.6424, 6.69176, -51.7351, -4.27558
4.184, 9, 5.16849, 16.6464, 33.6742, 6.5815, -51.8807, -4.20009
4.188, 9, 5.09267, 16.676, 33.7057, 6.47167, -52.0264, -4.12505
4.192, 9, 5.01681, 16.7058, 33.7369, 6.36228, -52.1722, -4.05046
4.196, 9, 4.94092, 16.7359, 33.7678, 6.25331, -52.318, -3.97632
4.2, 9, 4.865, 16.7663, 33.7984, 6.14478, -52.4639, -3.90262
4.204, 9, 4.78905, 16.7969, 33.8286, 6.03667, -52.6099, -3.82936
4.208, 9, 4.71306, 16.8278, 33.8586, 5.92898, -52.7559, -3.75654
4.212, 9, 4.63705, 16.859, 33.8882, 5.8217, -52.902, -3.68415
4.216, 9, 4.56101, 16.8904, 33.9175, 5.71484, -53.0481, -3.6122
4.22, 9, 4.48493, 16.9221, 33.9465, 5.6084, -53.1944, -3.54067
4.224, 9, 4.40883, 16.9541, 33.9751, 5.50236, -53.3406, -3.46957
4.228, 9, 4.3327, 16.9864, 34.0035, 5.39673, -53.4869, -3.39889
4.232, 9, 4.25654, 17.0189, 34.0315, 5.2915, -53.6333, -3.32863
4.236, 9, 4.18034, 17.0519, 34.0591, 5.18667, -53.7798, -3.25878
4.24, 9, 4.10411, 17.0853, 34.0864, 5.08224, -53.9263, -3.18935
4.244, 9, 4.02784, 17.1193, 34.1131, 4.9782, -54.0729, -3.12033
4.248, 9, 3.95154, 17.154, 34.1394, 4.87454, -54.2195, -3.05172
4.252, 9, 3.87521, 17.1894, 34.165, 4.77128, -54.3662, -2.98352
4.256, 9, 3.79888, 17.2257, 34.1898, 4.66839, -54.513, -2.91572
4.26, 9, 3.72258, 17.2629, 34.2137, 4.5659, -54.6598, -2.84833
4.264, 9, 3.64631, 17.3012, 34.2366, 4.4638, -54.8067, -2.78136
4.268, 10, 3.57012, 17.3406, 34.2582, 4.3621, -54.9536, -2.7148
4.272, 10, 3.49399, 17.3813, 34.2783, 4.26082, -55.1004, -2.64866
4.276, 10, 3.41794, 17.4233, 34.2969, 4.15997, -55.2472, -2.58297
4.28, 10, 3.34196, 17.4667, 34.3136, 4.05956, -55.3938, -2.51772
4.284, 10, 3.26604, 17.5114, 34.3283, 3.95963, -55.5403, -2.45292
4.288, 10, 3.19019, 17.5573, 34.3409, 3.8602, -55.6866, -2.3886
4.292, 10, 3.11441, 17.6044, 34.3512, 3.76127, -55.8327, -2.32476
4.296, 10, 3.03872, 17.6527, 34.3594, 3.66287, -55.9785, -2.26141
4.3, 10, 2.96312, 17.7022, 34.3652, 3.56501, -56.124, -2.19856
4.304, 10, 2.88761, 17.753, 34.3688, 3.46769, -56.2692, -2.13619
4.308, 10, 2.81218, 17.8051, 34.3703, 3.37091, -56.4141, -2.07432
4.312, 10, 2.7368, 17.8585, 34.3696, 3.27467, -56.5587, -2.01293
4.316, 10, 2.66145, 17.9134, 34.3671, 3.17897, -56.703, -1.95202
4.32, 10, 2.58613, 17.9695, 34.3628, 3.08379, -56.8471, -1.89158
4.324, 10, 2.51084, 18.0269, 34.357, 2.9891, -56.991, -1.83159
4.328, 10, 2.43559, 18.0854, 34.3498, 2.89491, -57.1347, -1.77203
4.332, 10, 2.36043, 18.145, 34.3414, 2.80117, -57.2783, -1.7129
4.336, 10, 2.28537, 18.2056, 34.3319, 2.70788, -57.4217, -1.65416
4.34, 10, 2.21043, 18.267, 34.3216, 2.615, -57.5651, -1.59582
4.344, 10, 2.13562, 18.3291, 34.3105, 2.52254, -57.7083, -1.53786
4.348, 10, 2.06093, 18.3919, 34.2988, 2.43047, -57.8516, -1.48026
4.352, 10, 1.98634, 18.4552, 34.2865, 2.33879, -57.9947, -1.42302
4.356, 10, 1.91183, 18.519, 34.2738, 2.24749, -58.1378, -1.36613
4.36, 10, 1.8374, 18.5831, 34.2606, 2.15656, -58.2809, -1.30959
4.364, 10, 1.76302, 18.6475, 34.247, 2.066, -58.4239, -1.25339
4.368, 10, 1.68871, 18.7122, 34.233, 1.97581, -58.5668, -1.19753
4.372, 10, 1.61444, 18.7772, 34.2186, 1.88598, -58.7097, -1.142
4.376, 10, 1.54022, 18.8424, 34.2039, 1.79651, -58.8525, -1.0868
4.38, 10, 1.46605, 18.9078, 34.1888, 1.7074, -58.9953, -1.03194
4.384, 10, 1.39193, 18.9735, 34.1734, 1.61864, -59.138, -0.977392
4.388, 10, 1.31785, 19.0393, 34.1576, 1.53024, -59.2807, -0.923172
4.392, 10, 1.24382, 19.1054, 34.1415, 1.44219, -59.4233, -0.869272
4.396, 10, 1.16984, 19.1717, 34.125, 1.35449, -59.5658, -0.815689
4.4, 10, 1.0959, 19.2382, 34.1082, 1.26713, -59.7083, -0.76242
4.404, 10, 1.02201, 19.3049, 34.091, 1.18012, -59.8507, -0.709462
4.408, 10, 0.948168, 19.3718, 34.0736, 1.09345, -59.993, -0.656814
4.412, 10, 0.874372, 19.4389, 34.0557, 1.00712, -60.1353, -0.604472
4.416, 10, 0.800624, 19.5062, 34.0376, 0.921124, -60.2775, -0.552435
4.42, 10, 0.726925, 19.5737, 34.0191, 0.835466, -60.4196, -0.500699
4.424, 10, 0.653274, 19.6414, 34.0002, 0.750143, -60.5616, -0.449261
4.428, 10, 0.579673, 19.7093, 33.981, 0.665151, -60.7036, -0.398121
4.432, 10, 0.506121, 19.7774, 33.9615, 0.580489, -60.8455, -0.347274
4.436, 10, 0.432619, 19.8457, 33.9416, 0.496155, -60.9873, -0.296719
4.44, 10, 0.359168, 19.9142, 33.9214, 0.412146, -61.129, -0.246454
4.444, 10, 0.285768, 19.9828, 33.9009, 0.328462, -61.2707, -0.196475
4.448, 10, 0.21242, 20.0517, 33.88, 0.245099, -61.4123, -0.14678
4.452, 10, 0.139124, 20.1207, 33.8588, 0.162056, -61.5537, -0.0973681
4.456, 10, 0.0658795, 20.19, 33.8372, 0.0793306, -61.6951, -0.0482355
4.46, 10, -0.00731173, 20.2594, 33.8153, -0.00307823, -61.8364, 0.000619719
4.464, 10, -0.0804497, 20.329, 33.793, -0.0851728, -61.9776, 0.0491998
4.468, 10, -0.153534, 20.3988, 33.7705, -0.166955, -62.1188, 0.0975071
4.472, 10, -0.226564, 20.4688, 33.7475, -0.248427, -62.2598, 0.145544
4.476, 10, -0.299539, 20.539, 33.7243, -0.329589, -62.4007, 0.193312
4.48, 10, -0.37246, 20.6093, 33.7006, -0.410445, -62.5415, 0.240815
4.484, 10, -0.445324, 20.6799, 33.6767, -0.490996, -62.6823, 0.288053
4.488, 10, -0.518133, 20.7506, 33.6524, -0.571243, -62.8229, 0.335031
4.492, 10, -0.590886, 20.8215, 33.6278, -0.651189, -62.9635, 0.381748
4.496, 10, -0.663581, 20.8926, 33.6028, -0.730835, -63.1039, 0.428209
4.5, 10, -0.73622, 20.9639, 33.5775, -0.810183, -63.2442, 0.474414
4.504, 10, -0.808801, 21.0353, 33.5518, -0.889235, -63.3844, 0.520367
4.508, 10, -0.881323, 21.107, 33.5258, -0.967991, -63.5245, 0.566069
4.512, 10, -0.953788, 21.1788, 33.4995, -1.04646, -63.6646, 0.611522
4.516, 10, -1.02619, 21.2508, 33.4728, -1.12463, -63.8044, 0.656729
4.52, 10, -1.09854, 21.3229, 33.4458, -1.20251, -63.9442, 0.701691
4.524, 10, -1.17083, 21.3953, 33.4184, -1.28011, -64.0839, 0.746411
4.528, 10, -1.24305, 21.4678, 33.3907, -1.35742, -64.2235, 0.790891
4.532, 10, -1.31522, 21.5404, 33.3627, -1.43444, -64.3629, 0.835133
4.536, 10, -1.3873, 21.6133, 33.3343, -1.51118, -64.5022, 0.879138
4.54, 10, -1.45928, 21.6864, 33.3055, -1.58764, -64.6414, 0.922909
4.544, 10, -1.53109, 21.7597, 33.2764, -1.66382, -64.7805, 0.966447
4.548, 10, -1.60269, 21.8334, 33.2468, -1.73972, -64.9194, 1.00975
4.552, 10, -1.67401, 21.9074, 33.2167, -1.81533, -65.0581, 1.05282
4.556, 10, -1.74504, 21.982, 33.186, -1.89063, -65.1966, 1.09564
4.56, 10, -1.81576, 22.0571, 33.1547, -1.96561, -65.3349, 1.13821
4.564, 10, -1.88617, 22.1329, 33.1225, -2.04022, -65.4728, 1.1805
4.568, 10, -1.95629, 22.2094, 33.0894, -2.11443, -65.6104, 1.22251
4.572, 10, -2.02611, 22.2866, 33.0552, -2.1882, -65.7475, 1.26421
4.576, 11, -2.09564, 22.3647, 33.0197, -2.26146, -65.884, 1.30557
4.58, 11, -2.16485, 22.4436, 32.9827, -2.33415, -66.0199, 1.34656
4.584, 11, -2.23371, 22.5235, 32.944, -2.40621, -66.1551, 1.38716
4.588, 11, -2.30219, 22.6044, 32.9035, -2.47758, -66.2893, 1.42733
4.592, 11, -2.37029, 22.6862, 32.861, -2.54819, -66.4227, 1.46704
4.596, 11, -2.438, 22.7688, 32.8164, -2.618, -66.555, 1.50629
4.6, 11, -2.50531, 22.8523, 32.7696, -2.68698, -66.6862, 1.54504
4.604, 11, -2.57221, 22.9367, 32.7207, -2.7551, -66.8163, 1.58331
4.608, 11, -2.63869, 23.022, 32.6695, -2.82237, -66.9453, 1.62108
4.612, 11, -2.70475, 23.1082, 32.6163, -2.88881, -67.0731, 1.65838
4.616, 11, -2.77039, 23.1954, 32.561, -2.95444, -67.1999, 1.69522
4.62, 11, -2.83565, 23.2835, 32.5038, -3.01931, -67.3256, 1.73162
4.624, 11, -2.9006, 23.3725, 32.4448, -3.08348, -67.4504, 1.76762
4.628, 11, -2.96524, 23.4624, 32.3843, -3.147, -67.5742, 1.80325
4.632, 11, -3.0296, 23.5531, 32.3224, -3.20994, -67.6973, 1.83855
4.636, 11, -3.09362, 23.6446, 32.2593, -3.27236, -67.8198, 1.87354
4.64, 11, -3.1573, 23.7367, 32.1951, -3.33433, -67.9416, 1.90827
4.644, 11, -3.22058, 23.8294, 32.13, -3.3959, -68.0629, 1.94276
4.648, 11, -3.28344, 23.9226, 32.0642, -3.45712, -68.1837, 1.97704
4.652, 11, -3.3459, 24.0162, 31.9977, -3.51802, -68.3042, 2.01113
4.656, 11, -3.40801, 24.1102, 31.9307, -3.57862, -68.4244, 2.04503
4.66, 11, -3.46982, 24.2044, 31.8632, -3.63895, -68.5442, 2.07878
4.664, 11, -3.53139, 24.2988, 31.7952, -3.69902, -68.6638, 2.11236
4.668, 11, -3.59277, 24.3934, 31.7269, -3.75883, -68.7832, 2.1458
4.672, 11, -3.65399, 24.488, 31.6582, -3.8184, -68.9023, 2.17909
4.676, 11, -3.71507, 24.5828, 31.5891, -3.87773, -69.0211, 2.21223
4.68, 11, -3.77602, 24.6778, 31.5197, -3.93682, -69.1398, 2.24524
4.684, 11, -3.83684, 24.7728, 31.4499, -3.99568, -69.2582, 2.2781
4.688, 11, -3.89756, 24.8679, 31.3798, -4.0543, -69.3764, 2.31084
4.692, 11, -3.95816, 24.9631, 31.3094, -4.11268, -69.4944, 2.34344
4.696, 11, -4.01865, 25.0583, 31.2387, -4.17084, -69.6122, 2.37591
4.7, 11, -4.07904, 25.1537, 31.1676, -4.22877, -69.7298, 2.40825
4.704, 11, -4.13932, 25.2491, 31.0962, -4.28647, -69.8471, 2.44046
4.708, 11, -4.1995, 25.3446, 31.0245, -4.34395, -69.9642, 2.47254
4.712, 11, -4.25958, 25.4402, 30.9524, -4.40119, -70.0811, 2.50451
4.716, 11, -4.31956, 25.5359, 30.8801, -4.45822, -70.1977, 2.53635
4.72, 11, -4.37943, 25.6316, 30.8074, -4.51502, -70.3142, 2.56806
4.724, 11, -4.4392, 25.7274, 30.7344, -4.5716, -70.4304, 2.59966
4.728, 11, -4.49887, 25.8233, 30.661, -4.62795, -70.5464, 2.63114
4.732, 11, -4.55843, 25.9193, 30.5874, -4.68409, -70.6621, 2.6625
4.736, 11, -4.61789, 26.0153, 30.5134, -4.74, -70.7777, 2.69375
4.74, 12, -4.67725, 26.1114, 30.4391, -4.7957, -70.893, 2.72489
4.744, 12, -4.7365, 26.2076, 30.3645, -4.85118, -71.008, 2.75591
4.748, 12, -4.79564, 26.3038, 30.2895, -4.90644, -71.1228, 2.78682
4.752, 12, -4.85469, 26.4002, 30.2143, -4.96148, -71.2374, 2.81762
4.756, 12, -4.91363, 26.4965, 30.1387, -5.01631, -71.3517, 2.84832
4.76, 12, -4.97247, 26.593, 30.0628, -5.07092, -71.4657, 2.87891
4.764, 12, -5.0312, 26.6895, 29.9865, -5.12532, -71.5795, 2.90939
4.768, 12, -5.08984, 26.7861, 29.91, -5.17951, -71.6931, 2.93977
4.772, 12, -5.14837, 26.8827, 29.8331, -5.23348, -71.8064, 2.97005
4.776, 12, -5.2068, 26.9794, 29.7559, -5.28724, -71.9194, 3.00022
4.78, 12, -5.26513, 27.0762, 29.6783, -5.34079, -72.0322, 3.0303
4.784, 12, -5.32336, 27.1731, 29.6005, -5.39412, -72.1448, 3.06028
4.788, 12, -5.38148, 27.27, 29.5223, -5.44725, -72.2571, 3.09017
4.792, 12, -5.4395, 27.3669, 29.4438, -5.50017, -72.3691, 3.11995
4.796, 12, -5.49741, 27.464, 29.3649, -5.55288, -72.4809, 3.14965
4.8, 12, -5.55522, 27.5611, 29.2858, -5.60539, -72.5925, 3.17925
4.804, 12, -5.61293, 27.6582, 29.2063, -5.65769, -72.7037, 3.20876
4.808, 12, -5.67053, 27.7555, 29.1265, -5.70978, -72.8148, 3.23818
4.812, 12, -5.72803, 27.8528, 29.0464, -5.76167, -72.9256, 3.26752
4.816, 12, -5.78542, 27.9501, 28.966, -5.81336, -73.0362, 3.29676
4.82, 12, -5.84271, 28.0475, 28.8852, -5.86484, -73.1465, 3.32592
4.824, 12, -5.8999, 28.145, 28.8041, -5.91612, -73.2566, 3.355
4.828, 12, -5.95698, 28.2425, 28.7227, -5.96719, -73.3664, 3.38399
4.832, 12, -6.01395, 28.3402, 28.641, -6.01807, -73.476, 3.4129
4.836, 12, -6.07083, 28.4378, 28.559, -6.06874, -73.5854, 3.44173
4.84, 12, -6.1276, 28.5355, 28.4766, -6.11922, -73.6945, 3.47048
4.844, 12, -6.18427, 28.6333, 28.3939, -6.1695, -73.8034, 3.49915
4.848, 12, -6.24083, 28.7312, 28.3109, -6.21957, -73.912, 3.52774
4.852, 12, -6.29729, 28.8291, 28.2276, -6.26945, -74.0204, 3.55626
4.856, 12, -6.35365, 28.9271, 28.1439, -6.31913, -74.1285, 3.5847
4.86, 12, -6.4099, 29.0251, 28.06, -6.36862, -74.2364, 3.61307
4.864, 12, -6.46605, 29.1232, 27.9757, -6.4179, -74.3441, 3.64136
4.868, 12, -6.52209, 29.2213, 27.8911, -6.467, -74.4515, 3.66959
4.872, 12, -6.57804, 29.3195, 27.8062, -6.51589, -74.5587, 3.69774
4.876, 12, -6.63387, 29.4178, 27.7209, -6.56459, -74.6656, 3.72583
4.88, 12, -6.68961, 29.5161, 27.6354, -6.6131, -74.7723, 3.75385
4.884, 12, -6.74524, 29.6145, 27.5495, -6.66142, -74.8787, 3.7818
4.888, 12, -6.80078, 29.713, 27.4633, -6.70954, -74.9849, 3.80969
4.892, 12, -6.8562, 29.8115, 27.3767, -6.75747, -75.0908, 3.83751
4.896, 12, -6.91153, 29.91, 27.2899, -6.8052, -75.1965, 3.86527
4.9, 12, -6.96675, 30.0087, 27.2027, -6.85275, -75.302, 3.89297
4.904, 12, -7.02187, 30.1073, 27.1152, -6.9001, -75.4072, 3.92061
4.908, 13, -7.07688, 30.2061, 27.0274, -6.94727, -75.5121, 3.94818
4.912, 13, -7.13179, 30.3049, 26.9393, -6.99424, -75.6168, 3.9757
4.916, 13, -7.18659, 30.4037, 26.8508, -7.04103, -75.7213, 4.00317
4.92, 13, -7.24129, 30.5026, 26.7621, -7.08762, -75.8254, 4.03057
4.924, 13, -7.29589, 30.6016, 26.673, -7.13403, -75.9294, 4.05792
4.928, 13, -7.35038, 30.7006, 26.5836, -7.18025, -76.0331, 4.08522
4.932, 13, -7.40477, 30.7997, 26.4938, -7.22628, -76.1365, 4.11247
4.936, 13, -7.45906, 30.8988, 26.4038, -7.27213, -76.2397, 4.13966
4.94, 13, -7.51324, 30.998, 26.3134, -7.31779, -76.3426, 4.1668
4.944, 13, -7.56733, 31.0972, 26.2227, -7.36326, -76.4453, 4.19389
4.948, 13, -7.6213, 31.1965, 26.1317, -7.40855, -76.5477, 4.22094
4.952, 13, -7.67518, 31.2959, 26.0403, -7.45365, -76.6499, 4.24793
4.956, 13, -7.72895, 31.3953, 25.9486, -7.49857, -76.7518, 4.27488
4.96, 13, -7.78262, 31.4947, 25.8567, -7.5433, -76.8535, 4.30179
4.964, 13, -7.83618, 31.5942, 25.7644, -7.58785, -76.9549, 4.32865
4.968, 13, -7.88964, 31.6938, 25.6717, -7.63222, -77.0561, 4.35546
4.972, 13, -7.943, 31.7934, 25.5788, -7.6764, -77.157, 4.38224
4.976, 13, -7.99625, 31.8931, 25.4855, -7.7204, -77.2576, 4.40897
4.98, 13, -8.04941, 31.9928, 25.3919, -7.76422, -77.358, 4.43566
4.984, 13, -8.10245, 32.0926, 25.298, -7.80786, -77.4581, 4.46232
4.988, 13, -8.1554, 32.1924, 25.2037, -7.85131, -77.558, 4.48893
4.992, 13, -8.20824, 32.2923, 25.1092, -7.89459, -77.6576, 4.51551
4.996, 13, -8.26098, 32.3922, 25.0143, -7.93768, -77.7569, 4.54205
5, 13, -8.31361, 32.4922, 24.9191, -7.98059, -77.856, 4.56856
5.004, 13, -8.36615, 32.5922, 24.8236, -8.02333, -77.9548, 4.59503
5.008, 13, -8.41858, 32.6923, 24.7277, -8.06588, -78.0534, 4.62147
5.012, 13, -8.4709, 32.7924, 24.6315, -8.10825, -78.1517, 4.64788
5.016, 13, -8.52313, 32.8926, 24.535, -8.15045, -78.2498, 4.67425
5.02, 13, -8.57525, 32.9929, 24.4382, -8.19247, -78.3476, 4.7006
5.024, 13, -8.62727, 33.0932, 24.3411, -8.2343, -78.4451, 4.72691
5.028, 13, -8.67918, 33.1935, 24.2436, -8.27596, -78.5424, 4.7532
5.032, 13, -8.73099, 33.2939, 24.1458, -8.31745, -78.6394, 4.77946
5.036, 13, -8.7827, 33.3944, 24.0477, -8.35875, -78.7362, 4.80569
5.04, 13, -8.8343, 33.4949, 23.9492, -8.39988, -78.8326, 4.83189
5.044, 13, -8.8858, 33.5954, 23.8505, -8.44083, -78.9289, 4.85807
5.048, 13, -8.93721, 33.696, 23.7514, -8.48161, -79.0248, 4.88423
5.052, 13, -8.98851, 33.7967, 23.652, -8.52221, -79.1205, 4.91036
5.056, 13, -9.03971, 33.8974, 23.5522, -8.56263, -79.216, 4.93647
5.06, 13, -9.0908, 33.9981, 23.4522, -8.60288, -79.3112, 4.96256
5.064, 13, -9.1418, 34.0989, 23.3518, -8.64295, -79.4061, 4.98863
5.068, 13, -9.19269, 34.1998, 23.2511, -8.68285, -79.5007, 5.01468
5.072, 13, -9.24348, 34.3007, 23.1501, -8.72257, -79.5951, 5.04071
5.076, 14, -9.29416, 34.4017, 23.0487, -8.76212, -79.6892, 5.06673
5.08, 14, -9.34474, 34.5027, 22.947, -8.8015, -79.783, 5.09272
5.084, 14, -9.39522, 34.6037, 22.845, -8.8407, -79.8766, 5.11871
5.088, 14, -9.4456, 34.7048, 22.7427, -8.87972, -79.97, 5.14467
5.092, 14, -9.49588, 34.806, 22.64, -8.91858, -80.063, 5.17062
5.096, 14, -9.54605, 34.9072, 22.537, -8.95726, -80.1558, 5.19656
5.1, 14, -9.59613, 35.0084, 22.4337, -8.99577, -80.2483, 5.22249
5.104, 14, -9.6461, 35.1097, 22.3301, -9.0341, -80.3406, 5.2484
5.108, 14, -9.69597, 35.2111, 22.2261, -9.07227, -80.4325, 5.2743
5.112, 14, -9.74575, 35.3125, 22.1218, -9.11026, -80.5243, 5.3002
5.116, 14, -9.79541, 35.414, 22.0172, -9.14808, -80.6157, 5.32608
5.12, 14, -9.84498, 35.5155, 21.9122, -9.18573, -80.7069, 5.35196
5.124, 14, -9.89445, 35.617, 21.807, -9.2232, -80.7978, 5.37782
5.128, 14, -9.94381, 35.7186, 21.7014, -9.26051, -80.8885, 5.40368
5.132, 14, -9.99307, 35.8203, 21.5954, -9.29764, -80.9788, 5.42954
5.136, 14, -10.0422, 35.922, 21.4892, -9.33461, -81.0689, 5.45539
5.14, 14, -10.0913, 36.0238, 21.3826, -9.3714, -81.1588, 5.48123
5.144, 14, -10.1403, 36.1256, 21.2757, -9.40802, -81.2483, 5.50708
5.148, 14, -10.1891, 36.2274, 21.1684, -9.44448, -81.3376, 5.53292
5.152, 14, -10.2379, 36.3293, 21.0608, -9.48076, -81.4267, 5.55875
5.156, 14, -10.2865, 36.4313, 20.9529, -9.51687, -81.5154, 5.58459
5.16, 14, -10.3351, 36.5333, 20.8447, -9.55282, -81.6039, 5.61042
5.164, 14, -10.3835, 36.6354, 20.7361, -9.58859, -81.6921, 5.63626
5.168, 14, -10.4319, 36.7375, 20.6272, -9.6242, -81.7801, 5.6621
5.172, 14, -10.4801, 36.8397, 20.518, -9.65963, -81.8678, 5.68794
5.176, 14, -10.5283, 36.9419, 20.4084, -9.6949, -81.9552, 5.71378
5.18, 14, -10.5763, 37.0441, 20.2986, -9.73, -82.0423, 5.73962
5.184, 14, -10.6243, 37.1465, 20.1883, -9.76493, -82.1291, 5.76547
5.188, 14, -10.6722, 37.2488, 20.0778, -9.79969, -82.2157, 5.79132
5.192, 14, -10.7199, 37.3513, 19.9669, -9.83429, -82.302, 5.81718
5.196, 14, -10.7676, 37.4537, 19.8557, -9.86872, -82.3881, 5.84304
5.2, 14, -10.8151, 37.5563, 19.7441, -9.90297, -82.4738, 5.86892
5.204, 14, -10.8626, 37.6588, 19.6323, -9.93706, -82.5593, 5.89479
5.208, 14, -10.9099, 37.7615, 19.52, -9.97099, -82.6446, 5.92068
5.212, 14, -10.9572, 37.8641, 19.4075, -10.0047, -82.7295, 5.94658
5.216, 14, -11.0043, 37.9669, 19.2946, -10.0383, -82.8142, 5.97248
5.22, 14, -11.0514, 38.0697, 19.1814, -10.0718, -82.8986, 5.9984
5.224, 14, -11.0983, 38.1725, 19.0678, -10.105, -82.9827, 6.02433
5.228, 14, -11.1452, 38.2754, 18.954, -10.1381, -83.0666, 6.05027
5.232, 14, -11.1919, 38.3783, 18.8397, -10.171, -83.1501, 6.07622
5.236, 14, -11.2386, 38.4813, 18.7252, -10.2038, -83.2335, 6.10218
5.24, 15, -11.2852, 38.5844, 18.6103, -10.2364, -83.3165, 6.12816
5.244, 15, -11.3316, 38.6875, 18.495, -10.2688, -83.3992, 6.15416
5.248, 15, -11.378, 38.7907, 18.3795, -10.301, -83.4817, 6.18017
5.252, 15, -11.4242, 38.8939, 18.2636, -10.3331, -83.5639, 6.20619
5.256, 15, -11.4704, 38.9971, 18.1473, -10.3651, -83.6458, 6.23223
5.26, 15, -11.5165, 39.1005, 18.0308, -10.3968, -83.7274, 6.25829
5.264, 15, -11.5624, 39.2038, 17.9138, -10.4284, -83.8088, 6.28437
5.268, 15, -11.6083, 39.3073, 17.7966, -10.4598, -83.8899, 6.31047
5.272, 15, -11.6541, 39.4108, 17.679, -10.4911, -83.9707, 6.33658
5.276, 15, -11.6997, 39.5143, 17.561, -10.5222, -84.0512, 6.36272
5.28, 15, -11.7453, 39.6179, 17.4428, -10.5531, -84.1315, 6.38887
5.284, 15, -11.7908, 39.7215, 17.3241, -10.5839, -84.2115, 6.41505
5.288, 15, -11.8362, 39.8253, 17.2052, -10.6145, -84.2912, 6.44125
5.292, 15, -11.8814, 39.929, 17.0859, -10.6449, -84.3706, 6.46747
5.296, 15, -11.9266, 40.0328, 16.9662, -10.6752, -84.4497, 6.49372
5.3, 15, -11.9717, 40.1367, 16.8462, -10.7053, -84.5286, 6.51999
5.304, 15, -12.0167, 40.2407, 16.7259, -10.7352, -84.6072, 6.54628
5.308, 15, -12.0616, 40.3447, 16.6052, -10.765, -84.6855, 6.5726
5.312, 15, -12.1064, 40.4487, 16.4842, -10.7946, -84.7635, 6.59895
5.316, 15, -12.1511, 40.5528, 16.3628, -10.824, -84.8412, 6.62532
5.32, 15, -12.1957, 40.657, 16.2411, -10.8533, -84.9187, 6.65172
5.324, 15, -12.2402, 40.7612, 16.119, -10.8824, -84.9958, 6.67814
5.328, 15, -12.2846, 40.8655, 15.9966, -10.9114, -85.0727, 6.7046
5.332, 15, -12.3289, 40.9699, 15.8738, -10.9402, -85.1493, 6.73108
5.336, 15, -12.3731, 41.0743, 15.7507, -10.9688, -85.2257, 6.7576
5.34, 15, -12.4172, 41.1787, 15.6273, -10.9972, -85.3017, 6.78414
5.344, 15, -12.4613, 41.2833, 15.5035, -11.0255, -85.3775, 6.81071
5.348, 15, -12.5051, 41.3878, 15.3793, -11.0537, -85.4529, 6.83731
5.352, 15, -12.5487, 41.4921, 15.2549, -11.0816, -85.5281, 6.86395
5.356, 15, -12.5919, 41.5962, 15.1302, -11.1094, -85.6031, 6.89061
5.36, 15, -12.6346, 41.6996, 15.0054, -11.1371, -85.6777, 6.91728
5.364, 15, -12.6766, 41.8024, 14.8805, -11.1645, -85.7519, 6.94397
5.368, 15, -12.718, 41.9043, 14.7558, -11.1917, -85.8258, 6.97063
5.372, 15, -12.7586, 42.0052, 14.6313, -11.2187, -85.8991, 6.99723
5.376, 15, -12.7984, 42.1051, 14.5074, -11.2454, -85.9718, 7.02373
5.38, 15, -12.8375, 42.2038, 14.3843, -11.2718, -86.0438, 7.05006
5.384, 15, -12.8759, 42.3011, 14.2623, -11.2977, -86.1148, 7.07617
5.388, 15, -12.9133, 42.3968, 14.1418, -11.3232, -86.1847, 7.10196
5.392, 15, -12.9497, 42.4904, 14.0232, -11.3481, -86.2531, 7.12735
5.396, 15, -12.9849, 42.5815, 13.9071, -11.3724, -86.32, 7.15224
5.4, 15, -13.0189, 42.6699, 13.794, -11.396, -86.3849, 7.17651
5.404, 15, -13.0514, 42.7551, 13.6843, -11.4187, -86.4476, 7.20004
5.408, 15, -13.0826, 42.8371, 13.5786, -11.4404, -86.5078, 7.22271
5.412, 15, -13.1125, 42.9156, 13.4773, -11.4611, -86.5651, 7.2444
5.416, 15, -13.1411, 42.9904, 13.381, -11.4806, -86.6193, 7.26499
5.42, 15, -13.1683, 43.0614, 13.29, -11.4989, -86.6702, 7.28437
5.424, 15, -13.1942, 43.1284, 13.2047, -11.5159, -86.7175, 7.30247
5.428, 15, -13.2187, 43.1911, 13.1255, -11.5315, -86.7611, 7.31921
5.432, 15, -13.2416, 43.2493, 13.0527, -11.5458, -86.8008, 7.33453
5.436, 15, -13.263, 43.303, 12.9862, -11.5587, -86.8368, 7.34843
5.44, 15, -13.283, 43.3522, 12.9262, -11.5701, -86.8688, 7.36088
5.444, 15, -13.3015, 43.397, 12.8726, -11.5803, -86.8972, 7.37191
5.448, 15, -13.3187, 43.4376, 12.8252, -11.5891, -86.9218, 7.38155
5.452, 15, -13.3345, 43.4741, 12.7838, -11.5967, -86.943, 7.38987
5.456, 15, -13.3491, 43.5066, 12.748, -11.6031, -86.9609, 7.39694
5.46, 15, -13.3624, 43.5353, 12.7174, -11.6084, -86.9759, 7.40287
5.464, 15, -13.3743, 43.5604, 12.6917, -11.6128, -86.9882, 7.40776
5.468, 15, -13.3848, 43.5819, 12.6703, -11.6164, -86.9981, 7.41174
5.472, 15, -13.394, 43.6002, 12.6529, -11.6192, -87.006, 7.41492
5.476, 15, -13.4021, 43.6157, 12.6388, -11.6214, -87.0122, 7.41742
5.48, 15, -13.4091, 43.6287, 12.6277, -11.6231, -87.0169, 7.41934
5.484, 15, -13.4152, 43.6396, 12.619, -11.6244, -87.0204, 7.4208
5.488, 15, -13.4205, 43.6487, 12.6123, -11.6253, -87.023, 7.42188
5.492, 15, -13.425, 43.6562, 12.6072, -11.626, -87.0249, 7.42266
5.496, 15, -13.4287, 43.6623, 12.6035, -11.6265, -87.0262, 7.42321
5.5, 16, -13.4317, 43.6671, 12.6007, -11.6268, -87.0271, 7.42359
5.504, 16, -13.434, 43.6706, 12.5988, -11.627, -87.0277, 7.42385
5.508, 16, -13.4357, 43.6732, 12.5975, -11.6272, -87.0281, 7.42403
5.512, 16, -13.4368, 43.6749, 12.5965, -11.6273, -87.0284, 7.42416
5.516, 16, -13.4376, 43.6761, 12.5959, -11.6274, -87.0286, 7.42424
5.52, 16, -13.4382, 43.6769, 12.5955, -11.6274, -87.0287, 7.42429
5.524, 16, -13.4385, 43.6775, 12.5952, -11.6274, -87.0288, 7.42433
5.528, 16, -13.4388, 43.6779, 12.595, -11.6275, -87.0289, 7.42436
5.532, 16, -13.4389, 43.6781, 12.5949, -11.6275, -87.0289, 7.42437
5.536, 16, -13.4391, 43.6783, 12.5948, -11.6275, -87.0289, 7.42439
5.54, 16, -13.4391, 43.6784, 12.5947, -11.6275, -87.0289, 7.42439
5.544, 16, -13.4392, 43.6785, 12.5947, -11.6275, -87.029, 7.4244
5.548, 16, -13.4392, 43.6785, 12.5947, -11.6275, -87.029, 7.4244
5.552, 16, -13.4392, 43.6786, 12.5946, -11.6275, -87.029, 7.42441
5.556, 16, -13.4393, 43.6786, 12.5946, -11.6275, -87.029, 7.42441
5.56, 16, -13.4393, 43.6786, 12.5946, -11.6275, -87.029, 7.42441
5.564, 16, -13.4393, 43.6786, 12.5946, -11.6275, -87.029, 7.42441
5.568, 16, -13.4393, 43.6786, 12.5946, -11.6275, -87.029, 7.42441
5.572, 16, -13.4393, 43.6786, 12.5946, -11.6275, -87.029, 7.42441
5.576, 16, -13.4393, 43.6786, 12.5946, -11.6275, -87.029, 7.42441
5.58, 16, -13.4393, 43.6787, 12.5946, -11.6275, -87.029, 7.42441
5.584, 16, -13.4393, 43.6787, 12.5946, -11.6275, -87.029, 7.42441
5.588, 16, -13.4393, 43.6787, 12.5946, -11.6275, -87.029, 7.42441
5.592, 16, -13.4393, 43.6787, 12.5946, -11.6275, -87.029, 7.42441
5.596, 16, -13.4393, 43.6787, 12.5946, -11.6275, -87.029, 7.42441
5.6, 16, -13.4393, 43.6787, 12.5946, -11.6275, -87.029, 7.42441
5.604, 16, -13.4393, 43.6787, 12.5946, -11.6275, -87.029, 7.42441
5.608, 16, -13.4393, 43.6787, 12.5946, -11.6275, -87.029, 7.42441
5.612, 16, -13.4393, 43.6787, 12.5946, -11.6275, -87.029, 7.42441
5.616, 16, -13.4393, 43.6787, 12.5946, -11.6275, -87.029, 7.42441
