hehonglu123/ABB_Primitive_Study/execution/movelll_30_car/curve_exe_v1000_fine.csv
timestamp, cmd_num, J1, J2, J3, J4, J5, J6
0, -1, -13.4393, 43.6787, 12.5946, -11.6275, -87.029, 7.42441
0.003, -1, -13.4393, 43.6787, 12.5946, -11.6275, -87.029, 7.42441
0.006, -1, -13.4393, 43.6787, 12.5946, -11.6275, -87.029, 7.42441
0.008, -1, -13.4393, 43.6787, 12.5946, -11.6275, -87.029, 7.42441
0.011, -1, -13.4393, 43.6787, 12.5946, -11.6275, -87.029, 7.42441
0.016, -1, -13.4393, 43.6787, 12.5946, -11.6275, -87.029, 7.42441
0.02, -1, -13.4393, 43.6787, 12.5946, -11.6275, -87.029, 7.42441
0.024, -1, -13.4393, 43.6787, 12.5946, -11.6275, -87.029, 7.42441
0.028, -1, -13.4393, 43.6787, 12.5946, -11.6275, -87.029, 7.42441
0.032, -1, -13.4393, 43.6787, 12.5946, -11.6275, -87.029, 7.42441
0.036, -1, -13.4392, 43.6786, 12.5946, -11.6275, -87.029, 7.42441
0.04, -1, -13.439, 43.6785, 12.5946, -11.6275, -87.029, 7.42441
0.044, -1, -13.4384, 43.678, 12.5947, -11.6275, -87.029, 7.42439
0.048, -1, -13.4372, 43.6772, 12.5949, -11.6274, -87.0289, 7.42434
0.052, -1, -13.4355, 43.6758, 12.5951, -11.6273, -87.0287, 7.42422
0.056, -1, -13.433, 43.6738, 12.5955, -11.627, -87.0284, 7.42397
0.06, -1, -13.4296, 43.671, 12.5961, -11.6264, -87.0277, 7.42349
0.064, -1, -13.4254, 43.6675, 12.5969, -11.6253, -87.0264, 7.42266
0.068, -1, -13.4203, 43.6631, 12.598, -11.6236, -87.0244, 7.42132
0.072, -1, -13.4141, 43.6579, 12.5994, -11.6209, -87.0213, 7.41928
0.076, -1, -13.4066, 43.6516, 12.6011, -11.617, -87.0167, 7.4163
0.08, -1, -13.3977, 43.6442, 12.6034, -11.6115, -87.0103, 7.41213
0.084, -1, -13.3869, 43.6352, 12.6062, -11.604, -87.0016, 7.40644
0.088, -1, -13.3743, 43.6247, 12.6097, -11.5941, -86.9899, 7.39892
0.092, -1, -13.3596, 43.6124, 12.6138, -11.5812, -86.9748, 7.38918
0.096, -1, -13.3427, 43.5982, 12.6186, -11.5648, -86.9557, 7.37685
0.1, -1, -13.3235, 43.582, 12.6243, -11.5444, -86.9319, 7.36155
0.104, -1, -13.3019, 43.5636, 12.6308, -11.5196, -86.9029, 7.3429
0.108, -1, -13.2776, 43.5427, 12.6382, -11.4899, -86.868, 7.32054
0.112, -1, -13.2505, 43.5193, 12.6467, -11.4547, -86.8269, 7.29416
0.116, -1, -13.2206, 43.4932, 12.6562, -11.4137, -86.7789, 7.26346
0.12, -1, -13.1877, 43.4644, 12.6669, -11.3667, -86.7238, 7.22818
0.124, -1, -13.1519, 43.4328, 12.6786, -11.3132, -86.6612, 7.18814
0.128, -1, -13.113, 43.3984, 12.6916, -11.2532, -86.591, 7.14319
0.131, -1, -13.071, 43.3611, 12.7056, -11.1865, -86.5129, 7.09326
0.136, -1, -13.026, 43.321, 12.7209, -11.1131, -86.4269, 7.03835
0.139, -1, -12.9779, 43.2779, 12.7373, -11.0331, -86.3333, 6.9785
0.144, -1, -12.9267, 43.232, 12.7548, -10.9467, -86.2321, 6.91384
0.148, -1, -12.8726, 43.1833, 12.7734, -10.854, -86.1236, 6.84454
0.152, -1, -12.8155, 43.132, 12.7932, -10.7555, -86.0082, 6.77084
0.156, -1, -12.7557, 43.0781, 12.8139, -10.6514, -85.8863, 6.69301
0.16, -1, -12.6932, 43.0219, 12.8355, -10.5422, -85.7585, 6.61137
0.164, -1, -12.6282, 42.9633, 12.8581, -10.4284, -85.6253, 6.52627
0.168, -1, -12.5607, 42.9025, 12.8815, -10.3105, -85.4872, 6.43809
0.172, -1, -12.4909, 42.8396, 12.9056, -10.189, -85.3449, 6.34721
0.176, -1, -12.4189, 42.7749, 12.9305, -10.0644, -85.1989, 6.25399
0.18, -1, -12.345, 42.7085, 12.956, -9.93711, -85.0499, 6.15879
0.184, -1, -12.2694, 42.6406, 12.9821, -9.80765, -84.8983, 6.06194
0.188, -1, -12.1925, 42.5714, 13.0086, -9.6764, -84.7446, 5.96375
0.192, -1, -12.1142, 42.5011, 13.0356, -9.54373, -84.5892, 5.86449
0.196, -1, -12.0348, 42.4297, 13.0629, -9.40995, -84.4326, 5.76439
0.2, -1, -11.9542, 42.3573, 13.0906, -9.27534, -84.2749, 5.66366
0.204, -1, -11.8724, 42.2841, 13.1185, -9.14011, -84.1166, 5.56246
0.208, -1, -11.7897, 42.21, 13.1466, -9.00443, -83.9577, 5.46092
0.212, -1, -11.7061, 42.1354, 13.1749, -8.86843, -83.7985, 5.35913
0.216, -1, -11.6218, 42.0602, 13.2033, -8.7322, -83.6389, 5.25717
0.22, -1, -11.5371, 41.9847, 13.2318, -8.5958, -83.4792, 5.15507
0.224, -1, -11.452, 41.909, 13.2603, -8.45928, -83.3194, 5.05288
0.228, -1, -11.3667, 41.8332, 13.2889, -8.32266, -83.1594, 4.95062
0.232, -1, -11.2813, 41.7572, 13.3176, -8.18597, -82.9993, 4.8483
0.236, -1, -11.1957, 41.6811, 13.3462, -8.04922, -82.8392, 4.74595
0.24, -1, -11.11, 41.605, 13.3749, -7.91243, -82.679, 4.64355
0.244, -1, -11.0243, 41.5288, 13.4035, -7.77561, -82.5188, 4.54114
0.248, -1, -10.9386, 41.4526, 13.4322, -7.63876, -82.3586, 4.4387
0.252, -1, -10.8528, 41.3764, 13.4609, -7.50189, -82.1983, 4.33625
0.256, -1, -10.767, 41.3002, 13.4896, -7.36501, -82.0381, 4.2338
0.26, -1, -10.6811, 41.2239, 13.5183, -7.22813, -81.8778, 4.13133
0.264, -1, -10.5953, 41.1477, 13.547, -7.09125, -81.7175, 4.02887
0.268, -1, -10.5094, 41.0714, 13.5757, -6.95436, -81.5572, 3.92641
0.272, -1, -10.4236, 40.9952, 13.6044, -6.81749, -81.397, 3.82396
0.276, -1, -10.3378, 40.9189, 13.6331, -6.68063, -81.2367, 3.72151
0.28, -1, -10.252, 40.8427, 13.6618, -6.54379, -81.0765, 3.61908
0.284, -1, -10.1661, 40.7665, 13.6904, -6.40697, -80.9163, 3.51666
0.288, -1, -10.0803, 40.6903, 13.7191, -6.27017, -80.7561, 3.41427
0.292, -1, -9.99456, 40.6141, 13.7478, -6.13341, -80.596, 3.31189
0.296, -1, -9.9088, 40.538, 13.7764, -5.99668, -80.4359, 3.20955
0.3, -1, -9.82306, 40.4618, 13.8051, -5.85999, -80.2758, 3.10723
0.304, -1, -9.73734, 40.3857, 13.8337, -5.72334, -80.1158, 3.00494
0.308, -1, -9.65166, 40.3096, 13.8624, -5.58674, -79.9558, 2.90269
0.312, -1, -9.566, 40.2336, 13.891, -5.45019, -79.796, 2.80048
0.316, -1, -9.48038, 40.1575, 13.9196, -5.31369, -79.6361, 2.69831
0.32, -1, -9.3948, 40.0815, 13.9482, -5.17726, -79.4764, 2.59618
0.324, -1, -9.30925, 40.0055, 13.9768, -5.04089, -79.3167, 2.4941
0.328, -1, -9.22375, 39.9296, 14.0054, -4.90458, -79.1571, 2.39207
0.332, -1, -9.13829, 39.8537, 14.0339, -4.76835, -78.9976, 2.2901
0.336, -1, -9.05287, 39.7778, 14.0625, -4.63219, -78.8382, 2.18818
0.34, -1, -8.9675, 39.702, 14.091, -4.49612, -78.6788, 2.08632
0.344, -1, -8.88219, 39.6262, 14.1195, -4.36012, -78.5196, 1.98452
0.348, -1, -8.79692, 39.5505, 14.148, -4.22421, -78.3604, 1.88279
0.352, -1, -8.71172, 39.4748, 14.1765, -4.0884, -78.2014, 1.78113
0.356, -1, -8.62657, 39.3992, 14.2049, -3.95267, -78.0425, 1.67953
0.36, -1, -8.54148, 39.3236, 14.2334, -3.81705, -77.8837, 1.57801
0.364, -1, -8.45646, 39.2481, 14.2618, -3.68152, -77.725, 1.47657
0.368, -1, -8.3715, 39.1727, 14.2902, -3.54611, -77.5664, 1.3752
0.372, -1, -8.28661, 39.0973, 14.3185, -3.4108, -77.408, 1.27392
0.376, -1, -8.20179, 39.0219, 14.3469, -3.2756, -77.2497, 1.17272
0.38, -1, -8.11704, 38.9467, 14.3752, -3.14052, -77.0915, 1.07161
0.384, -1, -8.03237, 38.8715, 14.4035, -3.00557, -76.9335, 0.970588
0.388, -1, -7.94777, 38.7963, 14.4318, -2.87073, -76.7756, 0.869659
0.392, -1, -7.86325, 38.7212, 14.46, -2.73602, -76.6179, 0.768825
0.396, -1, -7.77881, 38.6463, 14.4882, -2.60145, -76.4603, 0.668089
0.4, -1, -7.69446, 38.5713, 14.5164, -2.467, -76.3029, 0.567454
0.404, -1, -7.61019, 38.4965, 14.5446, -2.3327, -76.1456, 0.466921
0.408, -1, -7.526, 38.4217, 14.5727, -2.19854, -75.9885, 0.366494
0.412, -1, -7.44191, 38.347, 14.6008, -2.06452, -75.8316, 0.266176
0.416, -1, -7.35791, 38.2724, 14.6288, -1.93064, -75.6748, 0.165968
0.42, -1, -7.274, 38.1979, 14.6569, -1.79692, -75.5183, 0.0658724
0.424, -1, -7.19019, 38.1235, 14.6849, -1.66336, -75.3619, -0.0341072
0.428, -1, -7.10648, 38.0491, 14.7128, -1.52995, -75.2057, -0.133969
0.432, -1, -7.02287, 37.9748, 14.7408, -1.3967, -75.0496, -0.233711
0.436, -1, -6.93935, 37.9007, 14.7687, -1.26362, -74.8938, -0.33333
0.44, -1, -6.85595, 37.8266, 14.7965, -1.1307, -74.7382, -0.432824
0.444, -1, -6.77264, 37.7526, 14.8244, -0.99795, -74.5827, -0.532191
0.448, -1, -6.68945, 37.6787, 14.8522, -0.865375, -74.4275, -0.631429
0.452, -1, -6.60636, 37.6049, 14.8799, -0.732975, -74.2725, -0.730535
0.456, -1, -6.52339, 37.5312, 14.9077, -0.600755, -74.1176, -0.829507
0.46, -1, -6.44053, 37.4576, 14.9353, -0.468716, -73.963, -0.928344
0.464, -1, -6.35778, 37.3842, 14.963, -0.336861, -73.8086, -1.02704
0.468, -1, -6.27515, 37.3108, 14.9906, -0.205193, -73.6545, -1.1256
0.472, -1, -6.19264, 37.2375, 15.0181, -0.0737153, -73.5005, -1.22402
0.476, -1, -6.11024, 37.1643, 15.0457, 0.0575699, -73.3468, -1.32229
0.48, -1, -6.02797, 37.0912, 15.0732, 0.18866, -73.1933, -1.42042
0.484, -1, -5.94582, 37.0183, 15.1006, 0.319552, -73.04, -1.51839
0.488, -1, -5.8638, 36.9454, 15.128, 0.450244, -72.887, -1.61622
0.492, -1, -5.7819, 36.8727, 15.1554, 0.580734, -72.7342, -1.7139
0.496, -1, -5.70012, 36.8001, 15.1827, 0.711018, -72.5817, -1.81142
0.5, -1, -5.61848, 36.7276, 15.2099, 0.841096, -72.4294, -1.90879
0.504, -1, -5.53697, 36.6552, 15.2372, 0.970964, -72.2773, -2.006
0.508, -1, -5.45558, 36.5829, 15.2644, 1.10062, -72.1255, -2.10306
0.512, -1, -5.37433, 36.5108, 15.2915, 1.23006, -71.9739, -2.19995
0.516, -1, -5.29321, 36.4387, 15.3186, 1.35929, -71.8226, -2.29668
0.52, -1, -5.21223, 36.3668, 15.3456, 1.4883, -71.6715, -2.39325
0.524, -1, -5.13138, 36.295, 15.3726, 1.6171, -71.5207, -2.48966
0.528, -1, -5.05067, 36.2233, 15.3996, 1.74567, -71.3702, -2.5859
0.532, -1, -4.97009, 36.1518, 15.4265, 1.87402, -71.2199, -2.68198
0.536, -1, -4.88966, 36.0803, 15.4534, 2.00215, -71.0698, -2.77789
0.54, -1, -4.80936, 36.009, 15.4802, 2.13005, -70.9201, -2.87363
0.544, -1, -4.7292, 35.9378, 15.507, 2.25773, -70.7706, -2.9692
0.548, -1, -4.64919, 35.8668, 15.5337, 2.38518, -70.6213, -3.0646
0.552, -1, -4.56931, 35.7959, 15.5604, 2.51241, -70.4724, -3.15984
0.556, -1, -4.48958, 35.725, 15.587, 2.6394, -70.3237, -3.2549
0.56, -1, -4.41, 35.6544, 15.6136, 2.76617, -70.1752, -3.34979
0.564, -1, -4.33056, 35.5838, 15.6401, 2.8927, -70.0271, -3.44451
0.568, -1, -4.25126, 35.5134, 15.6666, 3.01901, -69.8792, -3.53905
0.572, -1, -4.17211, 35.4431, 15.693, 3.14508, -69.7316, -3.63342
0.576, -1, -4.0931, 35.373, 15.7194, 3.27092, -69.5842, -3.72761
0.58, -1, -4.01424, 35.3029, 15.7458, 3.39652, -69.4372, -3.82163
0.584, -1, -3.93553, 35.233, 15.772, 3.52189, -69.2904, -3.91547
0.588, -1, -3.85696, 35.1633, 15.7983, 3.64702, -69.1438, -4.00914
0.592, -1, -3.77855, 35.0936, 15.8245, 3.77191, -68.9976, -4.10263
0.596, -1, -3.70028, 35.0241, 15.8506, 3.89657, -68.8516, -4.19594
0.6, -1, -3.62216, 34.9548, 15.8767, 4.02099, -68.7059, -4.28908
0.604, -1, -3.54419, 34.8855, 15.9027, 4.14517, -68.5605, -4.38203
0.608, -1, -3.46637, 34.8164, 15.9287, 4.26911, -68.4154, -4.47481
0.612, -1, -3.3887, 34.7474, 15.9547, 4.39281, -68.2706, -4.5674
0.616, -1, -3.31118, 34.6786, 15.9806, 4.51628, -68.126, -4.65982
0.62, -1, -3.23382, 34.6099, 16.0064, 4.63949, -67.9817, -4.75205
0.624, -1, -3.1566, 34.5413, 16.0322, 4.76247, -67.8377, -4.84411
0.628, -1, -3.07954, 34.4729, 16.0579, 4.88521, -67.694, -4.93598
0.632, -1, -3.00262, 34.4046, 16.0836, 5.0077, -67.5506, -5.02767
0.636, -1, -2.92586, 34.3364, 16.1092, 5.12995, -67.4074, -5.11918
0.64, -1, -2.84926, 34.2684, 16.1348, 5.25195, -67.2646, -5.2105
0.644, -1, -2.7728, 34.2005, 16.1604, 5.37371, -67.122, -5.30165
0.648, -1, -2.6965, 34.1328, 16.1858, 5.49523, -66.9797, -5.39261
0.652, -1, -2.62035, 34.0652, 16.2113, 5.6165, -66.8377, -5.48338
0.656, -1, -2.54436, 33.9977, 16.2366, 5.73753, -66.696, -5.57398
0.66, -1, -2.46852, 33.9303, 16.262, 5.85831, -66.5546, -5.66439
0.664, -1, -2.39283, 33.8631, 16.2872, 5.97884, -66.4135, -5.75461
0.668, -1, -2.3173, 33.7961, 16.3125, 6.09913, -66.2726, -5.84465
0.672, -1, -2.24192, 33.7291, 16.3376, 6.21917, -66.1321, -5.93451
0.676, -1, -2.1667, 33.6623, 16.3628, 6.33897, -65.9918, -6.02418
0.68, -1, -2.09163, 33.5957, 16.3878, 6.45851, -65.8518, -6.11367
0.684, -1, -2.01672, 33.5292, 16.4129, 6.57781, -65.7121, -6.20297
0.688, -1, -1.94196, 33.4628, 16.4378, 6.69687, -65.5727, -6.29208
0.692, -1, -1.86736, 33.3965, 16.4627, 6.81567, -65.4336, -6.38101
0.696, -1, -1.79291, 33.3304, 16.4876, 6.93423, -65.2948, -6.46976
0.7, -1, -1.71862, 33.2645, 16.5124, 7.05254, -65.1562, -6.55832
0.704, -1, -1.64448, 33.1986, 16.5372, 7.1706, -65.018, -6.64669
0.708, -1, -1.5705, 33.1329, 16.5619, 7.28841, -64.8801, -6.73488
0.712, -1, -1.49668, 33.0674, 16.5865, 7.40597, -64.7424, -6.82288
0.716, -1, -1.42301, 33.002, 16.6111, 7.52329, -64.605, -6.9107
0.72, -1, -1.34949, 32.9367, 16.6357, 7.64036, -64.468, -6.99833
0.724, -1, -1.27614, 32.8715, 16.6602, 7.75718, -64.3312, -7.08577
0.728, -1, -1.20293, 32.8065, 16.6846, 7.87375, -64.1947, -7.17303
0.732, -1, -1.12989, 32.7417, 16.709, 7.99007, -64.0585, -7.2601
0.736, -1, -1.057, 32.677, 16.7333, 8.10615, -63.9226, -7.34699
0.74, -1, -0.984259, 32.6124, 16.7576, 8.22197, -63.7869, -7.43369
0.744, -1, -0.911678, 32.5479, 16.7819, 8.33755, -63.6516, -7.52021
0.748, -1, -0.839252, 32.4836, 16.8061, 8.45288, -63.5166, -7.60653
0.752, -1, -0.766981, 32.4194, 16.8302, 8.56796, -63.3818, -7.69268
0.756, -1, -0.694864, 32.3554, 16.8543, 8.6828, -63.2474, -7.77864
0.76, -1, -0.622901, 32.2915, 16.8783, 8.79738, -63.1132, -7.86441
0.764, -1, -0.551092, 32.2277, 16.9023, 8.91172, -62.9793, -7.95
0.768, -1, -0.479437, 32.1641, 16.9262, 9.02582, -62.8457, -8.0354
0.772, -1, -0.407935, 32.1006, 16.9501, 9.13966, -62.7124, -8.12062
0.776, -1, -0.336586, 32.0373, 16.9739, 9.25326, -62.5794, -8.20566
0.78, -1, -0.26539, 31.9741, 16.9977, 9.36662, -62.4467, -8.29051
0.784, -1, -0.194346, 31.911, 17.0214, 9.47973, -62.3142, -8.37518
0.788, -1, -0.123455, 31.848, 17.0451, 9.5926, -62.182, -8.45966
0.792, -1, -0.0527154, 31.7852, 17.0687, 9.70522, -62.0502, -8.54397
0.796, -1, 0.0178725, 31.7226, 17.0923, 9.81761, -61.9186, -8.62809
0.8, -1, 0.0883091, 31.66, 17.1158, 9.92975, -61.7873, -8.71204
0.804, -1, 0.158595, 31.5976, 17.1393, 10.0417, -61.6562, -8.7958
0.808, -1, 0.22873, 31.5353, 17.1627, 10.1533, -61.5255, -8.87938
0.812, -1, 0.298716, 31.4732, 17.186, 10.2647, -61.395, -8.96279
0.816, -1, 0.368552, 31.4112, 17.2094, 10.3759, -61.2648, -9.04602
0.82, -1, 0.438239, 31.3493, 17.2326, 10.4869, -61.1349, -9.12907
0.824, -1, 0.507778, 31.2876, 17.2559, 10.5976, -61.0053, -9.21194
0.828, -1, 0.577169, 31.226, 17.279, 10.7081, -60.8759, -9.29464
0.832, -1, 0.646413, 31.1645, 17.3021, 10.8183, -60.7468, -9.37716
0.836, -1, 0.71551, 31.1031, 17.3252, 10.9283, -60.618, -9.45951
0.84, -1, 0.78446, 31.0419, 17.3482, 11.0381, -60.4895, -9.54168
0.844, -1, 0.853266, 30.9808, 17.3712, 11.1476, -60.3612, -9.62368
0.848, -1, 0.921925, 30.9199, 17.3941, 11.2569, -60.2332, -9.7055
0.852, -1, 0.990441, 30.859, 17.417, 11.366, -60.1055, -9.78716
0.856, -1, 1.05881, 30.7983, 17.4398, 11.4749, -59.9781, -9.86864
0.86, -1, 1.12704, 30.7378, 17.4626, 11.5835, -59.8509, -9.94995
0.864, -1, 1.19512, 30.6773, 17.4854, 11.6919, -59.7239, -10.0311
0.868, -1, 1.26307, 30.617, 17.508, 11.8001, -59.5973, -10.1121
0.872, -1, 1.33087, 30.5568, 17.5307, 11.908, -59.4709, -10.1929
0.876, -1, 1.39853, 30.4967, 17.5533, 12.0157, -59.3448, -10.2735
0.88, -1, 1.46604, 30.4368, 17.5758, 12.1232, -59.2189, -10.354
0.884, -1, 1.53342, 30.377, 17.5983, 12.2305, -59.0933, -10.4343
0.888, -1, 1.60066, 30.3173, 17.6208, 12.3375, -58.9679, -10.5144
0.892, -1, 1.66775, 30.2577, 17.6432, 12.4444, -58.8429, -10.5943
0.896, -1, 1.73471, 30.1982, 17.6655, 12.551, -58.718, -10.6741
0.9, -1, 1.80153, 30.1389, 17.6878, 12.6574, -58.5935, -10.7538
0.904, -1, 1.86821, 30.0797, 17.7101, 12.7635, -58.4692, -10.8332
0.908, -1, 1.93476, 30.0206, 17.7323, 12.8695, -58.3451, -10.9125
0.912, -1, 2.00117, 29.9617, 17.7545, 12.9752, -58.2213, -10.9917
0.916, -1, 2.06744, 29.9028, 17.7766, 13.0807, -58.0978, -11.0707
0.92, -1, 2.13357, 29.8441, 17.7987, 13.186, -57.9745, -11.1495
0.924, -1, 2.19957, 29.7855, 17.8207, 13.2911, -57.8514, -11.2281
0.928, -1, 2.26543, 29.727, 17.8427, 13.3959, -57.7287, -11.3066
0.932, -1, 2.33116, 29.6687, 17.8647, 13.5006, -57.6061, -11.385
0.936, -1, 2.39676, 29.6104, 17.8866, 13.605, -57.4838, -11.4631
0.94, -1, 2.46222, 29.5523, 17.9084, 13.7092, -57.3618, -11.5412
0.944, -1, 2.52755, 29.4943, 17.9303, 13.8133, -57.24, -11.619
0.948, -1, 2.59275, 29.4364, 17.952, 13.9171, -57.1185, -11.6967
0.952, -1, 2.65781, 29.3787, 17.9738, 14.0206, -56.9972, -11.7743
0.956, -1, 2.72274, 29.321, 17.9954, 14.124, -56.8761, -11.8516
0.96, -1, 2.78755, 29.2635, 18.0171, 14.2272, -56.7553, -11.9289
0.964, -1, 2.85222, 29.2061, 18.0387, 14.3302, -56.6348, -12.0059
0.968, -1, 2.91676, 29.1488, 18.0602, 14.4329, -56.5144, -12.0829
0.972, -1, 2.98117, 29.0916, 18.0817, 14.5355, -56.3944, -12.1596
0.976, -1, 3.04545, 29.0345, 18.1032, 14.6378, -56.2745, -12.2362
0.98, -1, 3.10961, 28.9775, 18.1246, 14.7399, -56.1549, -12.3127
0.984, -1, 3.17363, 28.9207, 18.146, 14.8419, -56.0356, -12.389
0.988, -1, 3.23753, 28.864, 18.1673, 14.9436, -55.9165, -12.4651
0.992, -1, 3.3013, 28.8074, 18.1886, 15.0451, -55.7976, -12.5411
0.996, -1, 3.36494, 28.7508, 18.2099, 15.1465, -55.6789, -12.617
1, -1, 3.42846, 28.6945, 18.2311, 15.2476, -55.5605, -12.6927
1.004, -1, 3.49185, 28.6382, 18.2523, 15.3485, -55.4423, -12.7682
1.008, -1, 3.55512, 28.582, 18.2734, 15.4492, -55.3244, -12.8436
1.012, -1, 3.61826, 28.5259, 18.2945, 15.5498, -55.2067, -12.9189
1.016, -1, 3.68127, 28.47, 18.3155, 15.6501, -55.0892, -12.994
1.02, -1, 3.74416, 28.4142, 18.3365, 15.7502, -54.972, -13.0689
1.024, -1, 3.80693, 28.3584, 18.3575, 15.8502, -54.855, -13.1437
1.027, -1, 3.86958, 28.3028, 18.3784, 15.9499, -54.7382, -13.2184
1.032, -1, 3.9321, 28.2473, 18.3993, 16.0494, -54.6216, -13.2929
1.036, -1, 3.9945, 28.1919, 18.4201, 16.1488, -54.5053, -13.3673
1.04, -1, 4.05678, 28.1366, 18.4409, 16.2479, -54.3892, -13.4415
1.044, -1, 4.11893, 28.0814, 18.4616, 16.3469, -54.2733, -13.5156
1.048, -1, 4.18097, 28.0263, 18.4824, 16.4457, -54.1577, -13.5895
1.052, -1, 4.24289, 27.9714, 18.503, 16.5442, -54.0422, -13.6633
1.055, -1, 4.30468, 27.9165, 18.5237, 16.6426, -53.927, -13.7369
1.06, -1, 4.36636, 27.8617, 18.5443, 16.7408, -53.8121, -13.8104
1.064, -1, 4.42792, 27.8071, 18.5648, 16.8388, -53.6973, -13.8838
1.068, -1, 4.48936, 27.7525, 18.5853, 16.9366, -53.5828, -13.957
1.072, -1, 4.55068, 27.6981, 18.6058, 17.0343, -53.4685, -14.0301
1.076, -1, 4.61188, 27.6438, 18.6262, 17.1317, -53.3544, -14.103
1.08, -1, 4.67297, 27.5895, 18.6466, 17.229, -53.2405, -14.1758
1.084, -1, 4.73394, 27.5354, 18.667, 17.326, -53.1268, -14.2485
1.088, -1, 4.7948, 27.4814, 18.6873, 17.4229, -53.0134, -14.321
1.091, -1, 4.85554, 27.4274, 18.7076, 17.5196, -52.9002, -14.3934
1.096, -1, 4.91617, 27.3736, 18.7278, 17.6161, -52.7871, -14.4656
1.1, -1, 4.97668, 27.3199, 18.7481, 17.7125, -52.6743, -14.5378
1.104, -1, 5.03708, 27.2663, 18.7682, 17.8086, -52.5618, -14.6097
1.108, -1, 5.09737, 27.2127, 18.7883, 17.9046, -52.4494, -14.6816
1.112, -1, 5.15754, 27.1593, 18.8084, 18.0004, -52.3372, -14.7533
1.116, -1, 5.2176, 27.106, 18.8285, 18.096, -52.2253, -14.8249
1.119, -1, 5.27755, 27.0528, 18.8485, 18.1915, -52.1135, -14.8963
1.124, -1, 5.33739, 26.9996, 18.8685, 18.2867, -52.0019, -14.9676
1.128, -1, 5.39712, 26.9466, 18.8884, 18.3818, -51.8906, -15.0388
1.132, -1, 5.45673, 26.8937, 18.9083, 18.4767, -51.7795, -15.1098
1.136, -1, 5.51624, 26.8408, 18.9282, 18.5715, -51.6685, -15.1807
1.14, -1, 5.57564, 26.7881, 18.948, 18.666, -51.5578, -15.2515
1.144, -1, 5.63493, 26.7355, 18.9678, 18.7604, -51.4473, -15.3222
1.147, -1, 5.69412, 26.6829, 18.9876, 18.8547, -51.337, -15.3927
1.152, -1, 5.75319, 26.6305, 19.0073, 18.9487, -51.2268, -15.4631
1.156, -1, 5.81216, 26.5781, 19.027, 19.0426, -51.1169, -15.5334
1.16, -1, 5.87103, 26.5259, 19.0467, 19.1363, -51.0072, -15.6035
1.164, -1, 5.92979, 26.4737, 19.0663, 19.2298, -50.8976, -15.6736
1.168, -1, 5.98844, 26.4216, 19.0859, 19.3232, -50.7883, -15.7435
1.172, -1, 6.04699, 26.3696, 19.1054, 19.4164, -50.6792, -15.8132
1.175, -1, 6.10543, 26.3177, 19.1249, 19.5095, -50.5702, -15.8829
1.18, -1, 6.16377, 26.266, 19.1444, 19.6024, -50.4614, -15.9524
1.184, -1, 6.22201, 26.2142, 19.1639, 19.6951, -50.3529, -16.0218
1.188, -1, 6.28015, 26.1626, 19.1833, 19.7876, -50.2445, -16.0911
1.192, -1, 6.33818, 26.1111, 19.2027, 19.88, -50.1363, -16.1603
1.196, -1, 6.39611, 26.0597, 19.222, 19.9723, -50.0283, -16.2293
1.2, -1, 6.45394, 26.0083, 19.2413, 20.0643, -49.9205, -16.2982
1.204, -1, 6.51167, 25.9571, 19.2606, 20.1562, -49.8129, -16.367
1.208, -1, 6.5693, 25.9059, 19.2798, 20.248, -49.7055, -16.4357
1.212, -1, 6.62683, 25.8548, 19.299, 20.3396, -49.5982, -16.5042
1.216, -1, 6.68426, 25.8038, 19.3182, 20.431, -49.4912, -16.5727
1.22, -1, 6.74159, 25.7529, 19.3374, 20.5223, -49.3843, -16.641
1.224, -1, 6.79882, 25.7021, 19.3565, 20.6134, -49.2776, -16.7092
1.228, -1, 6.85596, 25.6514, 19.3756, 20.7044, -49.1711, -16.7773
1.232, -1, 6.91299, 25.6008, 19.3946, 20.7952, -49.0648, -16.8453
1.236, -1, 6.96993, 25.5502, 19.4136, 20.8858, -48.9586, -16.9131
1.24, -1, 7.02678, 25.4997, 19.4326, 20.9763, -48.8526, -16.9809
1.244, -1, 7.08352, 25.4494, 19.4515, 21.0667, -48.7469, -17.0485
1.248, -1, 7.14018, 25.3991, 19.4705, 21.1569, -48.6413, -17.116
1.252, -1, 7.19673, 25.3488, 19.4893, 21.2469, -48.5358, -17.1834
1.256, -1, 7.25319, 25.2987, 19.5082, 21.3368, -48.4306, -17.2507
1.26, -1, 7.30956, 25.2487, 19.527, 21.4266, -48.3255, -17.3179
1.264, -1, 7.36583, 25.1987, 19.5458, 21.5161, -48.2206, -17.385
1.267, -1, 7.42201, 25.1488, 19.5646, 21.6056, -48.1158, -17.4519
1.272, -1, 7.4781, 25.099, 19.5833, 21.6949, -48.0113, -17.5188
1.276, -1, 7.53409, 25.0493, 19.602, 21.784, -47.9069, -17.5855
1.28, -1, 7.58999, 24.9997, 19.6207, 21.873, -47.8027, -17.6521
1.284, -1, 7.6458, 24.9501, 19.6393, 21.9619, -47.6986, -17.7186
1.288, -1, 7.70152, 24.9007, 19.6579, 22.0506, -47.5948, -17.785
1.292, -1, 7.75715, 24.8513, 19.6765, 22.1392, -47.4911, -17.8513
1.295, -1, 7.81268, 24.802, 19.695, 22.2276, -47.3875, -17.9175
1.3, -1, 7.86813, 24.7528, 19.7135, 22.3159, -47.2842, -17.9836
1.304, -1, 7.92348, 24.7036, 19.732, 22.404, -47.181, -18.0496
1.308, -1, 7.97875, 24.6545, 19.7505, 22.492, -47.0779, -18.1154
1.312, -1, 8.03393, 24.6055, 19.7689, 22.5798, -46.9751, -18.1812
1.316, -1, 8.08901, 24.5566, 19.7873, 22.6675, -46.8724, -18.2468
1.32, -1, 8.14401, 24.5078, 19.8057, 22.7551, -46.7699, -18.3124
1.324, -1, 8.19893, 24.4591, 19.824, 22.8425, -46.6675, -18.3778
1.328, -1, 8.25375, 24.4104, 19.8423, 22.9298, -46.5653, -18.4432
1.332, -1, 8.30849, 24.3618, 19.8606, 23.017, -46.4632, -18.5084
1.336, -1, 8.36314, 24.3133, 19.8788, 23.104, -46.3614, -18.5735
1.34, -1, 8.4177, 24.2648, 19.8971, 23.1909, -46.2596, -18.6386
1.344, -1, 8.47218, 24.2165, 19.9153, 23.2776, -46.1581, -18.7035
1.348, -1, 8.52657, 24.1682, 19.9334, 23.3642, -46.0567, -18.7683
1.352, -1, 8.58088, 24.1199, 19.9515, 23.4507, -45.9554, -18.833
1.356, -1, 8.6351, 24.0718, 19.9697, 23.537, -45.8543, -18.8976
1.36, -1, 8.68923, 24.0237, 19.9877, 23.6232, -45.7534, -18.9622
1.364, -1, 8.74328, 23.9757, 20.0058, 23.7092, -45.6526, -19.0266
1.368, -1, 8.79725, 23.9278, 20.0238, 23.7952, -45.552, -19.0909
1.372, -1, 8.85114, 23.88, 20.0418, 23.881, -45.4516, -19.1551
1.376, -1, 8.90494, 23.8322, 20.0598, 23.9666, -45.3513, -19.2192
1.38, -1, 8.95866, 23.7845, 20.0777, 24.0521, -45.2511, -19.2833
1.384, -1, 9.01229, 23.7369, 20.0956, 24.1375, -45.1511, -19.3472
1.388, -1, 9.06584, 23.6894, 20.1135, 24.2228, -45.0513, -19.411
1.392, -1, 9.11932, 23.6419, 20.1314, 24.3079, -44.9516, -19.4747
1.396, -1, 9.1727, 23.5945, 20.1492, 24.393, -44.8521, -19.5384
1.4, -1, 9.22601, 23.5472, 20.167, 24.4778, -44.7527, -19.6019
1.404, -1, 9.27924, 23.4999, 20.1848, 24.5626, -44.6535, -19.6653
1.408, -1, 9.33239, 23.4527, 20.2025, 24.6472, -44.5544, -19.7287
1.412, -1, 9.38546, 23.4056, 20.2202, 24.7317, -44.4554, -19.7919
1.416, -1, 9.43844, 23.3585, 20.2379, 24.8161, -44.3567, -19.8551
1.42, -1, 9.49135, 23.3116, 20.2556, 24.9003, -44.258, -19.9181
1.424, -1, 9.54418, 23.2647, 20.2732, 24.9844, -44.1595, -19.9811
1.428, -1, 9.59693, 23.2178, 20.2908, 25.0684, -44.0612, -20.044
1.432, -1, 9.6496, 23.1711, 20.3084, 25.1523, -43.963, -20.1067
1.436, -1, 9.7022, 23.1244, 20.326, 25.236, -43.865, -20.1694
1.44, -1, 9.75472, 23.0777, 20.3435, 25.3196, -43.767, -20.232
1.444, -1, 9.80716, 23.0312, 20.361, 25.4031, -43.6693, -20.2945
1.448, -1, 9.85952, 22.9847, 20.3785, 25.4865, -43.5717, -20.3569
1.452, -1, 9.91181, 22.9383, 20.396, 25.5697, -43.4742, -20.4192
1.456, -1, 9.96403, 22.8919, 20.4134, 25.6528, -43.3769, -20.4814
1.46, -1, 10.0162, 22.8456, 20.4308, 25.7358, -43.2797, -20.5436
1.464, -1, 10.0682, 22.7994, 20.4482, 25.8187, -43.1826, -20.6056
1.468, -1, 10.1202, 22.7533, 20.4656, 25.9015, -43.0857, -20.6676
1.472, -1, 10.1721, 22.7072, 20.4829, 25.9841, -42.989, -20.7294
1.476, -1, 10.224, 22.6612, 20.5002, 26.0666, -42.8923, -20.7912
1.48, -1, 10.2757, 22.6152, 20.5175, 26.149, -42.7958, -20.8529
1.484, -1, 10.3274, 22.5693, 20.5348, 26.2313, -42.6995, -20.9145
1.488, -1, 10.379, 22.5235, 20.552, 26.3135, -42.6033, -20.976
1.492, -1, 10.4306, 22.4777, 20.5692, 26.3956, -42.5072, -21.0374
1.496, -1, 10.482, 22.432, 20.5864, 26.4775, -42.4113, -21.0987
1.5, -1, 10.5334, 22.3864, 20.6035, 26.5593, -42.3154, -21.16
1.504, -1, 10.5848, 22.3408, 20.6207, 26.641, -42.2198, -21.2212
1.508, -1, 10.636, 22.2953, 20.6378, 26.7226, -42.1242, -21.2822
1.512, -1, 10.6872, 22.2499, 20.6549, 26.8041, -42.0288, -21.3432
1.516, -1, 10.7383, 22.2045, 20.6719, 26.8855, -41.9336, -21.4041
1.52, -1, 10.7893, 22.1592, 20.689, 26.9667, -41.8384, -21.4649
1.524, -1, 10.8403, 22.114, 20.706, 27.0479, -41.7434, -21.5257
1.528, -1, 10.8912, 22.0688, 20.723, 27.1289, -41.6485, -21.5863
1.532, -1, 10.942, 22.0237, 20.74, 27.2098, -41.5538, -21.6469
1.536, -1, 10.9928, 21.9786, 20.7569, 27.2906, -41.4592, -21.7074
1.54, -1, 11.0435, 21.9336, 20.7738, 27.3713, -41.3647, -21.7678
1.544, -1, 11.0941, 21.8887, 20.7908, 27.4519, -41.2703, -21.8281
1.548, -1, 11.1446, 21.8438, 20.8076, 27.5324, -41.1761, -21.8884
1.552, -1, 11.1951, 21.799, 20.8245, 27.6127, -41.082, -21.9485
1.556, -1, 11.2455, 21.7542, 20.8413, 27.693, -40.988, -22.0086
1.56, -1, 11.2959, 21.7095, 20.8581, 27.7732, -40.8941, -22.0686
1.564, -1, 11.3462, 21.6649, 20.8749, 27.8532, -40.8004, -22.1285
1.568, -1, 11.3964, 21.6203, 20.8917, 27.9331, -40.7068, -22.1884
1.572, -1, 11.4465, 21.5758, 20.9084, 28.013, -40.6133, -22.2481
1.576, -1, 11.4966, 21.5313, 20.9251, 28.0927, -40.52, -22.3078
1.58, -1, 11.5466, 21.4869, 20.9418, 28.1723, -40.4268, -22.3674
1.584, -1, 11.5965, 21.4426, 20.9585, 28.2518, -40.3336, -22.4269
1.588, -1, 11.6464, 21.3983, 20.9752, 28.3313, -40.2407, -22.4864
1.592, -1, 11.6962, 21.3541, 20.9918, 28.4106, -40.1478, -22.5457
1.596, -1, 11.746, 21.3099, 21.0084, 28.4898, -40.0551, -22.605
1.6, -1, 11.7957, 21.2658, 21.025, 28.5689, -39.9624, -22.6642
1.604, -1, 11.8453, 21.2217, 21.0416, 28.6479, -39.8699, -22.7234
1.608, -1, 11.8948, 21.1778, 21.0581, 28.7268, -39.7776, -22.7824
1.612, -1, 11.9443, 21.1338, 21.0747, 28.8055, -39.6853, -22.8414
1.616, -1, 11.9938, 21.0899, 21.0912, 28.8842, -39.5932, -22.9003
1.62, -1, 12.0431, 21.0461, 21.1076, 28.9628, -39.5011, -22.9591
1.624, -1, 12.0924, 21.0023, 21.1241, 29.0413, -39.4092, -23.0179
1.628, -1, 12.1417, 20.9586, 21.1405, 29.1197, -39.3174, -23.0765
1.632, -1, 12.1908, 20.915, 21.157, 29.198, -39.2258, -23.1352
1.636, -1, 12.2399, 20.8714, 21.1734, 29.2762, -39.1342, -23.1937
1.64, -1, 12.289, 20.8278, 21.1897, 29.3543, -39.0428, -23.2521
1.644, -1, 12.338, 20.7843, 21.2061, 29.4323, -38.9515, -23.3105
1.648, -1, 12.3869, 20.7409, 21.2224, 29.5102, -38.8603, -23.3688
1.652, -1, 12.4358, 20.6975, 21.2388, 29.588, -38.7692, -23.4271
1.656, -1, 12.4846, 20.6542, 21.2551, 29.6657, -38.6782, -23.4852
1.66, -1, 12.5333, 20.6109, 21.2713, 29.7433, -38.5873, -23.5433
1.664, -1, 12.582, 20.5677, 21.2876, 29.8208, -38.4966, -23.6013
1.668, -1, 12.6306, 20.5245, 21.3038, 29.8982, -38.4059, -23.6593
1.672, -1, 12.6792, 20.4814, 21.32, 29.9755, -38.3154, -23.7171
1.676, -1, 12.7277, 20.4384, 21.3362, 30.0527, -38.225, -23.7749
1.68, -1, 12.7761, 20.3953, 21.3524, 30.1298, -38.1347, -23.8327
1.684, -1, 12.8245, 20.3524, 21.3686, 30.2069, -38.0445, -23.8903
1.688, -1, 12.8728, 20.3095, 21.3847, 30.2838, -37.9544, -23.9479
1.692, -1, 12.9211, 20.2666, 21.4008, 30.3606, -37.8644, -24.0054
1.696, -1, 12.9693, 20.2238, 21.4169, 30.4374, -37.7746, -24.0629
1.7, -1, 13.0174, 20.1811, 21.433, 30.514, -37.6848, -24.1203
1.704, -1, 13.0655, 20.1384, 21.449, 30.5906, -37.5951, -24.1776
1.708, -1, 13.1136, 20.0958, 21.4651, 30.6671, -37.5056, -24.2348
1.712, -1, 13.1615, 20.0532, 21.4811, 30.7435, -37.4162, -24.292
1.716, -1, 13.2094, 20.0106, 21.4971, 30.8197, -37.3269, -24.3491
1.72, -1, 13.2573, 19.9681, 21.5131, 30.8959, -37.2376, -24.4061
1.724, -1, 13.3051, 19.9257, 21.529, 30.972, -37.1485, -24.4631
1.728, -1, 13.3528, 19.8833, 21.545, 31.0481, -37.0595, -24.52
1.732, -1, 13.4005, 19.841, 21.5609, 31.124, -36.9706, -24.5768
1.736, -1, 13.4482, 19.7987, 21.5768, 31.1998, -36.8818, -24.6336
1.74, -1, 13.4957, 19.7565, 21.5927, 31.2756, -36.7931, -24.6903
1.744, -1, 13.5433, 19.7143, 21.6086, 31.3512, -36.7045, -24.7469
1.748, -1, 13.5907, 19.6721, 21.6244, 31.4268, -36.6161, -24.8035
1.752, -1, 13.6381, 19.63, 21.6402, 31.5023, -36.5277, -24.86
1.756, -1, 13.6855, 19.588, 21.6561, 31.5776, -36.4394, -24.9164
1.76, -1, 13.7328, 19.546, 21.6719, 31.6529, -36.3512, -24.9728
1.764, -1, 13.78, 19.5041, 21.6876, 31.7282, -36.2632, -25.0291
1.768, -1, 13.8272, 19.4622, 21.7034, 31.8033, -36.1752, -25.0853
1.772, -1, 13.8743, 19.4203, 21.7191, 31.8783, -36.0873, -25.1415
1.776, -1, 13.9214, 19.3785, 21.7348, 31.9533, -35.9996, -25.1976
1.78, -1, 13.9684, 19.3368, 21.7505, 32.0281, -35.9119, -25.2536
1.784, -1, 14.0154, 19.2951, 21.7662, 32.1029, -35.8243, -25.3096
1.788, -1, 14.0623, 19.2534, 21.7819, 32.1776, -35.7369, -25.3655
1.792, -1, 14.1092, 19.2118, 21.7975, 32.2522, -35.6495, -25.4214
1.796, -1, 14.156, 19.1703, 21.8132, 32.3268, -35.5622, -25.4772
1.8, -1, 14.2027, 19.1288, 21.8288, 32.4012, -35.4751, -25.5329
1.804, -1, 14.2494, 19.0873, 21.8444, 32.4756, -35.388, -25.5886
1.808, -1, 14.2961, 19.0459, 21.86, 32.5498, -35.301, -25.6442
1.812, -1, 14.3427, 19.0045, 21.8755, 32.624, -35.2142, -25.6997
1.816, -1, 14.3892, 18.9632, 21.8911, 32.6981, -35.1274, -25.7552
1.82, -1, 14.4357, 18.9219, 21.9066, 32.7722, -35.0407, -25.8106
1.824, -1, 14.4822, 18.8807, 21.9221, 32.8461, -34.9541, -25.8659
1.828, -1, 14.5286, 18.8395, 21.9376, 32.92, -34.8676, -25.9212
1.832, -1, 14.5749, 18.7983, 21.9531, 32.9938, -34.7813, -25.9764
1.836, -1, 14.6212, 18.7572, 21.9685, 33.0675, -34.695, -26.0316
1.84, -1, 14.6674, 18.7162, 21.984, 33.1411, -34.6088, -26.0867
1.844, -1, 14.7136, 18.6752, 21.9994, 33.2146, -34.5227, -26.1418
1.848, -1, 14.7598, 18.6342, 22.0148, 33.2881, -34.4367, -26.1967
1.852, -1, 14.8058, 18.5933, 22.0302, 33.3614, -34.3507, -26.2517
1.856, -1, 14.8519, 18.5524, 22.0456, 33.4347, -34.2649, -26.3065
1.86, -1, 14.8979, 18.5116, 22.0609, 33.5079, -34.1792, -26.3613
1.864, -1, 14.9438, 18.4708, 22.0762, 33.5811, -34.0936, -26.4161
1.868, -1, 14.9897, 18.4301, 22.0916, 33.6541, -34.008, -26.4708
1.872, -1, 15.0355, 18.3894, 22.1069, 33.7271, -33.9226, -26.5254
1.876, -1, 15.0813, 18.3487, 22.1222, 33.8, -33.8372, -26.58
1.88, -1, 15.127, 18.3081, 22.1374, 33.8728, -33.7519, -26.6345
1.884, -1, 15.1727, 18.2676, 22.1527, 33.9456, -33.6668, -26.6889
1.888, -1, 15.2184, 18.227, 22.1679, 34.0182, -33.5817, -26.7433
1.892, -1, 15.264, 18.1866, 22.1832, 34.0908, -33.4967, -26.7976
1.896, -1, 15.3095, 18.1461, 22.1984, 34.1633, -33.4118, -26.8519
1.9, -1, 15.355, 18.1057, 22.2136, 34.2358, -33.3269, -26.9062
1.904, -1, 15.4004, 18.0654, 22.2287, 34.3081, -33.2422, -26.9603
1.908, -1, 15.4458, 18.0251, 22.2439, 34.3804, -33.1576, -27.0144
1.912, -1, 15.4912, 17.9848, 22.259, 34.4526, -33.073, -27.0685
1.916, -1, 15.5365, 17.9446, 22.2742, 34.5248, -32.9886, -27.1225
1.92, -1, 15.5818, 17.9044, 22.2893, 34.5968, -32.9042, -27.1764
1.924, -1, 15.627, 17.8643, 22.3044, 34.6688, -32.8199, -27.2303
1.928, -1, 15.6721, 17.8242, 22.3195, 34.7407, -32.7357, -27.2841
1.932, -1, 15.7173, 17.7841, 22.3345, 34.8126, -32.6516, -27.3379
1.936, -1, 15.7623, 17.7441, 22.3496, 34.8843, -32.5676, -27.3916
1.94, -1, 15.8073, 17.7041, 22.3646, 34.956, -32.4836, -27.4453
1.944, -1, 15.8523, 17.6642, 22.3796, 35.0276, -32.3997, -27.4989
1.948, -1, 15.8973, 17.6243, 22.3946, 35.0992, -32.316, -27.5524
1.952, -1, 15.9422, 17.5844, 22.4096, 35.1707, -32.2323, -27.6059
1.956, -1, 15.987, 17.5446, 22.4246, 35.2421, -32.1487, -27.6594
1.96, -1, 16.0318, 17.5048, 22.4396, 35.3134, -32.0652, -27.7128
1.964, -1, 16.0765, 17.4651, 22.4545, 35.3846, -31.9817, -27.7661
1.968, -1, 16.1212, 17.4254, 22.4694, 35.4558, -31.8984, -27.8194
1.972, -1, 16.1659, 17.3858, 22.4844, 35.5269, -31.8151, -27.8726
1.976, -1, 16.2105, 17.3461, 22.4993, 35.598, -31.7319, -27.9258
1.98, -1, 16.2551, 17.3066, 22.5141, 35.6689, -31.6488, -27.9789
1.984, -1, 16.2996, 17.267, 22.529, 35.7398, -31.5658, -28.032
1.988, -1, 16.3441, 17.2275, 22.5439, 35.8107, -31.4829, -28.085
1.992, -1, 16.3886, 17.1881, 22.5587, 35.8814, -31.4, -28.138
1.996, -1, 16.433, 17.1487, 22.5735, 35.9521, -31.3173, -28.1909
1.999, -1, 16.4773, 17.1093, 22.5883, 36.0228, -31.2346, -28.2438
2.004, -1, 16.5216, 17.0699, 22.6031, 36.0933, -31.1519, -28.2966
2.008, -1, 16.5659, 17.0306, 22.6179, 36.1638, -31.0694, -28.3493
2.012, -1, 16.6101, 16.9914, 22.6327, 36.2342, -30.987, -28.4021
2.015, -1, 16.6543, 16.9521, 22.6474, 36.3046, -30.9046, -28.4547
2.019, -1, 16.6984, 16.9129, 22.6622, 36.3748, -30.8223, -28.5073
2.024, -1, 16.7425, 16.8738, 22.6769, 36.445, -30.7401, -28.5599
2.028, -1, 16.7866, 16.8347, 22.6916, 36.5152, -30.658, -28.6124
2.031, -1, 16.8306, 16.7956, 22.7063, 36.5853, -30.5759, -28.6648
2.036, -1, 16.8746, 16.7566, 22.721, 36.6553, -30.4939, -28.7172
2.04, -1, 16.9185, 16.7176, 22.7357, 36.7252, -30.412, -28.7696
2.044, -1, 16.9624, 16.6786, 22.7503, 36.7951, -30.3302, -28.8219
2.048, -1, 17.0062, 16.6397, 22.765, 36.8649, -30.2485, -28.8742
2.051, -1, 17.05, 16.6008, 22.7796, 36.9346, -30.1668, -28.9264
2.055, -1, 17.0938, 16.5619, 22.7942, 37.0043, -30.0852, -28.9785
2.06, -1, 17.1375, 16.5231, 22.8088, 37.0739, -30.0037, -29.0306
2.064, -1, 17.1811, 16.4844, 22.8234, 37.1435, -29.9223, -29.0827
2.068, -1, 17.2244, 16.4458, 22.8379, 37.2129, -29.841, -29.1347
2.071, -1, 17.2671, 16.4077, 22.8523, 37.2823, -29.7597, -29.1866
2.076, -1, 17.3088, 16.3701, 22.8666, 37.3515, -29.6787, -29.2384
2.08, -1, 17.3495, 16.3335, 22.8807, 37.4204, -29.5981, -29.29
2.084, -1, 17.3888, 16.2979, 22.8945, 37.4888, -29.518, -29.3412
2.087, -1, 17.4267, 16.2635, 22.9079, 37.5564, -29.4389, -29.3918
2.092, -1, 17.4632, 16.2306, 22.921, 37.6229, -29.3611, -29.4417
2.096, -1, 17.4983, 16.1992, 22.9337, 37.6879, -29.2851, -29.4903
2.1, -1, 17.5321, 16.1694, 22.9459, 37.7508, -29.2115, -29.5374
2.104, -1, 17.5644, 16.1411, 22.9576, 37.8112, -29.1408, -29.5827
2.107, -1, 17.5951, 16.1145, 22.9686, 37.8686, -29.0737, -29.6257
2.111, -1, 17.624, 16.0896, 22.9791, 37.9226, -29.0106, -29.6661
2.116, -1, 17.6513, 16.0662, 22.9888, 37.9726, -28.9521, -29.7035
2.12, -1, 17.6768, 16.044, 22.9978, 38.0183, -28.8986, -29.7378
2.124, -1, 17.7009, 16.023, 23.0061, 38.0595, -28.8504, -29.7686
2.127, -1, 17.7234, 16.0029, 23.0136, 38.0959, -28.8078, -29.7958
2.132, -1, 17.7446, 15.9838, 23.0205, 38.1275, -28.7707, -29.8195
2.136, -1, 17.7642, 15.9657, 23.0267, 38.1546, -28.739, -29.8397
2.14, -1, 17.7823, 15.9489, 23.0321, 38.1772, -28.7125, -29.8566
2.143, -1, 17.7986, 15.9337, 23.0368, 38.1957, -28.6907, -29.8705
2.148, -1, 17.8131, 15.9202, 23.0409, 38.2106, -28.6732, -29.8816
2.152, -1, 17.8259, 15.9085, 23.0443, 38.2223, -28.6594, -29.8904
2.156, -1, 17.8371, 15.8987, 23.0471, 38.2313, -28.6488, -29.8971
2.16, -1, 17.8467, 15.8905, 23.0494, 38.2381, -28.6409, -29.9021
2.163, -1, 17.855, 15.8838, 23.0513, 38.243, -28.635, -29.9058
2.168, -1, 17.8619, 15.8785, 23.0527, 38.2465, -28.6308, -29.9084
2.172, -1, 17.8674, 15.8744, 23.0538, 38.249, -28.6279, -29.9103
2.176, 2, 17.8716, 15.8714, 23.0546, 38.2507, -28.6258, -29.9115
2.179, 2, 17.8747, 15.8692, 23.0552, 38.2519, -28.6245, -29.9124
2.184, 2, 17.8769, 15.8677, 23.0556, 38.2527, -28.6235, -29.913
2.188, 2, 17.8784, 15.8667, 23.0558, 38.2532, -28.6229, -29.9134
2.192, 2, 17.8794, 15.866, 23.056, 38.2536, -28.6224, -29.9137
2.196, 2, 17.8801, 15.8655, 23.0561, 38.2538, -28.6221, -29.9138
2.199, 2, 17.8806, 15.8652, 23.0562, 38.254, -28.6219, -29.914
2.204, 2, 17.8809, 15.865, 23.0563, 38.2541, -28.6218, -29.9141
2.208, 2, 17.8811, 15.8649, 23.0563, 38.2542, -28.6217, -29.9141
2.212, 2, 17.8813, 15.8648, 23.0563, 38.2543, -28.6217, -29.9141
2.216, 2, 17.8814, 15.8647, 23.0564, 38.2543, -28.6216, -29.9142
2.219, 2, 17.8814, 15.8646, 23.0564, 38.2543, -28.6216, -29.9142
2.224, 2, 17.8815, 15.8646, 23.0564, 38.2543, -28.6216, -29.9142
2.228, 2, 17.8815, 15.8646, 23.0564, 38.2543, -28.6215, -29.9142
2.232, 2, 17.8815, 15.8646, 23.0564, 38.2543, -28.6215, -29.9142
2.235, 2, 17.8815, 15.8646, 23.0564, 38.2544, -28.6215, -29.9142
2.24, 2, 17.8815, 15.8646, 23.0564, 38.2544, -28.6215, -29.9142
2.244, 2, 17.8816, 15.8646, 23.0564, 38.2544, -28.6215, -29.9142
2.248, 2, 17.8816, 15.8646, 23.0564, 38.2544, -28.6215, -29.9142
2.252, 2, 17.8816, 15.8646, 23.0564, 38.2544, -28.6215, -29.9142
2.255, 2, 17.8816, 15.8646, 23.0564, 38.2544, -28.6215, -29.9142
2.259, 2, 17.8816, 15.8646, 23.0564, 38.2544, -28.6215, -29.9142
2.264, 2, 17.8816, 15.8645, 23.0564, 38.2544, -28.6215, -29.9142
2.268, 2, 17.8816, 15.8645, 23.0564, 38.2544, -28.6215, -29.9142
2.272, 2, 17.8816, 15.8645, 23.0564, 38.2544, -28.6215, -29.9142
2.275, 2, 17.8816, 15.8645, 23.0564, 38.2544, -28.6215, -29.9142
2.28, 2, 17.8816, 15.8645, 23.0564, 38.2544, -28.6215, -29.9142
2.284, 2, 17.8816, 15.8645, 23.0564, 38.2544, -28.6215, -29.9142
2.288, 2, 17.8816, 15.8645, 23.0564, 38.2544, -28.6215, -29.9142
2.291, 2, 17.8816, 15.8645, 23.0564, 38.2544, -28.6215, -29.9142
2.296, 2, 17.8816, 15.8645, 23.0564, 38.2544, -28.6215, -29.9142
2.3, 2, 17.8816, 15.8645, 23.0564, 38.2544, -28.6215, -29.9142
2.304, 2, 17.8816, 15.8645, 23.0564, 38.2544, -28.6215, -29.9142
2.308, 2, 17.8816, 15.8645, 23.0564, 38.2544, -28.6215, -29.9142
2.311, 2, 17.8816, 15.8645, 23.0564, 38.2544, -28.6215, -29.9142
2.316, 2, 17.8816, 15.8645, 23.0564, 38.2544, -28.6215, -29.9142
2.32, 2, 17.8816, 15.8645, 23.0564, 38.2544, -28.6215, -29.9142
2.324, 2, 17.8816, 15.8645, 23.0564, 38.2544, -28.6215, -29.9142
2.328, 2, 17.8816, 15.8645, 23.0564, 38.2544, -28.6215, -29.9142
2.331, 2, 17.8816, 15.8645, 23.0564, 38.2544, -28.6215, -29.9142
2.336, 2, 17.8816, 15.8645, 23.0564, 38.2544, -28.6215, -29.9142
2.34, 2, 17.8816, 15.8645, 23.0564, 38.2544, -28.6215, -29.9142
2.344, 2, 17.8816, 15.8645, 23.0564, 38.2544, -28.6215, -29.9142
2.347, 2, 17.8816, 15.8645, 23.0564, 38.2544, -28.6215, -29.9142
2.352, 2, 17.8816, 15.8645, 23.0564, 38.2544, -28.6215, -29.9142
2.356, 2, 17.8816, 15.8645, 23.0564, 38.2544, -28.6215, -29.9142
2.36, 2, 17.8816, 15.8645, 23.0564, 38.2544, -28.6215, -29.9142
2.364, 2, 17.8816, 15.8645, 23.0564, 38.2544, -28.6215, -29.9142
2.367, 2, 17.8816, 15.8645, 23.0564, 38.2544, -28.6215, -29.9142
2.372, 2, 17.8816, 15.8645, 23.0564, 38.2544, -28.6215, -29.9142
2.376, 2, 17.8816, 15.8645, 23.0564, 38.2544, -28.6215, -29.9142
2.38, 2, 17.8816, 15.8645, 23.0564, 38.2544, -28.6215, -29.9142
2.383, 2, 17.8816, 15.8645, 23.0564, 38.2544, -28.6215, -29.9142
2.388, 2, 17.8816, 15.8645, 23.0564, 38.2544, -28.6215, -29.9142
2.392, 2, 17.8816, 15.8645, 23.0564, 38.2544, -28.6215, -29.9142
2.396, 2, 17.8816, 15.8645, 23.0564, 38.2544, -28.6215, -29.9142
2.4, 2, 17.8816, 15.8645, 23.0564, 38.2544, -28.6215, -29.9142
2.403, 2, 17.8816, 15.8645, 23.0564, 38.2544, -28.6215, -29.9142
2.408, 2, 17.8816, 15.8645, 23.0564, 38.2544, -28.6215, -29.9142
2.412, 2, 17.8816, 15.8645, 23.0564, 38.2544, -28.6215, -29.9142
2.416, 2, 17.8816, 15.8645, 23.0564, 38.2544, -28.6215, -29.9142
2.42, 2, 17.8816, 15.8645, 23.0564, 38.2544, -28.6215, -29.9142
2.423, 2, 17.8816, 15.8645, 23.0564, 38.2544, -28.6215, -29.9142
2.428, 2, 17.8816, 15.8645, 23.0564, 38.2544, -28.6215, -29.9142
2.432, 2, 17.8816, 15.8645, 23.0564, 38.2544, -28.6215, -29.9142
2.436, 2, 17.8816, 15.8645, 23.0564, 38.2544, -28.6215, -29.9142
2.439, 2, 17.8816, 15.8645, 23.0564, 38.2544, -28.6215, -29.9142
2.444, 2, 17.8816, 15.8645, 23.0564, 38.2544, -28.6215, -29.9142
2.448, 2, 17.8816, 15.8645, 23.0564, 38.2544, -28.6215, -29.9142
2.452, 2, 17.8816, 15.8645, 23.0564, 38.2544, -28.6215, -29.9142
2.456, 2, 17.8816, 15.8645, 23.0564, 38.2544, -28.6215, -29.9142
2.459, 2, 17.8816, 15.8645, 23.0564, 38.2544, -28.6215, -29.9142
2.464, 2, 17.8816, 15.8645, 23.0564, 38.2544, -28.6215, -29.9142
2.468, 2, 17.8816, 15.8645, 23.0564, 38.2544, -28.6215, -29.9142
2.472, 2, 17.8816, 15.8645, 23.0564, 38.2544, -28.6215, -29.9142
2.476, 2, 17.8816, 15.8645, 23.0564, 38.2544, -28.6215, -29.9142
2.479, 2, 17.8816, 15.8645, 23.0564, 38.2544, -28.6215, -29.9142
2.484, 2, 17.8816, 15.8645, 23.0564, 38.2544, -28.6215, -29.9142
2.488, 2, 17.8816, 15.8645, 23.0564, 38.2544, -28.6215, -29.9142
2.492, 2, 17.8816, 15.8645, 23.0564, 38.2544, -28.6215, -29.9142
2.495, 2, 17.8816, 15.8645, 23.0564, 38.2544, -28.6215, -29.9142
2.5, 2, 17.8816, 15.8645, 23.0564, 38.2544, -28.6215, -29.9142
2.504, 2, 17.8816, 15.8645, 23.0564, 38.2544, -28.6215, -29.9142
2.508, 2, 17.8816, 15.8645, 23.0564, 38.2544, -28.6215, -29.9142
2.512, 2, 17.8816, 15.8645, 23.0564, 38.2544, -28.6215, -29.9142
2.515, 2, 17.8816, 15.8645, 23.0564, 38.2544, -28.6215, -29.9142
2.52, 2, 17.8816, 15.8645, 23.0564, 38.2544, -28.6215, -29.9142
2.524, 2, 17.8816, 15.8645, 23.0564, 38.2544, -28.6215, -29.9142
2.528, 2, 17.8816, 15.8645, 23.0564, 38.2544, -28.6215, -29.9142
2.531, 2, 17.8816, 15.8645, 23.0564, 38.2544, -28.6215, -29.9142
2.536, 2, 17.8816, 15.8645, 23.0564, 38.2544, -28.6215, -29.9142
2.54, 2, 17.8816, 15.8645, 23.0564, 38.2544, -28.6215, -29.9142
2.544, 2, 17.8816, 15.8645, 23.0564, 38.2544, -28.6215, -29.9142
2.548, 2, 17.8816, 15.8645, 23.0564, 38.2544, -28.6215, -29.9142
2.551, 2, 17.8816, 15.8645, 23.0564, 38.2544, -28.6215, -29.9142
2.556, 2, 17.8816, 15.8645, 23.0564, 38.2544, -28.6215, -29.9142
2.56, 2, 17.8816, 15.8645, 23.0564, 38.2544, -28.6215, -29.9142
2.564, 2, 17.8816, 15.8645, 23.0564, 38.2544, -28.6215, -29.9142
2.568, 2, 17.8816, 15.8645, 23.0564, 38.2544, -28.6215, -29.9142
2.571, 2, 17.8816, 15.8645, 23.0564, 38.2544, -28.6215, -29.9142
2.576, 2, 17.8816, 15.8645, 23.0564, 38.2544, -28.6215, -29.9142
2.58, 2, 17.8816, 15.8645, 23.0564, 38.2544, -28.6215, -29.9142
2.584, 2, 17.8816, 15.8645, 23.0564, 38.2544, -28.6215, -29.9142
2.587, 2, 17.8816, 15.8645, 23.0564, 38.2544, -28.6215, -29.9142
2.592, 2, 17.8816, 15.8645, 23.0564, 38.2544, -28.6215, -29.9142
2.596, 2, 17.8816, 15.8645, 23.0564, 38.2544, -28.6215, -29.9142
2.6, 2, 17.8816, 15.8645, 23.0564, 38.2544, -28.6215, -29.9142
2.604, 2, 17.8816, 15.8645, 23.0564, 38.2544, -28.6215, -29.9142
2.607, 2, 17.8816, 15.8645, 23.0564, 38.2544, -28.6215, -29.9142
2.612, 2, 17.8816, 15.8645, 23.0564, 38.2544, -28.6215, -29.9142
2.616, 2, 17.8816, 15.8645, 23.0564, 38.2544, -28.6215, -29.9142
2.62, 2, 17.8816, 15.8645, 23.0564, 38.2544, -28.6215, -29.9142
2.624, 2, 17.8816, 15.8645, 23.0564, 38.2544, -28.6215, -29.9142
2.627, 2, 17.8816, 15.8645, 23.0564, 38.2544, -28.6215, -29.9142
2.632, 2, 17.8816, 15.8645, 23.0564, 38.2544, -28.6215, -29.9142
2.636, 2, 17.8816, 15.8645, 23.0564, 38.2544, -28.6215, -29.9142
2.64, 2, 17.8816, 15.8645, 23.0564, 38.2544, -28.6215, -29.9142
2.643, 2, 17.8816, 15.8645, 23.0564, 38.2544, -28.6215, -29.9142
2.648, 2, 17.8816, 15.8645, 23.0564, 38.2544, -28.6215, -29.9142
2.652, 2, 17.8816, 15.8645, 23.0564, 38.2544, -28.6215, -29.9142
2.656, 2, 17.8816, 15.8645, 23.0564, 38.2544, -28.6215, -29.9142
2.66, 2, 17.8816, 15.8645, 23.0564, 38.2544, -28.6215, -29.9142
2.663, 2, 17.8816, 15.8645, 23.0564, 38.2544, -28.6215, -29.9142
2.668, 2, 17.8816, 15.8645, 23.0564, 38.2544, -28.6215, -29.9142
2.672, 2, 17.8816, 15.8645, 23.0564, 38.2544, -28.6215, -29.9142
2.676, 2, 17.8816, 15.8645, 23.0564, 38.2544, -28.6215, -29.9142
2.679, 2, 17.8816, 15.8645, 23.0564, 38.2544, -28.6215, -29.9142
2.684, 2, 17.8816, 15.8645, 23.0564, 38.2544, -28.6215, -29.9142
2.688, 2, 17.8816, 15.8645, 23.0564, 38.2544, -28.6215, -29.9142
2.692, 2, 17.8816, 15.8645, 23.0564, 38.2544, -28.6215, -29.9142
2.696, 2, 17.8816, 15.8645, 23.0564, 38.2544, -28.6215, -29.9142
2.699, 2, 17.8816, 15.8645, 23.0564, 38.2544, -28.6215, -29.9142
2.704, 2, 17.8816, 15.8645, 23.0564, 38.2544, -28.6215, -29.9142
2.708, 2, 17.8816, 15.8645, 23.0564, 38.2544, -28.6215, -29.9142
2.712, 2, 17.8816, 15.8645, 23.0564, 38.2544, -28.6215, -29.9142
2.716, 2, 17.8816, 15.8645, 23.0564, 38.2544, -28.6215, -29.9142
2.719, 2, 17.8816, 15.8645, 23.0564, 38.2544, -28.6215, -29.9142
2.724, 2, 17.8816, 15.8645, 23.0564, 38.2544, -28.6215, -29.9142
2.728, 2, 17.8816, 15.8645, 23.0564, 38.2544, -28.6215, -29.9142
2.732, 2, 17.8816, 15.8645, 23.0564, 38.2544, -28.6215, -29.9142
2.735, 2, 17.8816, 15.8645, 23.0564, 38.2544, -28.6215, -29.9142
2.74, 2, 17.8816, 15.8645, 23.0564, 38.2544, -28.6215, -29.9142
2.744, 2, 17.8816, 15.8645, 23.0564, 38.2544, -28.6215, -29.9142
2.748, 2, 17.8816, 15.8645, 23.0564, 38.2544, -28.6215, -29.9142
2.752, 2, 17.8816, 15.8645, 23.0564, 38.2544, -28.6215, -29.9142
2.755, 2, 17.8816, 15.8645, 23.0564, 38.2544, -28.6215, -29.9142
2.76, 2, 17.8816, 15.8645, 23.0564, 38.2544, -28.6215, -29.9142
2.764, 2, 17.8816, 15.8645, 23.0564, 38.2544, -28.6215, -29.9142
2.768, 2, 17.8816, 15.8645, 23.0564, 38.2544, -28.6215, -29.9142
2.772, 2, 17.8816, 15.8645, 23.0564, 38.2544, -28.6215, -29.9142
2.775, 2, 17.8816, 15.8645, 23.0564, 38.2544, -28.6215, -29.9142
2.78, 2, 17.8816, 15.8645, 23.0564, 38.2544, -28.6215, -29.9142
2.784, 2, 17.8816, 15.8645, 23.0564, 38.2544, -28.6215, -29.9142
2.788, 2, 17.8816, 15.8645, 23.0564, 38.2544, -28.6215, -29.9142
2.791, 2, 17.8816, 15.8645, 23.0564, 38.2544, -28.6215, -29.9142
2.796, 2, 17.8816, 15.8645, 23.0564, 38.2544, -28.6215, -29.9142
2.8, 2, 17.8816, 15.8645, 23.0564, 38.2544, -28.6215, -29.9142
2.804, 2, 17.8816, 15.8645, 23.0564, 38.2544, -28.6215, -29.9142
2.808, 2, 17.8816, 15.8645, 23.0564, 38.2544, -28.6215, -29.9142
2.811, 2, 17.8816, 15.8645, 23.0564, 38.2544, -28.6215, -29.9142
2.816, 2, 17.8816, 15.8645, 23.0564, 38.2544, -28.6215, -29.9142
2.82, 2, 17.8816, 15.8645, 23.0564, 38.2544, -28.6215, -29.9142
2.824, 2, 17.8816, 15.8645, 23.0564, 38.2544, -28.6215, -29.9142
2.828, 2, 17.8816, 15.8645, 23.0564, 38.2544, -28.6215, -29.9142
2.831, 2, 17.8816, 15.8645, 23.0564, 38.2544, -28.6215, -29.9142
2.836, 2, 17.8816, 15.8645, 23.0564, 38.2544, -28.6215, -29.9142
2.84, 2, 17.8816, 15.8645, 23.0564, 38.2544, -28.6215, -29.9142
2.844, 2, 17.8816, 15.8645, 23.0564, 38.2544, -28.6215, -29.9142
2.847, 2, 17.8816, 15.8645, 23.0564, 38.2544, -28.6215, -29.9142
2.852, 2, 17.8816, 15.8645, 23.0564, 38.2544, -28.6215, -29.9142
2.856, 2, 17.8816, 15.8645, 23.0564, 38.2544, -28.6215, -29.9142
2.86, 2, 17.8816, 15.8645, 23.0564, 38.2544, -28.6215, -29.9142
2.864, 2, 17.8816, 15.8645, 23.0564, 38.2544, -28.6215, -29.9142
2.867, 2, 17.8816, 15.8645, 23.0564, 38.2544, -28.6215, -29.9142
2.872, 2, 17.8816, 15.8645, 23.0564, 38.2544, -28.6215, -29.9142
2.876, 2, 17.8816, 15.8645, 23.0564, 38.2544, -28.6215, -29.9142
2.88, 2, 17.8816, 15.8645, 23.0564, 38.2544, -28.6215, -29.9142
2.883, 2, 17.8816, 15.8645, 23.0564, 38.2544, -28.6215, -29.9142
2.888, 2, 17.8816, 15.8645, 23.0564, 38.2544, -28.6215, -29.9142
2.892, 2, 17.8816, 15.8645, 23.0564, 38.2544, -28.6215, -29.9142
2.896, 2, 17.8816, 15.8645, 23.0564, 38.2544, -28.6215, -29.9142
2.9, 2, 17.8816, 15.8645, 23.0564, 38.2544, -28.6215, -29.9142
2.903, 2, 17.8816, 15.8645, 23.0564, 38.2544, -28.6215, -29.9142
2.908, 2, 17.8816, 15.8645, 23.0564, 38.2544, -28.6215, -29.9142
2.912, 2, 17.8816, 15.8645, 23.0564, 38.2544, -28.6215, -29.9142
2.916, 2, 17.8816, 15.8645, 23.0564, 38.2544, -28.6215, -29.9142
2.92, 2, 17.8816, 15.8645, 23.0564, 38.2544, -28.6215, -29.9142
2.923, 2, 17.8816, 15.8645, 23.0564, 38.2544, -28.6215, -29.9142
2.928, 2, 17.8816, 15.8645, 23.0564, 38.2544, -28.6215, -29.9142
2.932, 2, 17.8816, 15.8645, 23.0564, 38.2544, -28.6215, -29.9142
2.936, 2, 17.8816, 15.8645, 23.0564, 38.2544, -28.6215, -29.9142
2.939, 2, 17.8816, 15.8645, 23.0564, 38.2544, -28.6215, -29.9142
2.944, 2, 17.8816, 15.8645, 23.0564, 38.2544, -28.6215, -29.9142
2.948, 2, 17.8816, 15.8645, 23.0564, 38.2544, -28.6215, -29.9142
2.952, 2, 17.8816, 15.8645, 23.0564, 38.2544, -28.6215, -29.9142
2.956, 2, 17.8816, 15.8645, 23.0564, 38.2544, -28.6215, -29.9142
2.959, 2, 17.8816, 15.8645, 23.0564, 38.2544, -28.6215, -29.9142
2.964, 2, 17.8816, 15.8645, 23.0564, 38.2544, -28.6215, -29.9142
2.968, 2, 17.8816, 15.8645, 23.0564, 38.2544, -28.6215, -29.9142
2.972, 2, 17.8816, 15.8645, 23.0564, 38.2544, -28.6215, -29.9142
2.976, 2, 17.8816, 15.8645, 23.0564, 38.2544, -28.6215, -29.9142
2.98, 2, 17.8816, 15.8645, 23.0564, 38.2544, -28.6215, -29.9142
2.984, 2, 17.8816, 15.8645, 23.0564, 38.2544, -28.6215, -29.9142
2.988, 2, 17.8816, 15.8645, 23.0564, 38.2544, -28.6215, -29.9142
2.992, 2, 17.8816, 15.8645, 23.0564, 38.2544, -28.6215, -29.9142
2.995, 2, 17.8816, 15.8645, 23.0564, 38.2544, -28.6215, -29.9142
3, 2, 17.8816, 15.8645, 23.0564, 38.2544, -28.6215, -29.9142
3.004, 2, 17.8816, 15.8645, 23.0564, 38.2544, -28.6215, -29.9142
3.008, 2, 17.8816, 15.8645, 23.0564, 38.2544, -28.6215, -29.9142
3.012, 2, 17.8816, 15.8645, 23.0564, 38.2544, -28.6215, -29.9142
3.015, 2, 17.8816, 15.8645, 23.0564, 38.2544, -28.6215, -29.9142
3.02, 2, 17.8816, 15.8645, 23.0564, 38.2544, -28.6215, -29.9142
3.024, 2, 17.8816, 15.8645, 23.0564, 38.2544, -28.6215, -29.9142
3.028, 2, 17.8816, 15.8645, 23.0564, 38.2544, -28.6215, -29.9142
3.031, 2, 17.8816, 15.8645, 23.0564, 38.2544, -28.6215, -29.9142
3.036, 2, 17.8816, 15.8645, 23.0564, 38.2544, -28.6215, -29.9142
3.04, 2, 17.8816, 15.8645, 23.0564, 38.2544, -28.6215, -29.9142
3.044, 2, 17.8816, 15.8645, 23.0564, 38.2544, -28.6215, -29.9142
3.048, 2, 17.8816, 15.8645, 23.0564, 38.2544, -28.6215, -29.9142
3.051, 2, 17.8816, 15.8645, 23.0564, 38.2544, -28.6215, -29.9142
3.056, 2, 17.8816, 15.8645, 23.0564, 38.2544, -28.6215, -29.9142
3.06, 2, 17.8816, 15.8645, 23.0564, 38.2544, -28.6215, -29.9142
3.064, 2, 17.8816, 15.8645, 23.0564, 38.2544, -28.6215, -29.9142
3.068, 2, 17.8816, 15.8645, 23.0564, 38.2544, -28.6215, -29.9142
3.071, 2, 17.8816, 15.8645, 23.0564, 38.2544, -28.6215, -29.9142
3.076, 2, 17.8816, 15.8645, 23.0564, 38.2544, -28.6215, -29.9142
3.08, 2, 17.8816, 15.8645, 23.0564, 38.2544, -28.6215, -29.9142
3.084, 2, 17.8816, 15.8645, 23.0564, 38.2544, -28.6215, -29.9142
3.087, 2, 17.8816, 15.8645, 23.0564, 38.2544, -28.6215, -29.9142
3.092, 2, 17.8816, 15.8645, 23.0564, 38.2544, -28.6215, -29.9142
3.096, 2, 17.8816, 15.8645, 23.0564, 38.2544, -28.6215, -29.9142
3.1, 2, 17.8816, 15.8645, 23.0564, 38.2544, -28.6215, -29.9142
3.104, 2, 17.8816, 15.8645, 23.0564, 38.2544, -28.6215, -29.9142
3.107, 2, 17.8816, 15.8645, 23.0564, 38.2544, -28.6215, -29.9142
3.112, 2, 17.8816, 15.8645, 23.0564, 38.2544, -28.6215, -29.9142
3.116, 2, 17.8816, 15.8645, 23.0564, 38.2544, -28.6215, -29.9142
3.12, 2, 17.8816, 15.8645, 23.0564, 38.2544, -28.6215, -29.9142
3.124, 2, 17.8816, 15.8645, 23.0564, 38.2544, -28.6215, -29.9142
3.128, 2, 17.8816, 15.8645, 23.0564, 38.2544, -28.6215, -29.9142
3.132, 2, 17.8816, 15.8645, 23.0564, 38.2544, -28.6215, -29.9142
3.136, 2, 17.8816, 15.8645, 23.0564, 38.2544, -28.6215, -29.9142
3.14, 2, 17.8816, 15.8645, 23.0564, 38.2544, -28.6215, -29.9142
3.143, 2, 17.8816, 15.8645, 23.0564, 38.2544, -28.6215, -29.9142
3.148, 2, 17.8816, 15.8645, 23.0564, 38.2544, -28.6215, -29.9142
3.152, 2, 17.8816, 15.8645, 23.0564, 38.2544, -28.6215, -29.9142
3.156, 2, 17.8816, 15.8645, 23.0564, 38.2544, -28.6215, -29.9142
3.16, 2, 17.8816, 15.8645, 23.0564, 38.2544, -28.6215, -29.9142
3.163, 2, 17.8816, 15.8645, 23.0564, 38.2544, -28.6215, -29.9142
3.168, 2, 17.8816, 15.8645, 23.0564, 38.2544, -28.6215, -29.9142
3.172, 2, 17.8816, 15.8645, 23.0564, 38.2544, -28.6215, -29.9142
3.176, 2, 17.8816, 15.8645, 23.0564, 38.2544, -28.6215, -29.9142
3.179, 2, 17.8816, 15.8645, 23.0564, 38.2544, -28.6215, -29.9142
3.184, 2, 17.8816, 15.8645, 23.0564, 38.2544, -28.6215, -29.9142
3.188, 2, 17.8816, 15.8645, 23.0564, 38.2544, -28.6215, -29.9142
3.192, 2, 17.8816, 15.8645, 23.0564, 38.2544, -28.6215, -29.9142
3.196, 2, 17.8816, 15.8645, 23.0564, 38.2544, -28.6215, -29.9142
3.199, 2, 17.8816, 15.8645, 23.0564, 38.2544, -28.6215, -29.9142
3.204, 2, 17.8816, 15.8645, 23.0564, 38.2544, -28.6215, -29.9142
3.208, 2, 17.8816, 15.8645, 23.0564, 38.2544, -28.6215, -29.9142
3.212, 2, 17.8816, 15.8645, 23.0564, 38.2544, -28.6215, -29.9142
3.216, 2, 17.8816, 15.8645, 23.0564, 38.2544, -28.6215, -29.9142
3.22, 2, 17.8816, 15.8645, 23.0564, 38.2544, -28.6215, -29.9142
3.224, 2, 17.8816, 15.8645, 23.0564, 38.2544, -28.6215, -29.9142
3.228, 2, 17.8816, 15.8645, 23.0564, 38.2544, -28.6215, -29.9142
3.232, 2, 17.8816, 15.8645, 23.0564, 38.2544, -28.6215, -29.9142
3.235, 2, 17.8816, 15.8645, 23.0564, 38.2544, -28.6215, -29.9142
3.24, 2, 17.8816, 15.8645, 23.0564, 38.2544, -28.6215, -29.9142
3.244, 2, 17.8816, 15.8645, 23.0564, 38.2544, -28.6215, -29.9142
3.248, 4, 17.8816, 15.8645, 23.0564, 38.2544, -28.6215, -29.9142
3.252, 4, 17.8816, 15.8645, 23.0564, 38.2544, -28.6215, -29.9142
3.255, 4, 17.8816, 15.8645, 23.0564, 38.2544, -28.6215, -29.9142
3.26, 4, 17.8816, 15.8645, 23.0564, 38.2544, -28.6215, -29.9142
3.264, 4, 17.8816, 15.8645, 23.0564, 38.2544, -28.6215, -29.9142
3.268, 4, 17.8816, 15.8645, 23.0564, 38.2544, -28.6215, -29.9142
3.272, 4, 17.8816, 15.8645, 23.0564, 38.2544, -28.6215, -29.9142
3.276, 4, 17.8816, 15.8645, 23.0564, 38.2544, -28.6215, -29.9142
3.28, 4, 17.8816, 15.8645, 23.0564, 38.2544, -28.6215, -29.9142
3.284, 4, 17.8816, 15.8645, 23.0564, 38.2544, -28.6215, -29.9142
3.288, 4, 17.8816, 15.8645, 23.0564, 38.2544, -28.6215, -29.9142
3.291, 4, 17.8816, 15.8645, 23.0564, 38.2544, -28.6215, -29.9142
3.296, 4, 17.8816, 15.8645, 23.0564, 38.2544, -28.6215, -29.9142
3.3, 4, 17.8816, 15.8645, 23.0564, 38.2544, -28.6215, -29.9142
3.304, 4, 17.8816, 15.8645, 23.0564, 38.2544, -28.6215, -29.9142
3.308, 4, 17.8816, 15.8645, 23.0564, 38.2544, -28.6215, -29.9142
3.312, 4, 17.8816, 15.8645, 23.0564, 38.2544, -28.6215, -29.9142
3.316, 4, 17.8816, 15.8645, 23.0564, 38.2544, -28.6215, -29.9142
3.32, 4, 17.8816, 15.8645, 23.0564, 38.2544, -28.6215, -29.9142
3.324, 4, 17.8816, 15.8645, 23.0564, 38.2544, -28.6215, -29.9142
3.328, 4, 17.8816, 15.8645, 23.0564, 38.2544, -28.6215, -29.9142
3.332, 4, 17.8816, 15.8645, 23.0564, 38.2544, -28.6215, -29.9142
3.336, 4, 17.8816, 15.8645, 23.0564, 38.2544, -28.6215, -29.9142
3.34, 4, 17.8816, 15.8645, 23.0564, 38.2544, -28.6215, -29.9142
3.344, 4, 17.8816, 15.8645, 23.0564, 38.2544, -28.6215, -29.9142
3.347, 4, 17.8816, 15.8645, 23.0564, 38.2544, -28.6215, -29.9142
3.352, 4, 17.8816, 15.8645, 23.0564, 38.2544, -28.6215, -29.9142
3.356, 4, 17.8816, 15.8645, 23.0564, 38.2544, -28.6215, -29.9142
3.36, 4, 17.8816, 15.8645, 23.0564, 38.2544, -28.6215, -29.9142
3.364, 4, 17.8816, 15.8645, 23.0564, 38.2544, -28.6215, -29.9142
3.368, 4, 17.8816, 15.8645, 23.0564, 38.2544, -28.6215, -29.9142
3.372, 4, 17.8816, 15.8645, 23.0564, 38.2544, -28.6215, -29.9142
3.376, 4, 17.8816, 15.8645, 23.0564, 38.2544, -28.6215, -29.9142
3.38, 4, 17.8815, 15.8645, 23.0564, 38.2544, -28.6215, -29.9142
3.383, 4, 17.8812, 15.8645, 23.0564, 38.2543, -28.6215, -29.9142
3.388, 4, 17.8806, 15.8645, 23.0565, 38.2542, -28.6216, -29.9141
3.392, 4, 17.8793, 15.8645, 23.0566, 38.2539, -28.6217, -29.9139
3.396, 4, 17.8773, 15.8644, 23.0569, 38.2532, -28.6219, -29.9133
3.4, 4, 17.8745, 15.8643, 23.0576, 38.2517, -28.6225, -29.912
3.403, 4, 17.8706, 15.864, 23.0586, 38.2489, -28.6235, -29.9095
3.408, 4, 17.8657, 15.8636, 23.0603, 38.2441, -28.6252, -29.9053
3.412, 4, 17.8595, 15.863, 23.063, 38.2364, -28.628, -29.8984
3.416, 4, 17.8518, 15.862, 23.067, 38.2246, -28.6323, -29.8881
3.42, 4, 17.8424, 15.8607, 23.0727, 38.2075, -28.6384, -29.873
3.424, 5, 17.831, 15.8589, 23.0804, 38.1836, -28.647, -29.8519
3.428, 5, 17.817, 15.8565, 23.0909, 38.1512, -28.6587, -29.8232
3.432, 5, 17.8002, 15.8533, 23.1045, 38.1085, -28.6742, -29.7854
3.436, 5, 17.7803, 15.8493, 23.122, 38.0534, -28.6942, -29.7368
3.439, 5, 17.7571, 15.8443, 23.1439, 37.984, -28.7195, -29.6754
3.444, 5, 17.7302, 15.8382, 23.1708, 37.8982, -28.7509, -29.5995
3.448, 5, 17.6995, 15.8309, 23.2033, 37.7942, -28.7892, -29.5075
3.452, 5, 17.6645, 15.8222, 23.242, 37.6701, -28.8351, -29.3978
3.456, 5, 17.6249, 15.8121, 23.2873, 37.5243, -28.8894, -29.2689
3.46, 5, 17.5804, 15.8005, 23.3398, 37.3556, -28.9527, -29.1198
3.464, 5, 17.5307, 15.7874, 23.3998, 37.1628, -29.0257, -28.9496
3.468, 5, 17.4756, 15.7727, 23.4674, 36.9452, -29.1088, -28.7576
3.472, 5, 17.4152, 15.7565, 23.543, 36.7023, -29.2024, -28.5434
3.476, 5, 17.3496, 15.7387, 23.6265, 36.434, -29.307, -28.3069
3.48, 5, 17.2788, 15.7194, 23.718, 36.1405, -29.4226, -28.0485
3.484, 5, 17.203, 15.6986, 23.8172, 35.8226, -29.5494, -27.7689
3.488, 5, 17.1224, 15.6766, 23.9237, 35.4816, -29.6871, -27.4692
3.492, 5, 17.0375, 15.6533, 24.0373, 35.119, -29.8354, -27.151
3.495, 5, 16.9486, 15.6289, 24.1572, 34.7371, -29.9939, -26.8161
3.5, 5, 16.8562, 15.6036, 24.2827, 34.3383, -30.1616, -26.467
3.504, 5, 16.761, 15.5777, 24.413, 33.9257, -30.3376, -26.1061
3.508, 5, 16.6636, 15.5513, 24.547, 33.5023, -30.5209, -25.7363
3.512, 5, 16.5645, 15.5247, 24.6838, 33.0717, -30.71, -25.3608
3.516, 5, 16.4643, 15.4981, 24.8222, 32.6375, -30.9034, -24.9826
3.52, 5, 16.3634, 15.4718, 24.961, 32.2033, -31.0997, -24.605
3.524, 5, 16.2621, 15.446, 25.0991, 31.7729, -31.2971, -24.2312
3.528, 5, 16.1609, 15.4209, 25.2353, 31.3498, -31.4939, -23.8643
3.531, 5, 16.0604, 15.3968, 25.3687, 30.9373, -31.6884, -23.5071
3.536, 5, 15.9611, 15.3738, 25.4981, 30.5384, -31.8792, -23.1623
3.54, 5, 15.8637, 15.352, 25.6227, 30.1559, -32.0646, -22.832
3.544, 5, 15.769, 15.3316, 25.7417, 29.792, -32.2433, -22.5183
3.548, 5, 15.6775, 15.3127, 25.8545, 29.4485, -32.4141, -22.2226
3.552, 5, 15.5898, 15.2954, 25.9605, 29.1268, -32.5759, -21.946
3.556, 5, 15.5063, 15.2796, 26.0594, 28.828, -32.728, -21.6894
3.56, 5, 15.4273, 15.2654, 26.1509, 28.5525, -32.8697, -21.4532
3.564, 5, 15.3532, 15.2528, 26.2348, 28.3005, -33.0006, -21.2374
3.568, 5, 15.2842, 15.2416, 26.3113, 28.0719, -33.1205, -21.0418
3.572, 5, 15.2205, 15.2319, 26.3802, 27.8662, -33.2293, -20.866
3.576, 5, 15.1623, 15.2235, 26.442, 27.6828, -33.327, -20.7094
3.58, 5, 15.1093, 15.2163, 26.4967, 27.5208, -33.4141, -20.5712
3.584, 5, 15.0615, 15.2103, 26.5447, 27.379, -33.4907, -20.4504
3.587, 5, 15.0185, 15.2053, 26.5863, 27.2563, -33.5574, -20.3459
3.592, 5, 14.9801, 15.2014, 26.6221, 27.1514, -33.6147, -20.2566
3.596, 5, 14.9461, 15.1983, 26.6525, 27.0628, -33.6634, -20.1812
3.6, 5, 14.9162, 15.1959, 26.6779, 26.9888, -33.7042, -20.1183
3.604, 5, 14.8903, 15.1942, 26.699, 26.9278, -33.7379, -20.0666
3.608, 5, 14.8681, 15.1929, 26.7161, 26.8784, -33.7654, -20.0246
3.612, 5, 14.8492, 15.1921, 26.7299, 26.8388, -33.7874, -19.991
3.616, 5, 14.8333, 15.1916, 26.7409, 26.8077, -33.8048, -19.9646
3.62, 5, 14.8199, 15.1913, 26.7493, 26.7837, -33.8182, -19.9442
3.624, 5, 14.8086, 15.1912, 26.7558, 26.7655, -33.8284, -19.9288
3.628, 5, 14.7992, 15.1913, 26.7606, 26.752, -33.8359, -19.9174
3.632, 5, 14.7913, 15.1914, 26.7642, 26.7423, -33.8413, -19.9091
3.636, 5, 14.7849, 15.1916, 26.7667, 26.7354, -33.8452, -19.9033
3.64, 5, 14.7799, 15.1917, 26.7685, 26.7306, -33.8479, -19.8992
3.644, 5, 14.7761, 15.1919, 26.7698, 26.7273, -33.8498, -19.8964
3.648, 5, 14.7733, 15.192, 26.7706, 26.7251, -33.851, -19.8945
3.652, 5, 14.7713, 15.192, 26.7712, 26.7235, -33.8519, -19.8932
3.656, 5, 14.7698, 15.1921, 26.7716, 26.7225, -33.8525, -19.8923
3.66, 5, 14.7682, 15.1922, 26.7719, 26.7217, -33.8529, -19.8917
3.664, 5, 14.7664, 15.1923, 26.7722, 26.721, -33.8533, -19.8911
3.668, 5, 14.764, 15.1925, 26.7726, 26.7202, -33.8537, -19.8904
3.672, 5, 14.7608, 15.1927, 26.7731, 26.7189, -33.8545, -19.8893
3.676, 5, 14.7566, 15.1929, 26.774, 26.7167, -33.8557, -19.8874
3.679, 5, 14.7514, 15.1932, 26.7755, 26.713, -33.8578, -19.8844
3.684, 5, 14.745, 15.1936, 26.7777, 26.7072, -33.8611, -19.8795
3.688, 6, 14.737, 15.1939, 26.7809, 26.6985, -33.8661, -19.8721
3.692, 6, 14.7273, 15.1942, 26.7856, 26.6858, -33.8734, -19.8613
3.696, 6, 14.7153, 15.1944, 26.7919, 26.668, -33.8836, -19.8463
3.7, 6, 14.7007, 15.1945, 26.8005, 26.644, -33.8974, -19.826
3.704, 6, 14.6832, 15.1945, 26.8117, 26.6122, -33.9158, -19.7991
3.708, 6, 14.6625, 15.1942, 26.8261, 26.5713, -33.9394, -19.7645
3.712, 6, 14.6382, 15.1936, 26.8442, 26.5196, -33.9694, -19.7209
3.716, 6, 14.6102, 15.1927, 26.8664, 26.4557, -34.0066, -19.667
3.72, 6, 14.5781, 15.1913, 26.8932, 26.3782, -34.0519, -19.6016
3.724, 6, 14.5415, 15.1895, 26.9252, 26.2858, -34.1062, -19.5236
3.728, 6, 14.5002, 15.1872, 26.9626, 26.1772, -34.1703, -19.4321
3.732, 6, 14.454, 15.1844, 27.0059, 26.0516, -34.2449, -19.3263
3.735, 6, 14.4024, 15.1812, 27.0553, 25.9082, -34.3306, -19.2056
3.74, 6, 14.3454, 15.1774, 27.111, 25.7464, -34.4279, -19.0696
3.744, 6, 14.2828, 15.1733, 27.1731, 25.566, -34.5373, -18.9181
3.748, 6, 14.2148, 15.1686, 27.2415, 25.367, -34.6588, -18.7511
3.752, 6, 14.1414, 15.1636, 27.3163, 25.1496, -34.7927, -18.5689
3.756, 6, 14.063, 15.1582, 27.3973, 24.9145, -34.9389, -18.3722
3.76, 6, 13.9799, 15.1524, 27.4841, 24.6624, -35.097, -18.1616
3.764, 6, 13.8923, 15.1464, 27.5764, 24.3949, -35.2666, -17.9383
3.768, 6, 13.8007, 15.1402, 27.6736, 24.1133, -35.4468, -17.7037
3.772, 6, 13.7054, 15.1339, 27.7751, 23.8196, -35.6368, -17.4594
3.776, 6, 13.607, 15.1277, 27.8803, 23.5159, -35.8354, -17.2073
3.78, 6, 13.506, 15.1216, 27.9883, 23.2045, -36.0412, -16.9492
3.784, 6, 13.4029, 15.1159, 28.0984, 22.8877, -36.2528, -16.6871
3.788, 6, 13.2983, 15.1106, 28.2097, 22.5679, -36.4689, -16.4231
3.792, 6, 13.193, 15.1056, 28.3214, 22.2477, -36.6877, -16.1591
3.796, 6, 13.0873, 15.1012, 28.4326, 21.9293, -36.9076, -15.8972
3.8, 6, 12.9817, 15.0973, 28.5425, 21.6151, -37.1271, -15.6392
3.804, 6, 12.8766, 15.094, 28.6504, 21.3074, -37.3444, -15.387
3.808, 6, 12.7726, 15.0914, 28.7555, 21.0082, -37.558, -15.1423
3.812, 6, 12.6702, 15.0896, 28.8571, 20.7194, -37.7663, -14.9066
3.816, 6, 12.5701, 15.0884, 28.9546, 20.4426, -37.968, -14.6811
3.82, 6, 12.4731, 15.0879, 29.0476, 20.1792, -38.1619, -14.4668
3.824, 6, 12.3798, 15.088, 29.1357, 19.9303, -38.3468, -14.2647
3.828, 6, 12.2907, 15.0887, 29.2184, 19.6966, -38.522, -14.0753
3.832, 6, 12.2063, 15.0898, 29.2956, 19.4789, -38.6866, -13.8991
3.836, 6, 12.1267, 15.0914, 29.3671, 19.2776, -38.8401, -13.7364
3.84, 6, 12.0522, 15.0935, 29.4328, 19.0929, -38.9819, -13.5874
3.844, 6, 11.9829, 15.0958, 29.4926, 18.9249, -39.1118, -13.4521
3.848, 6, 11.9189, 15.0985, 29.5466, 18.7734, -39.2296, -13.3301
3.852, 6, 11.8601, 15.1014, 29.5949, 18.6381, -39.3356, -13.2214
3.856, 6, 11.8065, 15.1045, 29.6377, 18.5184, -39.4297, -13.1252
3.86, 6, 11.758, 15.1077, 29.6752, 18.4137, -39.5126, -13.0412
3.864, 6, 11.7143, 15.1111, 29.7077, 18.323, -39.5846, -12.9685
3.868, 6, 11.6754, 15.1144, 29.7356, 18.2455, -39.6464, -12.9064
3.872, 6, 11.6408, 15.1177, 29.7592, 18.18, -39.6988, -12.854
3.876, 6, 11.6105, 15.1209, 29.7789, 18.1254, -39.7426, -12.8103
3.88, 6, 11.5842, 15.124, 29.7951, 18.0804, -39.7788, -12.7743
3.884, 6, 11.5616, 15.1268, 29.8083, 18.044, -39.8081, -12.7452
3.888, 6, 11.5425, 15.1294, 29.8189, 18.0149, -39.8316, -12.7219
3.892, 6, 11.5263, 15.1317, 29.8272, 17.9921, -39.8501, -12.7037
3.896, 6, 11.5128, 15.1337, 29.8337, 17.9745, -39.8644, -12.6896
3.9, 6, 11.5014, 15.1355, 29.8386, 17.9612, -39.8751, -12.679
3.904, 6, 11.4918, 15.1371, 29.8422, 17.9514, -39.8831, -12.6712
3.908, 6, 11.4839, 15.1384, 29.8448, 17.9443, -39.8888, -12.6655
3.912, 6, 11.4775, 15.1395, 29.8467, 17.9393, -39.8929, -12.6615
3.916, 6, 11.4725, 15.1403, 29.848, 17.9358, -39.8957, -12.6587
3.92, 6, 11.4687, 15.141, 29.8489, 17.9335, -39.8977, -12.6568
3.924, 6, 11.466, 15.1414, 29.8496, 17.9318, -39.899, -12.6555
3.928, 6, 11.464, 15.1418, 29.85, 17.9307, -39.8999, -12.6546
3.932, 6, 11.4625, 15.142, 29.8503, 17.93, -39.9005, -12.654
3.936, 6, 11.461, 15.1423, 29.8505, 17.9294, -39.9009, -12.6535
3.94, 6, 11.4591, 15.1426, 29.8507, 17.9289, -39.9013, -12.6531
3.944, 6, 11.4567, 15.143, 29.851, 17.9283, -39.9018, -12.6526
3.948, 6, 11.4535, 15.1436, 29.8513, 17.9274, -39.9026, -12.6519
3.952, 6, 11.4493, 15.1444, 29.852, 17.9257, -39.9039, -12.6506
3.956, 6, 11.444, 15.1454, 29.853, 17.923, -39.9061, -12.6484
3.96, 6, 11.4375, 15.1466, 29.8547, 17.9188, -39.9097, -12.645
3.964, 7, 11.4294, 15.1482, 29.8571, 17.9123, -39.915, -12.6398
3.968, 7, 11.4194, 15.15, 29.8606, 17.9028, -39.9228, -12.6323
3.972, 7, 11.4072, 15.1523, 29.8655, 17.8896, -39.9338, -12.6217
3.976, 7, 11.3923, 15.1549, 29.872, 17.8716, -39.9486, -12.6074
3.98, 7, 11.3744, 15.1579, 29.8807, 17.8479, -39.9683, -12.5885
3.984, 7, 11.3532, 15.1614, 29.8918, 17.8173, -39.9938, -12.5642
3.988, 7, 11.3284, 15.1652, 29.9057, 17.7786, -40.0261, -12.5334
3.992, 7, 11.2997, 15.1695, 29.923, 17.7307, -40.0662, -12.4954
3.996, 7, 11.2667, 15.1741, 29.9438, 17.6725, -40.115, -12.4493
3.999, 7, 11.2292, 15.1793, 29.9687, 17.6031, -40.1735, -12.3943
4.004, 7, 11.1868, 15.1849, 29.9979, 17.5214, -40.2425, -12.3297
4.008, 7, 11.1393, 15.1911, 30.0317, 17.4269, -40.3228, -12.255
4.012, 7, 11.0863, 15.1978, 30.0702, 17.3188, -40.4151, -12.1697
4.016, 7, 11.0278, 15.2051, 30.1136, 17.1968, -40.5198, -12.0735
4.02, 7, 10.9636, 15.2131, 30.1621, 17.0606, -40.6373, -11.9662
4.024, 7, 10.8937, 15.2217, 30.2155, 16.9102, -40.7679, -11.8479
4.028, 7, 10.818, 15.2309, 30.2739, 16.7456, -40.9117, -11.7187
4.032, 7, 10.7369, 15.2407, 30.337, 16.5674, -41.0685, -11.5791
4.036, 7, 10.6506, 15.2512, 30.4048, 16.376, -41.2382, -11.4293
4.04, 7, 10.5595, 15.2622, 30.4769, 16.1723, -41.4201, -11.2703
4.044, 7, 10.464, 15.2738, 30.5529, 15.9574, -41.6136, -11.1029
4.048, 7, 10.3648, 15.286, 30.6324, 15.7324, -41.8178, -10.928
4.052, 7, 10.2623, 15.2989, 30.7148, 15.499, -42.0315, -10.7469
4.056, 7, 10.1573, 15.3125, 30.7996, 15.2588, -42.2534, -10.5609
4.06, 7, 10.05, 15.3268, 30.886, 15.0135, -42.4819, -10.3715
4.064, 7, 9.94105, 15.342, 30.9735, 14.765, -42.7153, -10.1801
4.068, 7, 9.83099, 15.3578, 31.0614, 14.5153, -42.952, -9.98809
4.072, 7, 9.72043, 15.3742, 31.1489, 14.2661, -43.1903, -9.79703
4.076, 7, 9.60988, 15.3911, 31.2355, 14.0194, -43.4282, -9.6083
4.08, 7, 9.49986, 15.4085, 31.3205, 13.777, -43.6641, -9.42328
4.084, 7, 9.39093, 15.4262, 31.4032, 13.5405, -43.8961, -9.24323
4.088, 7, 9.2837, 15.4442, 31.4833, 13.3116, -44.1225, -9.06933
4.092, 7, 9.17881, 15.4623, 31.5601, 13.0916, -44.342, -8.9026
4.096, 7, 9.07686, 15.4806, 31.6332, 12.8817, -44.5529, -8.74389
4.1, 7, 8.97848, 15.4988, 31.7024, 12.6829, -44.7543, -8.59389
4.104, 7, 8.88425, 15.5168, 31.7674, 12.496, -44.945, -8.45313
4.108, 7, 8.79468, 15.5345, 31.828, 12.3215, -45.1243, -8.32197
4.112, 7, 8.71016, 15.5516, 31.884, 12.1597, -45.2915, -8.20065
4.116, 7, 8.63091, 15.5682, 31.9354, 12.011, -45.4462, -8.08926
4.12, 7, 8.55711, 15.584, 31.9823, 11.8753, -45.5882, -7.98781
4.124, 7, 8.48883, 15.5991, 32.0246, 11.7525, -45.7173, -7.89617
4.128, 7, 8.42611, 15.6134, 32.0625, 11.6424, -45.8336, -7.81411
4.132, 7, 8.36889, 15.6268, 32.096, 11.5446, -45.9373, -7.74132
4.136, 7, 8.31703, 15.6392, 32.1255, 11.4587, -46.0289, -7.6774
4.14, 7, 8.27032, 15.6508, 32.1511, 11.3839, -46.1088, -7.62187
4.144, 7, 8.22851, 15.6616, 32.173, 11.3197, -46.1777, -7.57417
4.148, 7, 8.19134, 15.6714, 32.1916, 11.2651, -46.2364, -7.5337
4.152, 7, 8.15858, 15.6803, 32.2071, 11.2194, -46.2857, -7.49978
4.156, 7, 8.13002, 15.6884, 32.22, 11.1816, -46.3266, -7.47174
4.16, 7, 8.10543, 15.6955, 32.2304, 11.1507, -46.36, -7.44887
4.164, 7, 8.08448, 15.7017, 32.2388, 11.126, -46.3869, -7.43049
4.168, 7, 8.0668, 15.707, 32.2454, 11.1064, -46.4081, -7.41597
4.172, 7, 8.05193, 15.7116, 32.2505, 11.0912, -46.4247, -7.40468
4.176, 7, 8.03943, 15.7155, 32.2544, 11.0796, -46.4373, -7.39609
4.18, 7, 8.02896, 15.7187, 32.2572, 11.071, -46.4467, -7.38969
4.184, 7, 8.02025, 15.7214, 32.2593, 11.0647, -46.4535, -7.38502
4.188, 7, 8.01314, 15.7235, 32.2608, 11.0602, -46.4584, -7.38169
4.192, 7, 8.00748, 15.7252, 32.2618, 11.0571, -46.4618, -7.37935
4.196, 7, 8.00313, 15.7265, 32.2625, 11.0549, -46.4641, -7.37775
4.2, 7, 7.99993, 15.7274, 32.263, 11.0535, -46.4657, -7.37665
4.204, 7, 7.99761, 15.7281, 32.2633, 11.0525, -46.4668, -7.3759
4.208, 7, 7.9958, 15.7286, 32.2636, 11.0518, -46.4676, -7.37539
4.212, 7, 7.99408, 15.729, 32.2637, 11.0513, -46.4681, -7.37502
4.216, 7, 7.99211, 15.7296, 32.2639, 11.0509, -46.4686, -7.3747
4.22, 7, 7.98958, 15.7303, 32.264, 11.0504, -46.4691, -7.37432
4.224, 7, 7.98629, 15.7312, 32.2642, 11.0496, -46.4699, -7.37376
4.228, 7, 7.98205, 15.7325, 32.2646, 11.0484, -46.4713, -7.37282
4.232, 7, 7.9767, 15.7341, 32.2653, 11.0463, -46.4736, -7.37127
4.236, 7, 7.97005, 15.7363, 32.2663, 11.043, -46.4772, -7.36881
4.24, 8, 7.96185, 15.739, 32.268, 11.0381, -46.4827, -7.3651
4.244, 8, 7.95175, 15.7424, 32.2703, 11.0308, -46.4907, -7.35973
4.248, 8, 7.93936, 15.7467, 32.2737, 11.0206, -46.502, -7.3522
4.252, 8, 7.92425, 15.752, 32.2782, 11.0068, -46.5173, -7.34198
4.256, 8, 7.90607, 15.7584, 32.2843, 10.9885, -46.5376, -7.32847
4.26, 8, 7.88451, 15.7659, 32.2921, 10.9648, -46.5639, -7.31104
4.264, 8, 7.85932, 15.7748, 32.302, 10.9349, -46.5972, -7.28903
4.268, 8, 7.8302, 15.7848, 32.3143, 10.8978, -46.6386, -7.2618
4.272, 8, 7.79679, 15.7961, 32.3292, 10.8527, -46.689, -7.22874
4.276, 8, 7.75874, 15.8086, 32.3471, 10.7988, -46.7494, -7.18927
4.28, 8, 7.71566, 15.8225, 32.3681, 10.7354, -46.8207, -7.14291
4.284, 8, 7.66728, 15.8376, 32.3924, 10.6619, -46.9036, -7.08923
4.288, 8, 7.61336, 15.8542, 32.4202, 10.5777, -46.9989, -7.02789
4.292, 8, 7.55376, 15.8722, 32.4516, 10.4826, -47.107, -6.95865
4.296, 8, 7.48838, 15.8918, 32.4866, 10.3762, -47.2284, -6.88137
4.3, 8, 7.41716, 15.9129, 32.5252, 10.2585, -47.3634, -6.79603
4.304, 8, 7.3401, 15.9357, 32.5674, 10.1296, -47.512, -6.70272
4.308, 8, 7.25727, 15.9602, 32.6131, 9.98972, -47.6741, -6.60166
4.312, 8, 7.16891, 15.9863, 32.6621, 9.8392, -47.8496, -6.49318
4.316, 8, 7.07538, 16.0138, 32.7141, 9.67863, -48.0379, -6.37773
4.32, 8, 6.97717, 16.0426, 32.769, 9.50873, -48.2384, -6.25588
4.324, 8, 6.87495, 16.0725, 32.8265, 9.33041, -48.4502, -6.12832
4.328, 8, 6.76944, 16.1036, 32.886, 9.14474, -48.6722, -5.99585
4.332, 8, 6.66129, 16.1358, 32.9472, 8.95295, -48.903, -5.8594
4.336, 8, 6.55101, 16.1692, 33.0097, 8.75644, -49.1412, -5.71998
4.34, 8, 6.43903, 16.2037, 33.0729, 8.55669, -49.385, -5.57865
4.344, 8, 6.32581, 16.2394, 33.1363, 8.35523, -49.6325, -5.43652
4.348, 8, 6.21193, 16.2761, 33.1994, 8.15363, -49.882, -5.29469
4.352, 8, 6.09793, 16.3134, 33.2617, 7.95343, -50.1314, -5.15424
4.356, 8, 5.9844, 16.351, 33.3227, 7.75613, -50.3788, -5.01622
4.36, 8, 5.87195, 16.3888, 33.382, 7.56318, -50.6224, -4.88162
4.364, 8, 5.76123, 16.4266, 33.4392, 7.37593, -50.8603, -4.75135
4.368, 8, 5.65287, 16.464, 33.4939, 7.19559, -51.091, -4.62622
4.372, 8, 5.54748, 16.501, 33.5459, 7.02321, -51.3128, -4.50694
4.376, 8, 5.44562, 16.5373, 33.5948, 6.85969, -51.5244, -4.39407
4.38, 8, 5.34783, 16.5727, 33.6406, 6.70573, -51.7248, -4.28804
4.384, 8, 5.2546, 16.607, 33.683, 6.56182, -51.9132, -4.18917
4.388, 8, 5.16641, 16.6398, 33.7221, 6.4283, -52.0888, -4.09764
4.392, 8, 5.08359, 16.6711, 33.7579, 6.30534, -52.2514, -4.01352
4.396, 8, 5.00636, 16.7007, 33.7903, 6.19298, -52.4006, -3.93679
4.4, 8, 4.93486, 16.7285, 33.8195, 6.09112, -52.5364, -3.86736
4.404, 8, 4.86915, 16.7543, 33.8456, 5.99956, -52.6589, -3.80505
4.408, 8, 4.80918, 16.7782, 33.8686, 5.91799, -52.7685, -3.74961
4.412, 8, 4.75482, 16.8002, 33.8887, 5.84602, -52.8655, -3.70076
4.416, 8, 4.70583, 16.8202, 33.9062, 5.78317, -52.9504, -3.65814
4.42, 8, 4.66193, 16.8385, 33.9211, 5.7289, -53.024, -3.62137
4.424, 8, 4.62283, 16.855, 33.9337, 5.68259, -53.0869, -3.59002
4.428, 8, 4.58827, 16.8698, 33.9443, 5.64356, -53.14, -3.5636
4.432, 8, 4.55802, 16.8829, 33.9529, 5.61109, -53.1843, -3.54162
4.436, 8, 4.53185, 16.8945, 33.9599, 5.58445, -53.2207, -3.52359
4.44, 8, 4.50947, 16.9044, 33.9655, 5.56289, -53.2502, -3.509
4.444, 8, 4.49052, 16.913, 33.9699, 5.54573, -53.2738, -3.49738
4.448, 8, 4.47456, 16.9202, 33.9732, 5.53229, -53.2922, -3.48828
4.452, 8, 4.46114, 16.9262, 33.9758, 5.52198, -53.3064, -3.48128
4.456, 8, 4.44984, 16.9313, 33.9776, 5.51423, -53.317, -3.47602
4.46, 8, 4.44041, 16.9354, 33.9789, 5.50854, -53.3249, -3.47214
4.464, 8, 4.43263, 16.9388, 33.9798, 5.50445, -53.3305, -3.46935
4.468, 8, 4.42635, 16.9414, 33.9804, 5.50157, -53.3345, -3.46738
4.472, 8, 4.42145, 16.9434, 33.9808, 5.49958, -53.3372, -3.46602
4.476, 8, 4.41779, 16.9449, 33.9811, 5.49822, -53.3391, -3.46508
4.48, 8, 4.41517, 16.9459, 33.9813, 5.49729, -53.3403, -3.46445
4.484, 8, 4.41329, 16.9467, 33.9814, 5.49667, -53.3412, -3.46401
4.488, 8, 4.41179, 16.9472, 33.9815, 5.49624, -53.3418, -3.46372
4.492, 8, 4.41028, 16.9478, 33.9815, 5.49592, -53.3422, -3.4635
4.496, 8, 4.40844, 16.9484, 33.9815, 5.49564, -53.3426, -3.4633
4.5, 8, 4.406, 16.9493, 33.9815, 5.4953, -53.3431, -3.46305
4.504, 8, 4.40276, 16.9506, 33.9816, 5.49474, -53.3439, -3.46265
4.508, 8, 4.39854, 16.9523, 33.9817, 5.49377, -53.3452, -3.46198
4.512, 8, 4.39319, 16.9545, 33.9819, 5.49215, -53.3475, -3.46086
4.516, 8, 4.38652, 16.9576, 33.9824, 5.48955, -53.3511, -3.45908
4.52, 9, 4.37828, 16.9615, 33.9832, 5.4856, -53.3566, -3.45639
4.524, 9, 4.36812, 16.9666, 33.9844, 5.47984, -53.3646, -3.45248
4.528, 9, 4.35565, 16.9731, 33.9862, 5.47174, -53.3759, -3.447
4.532, 9, 4.34045, 16.9812, 33.9888, 5.46072, -53.3913, -3.43956
4.536, 9, 4.32216, 16.9909, 33.9922, 5.4461, -53.4116, -3.42972
4.54, 9, 4.30049, 17.0023, 33.9968, 5.42719, -53.438, -3.41702
4.544, 9, 4.27517, 17.0154, 34.0027, 5.40324, -53.4715, -3.40097
4.548, 9, 4.24591, 17.0301, 34.01, 5.37354, -53.513, -3.38111
4.552, 9, 4.21238, 17.0465, 34.0191, 5.33739, -53.5637, -3.35697
4.556, 9, 4.17419, 17.0647, 34.03, 5.29413, -53.6244, -3.32814
4.56, 9, 4.13096, 17.0849, 34.0429, 5.24321, -53.696, -3.29425
4.564, 9, 4.08237, 17.1073, 34.0578, 5.18409, -53.7794, -3.25499
4.568, 9, 4.02817, 17.1322, 34.075, 5.11638, -53.8751, -3.2101
4.572, 9, 3.96822, 17.1595, 34.0944, 5.03972, -53.9838, -3.15937
4.576, 9, 3.90243, 17.1895, 34.116, 4.95389, -54.1059, -3.1027
4.58, 9, 3.83078, 17.2221, 34.1399, 4.85879, -54.2417, -3.04003
4.584, 9, 3.75323, 17.2575, 34.166, 4.75444, -54.3913, -2.97143
4.588, 9, 3.66982, 17.2957, 34.1941, 4.64097, -54.5546, -2.89702
4.592, 9, 3.5807, 17.3367, 34.2242, 4.51867, -54.7314, -2.81701
4.596, 9, 3.4862, 17.3803, 34.2562, 4.38792, -54.9212, -2.73172
4.6, 9, 3.38683, 17.4261, 34.2898, 4.24925, -55.1236, -2.64152
4.604, 9, 3.28321, 17.4738, 34.3249, 4.10332, -55.3375, -2.54688
4.608, 9, 3.17612, 17.5233, 34.3611, 3.95094, -55.5621, -2.44836
4.612, 9, 3.06635, 17.5742, 34.3983, 3.79306, -55.796, -2.3466
4.616, 9, 2.95451, 17.6265, 34.4361, 3.63077, -56.0377, -2.24235
4.62, 9, 2.84105, 17.6801, 34.4742, 3.46528, -56.2855, -2.13637
4.624, 9, 2.72637, 17.7351, 34.5123, 3.29787, -56.5375, -2.02951
4.628, 9, 2.61093, 17.7911, 34.5499, 3.12985, -56.7917, -1.92261
4.632, 9, 2.49529, 17.848, 34.5868, 2.96254, -57.0462, -1.81649
4.636, 9, 2.38002, 17.9053, 34.6226, 2.79721, -57.299, -1.71197
4.64, 9, 2.26573, 17.9626, 34.6573, 2.63511, -57.5482, -1.60981
4.644, 9, 2.15307, 18.0195, 34.6903, 2.47739, -57.7918, -1.51072
4.648, 9, 2.04269, 18.0757, 34.7217, 2.32512, -58.0282, -1.41534
4.652, 9, 1.93522, 18.1308, 34.7512, 2.17924, -58.2557, -1.32422
4.656, 9, 1.83121, 18.1847, 34.7786, 2.04055, -58.4731, -1.23784
4.66, 9, 1.73115, 18.237, 34.804, 1.90968, -58.679, -1.15655
4.664, 9, 1.63553, 18.2875, 34.8272, 1.78712, -58.8728, -1.08061
4.668, 9, 1.54484, 18.3357, 34.8484, 1.67318, -59.0536, -1.01019
4.672, 9, 1.45949, 18.3815, 34.8674, 1.56803, -59.2211, -0.945344
4.676, 9, 1.37978, 18.4246, 34.8845, 1.47173, -59.3751, -0.88608
4.68, 9, 1.30588, 18.4648, 34.8996, 1.38421, -59.5155, -0.832326
4.684, 9, 1.23788, 18.5021, 34.913, 1.30533, -59.6425, -0.783958
4.688, 9, 1.17575, 18.5364, 34.9246, 1.23484, -59.7562, -0.740808
4.692, 9, 1.11935, 18.5678, 34.9347, 1.17245, -59.8572, -0.702664
4.696, 9, 1.06846, 18.5964, 34.9433, 1.11778, -59.9458, -0.669281
4.7, 9, 1.02279, 18.6221, 34.9505, 1.07041, -60.0228, -0.640377
4.704, 9, 0.982019, 18.6454, 34.9564, 1.02984, -60.0889, -0.615639
4.708, 9, 0.945866, 18.6661, 34.9612, 0.995529, -60.1449, -0.594724
4.712, 9, 0.91409, 18.6845, 34.965, 0.966892, -60.1917, -0.577267
4.716, 9, 0.886466, 18.7006, 34.9679, 0.943314, -60.2303, -0.562892
4.72, 9, 0.862735, 18.7145, 34.9702, 0.924179, -60.2617, -0.551221
4.724, 9, 0.842566, 18.7263, 34.9719, 0.908888, -60.2868, -0.541889
4.728, 9, 0.825548, 18.7363, 34.9731, 0.896875, -60.3065, -0.53455
4.732, 9, 0.811232, 18.7447, 34.9739, 0.887612, -60.3217, -0.528883
4.738, 9, 0.799201, 18.7516, 34.9744, 0.880616, -60.3333, -0.524595
4.74, 9, 0.789134, 18.7572, 34.9747, 0.875448, -60.3418, -0.521418
4.744, 9, 0.780803, 18.7618, 34.9748, 0.871715, -60.348, -0.519117
4.748, 9, 0.774038, 18.7654, 34.9749, 0.869076, -60.3523, -0.517484
4.752, 9, 0.768703, 18.7682, 34.9748, 0.867245, -60.3554, -0.516347
4.756, 9, 0.764663, 18.7702, 34.9748, 0.865991, -60.3574, -0.515566
4.76, 9, 0.761739, 18.7717, 34.9748, 0.865139, -60.3589, -0.515034
4.764, 9, 0.759694, 18.7727, 34.9748, 0.864561, -60.3598, -0.514673
4.768, 9, 0.758228, 18.7734, 34.9747, 0.864169, -60.3605, -0.514428
4.772, 9, 0.757008, 18.774, 34.9747, 0.863899, -60.3609, -0.514258
4.776, 9, 0.755694, 18.7746, 34.9746, 0.863699, -60.3612, -0.51413
4.78, 9, 0.753981, 18.7756, 34.9744, 0.863512, -60.3616, -0.514009
4.784, 9, 0.751627, 18.777, 34.9741, 0.86326, -60.362, -0.513845
4.788, 9, 0.74844, 18.7791, 34.9737, 0.862833, -60.3627, -0.513571
4.792, 9, 0.744263, 18.7821, 34.973, 0.862082, -60.3639, -0.513098
4.796, 9, 0.738955, 18.7863, 34.9722, 0.860807, -60.366, -0.512305
4.8, 10, 0.732355, 18.7921, 34.9709, 0.858761, -60.3694, -0.511043
4.804, 10, 0.724239, 18.7996, 34.9694, 0.855642, -60.3746, -0.509131
4.808, 10, 0.714298, 18.8091, 34.9673, 0.851095, -60.3821, -0.506356
4.812, 10, 0.702162, 18.8209, 34.9647, 0.84471, -60.3927, -0.502474
4.816, 10, 0.687455, 18.8352, 34.9615, 0.836026, -60.407, -0.497208
4.82, 10, 0.669851, 18.8521, 34.9576, 0.82453, -60.4261, -0.490254
4.824, 10, 0.649104, 18.8717, 34.9528, 0.809675, -60.4507, -0.48129
4.828, 10, 0.625026, 18.8942, 34.9471, 0.790897, -60.4819, -0.469982
4.832, 10, 0.597508, 18.9197, 34.9405, 0.76764, -60.5205, -0.456004
4.836, 10, 0.566566, 18.9484, 34.933, 0.739387, -60.5675, -0.439059
4.84, 10, 0.532356, 18.98, 34.9244, 0.705696, -60.6237, -0.418891
4.844, 10, 0.495105, 19.0145, 34.9148, 0.666241, -60.6895, -0.395317
4.848, 10, 0.455058, 19.0517, 34.9042, 0.620847, -60.7654, -0.368245
4.852, 10, 0.412492, 19.0913, 34.8926, 0.56952, -60.8514, -0.33769
4.856, 10, 0.367743, 19.133, 34.8801, 0.512467, -60.9471, -0.303784
4.86, 10, 0.321187, 19.1764, 34.8667, 0.450099, -61.0519, -0.26678
4.864, 10, 0.27318, 19.2214, 34.8525, 0.383021, -61.1649, -0.227042
4.868, 10, 0.224037, 19.2679, 34.8375, 0.312011, -61.2847, -0.185036
4.872, 10, 0.174066, 19.3156, 34.8219, 0.237984, -61.4099, -0.141305
4.876, 10, 0.123584, 19.3643, 34.8058, 0.16196, -61.5387, -0.0964546
4.88, 10, 0.0728468, 19.4136, 34.7893, 0.0850289, -61.6693, -0.051127
4.884, 10, 0.0219599, 19.4633, 34.7726, 0.00830957, -61.7998, -0.00597788
4.888, 10, -0.0290517, 19.5132, 34.7559, -0.0670989, -61.9283, 0.0383514
4.892, 10, -0.0800662, 19.563, 34.7392, -0.140171, -62.0531, 0.081265
4.896, 10, -0.130779, 19.6123, 34.7228, -0.210002, -62.1726, 0.122239
4.9, 10, -0.180759, 19.6606, 34.7067, -0.275846, -62.2855, 0.160844
4.904, 10, -0.229492, 19.7077, 34.6912, -0.337138, -62.3908, 0.196754
4.908, 10, -0.2764, 19.7528, 34.6763, -0.393494, -62.4878, 0.229752
4.912, 10, -0.320905, 19.7956, 34.6623, -0.444703, -62.5761, 0.259718
4.916, 10, -0.362562, 19.8355, 34.6493, -0.490699, -62.6556, 0.286619
4.92, 10, -0.401128, 19.8725, 34.6374, -0.531536, -62.7262, 0.310492
4.924, 10, -0.436509, 19.9063, 34.6265, -0.567369, -62.7883, 0.331433
4.928, 10, -0.468677, 19.937, 34.6166, -0.598437, -62.8422, 0.349588
4.932, 10, -0.497634, 19.9647, 34.6079, -0.625051, -62.8884, 0.365139
4.936, 10, -0.523409, 19.9892, 34.6002, -0.647569, -62.9276, 0.378299
4.94, 10, -0.546072, 20.0108, 34.5935, -0.666382, -62.9603, 0.389297
4.944, 10, -0.565747, 20.0294, 34.5877, -0.681893, -62.9874, 0.398367
4.948, 10, -0.582635, 20.0453, 34.5829, -0.694498, -63.0094, 0.405742
4.952, 10, -0.597037, 20.0588, 34.5788, -0.704579, -63.0269, 0.411644
4.956, 10, -0.609318, 20.0701, 34.5754, -0.712494, -63.0408, 0.416284
4.96, 10, -0.619828, 20.0796, 34.5726, -0.718581, -63.0514, 0.419858
4.964, 10, -0.628824, 20.0874, 34.5704, -0.723158, -63.0594, 0.422551
4.968, 10, -0.636456, 20.0939, 34.5686, -0.72652, -63.0653, 0.424535
4.972, 10, -0.642819, 20.099, 34.5671, -0.728931, -63.0695, 0.425962
4.976, 10, -0.647986, 20.103, 34.566, -0.730624, -63.0725, 0.426968
4.98, 10, -0.652031, 20.106, 34.5652, -0.731793, -63.0745, 0.427665
4.984, 10, -0.65506, 20.1082, 34.5646, -0.732591, -63.0759, 0.428142
4.988, 10, -0.657269, 20.1098, 34.5642, -0.733133, -63.0769, 0.428466
4.992, 10, -0.658964, 20.111, 34.5639, -0.733503, -63.0775, 0.428688
4.996, 10, -0.660496, 20.1121, 34.5636, -0.733765, -63.078, 0.428847
5, 10, -0.662178, 20.1133, 34.5633, -0.733978, -63.0783, 0.428977
5.004, 10, -0.664253, 20.1149, 34.5628, -0.734205, -63.0787, 0.429116
5.008, 10, -0.666899, 20.1171, 34.5621, -0.734529, -63.0793, 0.429314
5.012, 10, -0.670254, 20.1203, 34.5611, -0.735055, -63.0802, 0.429632
5.016, 10, -0.674429, 20.1247, 34.5597, -0.735918, -63.0817, 0.430147
5.02, 10, -0.679539, 20.1306, 34.5578, -0.737284, -63.0841, 0.430958
5.024, 10, -0.685739, 20.1383, 34.5552, -0.739355, -63.0878, 0.432181
5.028, 11, -0.693238, 20.148, 34.5516, -0.742368, -63.0931, 0.433953
5.032, 11, -0.702295, 20.1601, 34.547, -0.746596, -63.1006, 0.436434
5.036, 11, -0.713173, 20.1747, 34.541, -0.752349, -63.1109, 0.4398
5.04, 11, -0.726097, 20.192, 34.5335, -0.759969, -63.1244, 0.444251
5.044, 11, -0.741238, 20.2122, 34.5243, -0.769824, -63.142, 0.449996
5.048, 11, -0.758748, 20.2355, 34.513, -0.782294, -63.1642, 0.457255
5.052, 11, -0.778801, 20.2622, 34.4994, -0.797758, -63.1919, 0.466243
5.056, 11, -0.801609, 20.2928, 34.4833, -0.816581, -63.2255, 0.47717
5.06, 11, -0.827413, 20.3275, 34.4644, -0.839103, -63.2659, 0.49023
5.064, 11, -0.856453, 20.3668, 34.4425, -0.865634, -63.3134, 0.505598
5.068, 11, -0.888958, 20.411, 34.4174, -0.896445, -63.3688, 0.523429
5.072, 11, -0.925136, 20.4605, 34.3887, -0.931773, -63.4323, 0.543854
5.076, 11, -0.965161, 20.5155, 34.3564, -0.97181, -63.5045, 0.566981
5.08, 11, -1.00915, 20.5763, 34.3202, -1.01671, -63.5856, 0.59289
5.084, 11, -1.05715, 20.6429, 34.28, -1.06658, -63.6758, 0.621637
5.088, 11, -1.10914, 20.7154, 34.2358, -1.12147, -63.7753, 0.653247
5.092, 11, -1.16507, 20.7937, 34.1873, -1.18138, -63.8842, 0.687713
5.096, 11, -1.22487, 20.878, 34.1347, -1.24627, -64.0023, 0.724994
5.1, 11, -1.28848, 20.9681, 34.0779, -1.31601, -64.1297, 0.765018
5.104, 11, -1.35576, 21.0638, 34.0168, -1.39043, -64.266, 0.807675
5.108, 11, -1.42657, 21.165, 33.9517, -1.4693, -64.4109, 0.85283
5.112, 11, -1.50064, 21.2714, 33.8826, -1.55234, -64.5638, 0.900313
5.116, 11, -1.57759, 21.3824, 33.8097, -1.63923, -64.7243, 0.949928
5.12, 11, -1.65691, 21.4973, 33.7334, -1.72956, -64.8918, 1.00145
5.124, 11, -1.73799, 21.6155, 33.6538, -1.8229, -65.0653, 1.05461
5.128, 11, -1.82024, 21.7364, 33.5714, -1.91874, -65.2441, 1.10912
5.132, 11, -1.90322, 21.8594, 33.4866, -2.01652, -65.4271, 1.16467
5.136, 11, -1.9867, 21.9842, 33.3997, -2.11563, -65.6132, 1.22089
5.14, 11, -2.07058, 22.1104, 33.3112, -2.21541, -65.8012, 1.27744
5.144, 11, -2.15473, 22.2378, 33.2216, -2.31523, -65.9899, 1.33394
5.148, 11, -2.23901, 22.3658, 33.1314, -2.41445, -66.178, 1.39004
5.152, 11, -2.32317, 22.4938, 33.0411, -2.51245, -66.3645, 1.44539
5.156, 11, -2.4068, 22.621, 32.9511, -2.60867, -66.5481, 1.49968
5.16, 11, -2.48947, 22.7467, 32.8622, -2.70258, -66.7278, 1.55262
5.164, 11, -2.57075, 22.8703, 32.7747, -2.79371, -66.9028, 1.60394
5.168, 11, -2.65027, 22.9911, 32.689, -2.88164, -67.0721, 1.65343
5.172, 11, -2.72775, 23.1089, 32.6057, -2.96601, -67.2351, 1.70088
5.176, 11, -2.80288, 23.223, 32.5249, -3.04655, -67.3911, 1.74614
5.18, 11, -2.87539, 23.3331, 32.4472, -3.12303, -67.5396, 1.7891
5.184, 11, -2.94494, 23.4387, 32.3727, -3.19532, -67.6803, 1.82968
5.188, 11, -3.01119, 23.5393, 32.3018, -3.2633, -67.813, 1.86782
5.192, 11, -3.07387, 23.6345, 32.2347, -3.32695, -67.9375, 1.90351
5.196, 11, -3.13282, 23.7242, 32.1715, -3.38624, -68.0537, 1.93675
5.2, 11, -3.18799, 23.8081, 32.1123, -3.44119, -68.1616, 1.96754
5.204, 11, -3.2394, 23.8863, 32.0572, -3.49183, -68.2613, 1.9959
5.208, 11, -3.28708, 23.9588, 32.0062, -3.53821, -68.3527, 2.02188
5.212, 11, -3.33111, 24.0257, 31.9593, -3.58043, -68.4361, 2.04552
5.216, 11, -3.37155, 24.0871, 31.9165, -3.61857, -68.5115, 2.06687
5.22, 11, -3.40851, 24.143, 31.8777, -3.65278, -68.5792, 2.08602
5.224, 11, -3.44209, 24.1937, 31.8428, -3.68318, -68.6395, 2.10304
5.228, 11, -3.47247, 24.2393, 31.8117, -3.70996, -68.6926, 2.11803
5.232, 11, -3.49983, 24.2803, 31.7841, -3.7333, -68.7389, 2.13111
5.236, 11, -3.5244, 24.3167, 31.76, -3.75342, -68.7789, 2.14238
5.24, 11, -3.54637, 24.3491, 31.739, -3.77055, -68.813, 2.15198
5.244, 11, -3.56593, 24.3776, 31.7209, -3.78495, -68.8416, 2.16006
5.248, 11, -3.58318, 24.4024, 31.7056, -3.79689, -68.8653, 2.16676
5.252, 11, -3.59825, 24.4239, 31.6927, -3.80664, -68.8848, 2.17224
5.256, 11, -3.61128, 24.4421, 31.682, -3.8145, -68.9004, 2.17666
5.26, 11, -3.62246, 24.4575, 31.6733, -3.82072, -68.9128, 2.18016
5.264, 11, -3.63201, 24.4702, 31.6662, -3.82557, -68.9224, 2.1829
5.268, 11, -3.64016, 24.4807, 31.6606, -3.82926, -68.9298, 2.18498
5.272, 11, -3.6471, 24.4893, 31.6562, -3.83202, -68.9353, 2.18655
5.276, 11, -3.65297, 24.4962, 31.6528, -3.83404, -68.9393, 2.18769
5.28, 11, -3.65786, 24.5016, 31.6503, -3.83549, -68.9421, 2.18852
5.284, 11, -3.66182, 24.5058, 31.6483, -3.8365, -68.9441, 2.18909
5.288, 11, -3.66492, 24.5089, 31.6469, -3.83719, -68.9455, 2.18949
5.292, 11, -3.66724, 24.5112, 31.646, -3.83767, -68.9464, 2.18977
5.296, 11, -3.66893, 24.5128, 31.6453, -3.83799, -68.9471, 2.18995
5.3, 11, -3.67027, 24.514, 31.6448, -3.83821, -68.9475, 2.19008
5.304, 11, -3.67154, 24.5151, 31.6443, -3.83837, -68.9478, 2.19017
5.308, 11, -3.67303, 24.5163, 31.6439, -3.83851, -68.9481, 2.19025
5.312, 11, -3.67493, 24.518, 31.6433, -3.83866, -68.9484, 2.19035
5.316, 11, -3.6774, 24.5204, 31.6425, -3.8389, -68.9489, 2.19049
5.32, 11, -3.68056, 24.5238, 31.6414, -3.8393, -68.9496, 2.19073
5.324, 11, -3.68449, 24.5284, 31.6397, -3.83997, -68.951, 2.19111
5.328, 11, -3.6893, 24.5345, 31.6375, -3.84104, -68.9531, 2.19173
5.332, 11, -3.6951, 24.5424, 31.6343, -3.84267, -68.9563, 2.19266
5.336, 12, -3.7021, 24.5523, 31.6302, -3.84504, -68.961, 2.19401
5.34, 12, -3.71051, 24.5643, 31.6246, -3.84838, -68.9677, 2.1959
5.344, 12, -3.72057, 24.5788, 31.6175, -3.85292, -68.9767, 2.19847
5.348, 12, -3.73248, 24.596, 31.6085, -3.85895, -68.9888, 2.20187
5.352, 12, -3.74637, 24.616, 31.5973, -3.86675, -69.0043, 2.20626
5.356, 12, -3.76237, 24.6393, 31.5836, -3.87663, -69.0241, 2.21181
5.36, 12, -3.78063, 24.6661, 31.5671, -3.88889, -69.0486, 2.21869
5.364, 12, -3.80134, 24.6967, 31.5475, -3.90381, -69.0785, 2.22705
5.368, 12, -3.82469, 24.7317, 31.5245, -3.92169, -69.1144, 2.23706
5.372, 12, -3.85092, 24.7712, 31.4977, -3.94276, -69.1567, 2.24885
5.376, 12, -3.88021, 24.8158, 31.467, -3.96725, -69.2059, 2.26255
5.38, 12, -3.91276, 24.8657, 31.4319, -3.99534, -69.2625, 2.27825
5.384, 12, -3.94871, 24.9212, 31.3923, -4.0272, -69.3267, 2.29606
5.388, 12, -3.9882, 24.9825, 31.3479, -4.06295, -69.3988, 2.31603
5.392, 12, -4.0313, 25.0498, 31.2986, -4.10269, -69.4791, 2.33823
5.396, 12, -4.07803, 25.1233, 31.2443, -4.14647, -69.5678, 2.36267
5.4, 12, -4.12833, 25.2028, 31.1848, -4.19431, -69.6648, 2.38939
5.404, 12, -4.18214, 25.2883, 31.1202, -4.24618, -69.7701, 2.41834
5.408, 12, -4.23937, 25.3798, 31.0503, -4.30201, -69.8838, 2.44951
5.412, 12, -4.2999, 25.4771, 30.9754, -4.36169, -70.0055, 2.48283
5.416, 12, -4.36359, 25.5801, 30.8953, -4.42504, -70.1349, 2.5182
5.42, 12, -4.43026, 25.6884, 30.8104, -4.49188, -70.2718, 2.55551
5.424, 12, -4.49964, 25.8017, 30.7207, -4.56193, -70.4156, 2.59463
5.428, 12, -4.57134, 25.9194, 30.6266, -4.63492, -70.5658, 2.63539
5.432, 12, -4.64486, 26.0408, 30.5286, -4.7105, -70.7217, 2.67762
5.436, 12, -4.7196, 26.1651, 30.4269, -4.78829, -70.8826, 2.72109
5.44, 12, -4.79508, 26.2919, 30.3221, -4.86787, -71.0475, 2.76557
5.444, 12, -4.87098, 26.4205, 30.2147, -4.94876, -71.2156, 2.81081
5.448, 12, -4.94718, 26.5507, 30.1052, -5.03045, -71.3858, 2.85652
5.452, 12, -5.02361, 26.6821, 29.9941, -5.11243, -71.557, 2.90241
5.456, 12, -5.10022, 26.8144, 29.8822, -5.19418, -71.7281, 2.94821
5.46, 12, -5.17687, 26.947, 29.7699, -5.27519, -71.8981, 2.99364
5.464, 12, -5.25331, 27.0791, 29.658, -5.35499, -72.066, 3.03842
5.468, 12, -5.32916, 27.2101, 29.5471, -5.43315, -72.2308, 3.08232
5.472, 12, -5.40399, 27.3391, 29.4377, -5.50927, -72.3917, 3.12511
5.476, 12, -5.47741, 27.4656, 29.3306, -5.58298, -72.5478, 3.16659
5.48, 12, -5.54912, 27.5891, 29.226, -5.65398, -72.6986, 3.20658
5.484, 12, -5.61888, 27.709, 29.1247, -5.72201, -72.8433, 3.24495
5.488, 12, -5.68642, 27.825, 29.0268, -5.78686, -72.9816, 3.28156
5.492, 12, -5.75148, 27.9367, 28.9329, -5.84837, -73.113, 3.31633
5.496, 12, -5.81378, 28.0434, 28.8432, -5.90645, -73.2373, 3.3492
5.5, 12, -5.873, 28.1449, 28.758, -5.96101, -73.3543, 3.38011
5.504, 12, -5.92894, 28.2408, 28.6775, -6.01204, -73.4639, 3.40905
5.508, 12, -5.98149, 28.3308, 28.602, -6.05953, -73.5661, 3.43601
5.512, 12, -6.03062, 28.415, 28.5315, -6.10347, -73.6608, 3.46098
5.516, 12, -6.07636, 28.4933, 28.466, -6.14391, -73.748, 3.48399
5.52, 12, -6.11877, 28.5658, 28.4055, -6.18089, -73.8279, 3.50504
5.524, 12, -6.1579, 28.6325, 28.3501, -6.21447, -73.9005, 3.52418
5.528, 12, -6.19383, 28.6936, 28.2997, -6.24474, -73.9661, 3.54145
5.532, 12, -6.22665, 28.7492, 28.2542, -6.27181, -74.0247, 3.55691
5.536, 12, -6.25647, 28.7995, 28.2133, -6.2958, -74.0768, 3.57062
5.54, 12, -6.28345, 28.8447, 28.1771, -6.31685, -74.1225, 3.58267
5.544, 12, -6.30778, 28.8851, 28.1451, -6.33513, -74.1622, 3.59314
5.548, 12, -6.32965, 28.9211, 28.1173, -6.35082, -74.1963, 3.60214
5.552, 12, -6.34923, 28.9529, 28.0932, -6.36411, -74.2251, 3.60977
5.556, 12, -6.36666, 28.9808, 28.0725, -6.37523, -74.2493, 3.61617
5.56, 12, -6.38203, 29.0051, 28.0551, -6.3844, -74.2692, 3.62145
5.564, 12, -6.39545, 29.0259, 28.0406, -6.39185, -74.2854, 3.62574
5.568, 12, -6.40706, 29.0435, 28.0287, -6.39781, -74.2984, 3.62919
5.572, 12, -6.41702, 29.0583, 28.019, -6.40249, -74.3085, 3.6319
5.576, 12, -6.42557, 29.0705, 28.0112, -6.40612, -74.3164, 3.634
5.58, 12, -6.43289, 29.0805, 28.0051, -6.40886, -74.3223, 3.6356
5.584, 12, -6.43913, 29.0886, 28.0004, -6.41089, -74.3268, 3.63678
5.588, 12, -6.44441, 29.0951, 27.9967, -6.41236, -74.3299, 3.63764
5.592, 12, -6.44877, 29.1002, 27.994, -6.4134, -74.3322, 3.63826
5.596, 12, -6.45228, 29.1041, 27.992, -6.41413, -74.3337, 3.63868
5.6, 12, -6.45498, 29.1069, 27.9905, -6.41462, -74.3348, 3.63898
5.604, 12, -6.45701, 29.109, 27.9895, -6.41496, -74.3355, 3.63918
5.608, 12, -6.4586, 29.1106, 27.9888, -6.41519, -74.3361, 3.63932
5.612, 12, -6.46004, 29.1119, 27.9882, -6.41536, -74.3364, 3.63942
5.616, 12, -6.46161, 29.1134, 27.9876, -6.41549, -74.3367, 3.6395
5.62, 12, -6.46353, 29.1153, 27.9869, -6.41563, -74.337, 3.63959
5.624, 12, -6.46597, 29.118, 27.986, -6.41583, -74.3374, 3.63971
5.628, 12, -6.46902, 29.1218, 27.9847, -6.41615, -74.3381, 3.63991
5.632, 12, -6.47279, 29.1267, 27.9828, -6.4167, -74.3393, 3.64024
5.636, 12, -6.47735, 29.1331, 27.9802, -6.41756, -74.3411, 3.64075
5.64, 12, -6.48283, 29.1411, 27.9766, -6.41886, -74.3439, 3.64152
5.644, 13, -6.48939, 29.151, 27.9718, -6.42077, -74.3481, 3.64264
5.648, 13, -6.49723, 29.1629, 27.9654, -6.42346, -74.3539, 3.64421
5.652, 13, -6.50657, 29.1771, 27.9571, -6.42711, -74.3619, 3.64635
5.656, 13, -6.51758, 29.1941, 27.9466, -6.43197, -74.3725, 3.64917
5.66, 13, -6.53037, 29.214, 27.9335, -6.43825, -74.3862, 3.65282
5.664, 13, -6.54505, 29.2372, 27.9175, -6.44621, -74.4036, 3.65744
5.668, 13, -6.56174, 29.264, 27.8981, -6.4561, -74.4252, 3.66316
5.672, 13, -6.58061, 29.2947, 27.875, -6.46814, -74.4516, 3.67013
5.676, 13, -6.60183, 29.3298, 27.8479, -6.48257, -74.4832, 3.67848
5.68, 13, -6.62559, 29.3696, 27.8163, -6.49958, -74.5206, 3.68832
5.684, 13, -6.65208, 29.4145, 27.78, -6.51936, -74.564, 3.69976
5.688, 13, -6.68145, 29.4647, 27.7385, -6.54207, -74.6139, 3.71289
5.692, 13, -6.71385, 29.5206, 27.6917, -6.56782, -74.6706, 3.7278
5.696, 13, -6.74939, 29.5824, 27.6392, -6.59673, -74.7344, 3.74455
5.7, 13, -6.78814, 29.6503, 27.5809, -6.62887, -74.8053, 3.76319
5.704, 13, -6.83016, 29.7244, 27.5166, -6.66429, -74.8835, 3.78374
5.708, 13, -6.87539, 29.8047, 27.4462, -6.70301, -74.9692, 3.80624
5.712, 13, -6.9238, 29.8911, 27.3697, -6.74501, -75.0622, 3.83068
5.716, 13, -6.97527, 29.9837, 27.287, -6.79024, -75.1626, 3.85703
5.72, 13, -7.02968, 30.0822, 27.1982, -6.83862, -75.2701, 3.88527
5.724, 13, -7.08692, 30.1864, 27.1034, -6.89002, -75.3846, 3.91533
5.728, 13, -7.14682, 30.2962, 27.0027, -6.94428, -75.5056, 3.94712
5.732, 13, -7.20919, 30.4111, 26.8965, -7.00122, -75.6328, 3.98055
5.736, 13, -7.2737, 30.5307, 26.7849, -7.06059, -75.7658, 4.01549
5.74, 13, -7.33993, 30.6543, 26.6686, -7.12215, -75.9038, 4.05179
5.744, 13, -7.40733, 30.7811, 26.5478, -7.18558, -76.0464, 4.0893
5.748, 13, -7.47543, 30.9106, 26.4233, -7.25055, -76.1928, 4.12782
5.752, 13, -7.54389, 31.042, 26.2955, -7.31669, -76.3421, 4.16714
5.756, 13, -7.61258, 31.1752, 26.1652, -7.38361, -76.4935, 4.20704
5.76, 13, -7.68146, 31.3096, 26.0329, -7.45089, -76.646, 4.24727
5.764, 13, -7.75053, 31.4449, 25.8995, -7.5181, -76.7986, 4.28759
5.768, 13, -7.81974, 31.5807, 25.7655, -7.58483, -76.9505, 4.32774
5.772, 13, -7.88893, 31.7163, 25.6318, -7.65069, -77.1008, 4.36751
5.776, 13, -7.95775, 31.851, 25.499, -7.71533, -77.2485, 4.40666
5.78, 13, -8.02583, 31.9839, 25.3681, -7.77841, -77.393, 4.445
5.784, 13, -8.09279, 32.1145, 25.2395, -7.83963, -77.5335, 4.48234
5.788, 13, -8.15833, 32.2421, 25.114, -7.89873, -77.6693, 4.51851
5.792, 13, -8.2222, 32.3663, 24.9921, -7.95548, -77.8001, 4.55336
5.796, 13, -8.28419, 32.4865, 24.8743, -8.0097, -77.9252, 4.58677
5.8, 13, -8.34406, 32.6025, 24.761, -8.06125, -78.0443, 4.61864
5.804, 13, -8.40156, 32.7136, 24.6526, -8.11001, -78.1572, 4.64889
5.808, 13, -8.45641, 32.8196, 24.5496, -8.15593, -78.2637, 4.67746
5.812, 13, -8.50836, 32.9199, 24.4521, -8.19896, -78.3637, 4.70432
5.816, 13, -8.55728, 33.0143, 24.3603, -8.23909, -78.457, 4.72944
5.82, 13, -8.60313, 33.1027, 24.2745, -8.27631, -78.5438, 4.75281
5.824, 13, -8.64591, 33.1852, 24.1947, -8.31064, -78.6238, 4.77442
5.828, 13, -8.68568, 33.2616, 24.1209, -8.3421, -78.6973, 4.79428
5.832, 13, -8.72249, 33.3322, 24.0531, -8.37075, -78.7643, 4.8124
5.836, 13, -8.7564, 33.3969, 23.9912, -8.39664, -78.8248, 4.82882
5.84, 13, -8.78748, 33.456, 23.9352, -8.41986, -78.8792, 4.84358
5.844, 13, -8.81582, 33.5095, 23.885, -8.4405, -78.9276, 4.85672
5.848, 13, -8.84155, 33.5577, 23.8402, -8.45867, -78.9702, 4.86832
5.852, 13, -8.86482, 33.6009, 23.8007, -8.4745, -79.0073, 4.87844
5.856, 13, -8.88581, 33.6394, 23.7661, -8.48814, -79.0393, 4.88718
5.86, 13, -8.90469, 33.6735, 23.7362, -8.49974, -79.0665, 4.89463
5.864, 13, -8.92157, 33.7035, 23.7106, -8.50947, -79.0894, 4.9009
5.868, 13, -8.93656, 33.7297, 23.6889, -8.51754, -79.1083, 4.9061
5.872, 13, -8.94973, 33.7522, 23.6707, -8.52412, -79.1237, 4.91035
5.876, 13, -8.96119, 33.7714, 23.6557, -8.52941, -79.1362, 4.91378
5.88, 13, -8.97108, 33.7875, 23.6435, -8.53359, -79.146, 4.9165
5.884, 13, -8.97958, 33.8009, 23.6338, -8.53684, -79.1536, 4.91862
5.888, 13, -8.98689, 33.8119, 23.6261, -8.53932, -79.1594, 4.92023
5.892, 13, -8.99317, 33.8209, 23.62, -8.54116, -79.1637, 4.92144
5.896, 13, -8.9985, 33.8281, 23.6154, -8.5425, -79.1668, 4.92233
5.9, 13, -9.00297, 33.8338, 23.612, -8.54346, -79.169, 4.92296
5.904, 13, -9.00661, 33.8382, 23.6094, -8.54413, -79.1706, 4.92341
5.908, 13, -9.00946, 33.8415, 23.6075, -8.54459, -79.1716, 4.92371
5.912, 13, -9.0116, 33.8439, 23.6062, -8.5449, -79.1724, 4.92392
5.916, 13, -9.01316, 33.8456, 23.6053, -8.54511, -79.1729, 4.92407
5.92, 13, -9.01439, 33.8469, 23.6047, -8.54526, -79.1732, 4.92416
5.924, 13, -9.01557, 33.8482, 23.6041, -8.54536, -79.1734, 4.92424
