hehonglu123/ABB_Primitive_Study/execution/movelll_30_car/curve_exe_vmax_z1.csv
timestamp, cmd_num, J1, J2, J3, J4, J5, J6
0, -1, -13.4393, 43.6787, 12.5946, -11.6275, -87.029, 7.42441
0.003, -1, -13.4393, 43.6787, 12.5946, -11.6275, -87.029, 7.42441
0.006, -1, -13.4393, 43.6787, 12.5946, -11.6275, -87.029, 7.42441
0.008, -1, -13.4393, 43.6787, 12.5946, -11.6275, -87.029, 7.42441
0.011, -1, -13.4393, 43.6787, 12.5946, -11.6275, -87.029, 7.42441
0.016, -1, -13.4393, 43.6787, 12.5946, -11.6275, -87.029, 7.42441
0.02, -1, -13.4393, 43.6787, 12.5946, -11.6275, -87.029, 7.42441
0.024, -1, -13.4393, 43.6787, 12.5946, -11.6275, -87.029, 7.42441
0.028, -1, -13.4393, 43.6787, 12.5946, -11.6275, -87.029, 7.42441
0.032, -1, -13.4393, 43.6787, 12.5946, -11.6275, -87.029, 7.42441
0.036, -1, -13.4392, 43.6786, 12.5946, -11.6275, -87.029, 7.42441
0.04, -1, -13.439, 43.6785, 12.5946, -11.6275, -87.029, 7.42441
0.044, -1, -13.4384, 43.678, 12.5947, -11.6275, -87.029, 7.42439
0.048, -1, -13.4372, 43.6772, 12.5949, -11.6274, -87.0289, 7.42434
0.052, -1, -13.4355, 43.6758, 12.5951, -11.6273, -87.0287, 7.42422
0.056, -1, -13.433, 43.6738, 12.5955, -11.627, -87.0284, 7.42397
0.06, -1, -13.4296, 43.671, 12.5961, -11.6264, -87.0277, 7.42349
0.064, -1, -13.4254, 43.6675, 12.5969, -11.6253, -87.0264, 7.42266
0.068, -1, -13.4203, 43.6631, 12.598, -11.6236, -87.0244, 7.42132
0.072, -1, -13.4141, 43.6579, 12.5994, -11.6209, -87.0213, 7.41928
0.076, -1, -13.4066, 43.6516, 12.6011, -11.617, -87.0167, 7.4163
0.08, -1, -13.3977, 43.6442, 12.6034, -11.6115, -87.0103, 7.41213
0.084, -1, -13.3869, 43.6352, 12.6062, -11.604, -87.0016, 7.40644
0.088, -1, -13.3743, 43.6247, 12.6097, -11.5941, -86.9899, 7.39892
0.092, -1, -13.3596, 43.6124, 12.6138, -11.5812, -86.9748, 7.38918
0.096, -1, -13.3427, 43.5982, 12.6186, -11.5648, -86.9557, 7.37685
0.1, -1, -13.3235, 43.582, 12.6243, -11.5444, -86.9319, 7.36155
0.104, -1, -13.3019, 43.5636, 12.6308, -11.5196, -86.9029, 7.3429
0.108, -1, -13.2776, 43.5427, 12.6382, -11.4899, -86.868, 7.32054
0.112, -1, -13.2505, 43.5193, 12.6467, -11.4547, -86.8269, 7.29416
0.116, -1, -13.2206, 43.4932, 12.6562, -11.4137, -86.7789, 7.26346
0.12, -1, -13.1877, 43.4644, 12.6669, -11.3667, -86.7238, 7.22818
0.124, -1, -13.1519, 43.4328, 12.6786, -11.3132, -86.6612, 7.18814
0.128, -1, -13.113, 43.3984, 12.6916, -11.2532, -86.591, 7.14319
0.131, -1, -13.071, 43.3611, 12.7056, -11.1865, -86.5129, 7.09326
0.136, -1, -13.026, 43.321, 12.7209, -11.1131, -86.4269, 7.03835
0.139, -1, -12.9779, 43.2779, 12.7373, -11.0331, -86.3333, 6.9785
0.144, -1, -12.9267, 43.232, 12.7548, -10.9467, -86.2321, 6.91384
0.148, -1, -12.8726, 43.1833, 12.7734, -10.854, -86.1236, 6.84454
0.152, -1, -12.8155, 43.132, 12.7932, -10.7555, -86.0082, 6.77084
0.156, -1, -12.7557, 43.0781, 12.8139, -10.6514, -85.8863, 6.69301
0.16, -1, -12.6932, 43.0219, 12.8355, -10.5422, -85.7585, 6.61137
0.164, -1, -12.6282, 42.9633, 12.8581, -10.4284, -85.6253, 6.52627
0.168, -1, -12.5607, 42.9025, 12.8815, -10.3105, -85.4872, 6.43809
0.172, -1, -12.4909, 42.8396, 12.9056, -10.189, -85.3449, 6.34721
0.176, -1, -12.4189, 42.7749, 12.9305, -10.0644, -85.1989, 6.25399
0.18, -1, -12.345, 42.7085, 12.956, -9.93711, -85.0499, 6.15879
0.184, -1, -12.2694, 42.6406, 12.9821, -9.80765, -84.8983, 6.06194
0.188, -1, -12.1925, 42.5714, 13.0086, -9.6764, -84.7446, 5.96375
0.192, -1, -12.1142, 42.5011, 13.0356, -9.54373, -84.5892, 5.86449
0.196, -1, -12.0348, 42.4297, 13.0629, -9.40995, -84.4326, 5.76439
0.2, -1, -11.9542, 42.3573, 13.0906, -9.27534, -84.2749, 5.66366
0.204, -1, -11.8724, 42.2841, 13.1185, -9.14011, -84.1166, 5.56246
0.208, -1, -11.7897, 42.21, 13.1466, -9.00443, -83.9577, 5.46092
0.212, -1, -11.7061, 42.1354, 13.1749, -8.86843, -83.7985, 5.35913
0.216, -1, -11.6218, 42.0602, 13.2033, -8.7322, -83.6389, 5.25717
0.22, -1, -11.5371, 41.9847, 13.2318, -8.5958, -83.4792, 5.15507
0.224, -1, -11.452, 41.909, 13.2603, -8.45928, -83.3194, 5.05288
0.228, -1, -11.3667, 41.8332, 13.2889, -8.32266, -83.1594, 4.95062
0.232, -1, -11.2813, 41.7572, 13.3176, -8.18597, -82.9993, 4.8483
0.236, -1, -11.1957, 41.6811, 13.3462, -8.04922, -82.8392, 4.74595
0.24, -1, -11.11, 41.605, 13.3749, -7.91243, -82.679, 4.64355
0.244, -1, -11.0243, 41.5288, 13.4035, -7.77561, -82.5188, 4.54114
0.248, -1, -10.9386, 41.4526, 13.4322, -7.63876, -82.3586, 4.4387
0.252, -1, -10.8528, 41.3764, 13.4609, -7.50189, -82.1983, 4.33625
0.256, -1, -10.767, 41.3002, 13.4896, -7.36501, -82.0381, 4.2338
0.26, -1, -10.6811, 41.2239, 13.5183, -7.22813, -81.8778, 4.13133
0.264, -1, -10.5953, 41.1477, 13.547, -7.09125, -81.7175, 4.02887
0.268, -1, -10.5094, 41.0714, 13.5757, -6.95436, -81.5572, 3.92641
0.272, -1, -10.4236, 40.9952, 13.6044, -6.81749, -81.397, 3.82396
0.276, -1, -10.3378, 40.9189, 13.6331, -6.68063, -81.2367, 3.72151
0.28, -1, -10.252, 40.8427, 13.6618, -6.54379, -81.0765, 3.61908
0.284, -1, -10.1661, 40.7665, 13.6904, -6.40697, -80.9163, 3.51666
0.288, -1, -10.0803, 40.6903, 13.7191, -6.27017, -80.7561, 3.41427
0.292, -1, -9.99456, 40.6141, 13.7478, -6.13341, -80.596, 3.31189
0.296, -1, -9.9088, 40.538, 13.7764, -5.99668, -80.4359, 3.20955
0.3, -1, -9.82306, 40.4618, 13.8051, -5.85999, -80.2758, 3.10723
0.304, -1, -9.73734, 40.3857, 13.8337, -5.72334, -80.1158, 3.00494
0.308, -1, -9.65166, 40.3096, 13.8624, -5.58674, -79.9558, 2.90269
0.312, -1, -9.566, 40.2336, 13.891, -5.45019, -79.796, 2.80048
0.316, -1, -9.48038, 40.1575, 13.9196, -5.31369, -79.6361, 2.69831
0.32, -1, -9.3948, 40.0815, 13.9482, -5.17726, -79.4764, 2.59618
0.324, -1, -9.30925, 40.0055, 13.9768, -5.04089, -79.3167, 2.4941
0.328, -1, -9.22375, 39.9296, 14.0054, -4.90458, -79.1571, 2.39207
0.332, -1, -9.13829, 39.8537, 14.0339, -4.76835, -78.9976, 2.2901
0.336, -1, -9.05287, 39.7778, 14.0625, -4.63219, -78.8382, 2.18818
0.34, -1, -8.9675, 39.702, 14.091, -4.49612, -78.6788, 2.08632
0.344, -1, -8.88219, 39.6262, 14.1195, -4.36012, -78.5196, 1.98452
0.348, -1, -8.79692, 39.5505, 14.148, -4.22421, -78.3604, 1.88279
0.352, -1, -8.71172, 39.4748, 14.1765, -4.0884, -78.2014, 1.78113
0.356, -1, -8.62657, 39.3992, 14.2049, -3.95267, -78.0425, 1.67953
0.36, -1, -8.54148, 39.3236, 14.2334, -3.81705, -77.8837, 1.57801
0.364, -1, -8.45646, 39.2481, 14.2618, -3.68152, -77.725, 1.47657
0.368, -1, -8.3715, 39.1727, 14.2902, -3.54611, -77.5664, 1.3752
0.372, -1, -8.28661, 39.0973, 14.3185, -3.4108, -77.408, 1.27392
0.376, -1, -8.20179, 39.0219, 14.3469, -3.2756, -77.2497, 1.17272
0.38, -1, -8.11704, 38.9467, 14.3752, -3.14052, -77.0915, 1.07161
0.384, -1, -8.03237, 38.8715, 14.4035, -3.00557, -76.9335, 0.970588
0.388, -1, -7.94777, 38.7963, 14.4318, -2.87073, -76.7756, 0.869659
0.392, -1, -7.86325, 38.7212, 14.46, -2.73602, -76.6179, 0.768825
0.396, -1, -7.77881, 38.6463, 14.4882, -2.60145, -76.4603, 0.668089
0.4, -1, -7.69446, 38.5713, 14.5164, -2.467, -76.3029, 0.567454
0.404, -1, -7.61019, 38.4965, 14.5446, -2.3327, -76.1456, 0.466921
0.408, -1, -7.526, 38.4217, 14.5727, -2.19854, -75.9885, 0.366494
0.412, -1, -7.44191, 38.347, 14.6008, -2.06452, -75.8316, 0.266176
0.416, -1, -7.35791, 38.2724, 14.6288, -1.93064, -75.6748, 0.165968
0.42, -1, -7.274, 38.1979, 14.6569, -1.79692, -75.5183, 0.0658724
0.424, -1, -7.19019, 38.1235, 14.6849, -1.66336, -75.3619, -0.0341072
0.428, -1, -7.10648, 38.0491, 14.7128, -1.52995, -75.2057, -0.133969
0.432, -1, -7.02287, 37.9748, 14.7408, -1.3967, -75.0496, -0.233711
0.436, -1, -6.93935, 37.9007, 14.7687, -1.26362, -74.8938, -0.33333
0.44, -1, -6.85595, 37.8266, 14.7965, -1.1307, -74.7382, -0.432824
0.444, -1, -6.77264, 37.7526, 14.8244, -0.99795, -74.5827, -0.532191
0.448, -1, -6.68945, 37.6787, 14.8522, -0.865375, -74.4275, -0.631429
0.452, -1, -6.60636, 37.6049, 14.8799, -0.732975, -74.2725, -0.730535
0.456, -1, -6.52339, 37.5312, 14.9077, -0.600755, -74.1176, -0.829507
0.46, -1, -6.44053, 37.4576, 14.9353, -0.468716, -73.963, -0.928344
0.464, -1, -6.35778, 37.3842, 14.963, -0.336861, -73.8086, -1.02704
0.468, -1, -6.27515, 37.3108, 14.9906, -0.205193, -73.6545, -1.1256
0.472, -1, -6.19264, 37.2375, 15.0181, -0.0737153, -73.5005, -1.22402
0.476, -1, -6.11024, 37.1643, 15.0457, 0.0575699, -73.3468, -1.32229
0.48, -1, -6.02797, 37.0912, 15.0732, 0.18866, -73.1933, -1.42042
0.484, -1, -5.94582, 37.0183, 15.1006, 0.319552, -73.04, -1.51839
0.488, -1, -5.8638, 36.9454, 15.128, 0.450244, -72.887, -1.61622
0.492, -1, -5.7819, 36.8727, 15.1554, 0.580734, -72.7342, -1.7139
0.496, -1, -5.70012, 36.8001, 15.1827, 0.711018, -72.5817, -1.81142
0.5, -1, -5.61848, 36.7276, 15.2099, 0.841096, -72.4294, -1.90879
0.504, -1, -5.53697, 36.6552, 15.2372, 0.970964, -72.2773, -2.006
0.508, -1, -5.45558, 36.5829, 15.2644, 1.10062, -72.1255, -2.10306
0.512, -1, -5.37433, 36.5108, 15.2915, 1.23006, -71.9739, -2.19995
0.516, -1, -5.29321, 36.4387, 15.3186, 1.35929, -71.8226, -2.29668
0.52, -1, -5.21223, 36.3668, 15.3456, 1.4883, -71.6715, -2.39325
0.524, -1, -5.13138, 36.295, 15.3726, 1.6171, -71.5207, -2.48966
0.528, -1, -5.05067, 36.2233, 15.3996, 1.74567, -71.3702, -2.5859
0.532, -1, -4.97009, 36.1518, 15.4265, 1.87402, -71.2199, -2.68198
0.536, -1, -4.88966, 36.0803, 15.4534, 2.00215, -71.0698, -2.77789
0.54, -1, -4.80936, 36.009, 15.4802, 2.13005, -70.9201, -2.87363
0.544, -1, -4.7292, 35.9378, 15.507, 2.25773, -70.7706, -2.9692
0.548, -1, -4.64919, 35.8668, 15.5337, 2.38518, -70.6213, -3.0646
0.552, -1, -4.56931, 35.7959, 15.5604, 2.51241, -70.4724, -3.15984
0.556, -1, -4.48958, 35.725, 15.587, 2.6394, -70.3237, -3.2549
0.56, -1, -4.41, 35.6544, 15.6136, 2.76617, -70.1752, -3.34979
0.564, -1, -4.33056, 35.5838, 15.6401, 2.8927, -70.0271, -3.44451
0.568, -1, -4.25126, 35.5134, 15.6666, 3.01901, -69.8792, -3.53905
0.572, -1, -4.17211, 35.4431, 15.693, 3.14508, -69.7316, -3.63342
0.576, -1, -4.0931, 35.373, 15.7194, 3.27092, -69.5842, -3.72761
0.58, -1, -4.01424, 35.3029, 15.7458, 3.39652, -69.4372, -3.82163
0.584, -1, -3.93553, 35.233, 15.772, 3.52189, -69.2904, -3.91547
0.588, -1, -3.85696, 35.1633, 15.7983, 3.64702, -69.1438, -4.00914
0.592, -1, -3.77855, 35.0936, 15.8245, 3.77191, -68.9976, -4.10263
0.596, -1, -3.70028, 35.0241, 15.8506, 3.89657, -68.8516, -4.19594
0.6, -1, -3.62216, 34.9548, 15.8767, 4.02099, -68.7059, -4.28908
0.604, -1, -3.54419, 34.8855, 15.9027, 4.14517, -68.5605, -4.38203
0.608, -1, -3.46637, 34.8164, 15.9287, 4.26911, -68.4154, -4.47481
0.612, -1, -3.3887, 34.7474, 15.9547, 4.39281, -68.2706, -4.5674
0.616, -1, -3.31118, 34.6786, 15.9806, 4.51628, -68.126, -4.65982
0.62, -1, -3.23382, 34.6099, 16.0064, 4.63949, -67.9817, -4.75205
0.624, -1, -3.1566, 34.5413, 16.0322, 4.76247, -67.8377, -4.84411
0.628, -1, -3.07954, 34.4729, 16.0579, 4.88521, -67.694, -4.93598
0.632, -1, -3.00262, 34.4046, 16.0836, 5.0077, -67.5506, -5.02767
0.636, -1, -2.92586, 34.3364, 16.1092, 5.12995, -67.4074, -5.11918
0.64, -1, -2.84926, 34.2684, 16.1348, 5.25195, -67.2646, -5.2105
0.644, -1, -2.7728, 34.2005, 16.1604, 5.37371, -67.122, -5.30165
0.648, -1, -2.6965, 34.1328, 16.1858, 5.49523, -66.9797, -5.39261
0.652, -1, -2.62035, 34.0652, 16.2113, 5.6165, -66.8377, -5.48338
0.656, -1, -2.54436, 33.9977, 16.2366, 5.73753, -66.696, -5.57398
0.66, -1, -2.46852, 33.9303, 16.262, 5.85831, -66.5546, -5.66439
0.664, -1, -2.39283, 33.8631, 16.2872, 5.97884, -66.4135, -5.75461
0.668, -1, -2.3173, 33.7961, 16.3125, 6.09913, -66.2726, -5.84465
0.672, -1, -2.24192, 33.7291, 16.3376, 6.21917, -66.1321, -5.93451
0.676, -1, -2.1667, 33.6623, 16.3628, 6.33897, -65.9918, -6.02418
0.68, -1, -2.09163, 33.5957, 16.3878, 6.45851, -65.8518, -6.11367
0.684, -1, -2.01672, 33.5292, 16.4129, 6.57781, -65.7121, -6.20297
0.688, -1, -1.94196, 33.4628, 16.4378, 6.69687, -65.5727, -6.29208
0.692, -1, -1.86736, 33.3965, 16.4627, 6.81567, -65.4336, -6.38101
0.696, -1, -1.79291, 33.3304, 16.4876, 6.93423, -65.2948, -6.46976
0.7, -1, -1.71862, 33.2645, 16.5124, 7.05254, -65.1562, -6.55832
0.704, -1, -1.64448, 33.1986, 16.5372, 7.1706, -65.018, -6.64669
0.708, -1, -1.5705, 33.1329, 16.5619, 7.28841, -64.8801, -6.73488
0.712, -1, -1.49668, 33.0674, 16.5865, 7.40597, -64.7424, -6.82288
0.716, -1, -1.42301, 33.002, 16.6111, 7.52329, -64.605, -6.9107
0.72, -1, -1.34949, 32.9367, 16.6357, 7.64036, -64.468, -6.99833
0.724, -1, -1.27614, 32.8715, 16.6602, 7.75718, -64.3312, -7.08577
0.728, -1, -1.20293, 32.8065, 16.6846, 7.87375, -64.1947, -7.17303
0.732, -1, -1.12989, 32.7417, 16.709, 7.99007, -64.0585, -7.2601
0.736, -1, -1.057, 32.677, 16.7333, 8.10615, -63.9226, -7.34699
0.74, -1, -0.984259, 32.6124, 16.7576, 8.22197, -63.7869, -7.43369
0.744, -1, -0.911678, 32.5479, 16.7819, 8.33755, -63.6516, -7.52021
0.748, -1, -0.839252, 32.4836, 16.8061, 8.45288, -63.5166, -7.60653
0.752, -1, -0.766981, 32.4194, 16.8302, 8.56796, -63.3818, -7.69268
0.756, -1, -0.694864, 32.3554, 16.8543, 8.6828, -63.2474, -7.77864
0.76, -1, -0.622901, 32.2915, 16.8783, 8.79738, -63.1132, -7.86441
0.764, -1, -0.551092, 32.2277, 16.9023, 8.91172, -62.9793, -7.95
0.768, -1, -0.479437, 32.1641, 16.9262, 9.02582, -62.8457, -8.0354
0.772, -1, -0.407935, 32.1006, 16.9501, 9.13966, -62.7124, -8.12062
0.776, -1, -0.336586, 32.0373, 16.9739, 9.25326, -62.5794, -8.20566
0.78, -1, -0.26539, 31.9741, 16.9977, 9.36662, -62.4467, -8.29051
0.784, -1, -0.194346, 31.911, 17.0214, 9.47973, -62.3142, -8.37518
0.788, -1, -0.123455, 31.848, 17.0451, 9.5926, -62.182, -8.45966
0.792, -1, -0.0527154, 31.7852, 17.0687, 9.70522, -62.0502, -8.54397
0.796, -1, 0.0178725, 31.7226, 17.0923, 9.81761, -61.9186, -8.62809
0.8, -1, 0.0883091, 31.66, 17.1158, 9.92975, -61.7873, -8.71204
0.804, -1, 0.158595, 31.5976, 17.1393, 10.0417, -61.6562, -8.7958
0.808, -1, 0.22873, 31.5353, 17.1627, 10.1533, -61.5255, -8.87938
0.812, -1, 0.298716, 31.4732, 17.186, 10.2647, -61.395, -8.96279
0.816, -1, 0.368552, 31.4112, 17.2094, 10.3759, -61.2648, -9.04602
0.82, -1, 0.438239, 31.3493, 17.2326, 10.4869, -61.1349, -9.12907
0.824, -1, 0.507778, 31.2876, 17.2559, 10.5976, -61.0053, -9.21194
0.828, -1, 0.577169, 31.226, 17.279, 10.7081, -60.8759, -9.29464
0.832, -1, 0.646413, 31.1645, 17.3021, 10.8183, -60.7468, -9.37716
0.836, -1, 0.71551, 31.1031, 17.3252, 10.9283, -60.618, -9.45951
0.84, -1, 0.78446, 31.0419, 17.3482, 11.0381, -60.4895, -9.54168
0.844, -1, 0.853266, 30.9808, 17.3712, 11.1476, -60.3612, -9.62368
0.848, -1, 0.921925, 30.9199, 17.3941, 11.2569, -60.2332, -9.7055
0.852, -1, 0.990441, 30.859, 17.417, 11.366, -60.1055, -9.78716
0.856, -1, 1.05881, 30.7983, 17.4398, 11.4749, -59.9781, -9.86864
0.86, -1, 1.12704, 30.7378, 17.4626, 11.5835, -59.8509, -9.94995
0.864, -1, 1.19512, 30.6773, 17.4854, 11.6919, -59.7239, -10.0311
0.868, -1, 1.26307, 30.617, 17.508, 11.8001, -59.5973, -10.1121
0.872, -1, 1.33087, 30.5568, 17.5307, 11.908, -59.4709, -10.1929
0.876, -1, 1.39853, 30.4967, 17.5533, 12.0157, -59.3448, -10.2735
0.88, -1, 1.46604, 30.4368, 17.5758, 12.1232, -59.2189, -10.354
0.884, -1, 1.53342, 30.377, 17.5983, 12.2305, -59.0933, -10.4343
0.888, -1, 1.60066, 30.3173, 17.6208, 12.3375, -58.9679, -10.5144
0.892, -1, 1.66775, 30.2577, 17.6432, 12.4444, -58.8429, -10.5943
0.896, -1, 1.73471, 30.1982, 17.6655, 12.551, -58.718, -10.6741
0.9, -1, 1.80153, 30.1389, 17.6878, 12.6574, -58.5935, -10.7538
0.904, -1, 1.86821, 30.0797, 17.7101, 12.7635, -58.4692, -10.8332
0.908, -1, 1.93476, 30.0206, 17.7323, 12.8695, -58.3451, -10.9125
0.912, -1, 2.00117, 29.9617, 17.7545, 12.9752, -58.2213, -10.9917
0.916, -1, 2.06744, 29.9028, 17.7766, 13.0807, -58.0978, -11.0707
0.92, -1, 2.13357, 29.8441, 17.7987, 13.186, -57.9745, -11.1495
0.924, -1, 2.19957, 29.7855, 17.8207, 13.2911, -57.8514, -11.2281
0.928, -1, 2.26543, 29.727, 17.8427, 13.3959, -57.7287, -11.3066
0.932, -1, 2.33116, 29.6687, 17.8647, 13.5006, -57.6061, -11.385
0.936, -1, 2.39676, 29.6104, 17.8866, 13.605, -57.4838, -11.4631
0.94, -1, 2.46222, 29.5523, 17.9084, 13.7092, -57.3618, -11.5412
0.944, -1, 2.52755, 29.4943, 17.9303, 13.8133, -57.24, -11.619
0.948, -1, 2.59275, 29.4364, 17.952, 13.9171, -57.1185, -11.6967
0.952, -1, 2.65781, 29.3787, 17.9738, 14.0206, -56.9972, -11.7743
0.956, -1, 2.72274, 29.321, 17.9954, 14.124, -56.8761, -11.8516
0.96, -1, 2.78755, 29.2635, 18.0171, 14.2272, -56.7553, -11.9289
0.964, -1, 2.85222, 29.2061, 18.0387, 14.3302, -56.6348, -12.0059
0.968, -1, 2.91676, 29.1488, 18.0602, 14.4329, -56.5144, -12.0829
0.972, -1, 2.98117, 29.0916, 18.0817, 14.5355, -56.3944, -12.1596
0.976, -1, 3.04545, 29.0345, 18.1032, 14.6378, -56.2745, -12.2362
0.98, -1, 3.10961, 28.9775, 18.1246, 14.7399, -56.1549, -12.3127
0.984, -1, 3.17363, 28.9207, 18.146, 14.8419, -56.0356, -12.389
0.988, -1, 3.23753, 28.864, 18.1673, 14.9436, -55.9165, -12.4651
0.992, -1, 3.3013, 28.8074, 18.1886, 15.0451, -55.7976, -12.5411
0.996, -1, 3.36494, 28.7508, 18.2099, 15.1465, -55.6789, -12.617
1, -1, 3.42846, 28.6945, 18.2311, 15.2476, -55.5605, -12.6927
1.004, -1, 3.49185, 28.6382, 18.2523, 15.3485, -55.4423, -12.7682
1.008, -1, 3.55512, 28.582, 18.2734, 15.4492, -55.3244, -12.8436
1.012, -1, 3.61826, 28.5259, 18.2945, 15.5498, -55.2067, -12.9189
1.016, -1, 3.68127, 28.47, 18.3155, 15.6501, -55.0892, -12.994
1.02, -1, 3.74416, 28.4142, 18.3365, 15.7502, -54.972, -13.0689
1.024, -1, 3.80693, 28.3584, 18.3575, 15.8502, -54.855, -13.1437
1.027, -1, 3.86958, 28.3028, 18.3784, 15.9499, -54.7382, -13.2184
1.032, -1, 3.9321, 28.2473, 18.3993, 16.0494, -54.6216, -13.2929
1.036, -1, 3.9945, 28.1919, 18.4201, 16.1488, -54.5053, -13.3673
1.04, -1, 4.05678, 28.1366, 18.4409, 16.2479, -54.3892, -13.4415
1.044, -1, 4.11893, 28.0814, 18.4616, 16.3469, -54.2733, -13.5156
1.048, -1, 4.18097, 28.0263, 18.4824, 16.4457, -54.1577, -13.5895
1.052, -1, 4.24289, 27.9714, 18.503, 16.5442, -54.0422, -13.6633
1.055, -1, 4.30468, 27.9165, 18.5237, 16.6426, -53.927, -13.7369
1.06, -1, 4.36636, 27.8617, 18.5443, 16.7408, -53.8121, -13.8104
1.064, -1, 4.42792, 27.8071, 18.5648, 16.8388, -53.6973, -13.8838
1.068, -1, 4.48936, 27.7525, 18.5853, 16.9366, -53.5828, -13.957
1.072, -1, 4.55068, 27.6981, 18.6058, 17.0343, -53.4685, -14.0301
1.076, -1, 4.61188, 27.6438, 18.6262, 17.1317, -53.3544, -14.103
1.08, -1, 4.67297, 27.5895, 18.6466, 17.229, -53.2405, -14.1758
1.084, -1, 4.73394, 27.5354, 18.667, 17.326, -53.1268, -14.2485
1.088, -1, 4.7948, 27.4814, 18.6873, 17.4229, -53.0134, -14.321
1.091, -1, 4.85554, 27.4274, 18.7076, 17.5196, -52.9002, -14.3934
1.096, -1, 4.91617, 27.3736, 18.7278, 17.6161, -52.7871, -14.4656
1.1, -1, 4.97668, 27.3199, 18.7481, 17.7125, -52.6743, -14.5378
1.104, -1, 5.03708, 27.2663, 18.7682, 17.8086, -52.5618, -14.6097
1.108, -1, 5.09737, 27.2127, 18.7883, 17.9046, -52.4494, -14.6816
1.112, -1, 5.15754, 27.1593, 18.8084, 18.0004, -52.3372, -14.7533
1.116, -1, 5.2176, 27.106, 18.8285, 18.096, -52.2253, -14.8249
1.119, -1, 5.27755, 27.0528, 18.8485, 18.1915, -52.1135, -14.8963
1.124, -1, 5.33739, 26.9996, 18.8685, 18.2867, -52.0019, -14.9676
1.128, -1, 5.39712, 26.9466, 18.8884, 18.3818, -51.8906, -15.0388
1.132, -1, 5.45673, 26.8937, 18.9083, 18.4767, -51.7795, -15.1098
1.136, -1, 5.51624, 26.8408, 18.9282, 18.5715, -51.6685, -15.1807
1.14, -1, 5.57564, 26.7881, 18.948, 18.666, -51.5578, -15.2515
1.144, -1, 5.63493, 26.7355, 18.9678, 18.7604, -51.4473, -15.3222
1.147, -1, 5.69412, 26.6829, 18.9876, 18.8547, -51.337, -15.3927
1.152, -1, 5.75319, 26.6305, 19.0073, 18.9487, -51.2268, -15.4631
1.156, -1, 5.81216, 26.5781, 19.027, 19.0426, -51.1169, -15.5334
1.16, -1, 5.87103, 26.5259, 19.0467, 19.1363, -51.0072, -15.6035
1.164, -1, 5.92979, 26.4737, 19.0663, 19.2298, -50.8976, -15.6736
1.168, -1, 5.98844, 26.4216, 19.0859, 19.3232, -50.7883, -15.7435
1.172, -1, 6.04699, 26.3696, 19.1054, 19.4164, -50.6792, -15.8132
1.175, -1, 6.10543, 26.3177, 19.1249, 19.5095, -50.5702, -15.8829
1.18, -1, 6.16377, 26.266, 19.1444, 19.6024, -50.4614, -15.9524
1.184, -1, 6.22201, 26.2142, 19.1639, 19.6951, -50.3529, -16.0218
1.188, -1, 6.28015, 26.1626, 19.1833, 19.7876, -50.2445, -16.0911
1.192, -1, 6.33818, 26.1111, 19.2027, 19.88, -50.1363, -16.1603
1.196, -1, 6.39611, 26.0597, 19.222, 19.9723, -50.0283, -16.2293
1.2, -1, 6.45394, 26.0083, 19.2413, 20.0643, -49.9205, -16.2982
1.204, -1, 6.51167, 25.9571, 19.2606, 20.1562, -49.8129, -16.367
1.208, -1, 6.5693, 25.9059, 19.2798, 20.248, -49.7055, -16.4357
1.212, -1, 6.62683, 25.8548, 19.299, 20.3396, -49.5982, -16.5042
1.216, -1, 6.68426, 25.8038, 19.3182, 20.431, -49.4912, -16.5727
1.22, -1, 6.74159, 25.7529, 19.3374, 20.5223, -49.3843, -16.641
1.224, -1, 6.79882, 25.7021, 19.3565, 20.6134, -49.2776, -16.7092
1.228, -1, 6.85596, 25.6514, 19.3756, 20.7044, -49.1711, -16.7773
1.232, -1, 6.91299, 25.6008, 19.3946, 20.7952, -49.0648, -16.8453
1.236, -1, 6.96993, 25.5502, 19.4136, 20.8858, -48.9586, -16.9131
1.24, -1, 7.02678, 25.4997, 19.4326, 20.9763, -48.8526, -16.9809
1.244, -1, 7.08352, 25.4494, 19.4515, 21.0667, -48.7469, -17.0485
1.248, -1, 7.14018, 25.3991, 19.4705, 21.1569, -48.6413, -17.116
1.252, -1, 7.19673, 25.3488, 19.4893, 21.2469, -48.5358, -17.1834
1.256, -1, 7.25319, 25.2987, 19.5082, 21.3368, -48.4306, -17.2507
1.26, -1, 7.30956, 25.2487, 19.527, 21.4266, -48.3255, -17.3179
1.264, -1, 7.36583, 25.1987, 19.5458, 21.5161, -48.2206, -17.385
1.267, -1, 7.42201, 25.1488, 19.5646, 21.6056, -48.1158, -17.4519
1.272, -1, 7.4781, 25.099, 19.5833, 21.6949, -48.0113, -17.5188
1.276, -1, 7.53409, 25.0493, 19.602, 21.784, -47.9069, -17.5855
1.28, -1, 7.58999, 24.9997, 19.6207, 21.873, -47.8027, -17.6521
1.284, -1, 7.6458, 24.9501, 19.6393, 21.9619, -47.6986, -17.7186
1.288, -1, 7.70152, 24.9007, 19.6579, 22.0506, -47.5948, -17.785
1.292, -1, 7.75715, 24.8513, 19.6765, 22.1392, -47.4911, -17.8513
1.295, -1, 7.81268, 24.802, 19.695, 22.2276, -47.3875, -17.9175
1.3, -1, 7.86813, 24.7528, 19.7135, 22.3159, -47.2842, -17.9836
1.304, -1, 7.92348, 24.7036, 19.732, 22.404, -47.181, -18.0496
1.308, -1, 7.97875, 24.6545, 19.7505, 22.492, -47.0779, -18.1154
1.312, -1, 8.03393, 24.6055, 19.7689, 22.5798, -46.9751, -18.1812
1.316, -1, 8.08901, 24.5566, 19.7873, 22.6675, -46.8724, -18.2468
1.32, -1, 8.14401, 24.5078, 19.8057, 22.7551, -46.7699, -18.3124
1.324, -1, 8.19893, 24.4591, 19.824, 22.8425, -46.6675, -18.3778
1.328, -1, 8.25375, 24.4104, 19.8423, 22.9298, -46.5653, -18.4432
1.332, -1, 8.30849, 24.3618, 19.8606, 23.017, -46.4632, -18.5084
1.336, -1, 8.36314, 24.3133, 19.8788, 23.104, -46.3614, -18.5735
1.34, -1, 8.4177, 24.2648, 19.8971, 23.1909, -46.2596, -18.6386
1.344, -1, 8.47218, 24.2165, 19.9153, 23.2776, -46.1581, -18.7035
1.348, -1, 8.52657, 24.1682, 19.9334, 23.3642, -46.0567, -18.7683
1.352, -1, 8.58088, 24.1199, 19.9515, 23.4507, -45.9554, -18.833
1.356, -1, 8.6351, 24.0718, 19.9697, 23.537, -45.8543, -18.8976
1.36, -1, 8.68923, 24.0237, 19.9877, 23.6232, -45.7534, -18.9622
1.364, -1, 8.74328, 23.9757, 20.0058, 23.7092, -45.6526, -19.0266
1.368, -1, 8.79725, 23.9278, 20.0238, 23.7952, -45.552, -19.0909
1.372, -1, 8.85114, 23.88, 20.0418, 23.881, -45.4516, -19.1551
1.376, -1, 8.90494, 23.8322, 20.0598, 23.9666, -45.3513, -19.2192
1.38, -1, 8.95866, 23.7845, 20.0777, 24.0521, -45.2511, -19.2833
1.384, -1, 9.01229, 23.7369, 20.0956, 24.1375, -45.1511, -19.3472
1.388, -1, 9.06584, 23.6894, 20.1135, 24.2228, -45.0513, -19.411
1.392, -1, 9.11932, 23.6419, 20.1314, 24.3079, -44.9516, -19.4747
1.396, -1, 9.1727, 23.5945, 20.1492, 24.393, -44.8521, -19.5384
1.4, -1, 9.22601, 23.5472, 20.167, 24.4778, -44.7527, -19.6019
1.404, -1, 9.27924, 23.4999, 20.1848, 24.5626, -44.6535, -19.6653
1.408, -1, 9.33239, 23.4527, 20.2025, 24.6472, -44.5544, -19.7287
1.412, -1, 9.38546, 23.4056, 20.2202, 24.7317, -44.4554, -19.7919
1.416, -1, 9.43844, 23.3585, 20.2379, 24.8161, -44.3567, -19.8551
1.42, -1, 9.49135, 23.3116, 20.2556, 24.9003, -44.258, -19.9181
1.424, -1, 9.54418, 23.2647, 20.2732, 24.9844, -44.1595, -19.9811
1.428, -1, 9.59693, 23.2178, 20.2908, 25.0684, -44.0612, -20.044
1.432, -1, 9.6496, 23.1711, 20.3084, 25.1523, -43.963, -20.1067
1.436, -1, 9.7022, 23.1244, 20.326, 25.236, -43.865, -20.1694
1.44, -1, 9.75472, 23.0777, 20.3435, 25.3196, -43.767, -20.232
1.444, -1, 9.80716, 23.0312, 20.361, 25.4031, -43.6693, -20.2945
1.448, -1, 9.85952, 22.9847, 20.3785, 25.4865, -43.5717, -20.3569
1.452, -1, 9.91181, 22.9383, 20.396, 25.5697, -43.4742, -20.4192
1.456, -1, 9.96403, 22.8919, 20.4134, 25.6528, -43.3769, -20.4814
1.46, -1, 10.0162, 22.8456, 20.4308, 25.7358, -43.2797, -20.5436
1.464, -1, 10.0682, 22.7994, 20.4482, 25.8187, -43.1826, -20.6056
1.468, -1, 10.1202, 22.7533, 20.4656, 25.9015, -43.0857, -20.6676
1.472, -1, 10.1721, 22.7072, 20.4829, 25.9841, -42.989, -20.7294
1.476, -1, 10.224, 22.6612, 20.5002, 26.0666, -42.8923, -20.7912
1.48, -1, 10.2757, 22.6152, 20.5175, 26.149, -42.7958, -20.8529
1.484, -1, 10.3274, 22.5693, 20.5348, 26.2313, -42.6995, -20.9145
1.488, -1, 10.379, 22.5235, 20.552, 26.3135, -42.6033, -20.976
1.492, -1, 10.4306, 22.4777, 20.5692, 26.3956, -42.5072, -21.0374
1.496, -1, 10.482, 22.432, 20.5864, 26.4775, -42.4113, -21.0987
1.5, -1, 10.5334, 22.3864, 20.6035, 26.5593, -42.3154, -21.16
1.504, -1, 10.5848, 22.3408, 20.6207, 26.641, -42.2198, -21.2212
1.508, -1, 10.636, 22.2953, 20.6378, 26.7226, -42.1242, -21.2822
1.512, -1, 10.6872, 22.2499, 20.6549, 26.8041, -42.0288, -21.3432
1.516, -1, 10.7383, 22.2045, 20.6719, 26.8855, -41.9336, -21.4041
1.52, -1, 10.7893, 22.1592, 20.689, 26.9667, -41.8384, -21.4649
1.524, -1, 10.8403, 22.114, 20.706, 27.0479, -41.7434, -21.5257
1.528, -1, 10.8912, 22.0688, 20.723, 27.1289, -41.6485, -21.5863
1.532, -1, 10.942, 22.0237, 20.74, 27.2098, -41.5538, -21.6469
1.536, -1, 10.9928, 21.9786, 20.7569, 27.2906, -41.4592, -21.7074
1.54, -1, 11.0435, 21.9336, 20.7738, 27.3713, -41.3647, -21.7678
1.544, -1, 11.0941, 21.8887, 20.7908, 27.4519, -41.2703, -21.8281
1.548, -1, 11.1446, 21.8438, 20.8076, 27.5324, -41.1761, -21.8884
1.552, -1, 11.1951, 21.799, 20.8245, 27.6127, -41.082, -21.9485
1.556, -1, 11.2455, 21.7542, 20.8413, 27.693, -40.988, -22.0086
1.56, -1, 11.2959, 21.7095, 20.8581, 27.7732, -40.8941, -22.0686
1.564, -1, 11.3462, 21.6649, 20.8749, 27.8532, -40.8004, -22.1285
1.568, -1, 11.3964, 21.6203, 20.8917, 27.9331, -40.7068, -22.1884
1.572, -1, 11.4465, 21.5758, 20.9084, 28.013, -40.6133, -22.2481
1.576, -1, 11.4966, 21.5313, 20.9251, 28.0927, -40.52, -22.3078
1.58, -1, 11.5466, 21.4869, 20.9418, 28.1723, -40.4268, -22.3674
1.584, -1, 11.5965, 21.4426, 20.9585, 28.2518, -40.3336, -22.4269
1.588, -1, 11.6464, 21.3983, 20.9752, 28.3313, -40.2407, -22.4864
1.592, -1, 11.6962, 21.3541, 20.9918, 28.4106, -40.1478, -22.5457
1.596, -1, 11.746, 21.3099, 21.0084, 28.4898, -40.0551, -22.605
1.6, -1, 11.7957, 21.2658, 21.025, 28.5689, -39.9624, -22.6642
1.604, -1, 11.8453, 21.2217, 21.0416, 28.6479, -39.8699, -22.7234
1.608, -1, 11.8948, 21.1778, 21.0581, 28.7268, -39.7776, -22.7824
1.612, -1, 11.9443, 21.1338, 21.0747, 28.8055, -39.6853, -22.8414
1.616, -1, 11.9938, 21.0899, 21.0912, 28.8842, -39.5932, -22.9003
1.62, -1, 12.0431, 21.0461, 21.1076, 28.9628, -39.5011, -22.9591
1.624, -1, 12.0924, 21.0023, 21.1241, 29.0413, -39.4092, -23.0179
1.628, -1, 12.1417, 20.9586, 21.1405, 29.1197, -39.3174, -23.0765
1.632, -1, 12.1908, 20.915, 21.157, 29.198, -39.2258, -23.1352
1.636, -1, 12.2399, 20.8714, 21.1734, 29.2762, -39.1342, -23.1937
1.64, -1, 12.289, 20.8278, 21.1897, 29.3543, -39.0428, -23.2521
1.644, -1, 12.338, 20.7843, 21.2061, 29.4323, -38.9515, -23.3105
1.648, -1, 12.3869, 20.7409, 21.2224, 29.5102, -38.8603, -23.3688
1.652, -1, 12.4358, 20.6975, 21.2388, 29.588, -38.7692, -23.4271
1.656, -1, 12.4846, 20.6542, 21.2551, 29.6657, -38.6782, -23.4852
1.66, -1, 12.5333, 20.6109, 21.2713, 29.7433, -38.5873, -23.5433
1.664, -1, 12.582, 20.5677, 21.2876, 29.8208, -38.4966, -23.6013
1.668, -1, 12.6306, 20.5245, 21.3038, 29.8982, -38.4059, -23.6593
1.672, -1, 12.6792, 20.4814, 21.32, 29.9755, -38.3154, -23.7171
1.676, -1, 12.7277, 20.4384, 21.3362, 30.0527, -38.225, -23.7749
1.68, -1, 12.7761, 20.3953, 21.3524, 30.1298, -38.1347, -23.8327
1.684, -1, 12.8245, 20.3524, 21.3686, 30.2069, -38.0445, -23.8903
1.688, -1, 12.8728, 20.3095, 21.3847, 30.2838, -37.9544, -23.9479
1.692, -1, 12.9211, 20.2666, 21.4008, 30.3606, -37.8644, -24.0054
1.696, -1, 12.9693, 20.2238, 21.4169, 30.4374, -37.7746, -24.0629
1.7, -1, 13.0174, 20.1811, 21.433, 30.514, -37.6848, -24.1203
1.704, -1, 13.0655, 20.1384, 21.449, 30.5906, -37.5951, -24.1776
1.708, -1, 13.1136, 20.0958, 21.4651, 30.6671, -37.5056, -24.2348
1.712, -1, 13.1615, 20.0532, 21.4811, 30.7435, -37.4162, -24.292
1.716, -1, 13.2094, 20.0106, 21.4971, 30.8197, -37.3269, -24.3491
1.72, -1, 13.2573, 19.9681, 21.5131, 30.8959, -37.2376, -24.4061
1.724, -1, 13.3051, 19.9257, 21.529, 30.972, -37.1485, -24.4631
1.728, -1, 13.3528, 19.8833, 21.545, 31.0481, -37.0595, -24.52
1.732, -1, 13.4005, 19.841, 21.5609, 31.124, -36.9706, -24.5768
1.736, -1, 13.4482, 19.7987, 21.5768, 31.1998, -36.8818, -24.6336
1.74, -1, 13.4957, 19.7565, 21.5927, 31.2756, -36.7931, -24.6903
1.744, -1, 13.5433, 19.7143, 21.6086, 31.3512, -36.7045, -24.7469
1.748, -1, 13.5907, 19.6721, 21.6244, 31.4268, -36.6161, -24.8035
1.752, -1, 13.6381, 19.63, 21.6402, 31.5023, -36.5277, -24.86
1.756, -1, 13.6855, 19.588, 21.6561, 31.5776, -36.4394, -24.9164
1.76, -1, 13.7328, 19.546, 21.6719, 31.6529, -36.3512, -24.9728
1.764, -1, 13.78, 19.5041, 21.6876, 31.7282, -36.2632, -25.0291
1.768, -1, 13.8272, 19.4622, 21.7034, 31.8033, -36.1752, -25.0853
1.772, -1, 13.8743, 19.4203, 21.7191, 31.8783, -36.0873, -25.1415
1.776, -1, 13.9214, 19.3785, 21.7348, 31.9533, -35.9996, -25.1976
1.78, -1, 13.9684, 19.3368, 21.7505, 32.0281, -35.9119, -25.2536
1.784, -1, 14.0154, 19.2951, 21.7662, 32.1029, -35.8243, -25.3096
1.788, -1, 14.0623, 19.2534, 21.7819, 32.1776, -35.7369, -25.3655
1.792, -1, 14.1092, 19.2118, 21.7975, 32.2522, -35.6495, -25.4214
1.796, -1, 14.156, 19.1703, 21.8132, 32.3268, -35.5622, -25.4772
1.8, -1, 14.2027, 19.1288, 21.8288, 32.4012, -35.4751, -25.5329
1.804, -1, 14.2494, 19.0873, 21.8444, 32.4756, -35.388, -25.5886
1.808, -1, 14.2961, 19.0459, 21.86, 32.5498, -35.301, -25.6442
1.812, -1, 14.3427, 19.0045, 21.8755, 32.624, -35.2142, -25.6997
1.816, -1, 14.3892, 18.9632, 21.8911, 32.6981, -35.1274, -25.7552
1.82, -1, 14.4357, 18.9219, 21.9066, 32.7722, -35.0407, -25.8106
1.824, -1, 14.4822, 18.8807, 21.9221, 32.8461, -34.9541, -25.8659
1.828, -1, 14.5286, 18.8395, 21.9376, 32.92, -34.8676, -25.9212
1.832, -1, 14.5749, 18.7983, 21.9531, 32.9938, -34.7813, -25.9764
1.836, -1, 14.6212, 18.7572, 21.9685, 33.0675, -34.695, -26.0316
1.84, -1, 14.6674, 18.7162, 21.984, 33.1411, -34.6088, -26.0867
1.844, -1, 14.7136, 18.6752, 21.9994, 33.2146, -34.5227, -26.1418
1.848, -1, 14.7598, 18.6342, 22.0148, 33.2881, -34.4367, -26.1967
1.852, -1, 14.8058, 18.5933, 22.0302, 33.3614, -34.3507, -26.2517
1.856, -1, 14.8519, 18.5524, 22.0456, 33.4347, -34.2649, -26.3065
1.86, -1, 14.8979, 18.5116, 22.0609, 33.5079, -34.1792, -26.3613
1.864, -1, 14.9438, 18.4708, 22.0762, 33.5811, -34.0936, -26.4161
1.868, -1, 14.9897, 18.4301, 22.0916, 33.6541, -34.008, -26.4708
1.872, -1, 15.0355, 18.3894, 22.1069, 33.7271, -33.9226, -26.5254
1.876, -1, 15.0813, 18.3487, 22.1222, 33.8, -33.8372, -26.58
1.88, -1, 15.127, 18.3081, 22.1374, 33.8728, -33.7519, -26.6345
1.884, -1, 15.1727, 18.2676, 22.1527, 33.9456, -33.6668, -26.6889
1.888, -1, 15.2184, 18.227, 22.1679, 34.0182, -33.5817, -26.7433
1.892, -1, 15.264, 18.1866, 22.1832, 34.0908, -33.4967, -26.7976
1.896, -1, 15.3095, 18.1461, 22.1984, 34.1633, -33.4118, -26.8519
1.9, -1, 15.355, 18.1057, 22.2136, 34.2358, -33.3269, -26.9062
1.904, -1, 15.4004, 18.0654, 22.2287, 34.3081, -33.2422, -26.9603
1.908, -1, 15.4458, 18.0251, 22.2439, 34.3804, -33.1576, -27.0144
1.912, -1, 15.4912, 17.9848, 22.259, 34.4526, -33.073, -27.0685
1.916, -1, 15.5365, 17.9446, 22.2742, 34.5248, -32.9886, -27.1225
1.92, -1, 15.5818, 17.9044, 22.2893, 34.5968, -32.9042, -27.1764
1.924, -1, 15.627, 17.8643, 22.3044, 34.6688, -32.8199, -27.2303
1.928, -1, 15.6721, 17.8242, 22.3195, 34.7407, -32.7357, -27.2841
1.932, -1, 15.7173, 17.7841, 22.3345, 34.8126, -32.6516, -27.3379
1.936, -1, 15.7623, 17.7441, 22.3496, 34.8843, -32.5676, -27.3916
1.94, -1, 15.8073, 17.7041, 22.3646, 34.956, -32.4836, -27.4453
1.944, -1, 15.8523, 17.6642, 22.3796, 35.0276, -32.3997, -27.4989
1.948, -1, 15.8973, 17.6243, 22.3946, 35.0992, -32.316, -27.5524
1.952, -1, 15.9422, 17.5844, 22.4096, 35.1707, -32.2323, -27.6059
1.956, -1, 15.987, 17.5446, 22.4246, 35.2421, -32.1487, -27.6594
1.96, -1, 16.0318, 17.5048, 22.4396, 35.3134, -32.0652, -27.7128
1.964, -1, 16.0765, 17.4651, 22.4545, 35.3846, -31.9817, -27.7661
1.968, -1, 16.1212, 17.4254, 22.4694, 35.4558, -31.8984, -27.8194
1.972, -1, 16.1659, 17.3858, 22.4844, 35.5269, -31.8151, -27.8726
1.976, -1, 16.2105, 17.3461, 22.4993, 35.598, -31.7319, -27.9258
1.98, -1, 16.2551, 17.3066, 22.5141, 35.6689, -31.6488, -27.9789
1.984, -1, 16.2996, 17.267, 22.529, 35.7398, -31.5658, -28.032
1.988, -1, 16.3441, 17.2275, 22.5439, 35.8107, -31.4829, -28.085
1.992, -1, 16.3886, 17.1881, 22.5587, 35.8814, -31.4, -28.138
1.996, -1, 16.433, 17.1487, 22.5735, 35.9521, -31.3173, -28.1909
1.999, -1, 16.4773, 17.1093, 22.5883, 36.0228, -31.2346, -28.2438
2.004, -1, 16.5216, 17.0699, 22.6031, 36.0933, -31.1519, -28.2966
2.008, -1, 16.5659, 17.0306, 22.6179, 36.1638, -31.0694, -28.3493
2.012, -1, 16.6101, 16.9914, 22.6327, 36.2342, -30.987, -28.4021
2.015, -1, 16.6543, 16.9521, 22.6474, 36.3046, -30.9046, -28.4547
2.019, -1, 16.6984, 16.9129, 22.6622, 36.3748, -30.8223, -28.5073
2.024, -1, 16.7425, 16.8738, 22.6769, 36.445, -30.7401, -28.5599
2.028, -1, 16.7866, 16.8347, 22.6916, 36.5152, -30.658, -28.6124
2.031, -1, 16.8306, 16.7956, 22.7063, 36.5853, -30.5759, -28.6648
2.036, -1, 16.8746, 16.7566, 22.721, 36.6553, -30.4939, -28.7172
2.04, -1, 16.9185, 16.7176, 22.7357, 36.7252, -30.412, -28.7696
2.044, -1, 16.9624, 16.6786, 22.7503, 36.7951, -30.3302, -28.8219
2.048, -1, 17.0062, 16.6397, 22.765, 36.8649, -30.2485, -28.8742
2.051, -1, 17.05, 16.6008, 22.7796, 36.9346, -30.1668, -28.9264
2.055, -1, 17.0938, 16.5619, 22.7942, 37.0043, -30.0852, -28.9785
2.06, -1, 17.1375, 16.5231, 22.8088, 37.0739, -30.0037, -29.0306
2.064, -1, 17.1811, 16.4844, 22.8234, 37.1435, -29.9223, -29.0827
2.068, -1, 17.2244, 16.4458, 22.8379, 37.2129, -29.841, -29.1347
2.071, -1, 17.2671, 16.4077, 22.8523, 37.2823, -29.7597, -29.1866
2.076, -1, 17.3088, 16.3701, 22.8666, 37.3515, -29.6787, -29.2384
2.08, -1, 17.3495, 16.3335, 22.8807, 37.4204, -29.5981, -29.29
2.084, -1, 17.3888, 16.2979, 22.8945, 37.4888, -29.518, -29.3412
2.087, -1, 17.4267, 16.2635, 22.9079, 37.5564, -29.4389, -29.3918
2.092, -1, 17.4632, 16.2306, 22.921, 37.6229, -29.3611, -29.4417
2.096, -1, 17.4983, 16.1992, 22.9337, 37.6879, -29.2851, -29.4903
2.1, -1, 17.5321, 16.1694, 22.9459, 37.7508, -29.2115, -29.5374
2.104, -1, 17.5644, 16.1411, 22.9576, 37.8112, -29.1408, -29.5827
2.107, -1, 17.5951, 16.1145, 22.9686, 37.8686, -29.0737, -29.6257
2.111, -1, 17.624, 16.0896, 22.9791, 37.9226, -29.0106, -29.6661
2.116, -1, 17.6513, 16.0662, 22.9888, 37.9726, -28.9521, -29.7035
2.12, -1, 17.6768, 16.044, 22.9978, 38.0183, -28.8986, -29.7378
2.124, -1, 17.7009, 16.023, 23.0061, 38.0595, -28.8504, -29.7686
2.127, -1, 17.7234, 16.0029, 23.0137, 38.0959, -28.8078, -29.7958
2.132, -1, 17.7446, 15.9838, 23.0205, 38.1275, -28.7707, -29.8195
2.136, -1, 17.7642, 15.9657, 23.0267, 38.1546, -28.739, -29.8397
2.14, -1, 17.7823, 15.9489, 23.0321, 38.1772, -28.7125, -29.8566
2.143, -1, 17.7986, 15.9337, 23.0368, 38.1957, -28.6907, -29.8705
2.148, -1, 17.8131, 15.9202, 23.0409, 38.2106, -28.6732, -29.8816
2.152, -1, 17.8259, 15.9085, 23.0443, 38.2223, -28.6594, -29.8904
2.156, -1, 17.8371, 15.8987, 23.0471, 38.2313, -28.6488, -29.8971
2.16, -1, 17.8467, 15.8905, 23.0494, 38.2381, -28.6409, -29.9021
2.163, -1, 17.855, 15.8838, 23.0513, 38.243, -28.635, -29.9058
2.168, -1, 17.8619, 15.8785, 23.0527, 38.2465, -28.6308, -29.9084
2.172, -1, 17.8674, 15.8744, 23.0538, 38.249, -28.6279, -29.9103
2.176, 2, 17.8716, 15.8714, 23.0546, 38.2507, -28.6258, -29.9115
2.179, 2, 17.8747, 15.8692, 23.0552, 38.2519, -28.6245, -29.9124
2.184, 2, 17.8769, 15.8677, 23.0556, 38.2527, -28.6235, -29.913
2.188, 2, 17.8784, 15.8667, 23.0558, 38.2532, -28.6229, -29.9134
2.192, 2, 17.8794, 15.866, 23.056, 38.2536, -28.6224, -29.9137
2.196, 2, 17.8801, 15.8655, 23.0561, 38.2538, -28.6221, -29.9138
2.199, 2, 17.8806, 15.8652, 23.0562, 38.254, -28.6219, -29.914
2.204, 2, 17.8809, 15.865, 23.0563, 38.2541, -28.6218, -29.9141
2.208, 2, 17.8811, 15.8649, 23.0563, 38.2542, -28.6217, -29.9141
2.212, 2, 17.8813, 15.8648, 23.0563, 38.2543, -28.6217, -29.9141
2.216, 2, 17.8814, 15.8647, 23.0564, 38.2543, -28.6216, -29.9142
2.219, 2, 17.8814, 15.8646, 23.0564, 38.2543, -28.6216, -29.9142
2.224, 2, 17.8815, 15.8646, 23.0564, 38.2543, -28.6216, -29.9142
2.228, 2, 17.8815, 15.8646, 23.0564, 38.2543, -28.6215, -29.9142
2.232, 2, 17.8815, 15.8646, 23.0564, 38.2543, -28.6215, -29.9142
2.235, 2, 17.8815, 15.8646, 23.0564, 38.2544, -28.6215, -29.9142
2.24, 2, 17.8815, 15.8646, 23.0564, 38.2544, -28.6215, -29.9142
2.244, 2, 17.8816, 15.8646, 23.0564, 38.2544, -28.6215, -29.9142
2.248, 2, 17.8816, 15.8646, 23.0564, 38.2544, -28.6215, -29.9142
2.252, 2, 17.8816, 15.8646, 23.0564, 38.2544, -28.6215, -29.9142
2.255, 2, 17.8816, 15.8646, 23.0564, 38.2544, -28.6215, -29.9142
2.259, 2, 17.8816, 15.8646, 23.0564, 38.2544, -28.6215, -29.9142
2.264, 2, 17.8816, 15.8645, 23.0564, 38.2544, -28.6215, -29.9142
2.268, 2, 17.8816, 15.8645, 23.0564, 38.2544, -28.6215, -29.9142
2.272, 2, 17.8816, 15.8645, 23.0564, 38.2544, -28.6215, -29.9142
2.275, 2, 17.8816, 15.8645, 23.0564, 38.2544, -28.6215, -29.9142
2.28, 2, 17.8816, 15.8645, 23.0564, 38.2544, -28.6215, -29.9142
2.284, 2, 17.8816, 15.8645, 23.0564, 38.2544, -28.6215, -29.9142
2.288, 2, 17.8816, 15.8645, 23.0564, 38.2544, -28.6215, -29.9142
2.291, 2, 17.8816, 15.8645, 23.0564, 38.2544, -28.6215, -29.9142
2.296, 2, 17.8816, 15.8645, 23.0564, 38.2544, -28.6215, -29.9142
2.3, 2, 17.8816, 15.8645, 23.0564, 38.2544, -28.6215, -29.9142
2.304, 2, 17.8816, 15.8645, 23.0564, 38.2544, -28.6215, -29.9142
2.308, 2, 17.8816, 15.8645, 23.0564, 38.2544, -28.6215, -29.9142
2.311, 2, 17.8816, 15.8645, 23.0564, 38.2544, -28.6215, -29.9142
2.316, 2, 17.8816, 15.8645, 23.0564, 38.2544, -28.6215, -29.9142
2.32, 2, 17.8816, 15.8645, 23.0564, 38.2544, -28.6215, -29.9142
2.324, 2, 17.8816, 15.8645, 23.0564, 38.2544, -28.6215, -29.9142
2.328, 2, 17.8816, 15.8645, 23.0564, 38.2544, -28.6215, -29.9142
2.331, 2, 17.8816, 15.8645, 23.0564, 38.2544, -28.6215, -29.9142
2.336, 2, 17.8816, 15.8645, 23.0564, 38.2544, -28.6215, -29.9142
2.34, 2, 17.8816, 15.8645, 23.0564, 38.2544, -28.6215, -29.9142
2.344, 2, 17.8816, 15.8645, 23.0564, 38.2544, -28.6215, -29.9142
2.347, 2, 17.8816, 15.8645, 23.0564, 38.2544, -28.6215, -29.9142
2.352, 2, 17.8816, 15.8645, 23.0564, 38.2544, -28.6215, -29.9142
2.356, 2, 17.8816, 15.8645, 23.0564, 38.2544, -28.6215, -29.9142
2.36, 2, 17.8816, 15.8645, 23.0564, 38.2544, -28.6215, -29.9142
2.364, 2, 17.8816, 15.8645, 23.0564, 38.2544, -28.6215, -29.9142
2.367, 2, 17.8816, 15.8645, 23.0564, 38.2544, -28.6215, -29.9142
2.372, 2, 17.8816, 15.8645, 23.0564, 38.2544, -28.6215, -29.9142
2.376, 2, 17.8816, 15.8645, 23.0564, 38.2544, -28.6215, -29.9142
2.38, 2, 17.8816, 15.8645, 23.0564, 38.2544, -28.6215, -29.9142
2.383, 2, 17.8816, 15.8645, 23.0564, 38.2544, -28.6215, -29.9142
2.388, 2, 17.8816, 15.8645, 23.0564, 38.2544, -28.6215, -29.9142
2.392, 2, 17.8816, 15.8645, 23.0564, 38.2544, -28.6215, -29.9142
2.396, 2, 17.8816, 15.8645, 23.0564, 38.2544, -28.6215, -29.9142
2.4, 2, 17.8816, 15.8645, 23.0564, 38.2544, -28.6215, -29.9142
2.403, 2, 17.8816, 15.8645, 23.0564, 38.2544, -28.6215, -29.9142
2.408, 2, 17.8816, 15.8645, 23.0564, 38.2544, -28.6215, -29.9142
2.412, 2, 17.8816, 15.8645, 23.0564, 38.2544, -28.6215, -29.9142
2.416, 2, 17.8816, 15.8645, 23.0564, 38.2544, -28.6215, -29.9142
2.42, 2, 17.8816, 15.8645, 23.0564, 38.2544, -28.6215, -29.9142
2.423, 2, 17.8816, 15.8645, 23.0564, 38.2544, -28.6215, -29.9142
2.428, 2, 17.8816, 15.8645, 23.0564, 38.2544, -28.6215, -29.9142
2.432, 2, 17.8816, 15.8645, 23.0564, 38.2544, -28.6215, -29.9142
2.436, 2, 17.8816, 15.8645, 23.0564, 38.2544, -28.6215, -29.9142
2.439, 2, 17.8816, 15.8645, 23.0564, 38.2544, -28.6215, -29.9142
2.444, 2, 17.8816, 15.8645, 23.0564, 38.2544, -28.6215, -29.9142
2.448, 2, 17.8816, 15.8645, 23.0564, 38.2544, -28.6215, -29.9142
2.452, 2, 17.8816, 15.8645, 23.0564, 38.2544, -28.6215, -29.9142
2.456, 2, 17.8816, 15.8645, 23.0564, 38.2544, -28.6215, -29.9142
2.459, 2, 17.8816, 15.8645, 23.0564, 38.2544, -28.6215, -29.9142
2.464, 2, 17.8816, 15.8645, 23.0564, 38.2544, -28.6215, -29.9142
2.468, 2, 17.8816, 15.8645, 23.0564, 38.2544, -28.6215, -29.9142
2.472, 2, 17.8816, 15.8645, 23.0564, 38.2544, -28.6215, -29.9142
2.476, 2, 17.8816, 15.8645, 23.0564, 38.2544, -28.6215, -29.9142
2.479, 2, 17.8816, 15.8645, 23.0564, 38.2544, -28.6215, -29.9142
2.484, 2, 17.8816, 15.8645, 23.0564, 38.2544, -28.6215, -29.9142
2.488, 2, 17.8816, 15.8645, 23.0564, 38.2544, -28.6215, -29.9142
2.492, 2, 17.8816, 15.8645, 23.0564, 38.2544, -28.6215, -29.9142
2.495, 2, 17.8816, 15.8645, 23.0564, 38.2544, -28.6215, -29.9142
2.5, 2, 17.8816, 15.8645, 23.0564, 38.2544, -28.6215, -29.9142
2.504, 2, 17.8816, 15.8645, 23.0564, 38.2544, -28.6215, -29.9142
2.508, 2, 17.8816, 15.8645, 23.0564, 38.2544, -28.6215, -29.9142
2.512, 2, 17.8816, 15.8645, 23.0564, 38.2544, -28.6215, -29.9142
2.515, 2, 17.8816, 15.8645, 23.0564, 38.2544, -28.6215, -29.9142
2.52, 2, 17.8816, 15.8645, 23.0564, 38.2544, -28.6215, -29.9142
2.524, 2, 17.8816, 15.8645, 23.0564, 38.2544, -28.6215, -29.9142
2.528, 2, 17.8816, 15.8645, 23.0564, 38.2544, -28.6215, -29.9142
2.531, 2, 17.8816, 15.8645, 23.0564, 38.2544, -28.6215, -29.9142
2.536, 2, 17.8816, 15.8645, 23.0564, 38.2544, -28.6215, -29.9142
2.54, 2, 17.8816, 15.8645, 23.0564, 38.2544, -28.6215, -29.9142
2.544, 2, 17.8816, 15.8645, 23.0564, 38.2544, -28.6215, -29.9142
2.548, 2, 17.8816, 15.8645, 23.0564, 38.2544, -28.6215, -29.9142
2.551, 2, 17.8816, 15.8645, 23.0564, 38.2544, -28.6215, -29.9142
2.556, 2, 17.8816, 15.8645, 23.0564, 38.2544, -28.6215, -29.9142
2.56, 2, 17.8816, 15.8645, 23.0564, 38.2544, -28.6215, -29.9142
2.564, 2, 17.8816, 15.8645, 23.0564, 38.2544, -28.6215, -29.9142
2.568, 2, 17.8816, 15.8645, 23.0564, 38.2544, -28.6215, -29.9142
2.571, 2, 17.8816, 15.8645, 23.0564, 38.2544, -28.6215, -29.9142
2.576, 2, 17.8816, 15.8645, 23.0564, 38.2544, -28.6215, -29.9142
2.58, 2, 17.8816, 15.8645, 23.0564, 38.2544, -28.6215, -29.9142
2.584, 2, 17.8816, 15.8645, 23.0564, 38.2544, -28.6215, -29.9142
2.587, 2, 17.8816, 15.8645, 23.0564, 38.2544, -28.6215, -29.9142
2.592, 2, 17.8816, 15.8645, 23.0564, 38.2544, -28.6215, -29.9142
2.596, 2, 17.8816, 15.8645, 23.0564, 38.2544, -28.6215, -29.9142
2.6, 2, 17.8816, 15.8645, 23.0564, 38.2544, -28.6215, -29.9142
2.604, 2, 17.8816, 15.8645, 23.0564, 38.2544, -28.6215, -29.9142
2.607, 2, 17.8816, 15.8645, 23.0564, 38.2544, -28.6215, -29.9142
2.612, 2, 17.8816, 15.8645, 23.0564, 38.2544, -28.6215, -29.9142
2.616, 2, 17.8816, 15.8645, 23.0564, 38.2544, -28.6215, -29.9142
2.62, 2, 17.8816, 15.8645, 23.0564, 38.2544, -28.6215, -29.9142
2.624, 2, 17.8816, 15.8645, 23.0564, 38.2544, -28.6215, -29.9142
2.627, 2, 17.8816, 15.8645, 23.0564, 38.2544, -28.6215, -29.9142
2.632, 2, 17.8816, 15.8645, 23.0564, 38.2544, -28.6215, -29.9142
2.636, 2, 17.8816, 15.8645, 23.0564, 38.2544, -28.6215, -29.9142
2.64, 2, 17.8816, 15.8645, 23.0564, 38.2544, -28.6215, -29.9142
2.643, 2, 17.8816, 15.8645, 23.0564, 38.2544, -28.6215, -29.9142
2.648, 2, 17.8816, 15.8645, 23.0564, 38.2544, -28.6215, -29.9142
2.652, 2, 17.8816, 15.8645, 23.0564, 38.2544, -28.6215, -29.9142
2.656, 2, 17.8816, 15.8645, 23.0564, 38.2544, -28.6215, -29.9142
2.66, 2, 17.8816, 15.8645, 23.0564, 38.2544, -28.6215, -29.9142
2.663, 2, 17.8816, 15.8645, 23.0564, 38.2544, -28.6215, -29.9142
2.668, 2, 17.8816, 15.8645, 23.0564, 38.2544, -28.6215, -29.9142
2.672, 2, 17.8816, 15.8645, 23.0564, 38.2544, -28.6215, -29.9142
2.676, 2, 17.8816, 15.8645, 23.0564, 38.2544, -28.6215, -29.9142
2.679, 2, 17.8816, 15.8645, 23.0564, 38.2544, -28.6215, -29.9142
2.684, 2, 17.8816, 15.8645, 23.0564, 38.2544, -28.6215, -29.9142
2.688, 2, 17.8816, 15.8645, 23.0564, 38.2544, -28.6215, -29.9142
2.692, 2, 17.8816, 15.8645, 23.0564, 38.2544, -28.6215, -29.9142
2.696, 2, 17.8816, 15.8645, 23.0564, 38.2544, -28.6215, -29.9142
2.699, 2, 17.8816, 15.8645, 23.0564, 38.2544, -28.6215, -29.9142
2.704, 2, 17.8816, 15.8645, 23.0564, 38.2544, -28.6215, -29.9142
2.708, 2, 17.8816, 15.8645, 23.0564, 38.2544, -28.6215, -29.9142
2.712, 2, 17.8816, 15.8645, 23.0564, 38.2544, -28.6215, -29.9142
2.716, 2, 17.8816, 15.8645, 23.0564, 38.2544, -28.6215, -29.9142
2.719, 2, 17.8816, 15.8645, 23.0564, 38.2544, -28.6215, -29.9142
2.724, 2, 17.8816, 15.8645, 23.0564, 38.2544, -28.6215, -29.9142
2.728, 2, 17.8816, 15.8645, 23.0564, 38.2544, -28.6215, -29.9142
2.732, 2, 17.8816, 15.8645, 23.0564, 38.2544, -28.6215, -29.9142
2.735, 2, 17.8816, 15.8645, 23.0564, 38.2544, -28.6215, -29.9142
2.74, 2, 17.8816, 15.8645, 23.0564, 38.2544, -28.6215, -29.9142
2.744, 2, 17.8816, 15.8645, 23.0564, 38.2544, -28.6215, -29.9142
2.748, 2, 17.8816, 15.8645, 23.0564, 38.2544, -28.6215, -29.9142
2.752, 2, 17.8816, 15.8645, 23.0564, 38.2544, -28.6215, -29.9142
2.755, 2, 17.8816, 15.8645, 23.0564, 38.2544, -28.6215, -29.9142
2.76, 2, 17.8816, 15.8645, 23.0564, 38.2544, -28.6215, -29.9142
2.764, 2, 17.8816, 15.8645, 23.0564, 38.2544, -28.6215, -29.9142
2.768, 2, 17.8816, 15.8645, 23.0564, 38.2544, -28.6215, -29.9142
2.772, 2, 17.8816, 15.8645, 23.0564, 38.2544, -28.6215, -29.9142
2.775, 2, 17.8816, 15.8645, 23.0564, 38.2544, -28.6215, -29.9142
2.78, 2, 17.8816, 15.8645, 23.0564, 38.2544, -28.6215, -29.9142
2.784, 2, 17.8816, 15.8645, 23.0564, 38.2544, -28.6215, -29.9142
2.788, 2, 17.8816, 15.8645, 23.0564, 38.2544, -28.6215, -29.9142
2.791, 2, 17.8816, 15.8645, 23.0564, 38.2544, -28.6215, -29.9142
2.796, 2, 17.8816, 15.8645, 23.0564, 38.2544, -28.6215, -29.9142
2.8, 2, 17.8816, 15.8645, 23.0564, 38.2544, -28.6215, -29.9142
2.804, 2, 17.8816, 15.8645, 23.0564, 38.2544, -28.6215, -29.9142
2.808, 2, 17.8816, 15.8645, 23.0564, 38.2544, -28.6215, -29.9142
2.811, 2, 17.8816, 15.8645, 23.0564, 38.2544, -28.6215, -29.9142
2.816, 2, 17.8816, 15.8645, 23.0564, 38.2544, -28.6215, -29.9142
2.82, 2, 17.8816, 15.8645, 23.0564, 38.2544, -28.6215, -29.9142
2.824, 2, 17.8816, 15.8645, 23.0564, 38.2544, -28.6215, -29.9142
2.828, 2, 17.8816, 15.8645, 23.0564, 38.2544, -28.6215, -29.9142
2.831, 2, 17.8816, 15.8645, 23.0564, 38.2544, -28.6215, -29.9142
2.836, 2, 17.8816, 15.8645, 23.0564, 38.2544, -28.6215, -29.9142
2.84, 2, 17.8816, 15.8645, 23.0564, 38.2544, -28.6215, -29.9142
2.844, 2, 17.8816, 15.8645, 23.0564, 38.2544, -28.6215, -29.9142
2.847, 2, 17.8816, 15.8645, 23.0564, 38.2544, -28.6215, -29.9142
2.852, 2, 17.8816, 15.8645, 23.0564, 38.2544, -28.6215, -29.9142
2.856, 2, 17.8816, 15.8645, 23.0564, 38.2544, -28.6215, -29.9142
2.86, 2, 17.8816, 15.8645, 23.0564, 38.2544, -28.6215, -29.9142
2.864, 2, 17.8816, 15.8645, 23.0564, 38.2544, -28.6215, -29.9142
2.867, 2, 17.8816, 15.8645, 23.0564, 38.2544, -28.6215, -29.9142
2.872, 2, 17.8816, 15.8645, 23.0564, 38.2544, -28.6215, -29.9142
2.876, 2, 17.8816, 15.8645, 23.0564, 38.2544, -28.6215, -29.9142
2.88, 2, 17.8816, 15.8645, 23.0564, 38.2544, -28.6215, -29.9142
2.883, 2, 17.8816, 15.8645, 23.0564, 38.2544, -28.6215, -29.9142
2.888, 2, 17.8816, 15.8645, 23.0564, 38.2544, -28.6215, -29.9142
2.892, 2, 17.8816, 15.8645, 23.0564, 38.2544, -28.6215, -29.9142
2.896, 2, 17.8816, 15.8645, 23.0564, 38.2544, -28.6215, -29.9142
2.9, 2, 17.8816, 15.8645, 23.0564, 38.2544, -28.6215, -29.9142
2.903, 2, 17.8816, 15.8645, 23.0564, 38.2544, -28.6215, -29.9142
2.908, 2, 17.8816, 15.8645, 23.0564, 38.2544, -28.6215, -29.9142
2.912, 2, 17.8816, 15.8645, 23.0564, 38.2544, -28.6215, -29.9142
2.916, 2, 17.8816, 15.8645, 23.0564, 38.2544, -28.6215, -29.9142
2.92, 2, 17.8816, 15.8645, 23.0564, 38.2544, -28.6215, -29.9142
2.923, 2, 17.8816, 15.8645, 23.0564, 38.2544, -28.6215, -29.9142
2.928, 2, 17.8816, 15.8645, 23.0564, 38.2544, -28.6215, -29.9142
2.932, 2, 17.8816, 15.8645, 23.0564, 38.2544, -28.6215, -29.9142
2.936, 2, 17.8816, 15.8645, 23.0564, 38.2544, -28.6215, -29.9142
2.939, 2, 17.8816, 15.8645, 23.0564, 38.2544, -28.6215, -29.9142
2.944, 2, 17.8816, 15.8645, 23.0564, 38.2544, -28.6215, -29.9142
2.948, 2, 17.8816, 15.8645, 23.0564, 38.2544, -28.6215, -29.9142
2.952, 2, 17.8816, 15.8645, 23.0564, 38.2544, -28.6215, -29.9142
2.956, 2, 17.8816, 15.8645, 23.0564, 38.2544, -28.6215, -29.9142
2.959, 2, 17.8816, 15.8645, 23.0564, 38.2544, -28.6215, -29.9142
2.964, 2, 17.8816, 15.8645, 23.0564, 38.2544, -28.6215, -29.9142
2.968, 2, 17.8816, 15.8645, 23.0564, 38.2544, -28.6215, -29.9142
2.972, 2, 17.8816, 15.8645, 23.0564, 38.2544, -28.6215, -29.9142
2.976, 2, 17.8816, 15.8645, 23.0564, 38.2544, -28.6215, -29.9142
2.98, 2, 17.8816, 15.8645, 23.0564, 38.2544, -28.6215, -29.9142
2.984, 2, 17.8816, 15.8645, 23.0564, 38.2544, -28.6215, -29.9142
2.988, 2, 17.8816, 15.8645, 23.0564, 38.2544, -28.6215, -29.9142
2.992, 2, 17.8816, 15.8645, 23.0564, 38.2544, -28.6215, -29.9142
2.995, 2, 17.8816, 15.8645, 23.0564, 38.2544, -28.6215, -29.9142
3, 2, 17.8816, 15.8645, 23.0564, 38.2544, -28.6215, -29.9142
3.004, 2, 17.8816, 15.8645, 23.0564, 38.2544, -28.6215, -29.9142
3.008, 2, 17.8816, 15.8645, 23.0564, 38.2544, -28.6215, -29.9142
3.012, 2, 17.8816, 15.8645, 23.0564, 38.2544, -28.6215, -29.9142
3.015, 2, 17.8816, 15.8645, 23.0564, 38.2544, -28.6215, -29.9142
3.02, 2, 17.8816, 15.8645, 23.0564, 38.2544, -28.6215, -29.9142
3.024, 2, 17.8816, 15.8645, 23.0564, 38.2544, -28.6215, -29.9142
3.028, 2, 17.8816, 15.8645, 23.0564, 38.2544, -28.6215, -29.9142
3.031, 2, 17.8816, 15.8645, 23.0564, 38.2544, -28.6215, -29.9142
3.036, 2, 17.8816, 15.8645, 23.0564, 38.2544, -28.6215, -29.9142
3.04, 2, 17.8816, 15.8645, 23.0564, 38.2544, -28.6215, -29.9142
3.044, 2, 17.8816, 15.8645, 23.0564, 38.2544, -28.6215, -29.9142
3.048, 2, 17.8816, 15.8645, 23.0564, 38.2544, -28.6215, -29.9142
3.051, 2, 17.8816, 15.8645, 23.0564, 38.2544, -28.6215, -29.9142
3.056, 2, 17.8816, 15.8645, 23.0564, 38.2544, -28.6215, -29.9142
3.06, 2, 17.8816, 15.8645, 23.0564, 38.2544, -28.6215, -29.9142
3.064, 2, 17.8816, 15.8645, 23.0564, 38.2544, -28.6215, -29.9142
3.068, 2, 17.8816, 15.8645, 23.0564, 38.2544, -28.6215, -29.9142
3.071, 2, 17.8816, 15.8645, 23.0564, 38.2544, -28.6215, -29.9142
3.076, 2, 17.8816, 15.8645, 23.0564, 38.2544, -28.6215, -29.9142
3.08, 2, 17.8816, 15.8645, 23.0564, 38.2544, -28.6215, -29.9142
3.084, 2, 17.8816, 15.8645, 23.0564, 38.2544, -28.6215, -29.9142
3.087, 2, 17.8816, 15.8645, 23.0564, 38.2544, -28.6215, -29.9142
3.092, 2, 17.8816, 15.8645, 23.0564, 38.2544, -28.6215, -29.9142
3.096, 2, 17.8816, 15.8645, 23.0564, 38.2544, -28.6215, -29.9142
3.1, 2, 17.8816, 15.8645, 23.0564, 38.2544, -28.6215, -29.9142
3.104, 2, 17.8816, 15.8645, 23.0564, 38.2544, -28.6215, -29.9142
3.107, 2, 17.8816, 15.8645, 23.0564, 38.2544, -28.6215, -29.9142
3.112, 2, 17.8816, 15.8645, 23.0564, 38.2544, -28.6215, -29.9142
3.116, 2, 17.8816, 15.8645, 23.0564, 38.2544, -28.6215, -29.9142
3.12, 2, 17.8816, 15.8645, 23.0564, 38.2544, -28.6215, -29.9142
3.124, 2, 17.8816, 15.8645, 23.0564, 38.2544, -28.6215, -29.9142
3.128, 2, 17.8816, 15.8645, 23.0564, 38.2544, -28.6215, -29.9142
3.132, 2, 17.8816, 15.8645, 23.0564, 38.2544, -28.6215, -29.9142
3.136, 2, 17.8816, 15.8645, 23.0564, 38.2544, -28.6215, -29.9142
3.14, 2, 17.8816, 15.8645, 23.0564, 38.2544, -28.6215, -29.9142
3.143, 2, 17.8816, 15.8645, 23.0564, 38.2544, -28.6215, -29.9142
3.148, 2, 17.8816, 15.8645, 23.0564, 38.2544, -28.6215, -29.9142
3.152, 2, 17.8816, 15.8645, 23.0564, 38.2544, -28.6215, -29.9142
3.156, 2, 17.8816, 15.8645, 23.0564, 38.2544, -28.6215, -29.9142
3.16, 2, 17.8816, 15.8645, 23.0564, 38.2544, -28.6215, -29.9142
3.163, 2, 17.8816, 15.8645, 23.0564, 38.2544, -28.6215, -29.9142
3.168, 2, 17.8816, 15.8645, 23.0564, 38.2544, -28.6215, -29.9142
3.172, 2, 17.8816, 15.8645, 23.0564, 38.2544, -28.6215, -29.9142
3.176, 2, 17.8816, 15.8645, 23.0564, 38.2544, -28.6215, -29.9142
3.179, 2, 17.8816, 15.8645, 23.0564, 38.2544, -28.6215, -29.9142
3.184, 2, 17.8816, 15.8645, 23.0564, 38.2544, -28.6215, -29.9142
3.188, 2, 17.8816, 15.8645, 23.0564, 38.2544, -28.6215, -29.9142
3.192, 2, 17.8816, 15.8645, 23.0564, 38.2544, -28.6215, -29.9142
3.196, 2, 17.8816, 15.8645, 23.0564, 38.2544, -28.6215, -29.9142
3.199, 2, 17.8816, 15.8645, 23.0564, 38.2544, -28.6215, -29.9142
3.204, 2, 17.8816, 15.8645, 23.0564, 38.2544, -28.6215, -29.9142
3.208, 2, 17.8816, 15.8645, 23.0564, 38.2544, -28.6215, -29.9142
3.212, 2, 17.8816, 15.8645, 23.0564, 38.2544, -28.6215, -29.9142
3.216, 2, 17.8816, 15.8645, 23.0564, 38.2544, -28.6215, -29.9142
3.22, 2, 17.8816, 15.8645, 23.0564, 38.2544, -28.6215, -29.9142
3.224, 2, 17.8816, 15.8645, 23.0564, 38.2544, -28.6215, -29.9142
3.228, 2, 17.8816, 15.8645, 23.0564, 38.2544, -28.6215, -29.9142
3.232, 2, 17.8816, 15.8645, 23.0564, 38.2544, -28.6215, -29.9142
3.235, 2, 17.8816, 15.8645, 23.0564, 38.2544, -28.6215, -29.9142
3.24, 2, 17.8816, 15.8645, 23.0564, 38.2544, -28.6215, -29.9142
3.244, 2, 17.8816, 15.8645, 23.0564, 38.2544, -28.6215, -29.9142
3.248, 4, 17.8816, 15.8645, 23.0564, 38.2544, -28.6215, -29.9142
3.252, 4, 17.8816, 15.8645, 23.0564, 38.2544, -28.6215, -29.9142
3.255, 4, 17.8816, 15.8645, 23.0564, 38.2544, -28.6215, -29.9142
3.26, 4, 17.8816, 15.8645, 23.0564, 38.2544, -28.6215, -29.9142
3.264, 4, 17.8816, 15.8645, 23.0564, 38.2544, -28.6215, -29.9142
3.268, 4, 17.8816, 15.8645, 23.0564, 38.2544, -28.6215, -29.9142
3.272, 4, 17.8816, 15.8645, 23.0564, 38.2544, -28.6215, -29.9142
3.276, 4, 17.8816, 15.8645, 23.0564, 38.2544, -28.6215, -29.9142
3.28, 4, 17.8816, 15.8645, 23.0564, 38.2544, -28.6215, -29.9142
3.284, 4, 17.8816, 15.8645, 23.0564, 38.2544, -28.6215, -29.9142
3.288, 4, 17.8816, 15.8645, 23.0564, 38.2544, -28.6215, -29.9142
3.291, 4, 17.8816, 15.8645, 23.0564, 38.2544, -28.6215, -29.9142
3.296, 4, 17.8816, 15.8645, 23.0564, 38.2544, -28.6215, -29.9142
3.3, 4, 17.8816, 15.8645, 23.0564, 38.2544, -28.6215, -29.9142
3.304, 4, 17.8816, 15.8645, 23.0564, 38.2544, -28.6215, -29.9142
3.308, 4, 17.8816, 15.8645, 23.0564, 38.2544, -28.6215, -29.9142
3.312, 4, 17.8816, 15.8645, 23.0564, 38.2544, -28.6215, -29.9142
3.316, 4, 17.8816, 15.8645, 23.0564, 38.2544, -28.6215, -29.9142
3.32, 4, 17.8816, 15.8645, 23.0564, 38.2544, -28.6215, -29.9142
3.324, 4, 17.8816, 15.8645, 23.0564, 38.2544, -28.6215, -29.9142
3.328, 4, 17.8816, 15.8645, 23.0564, 38.2544, -28.6215, -29.9142
3.332, 4, 17.8816, 15.8645, 23.0564, 38.2544, -28.6215, -29.9142
3.336, 4, 17.8816, 15.8645, 23.0564, 38.2544, -28.6215, -29.9142
3.34, 4, 17.8816, 15.8645, 23.0564, 38.2544, -28.6215, -29.9142
3.344, 4, 17.8816, 15.8645, 23.0564, 38.2544, -28.6215, -29.9142
3.347, 4, 17.8816, 15.8645, 23.0564, 38.2544, -28.6215, -29.9142
3.352, 4, 17.8816, 15.8645, 23.0564, 38.2544, -28.6215, -29.9142
3.358, 4, 17.8816, 15.8645, 23.0564, 38.2544, -28.6215, -29.9142
3.362, 4, 17.8816, 15.8645, 23.0564, 38.2544, -28.6215, -29.9142
3.366, 4, 17.8816, 15.8645, 23.0564, 38.2544, -28.6215, -29.9142
3.37, 4, 17.8816, 15.8645, 23.0564, 38.2544, -28.6215, -29.9142
3.374, 4, 17.8816, 15.8645, 23.0564, 38.2544, -28.6215, -29.9142
3.378, 4, 17.8816, 15.8645, 23.0564, 38.2544, -28.6215, -29.9142
3.38, 4, 17.8816, 15.8645, 23.0564, 38.2544, -28.6215, -29.9142
3.383, 4, 17.8816, 15.8645, 23.0564, 38.2544, -28.6215, -29.9142
3.388, 4, 17.8816, 15.8645, 23.0564, 38.2544, -28.6215, -29.9142
3.392, 4, 17.8815, 15.8645, 23.0564, 38.2544, -28.6215, -29.9142
3.396, 4, 17.8812, 15.8645, 23.0564, 38.2543, -28.6215, -29.9142
3.402, 4, 17.8806, 15.8645, 23.0565, 38.2542, -28.6216, -29.9141
3.404, 4, 17.8793, 15.8645, 23.0566, 38.2539, -28.6217, -29.9139
3.408, 4, 17.8773, 15.8644, 23.0569, 38.2532, -28.6219, -29.9133
3.412, 4, 17.8745, 15.8643, 23.0576, 38.2517, -28.6225, -29.912
3.416, 4, 17.8706, 15.864, 23.0586, 38.2489, -28.6235, -29.9095
3.42, 4, 17.8657, 15.8636, 23.0603, 38.2441, -28.6252, -29.9053
3.424, 5, 17.8595, 15.863, 23.063, 38.2364, -28.628, -29.8984
3.428, 5, 17.8518, 15.862, 23.067, 38.2246, -28.6323, -29.8881
3.432, 5, 17.8424, 15.8607, 23.0727, 38.2075, -28.6384, -29.873
3.436, 5, 17.831, 15.8589, 23.0804, 38.1836, -28.647, -29.8519
3.439, 5, 17.817, 15.8565, 23.0909, 38.1512, -28.6587, -29.8232
3.444, 5, 17.8002, 15.8533, 23.1045, 38.1085, -28.6742, -29.7854
3.448, 5, 17.7803, 15.8493, 23.122, 38.0534, -28.6942, -29.7368
3.452, 5, 17.7571, 15.8443, 23.1439, 37.984, -28.7195, -29.6754
3.456, 5, 17.7302, 15.8382, 23.1708, 37.8982, -28.7509, -29.5995
3.46, 5, 17.6995, 15.8309, 23.2033, 37.7942, -28.7892, -29.5075
3.464, 5, 17.6645, 15.8222, 23.242, 37.6701, -28.8351, -29.3978
3.468, 5, 17.6249, 15.8121, 23.2873, 37.5243, -28.8894, -29.2689
3.472, 5, 17.5804, 15.8005, 23.3398, 37.3556, -28.9527, -29.1199
3.476, 5, 17.5307, 15.7874, 23.3997, 37.1629, -29.0257, -28.9497
3.48, 5, 17.4757, 15.7728, 23.4674, 36.9453, -29.1087, -28.7577
3.484, 5, 17.4153, 15.7565, 23.5429, 36.7025, -29.2024, -28.5436
3.488, 5, 17.3496, 15.7387, 23.6264, 36.4343, -29.3069, -28.3072
3.492, 5, 17.2787, 15.7195, 23.7178, 36.1409, -29.4225, -28.0489
3.495, 5, 17.2027, 15.6987, 23.817, 35.8231, -29.5492, -27.7693
3.5, 5, 17.1218, 15.6767, 23.9236, 35.482, -29.687, -27.4696
3.504, 5, 17.0361, 15.6534, 24.0373, 35.1193, -29.8354, -27.1513
3.508, 5, 16.9457, 15.6291, 24.1574, 34.7369, -29.9941, -26.816
3.512, 5, 16.8511, 15.604, 24.2835, 34.337, -30.1624, -26.4658
3.516, 5, 16.7527, 15.5781, 24.4146, 33.9222, -30.3395, -26.1031
3.52, 5, 16.6513, 15.5518, 24.5501, 33.4951, -30.5247, -25.7302
3.524, 5, 16.5478, 15.5251, 24.6889, 33.0588, -30.7167, -25.3497
3.528, 5, 16.4426, 15.4984, 24.8302, 32.6163, -30.9144, -24.9645
3.531, 5, 16.3364, 15.4718, 24.973, 32.1709, -31.1166, -24.5772
3.536, 5, 16.2295, 15.4455, 25.1161, 31.7258, -31.3217, -24.1909
3.54, 5, 16.122, 15.4198, 25.2586, 31.2843, -31.5283, -23.8083
3.544, 5, 16.0142, 15.3949, 25.3994, 30.8496, -31.7348, -23.4322
3.548, 5, 15.9064, 15.3709, 25.5377, 30.4245, -31.9398, -23.065
3.552, 5, 15.7987, 15.3482, 25.6727, 30.0115, -32.1419, -22.7088
3.556, 5, 15.6914, 15.3268, 25.8036, 29.6127, -32.3399, -22.3654
3.56, 5, 15.5845, 15.3069, 25.9299, 29.2296, -32.5329, -22.036
3.564, 6, 15.4782, 15.2886, 26.0514, 28.8628, -32.7202, -21.7213
3.568, 6, 15.3721, 15.272, 26.168, 28.5127, -32.9016, -21.4213
3.572, 6, 15.2662, 15.2571, 26.2799, 28.1784, -33.0772, -21.1354
3.576, 6, 15.1602, 15.2437, 26.3874, 27.8588, -33.2475, -20.8625
3.58, 6, 15.0542, 15.2317, 26.4912, 27.5519, -33.4134, -20.6009
3.584, 6, 14.9479, 15.221, 26.5919, 27.2553, -33.5762, -20.3485
3.587, 6, 14.8413, 15.2115, 26.6905, 26.9661, -33.7373, -20.1029
3.592, 6, 14.7341, 15.2029, 26.788, 26.6813, -33.8984, -19.8616
3.596, 6, 14.6261, 15.1951, 26.8853, 26.3978, -34.0612, -19.6218
3.6, 6, 14.5174, 15.1879, 26.9835, 26.1124, -34.2276, -19.3809
3.604, 6, 14.408, 15.1809, 27.0835, 25.8224, -34.3992, -19.1365
3.608, 6, 14.2978, 15.1741, 27.1861, 25.5251, -34.5778, -18.8865
3.612, 6, 14.1868, 15.1673, 27.2919, 25.2187, -34.7644, -18.6294
3.616, 6, 14.075, 15.1603, 27.4013, 24.902, -34.9601, -18.3642
3.62, 6, 13.9621, 15.1531, 27.5144, 24.5747, -35.1651, -18.0907
3.624, 6, 13.8478, 15.1459, 27.6311, 24.2372, -35.3794, -17.8091
3.628, 6, 13.7318, 15.1387, 27.7512, 23.8904, -35.6025, -17.5205
3.632, 6, 13.6143, 15.1317, 27.874, 23.5359, -35.8335, -17.2261
3.636, 6, 13.4953, 15.125, 27.9991, 23.1758, -36.0714, -16.9276
3.64, 6, 13.3751, 15.1187, 28.1255, 22.8122, -36.3146, -16.6268
3.644, 6, 13.2544, 15.1129, 28.2526, 22.4475, -36.5617, -16.3258
3.648, 6, 13.1333, 15.1077, 28.3793, 22.0841, -36.8111, -16.0266
3.652, 6, 13.0123, 15.1031, 28.505, 21.7247, -37.0609, -15.7312
3.656, 6, 12.8915, 15.0994, 28.6287, 21.3717, -37.3095, -15.4417
3.66, 6, 12.7713, 15.0966, 28.7496, 21.0272, -37.5549, -15.16
3.664, 6, 12.6517, 15.0949, 28.867, 20.6935, -37.7958, -14.8875
3.668, 6, 12.533, 15.0944, 28.9803, 20.372, -38.0305, -14.6256
3.672, 6, 12.4152, 15.0952, 29.0892, 20.0639, -38.2581, -14.3752
3.676, 6, 12.2984, 15.0975, 29.1933, 19.77, -38.4778, -14.1368
3.679, 7, 12.1829, 15.1012, 29.2926, 19.4901, -38.6894, -13.9103
3.684, 7, 12.0683, 15.1064, 29.3872, 19.2239, -38.893, -13.6953
3.688, 7, 11.9547, 15.1128, 29.4776, 18.9704, -39.0892, -13.491
3.692, 7, 11.8417, 15.1206, 29.564, 18.728, -39.2788, -13.2961
3.696, 7, 11.7293, 15.1294, 29.6473, 18.495, -39.4633, -13.1092
3.7, 7, 11.6171, 15.1393, 29.728, 18.2693, -39.6442, -12.9286
3.704, 7, 11.5047, 15.1503, 29.807, 18.0486, -39.8232, -12.7523
3.708, 7, 11.3918, 15.1624, 29.8851, 17.8303, -40.0023, -12.5786
3.712, 7, 11.2783, 15.1755, 29.9631, 17.6122, -40.1835, -12.4053
3.716, 7, 11.1641, 15.1893, 30.0419, 17.3918, -40.3687, -12.2307
3.72, 7, 11.0492, 15.2037, 30.1222, 17.167, -40.5599, -12.0531
3.724, 7, 10.9336, 15.2183, 30.2046, 16.936, -40.7587, -11.8711
3.728, 7, 10.8172, 15.233, 30.2895, 16.6975, -40.9662, -11.6837
3.732, 7, 10.6999, 15.2476, 30.3771, 16.4508, -41.1833, -11.4903
3.735, 7, 10.5813, 15.2622, 30.4676, 16.1957, -41.4101, -11.2909
3.74, 7, 10.4613, 15.2771, 30.5608, 15.9326, -41.6465, -11.0859
3.744, 7, 10.3395, 15.2924, 30.6563, 15.6626, -41.8917, -10.8759
3.748, 7, 10.216, 15.3083, 30.7537, 15.3868, -42.1447, -10.662
3.752, 7, 10.0912, 15.325, 30.8525, 15.1067, -42.4043, -10.4454
3.756, 7, 9.96539, 15.3425, 30.952, 14.8241, -42.6688, -10.2275
3.76, 7, 9.8391, 15.3607, 31.0517, 14.5409, -42.9367, -10.0097
3.764, 7, 9.71266, 15.3796, 31.1507, 14.2589, -43.2062, -9.79335
3.768, 7, 9.58635, 15.3992, 31.2486, 13.98, -43.4752, -9.58005
3.772, 7, 9.46042, 15.4194, 31.3445, 13.7062, -43.7421, -9.37115
3.776, 7, 9.33511, 15.4404, 31.4379, 13.4391, -44.005, -9.16794
3.78, 7, 9.21064, 15.4622, 31.5283, 13.1803, -44.2622, -8.97153
3.784, 7, 9.08718, 15.4849, 31.6152, 12.9308, -44.5123, -8.78279
3.788, 7, 8.96488, 15.5086, 31.6983, 12.6917, -44.7544, -8.6023
3.792, 8, 8.84385, 15.5334, 31.7775, 12.4633, -44.9878, -8.43034
3.796, 8, 8.72409, 15.5591, 31.8527, 12.2456, -45.2122, -8.26687
3.8, 8, 8.60546, 15.5858, 31.9242, 12.0382, -45.428, -8.11153
3.804, 8, 8.48772, 15.6135, 31.9921, 11.8403, -45.6357, -7.96369
3.808, 8, 8.37071, 15.6421, 32.0569, 11.6508, -45.8365, -7.82244
3.812, 8, 8.25421, 15.6716, 32.1192, 11.4681, -46.0319, -7.6867
3.816, 8, 8.13792, 15.7021, 32.1793, 11.2906, -46.2234, -7.55522
3.82, 8, 8.02146, 15.7339, 32.238, 11.1166, -46.413, -7.42664
3.824, 8, 7.9045, 15.7669, 32.2959, 10.944, -46.6028, -7.29956
3.828, 8, 7.78691, 15.8011, 32.3537, 10.771, -46.7949, -7.17257
3.832, 8, 7.6687, 15.8363, 32.4119, 10.5958, -46.9913, -7.04433
3.836, 8, 7.54987, 15.8721, 32.4711, 10.4166, -47.194, -6.91366
3.84, 8, 7.43039, 15.9083, 32.5318, 10.2321, -47.4045, -6.77958
3.844, 8, 7.31012, 15.9445, 32.5943, 10.0414, -47.6241, -6.64143
3.848, 8, 7.18889, 15.9806, 32.6587, 9.84391, -47.8534, -6.49886
3.852, 8, 7.06637, 16.0168, 32.7251, 9.63961, -48.0927, -6.35187
3.856, 8, 6.94225, 16.0535, 32.7931, 9.42889, -48.3414, -6.20075
3.86, 8, 6.81639, 16.0909, 32.8627, 9.21249, -48.599, -6.04606
3.864, 8, 6.68891, 16.1292, 32.9334, 8.99142, -48.8642, -5.88855
3.868, 8, 6.56014, 16.1686, 33.0048, 8.7669, -49.1357, -5.72909
3.872, 8, 6.43054, 16.2091, 33.0764, 8.54027, -49.412, -5.56867
3.876, 8, 6.30055, 16.2506, 33.1478, 8.31301, -49.6913, -5.40832
3.88, 8, 6.17053, 16.2929, 33.2185, 8.08661, -49.9718, -5.24911
3.884, 8, 6.04071, 16.3359, 33.288, 7.86261, -50.2514, -5.09209
3.888, 8, 5.91134, 16.3794, 33.3558, 7.64248, -50.5284, -4.93829
3.892, 8, 5.78269, 16.4235, 33.4214, 7.42758, -50.8008, -4.78863
3.896, 8, 5.65499, 16.4681, 33.4846, 7.21912, -51.0671, -4.64389
3.9, 8, 5.52843, 16.5133, 33.5449, 7.01804, -51.3259, -4.50472
3.904, 8, 5.40318, 16.559, 33.6023, 6.82502, -51.5761, -4.37153
3.908, 9, 5.27932, 16.6053, 33.6565, 6.64042, -51.8172, -4.24452
3.912, 9, 5.15681, 16.6522, 33.7077, 6.46425, -52.0488, -4.12366
3.916, 9, 5.03546, 16.6997, 33.7558, 6.2962, -52.2714, -4.00871
3.92, 9, 4.91502, 16.7478, 33.8012, 6.13564, -52.4856, -3.8992
3.924, 9, 4.79531, 16.7965, 33.8442, 5.98163, -52.6925, -3.79449
3.928, 9, 4.67613, 16.8459, 33.885, 5.83302, -52.8936, -3.69376
3.932, 9, 4.5572, 16.8963, 33.9241, 5.68846, -53.0906, -3.5961
3.936, 9, 4.43813, 16.9478, 33.9619, 5.54649, -53.2856, -3.50052
3.94, 9, 4.31864, 17.0006, 33.9989, 5.40556, -53.4806, -3.40598
3.944, 9, 4.19863, 17.0544, 34.0355, 5.26412, -53.6777, -3.31144
3.948, 9, 4.07816, 17.1092, 34.0722, 5.12065, -53.8791, -3.21592
3.952, 9, 3.95732, 17.1646, 34.1093, 4.97383, -54.0866, -3.11855
3.956, 9, 3.83615, 17.2203, 34.1473, 4.82257, -54.3019, -3.01864
3.96, 9, 3.7146, 17.2761, 34.1862, 4.66613, -54.526, -2.91572
3.964, 9, 3.59257, 17.3318, 34.2262, 4.50414, -54.7595, -2.80958
3.968, 9, 3.46983, 17.3878, 34.2672, 4.33665, -55.0025, -2.70026
3.972, 9, 3.34611, 17.4443, 34.309, 4.16406, -55.2545, -2.58803
3.976, 9, 3.22126, 17.5017, 34.3515, 3.98709, -55.5144, -2.47338
3.98, 9, 3.09531, 17.5601, 34.3942, 3.80667, -55.781, -2.35692
3.984, 9, 2.96856, 17.6196, 34.437, 3.62389, -56.0527, -2.23936
3.988, 9, 2.84141, 17.68, 34.4793, 3.43997, -56.3278, -2.12148
3.992, 9, 2.71429, 17.7413, 34.5211, 3.25615, -56.6042, -2.0041
3.996, 9, 2.58751, 17.8033, 34.5618, 3.07375, -56.8802, -1.88803
3.999, 9, 2.46134, 17.8656, 34.6013, 2.89405, -57.1537, -1.77407
4.004, 9, 2.33613, 17.928, 34.6392, 2.71827, -57.4228, -1.66299
4.008, 9, 2.21241, 17.9903, 34.6752, 2.54752, -57.6856, -1.55545
4.012, 9, 2.09081, 18.0521, 34.7093, 2.38278, -57.9406, -1.45204
4.016, 9, 1.97202, 18.1131, 34.7412, 2.22484, -58.1864, -1.35322
4.02, 9, 1.85669, 18.1731, 34.7709, 2.07433, -58.4219, -1.25935
4.024, 9, 1.74527, 18.2321, 34.7981, 1.93172, -58.6461, -1.17068
4.028, 9, 1.6379, 18.29, 34.8229, 1.79734, -58.8583, -1.08737
4.032, 9, 1.53448, 18.3471, 34.845, 1.67134, -59.0583, -1.00947
4.036, 9, 1.4347, 18.4036, 34.8643, 1.55367, -59.2458, -0.93691
4.04, 10, 1.33821, 18.4599, 34.8808, 1.44411, -59.4212, -0.86951
4.044, 10, 1.24461, 18.5162, 34.8943, 1.34217, -59.5851, -0.806949
4.048, 10, 1.15355, 18.5727, 34.9049, 1.24719, -59.7384, -0.748784
4.052, 10, 1.06488, 18.6296, 34.9124, 1.15827, -59.8825, -0.694457
4.056, 10, 0.978573, 18.6867, 34.9171, 1.07439, -60.019, -0.643332
4.06, 10, 0.894624, 18.7442, 34.9189, 0.994445, -60.1496, -0.594727
4.064, 10, 0.812931, 18.8021, 34.9179, 0.917297, -60.2762, -0.547952
4.068, 10, 0.733378, 18.8604, 34.9143, 0.841858, -60.4005, -0.502342
4.072, 10, 0.655898, 18.919, 34.9081, 0.767117, -60.5241, -0.457283
4.076, 10, 0.580409, 18.9777, 34.8997, 0.692185, -60.6485, -0.412238
4.08, 10, 0.506789, 19.0366, 34.8892, 0.616329, -60.7749, -0.366766
4.084, 10, 0.434986, 19.0954, 34.8768, 0.539007, -60.9041, -0.320543
4.088, 10, 0.365089, 19.1541, 34.8628, 0.459895, -61.0368, -0.273375
4.092, 10, 0.297209, 19.2126, 34.8475, 0.378908, -61.173, -0.225213
4.096, 10, 0.231282, 19.271, 34.831, 0.296206, -61.3124, -0.176151
4.1, 10, 0.166982, 19.3295, 34.8136, 0.212184, -61.4544, -0.126418
4.104, 10, 0.103768, 19.3886, 34.7954, 0.127425, -61.5981, -0.0763519
4.108, 10, 0.04095, 19.4486, 34.7763, 0.0426344, -61.7422, -0.02636
4.112, 10, -0.0221956, 19.5103, 34.7564, -0.0414397, -61.8854, 0.0231284
4.116, 10, -0.0862396, 19.5737, 34.7355, -0.124091, -62.0265, 0.0717092
4.12, 11, -0.151439, 19.6392, 34.7136, -0.204726, -62.1646, 0.119045
4.124, 11, -0.217722, 19.7065, 34.6905, -0.28292, -62.2989, 0.164894
4.128, 11, -0.284858, 19.7756, 34.6662, -0.358435, -62.429, 0.209124
4.132, 11, -0.35266, 19.8464, 34.6404, -0.431229, -62.5548, 0.251717
4.136, 11, -0.421068, 19.919, 34.613, -0.501441, -62.6766, 0.292755
4.14, 11, -0.490115, 19.9934, 34.5836, -0.569369, -62.7949, 0.332417
4.144, 11, -0.559888, 20.0701, 34.552, -0.635457, -62.9105, 0.370961
4.148, 11, -0.630513, 20.1493, 34.5178, -0.700263, -63.0243, 0.408714
4.152, 11, -0.702087, 20.2314, 34.4806, -0.764449, -63.1376, 0.446061
4.156, 11, -0.774576, 20.3162, 34.4402, -0.828749, -63.2517, 0.483426
4.16, 11, -0.847832, 20.4039, 34.3964, -0.89394, -63.3679, 0.521256
4.164, 11, -0.92176, 20.4946, 34.349, -0.960795, -63.4876, 0.559991
4.168, 11, -0.996452, 20.5885, 34.2978, -1.03004, -63.6121, 0.600043
4.172, 11, -1.0722, 20.6861, 34.2426, -1.1023, -63.7426, 0.641766
4.176, 11, -1.14941, 20.7879, 34.1832, -1.17808, -63.88, 0.685449
4.18, 11, -1.22849, 20.8943, 34.1195, -1.25778, -64.025, 0.731302
4.184, 11, -1.30975, 21.0056, 34.0513, -1.34163, -64.1781, 0.779459
4.188, 11, -1.39334, 21.1219, 33.9788, -1.42973, -64.3396, 0.829977
4.192, 11, -1.47927, 21.2429, 33.902, -1.52208, -64.5094, 0.882838
4.196, 11, -1.56741, 21.3684, 33.821, -1.61854, -64.6875, 0.937956
4.2, 11, -1.65752, 21.4978, 33.7361, -1.71882, -64.8733, 0.995175
4.204, 11, -1.74926, 21.6307, 33.6474, -1.82258, -65.0662, 1.05428
4.208, 11, -1.8423, 21.7666, 33.5552, -1.9293, -65.2654, 1.11498
4.212, 11, -1.93635, 21.9053, 33.4599, -2.03844, -65.4699, 1.17696
4.216, 11, -2.03117, 22.0465, 33.3619, -2.14935, -65.6785, 1.23986
4.22, 11, -2.12648, 22.1895, 33.2617, -2.26136, -65.8899, 1.3033
4.224, 11, -2.22195, 22.3339, 33.1599, -2.37376, -66.1028, 1.36689
4.228, 11, -2.31733, 22.4791, 33.0569, -2.48585, -66.3159, 1.43022
4.232, 11, -2.41248, 22.6245, 32.9534, -2.59693, -66.5279, 1.4929
4.236, 11, -2.50732, 22.7697, 32.85, -2.70632, -66.7373, 1.55456
4.24, 11, -2.60172, 22.914, 32.747, -2.81339, -66.9431, 1.61486
4.244, 11, -2.69558, 23.0573, 32.645, -2.91759, -67.144, 1.67349
4.248, 11, -2.78886, 23.1994, 32.5443, -3.01849, -67.3393, 1.73022
4.252, 11, -2.88157, 23.3402, 32.4452, -3.11576, -67.5281, 1.78487
4.256, 11, -2.97369, 23.4797, 32.3478, -3.20923, -67.7101, 1.83736
4.26, 12, -3.06518, 23.6176, 32.2522, -3.29891, -67.8853, 1.8877
4.264, 12, -3.15606, 23.754, 32.1585, -3.38494, -68.0539, 1.93596
4.268, 12, -3.24643, 23.889, 32.0665, -3.46759, -68.2164, 1.98232
4.272, 12, -3.33635, 24.0227, 31.9759, -3.54727, -68.3735, 2.02699
4.276, 12, -3.42585, 24.1553, 31.8865, -3.62447, -68.5261, 2.07026
4.28, 12, -3.51497, 24.2873, 31.7978, -3.69975, -68.6755, 2.11244
4.284, 12, -3.60383, 24.4192, 31.7092, -3.77372, -68.8226, 2.15387
4.288, 12, -3.6926, 24.5513, 31.6202, -3.84701, -68.9689, 2.19492
4.292, 12, -3.78132, 24.6842, 31.5301, -3.92026, -69.1155, 2.23592
4.296, 12, -3.86996, 24.8181, 31.4383, -3.99409, -69.2637, 2.27724
4.3, 12, -3.95845, 24.9529, 31.3445, -4.0691, -69.4147, 2.3192
4.304, 12, -4.04677, 25.0888, 31.2481, -4.14577, -69.5696, 2.36208
4.308, 12, -4.13494, 25.226, 31.1487, -4.22452, -69.7291, 2.4061
4.312, 12, -4.22307, 25.3646, 31.0462, -4.30559, -69.8939, 2.4514
4.316, 12, -4.31134, 25.5049, 30.9402, -4.38912, -70.0642, 2.49807
4.32, 12, -4.40003, 25.6474, 30.8306, -4.47507, -70.2399, 2.54609
4.324, 12, -4.48938, 25.7922, 30.7173, -4.56332, -70.4209, 2.59539
4.328, 12, -4.57946, 25.9394, 30.6005, -4.65361, -70.6066, 2.64584
4.332, 12, -4.67009, 26.0887, 30.4804, -4.74562, -70.7964, 2.69727
4.336, 12, -4.761, 26.2399, 30.3573, -4.83898, -70.9896, 2.74947
4.34, 12, -4.85193, 26.3926, 30.2318, -4.93326, -71.1853, 2.80221
4.344, 12, -4.94275, 26.5464, 30.1042, -5.028, -71.3825, 2.85524
4.348, 12, -5.03342, 26.701, 29.9752, -5.12271, -71.5802, 2.90829
4.352, 12, -5.12397, 26.8563, 29.8451, -5.2169, -71.7774, 2.96109
4.356, 12, -5.21442, 27.0117, 29.7147, -5.3101, -71.9731, 3.01339
4.36, 12, -5.30463, 27.1667, 29.5845, -5.40186, -72.1664, 3.06493
4.364, 12, -5.39432, 27.3207, 29.4551, -5.49179, -72.3563, 3.1155
4.368, 12, -5.48309, 27.473, 29.3271, -5.57953, -72.5422, 3.1649
4.372, 12, -5.57067, 27.6232, 29.2008, -5.66477, -72.7232, 3.21295
4.376, 12, -5.657, 27.7711, 29.0767, -5.74727, -72.8989, 3.25952
4.38, 12, -5.74217, 27.9167, 28.955, -5.82685, -73.0687, 3.30451
4.384, 12, -5.82639, 28.0601, 28.8357, -5.90341, -73.2326, 3.34786
4.388, 13, -5.90989, 28.2018, 28.719, -5.97696, -73.3904, 3.38958
4.392, 13, -5.99297, 28.3418, 28.6047, -6.0476, -73.5423, 3.42973
4.396, 13, -6.07583, 28.4804, 28.4926, -6.11556, -73.6888, 3.46843
4.4, 13, -6.15852, 28.6178, 28.3824, -6.18115, -73.8305, 3.50585
4.404, 13, -6.24099, 28.7543, 28.2736, -6.24476, -73.9683, 3.54222
4.408, 13, -6.32322, 28.8901, 28.1658, -6.30685, -74.1031, 3.5778
4.412, 13, -6.40527, 29.0257, 28.0582, -6.3679, -74.236, 3.61286
4.416, 13, -6.48723, 29.1617, 27.9502, -6.42844, -74.3681, 3.6477
4.42, 13, -6.56909, 29.2982, 27.841, -6.48897, -74.5006, 3.68262
4.424, 13, -6.65075, 29.4357, 27.73, -6.54999, -74.6345, 3.71789
4.428, 13, -6.73213, 29.574, 27.6165, -6.61198, -74.7708, 3.7538
4.432, 13, -6.81318, 29.7135, 27.5, -6.67532, -74.9105, 3.79058
4.436, 13, -6.89395, 29.8542, 27.3801, -6.74034, -75.0542, 3.8284
4.44, 13, -6.97454, 29.9965, 27.2564, -6.80724, -75.2025, 3.86741
4.444, 13, -7.05514, 30.1406, 27.1287, -6.8761, -75.3556, 3.90766
4.448, 13, -7.13602, 30.287, 26.9967, -6.9469, -75.5133, 3.94914
4.452, 13, -7.21743, 30.4359, 26.8605, -7.01953, -75.6756, 3.99181
4.456, 13, -7.29941, 30.5872, 26.7202, -7.0938, -75.8419, 4.03556
4.46, 13, -7.38179, 30.7407, 26.576, -7.16944, -76.0117, 4.08026
4.464, 13, -7.46431, 30.896, 26.4285, -7.24616, -76.1844, 4.12573
4.468, 13, -7.54678, 31.0529, 26.2781, -7.32361, -76.3592, 4.17179
4.472, 13, -7.62908, 31.2108, 26.1254, -7.40144, -76.5352, 4.21823
4.476, 13, -7.71121, 31.3695, 25.9711, -7.47925, -76.7117, 4.26483
4.48, 13, -7.79323, 31.5288, 25.8157, -7.55665, -76.8876, 4.31135
4.484, 13, -7.87515, 31.6881, 25.6599, -7.63326, -77.0622, 4.35758
4.488, 13, -7.95686, 31.8471, 25.5046, -7.70873, -77.2346, 4.4033
4.492, 13, -8.03811, 32.0049, 25.3502, -7.78272, -77.4041, 4.4483
4.496, 13, -8.11856, 32.1611, 25.1976, -7.85495, -77.5699, 4.49241
4.5, 13, -8.19798, 32.315, 25.0471, -7.92515, -77.7315, 4.53547
4.504, 13, -8.27633, 32.4666, 24.8994, -7.99312, -77.8882, 4.57733
4.508, 13, -8.35373, 32.6158, 24.7546, -8.0587, -78.0398, 4.6179
4.512, 13, -8.4304, 32.7629, 24.6129, -8.1218, -78.186, 4.65711
4.516, 14, -8.50655, 32.9081, 24.4744, -8.18242, -78.3267, 4.69495
4.52, 14, -8.58244, 33.0515, 24.3388, -8.24062, -78.4621, 4.73146
4.524, 14, -8.65823, 33.1935, 24.2061, -8.29659, -78.5925, 4.76674
4.528, 14, -8.73397, 33.3343, 24.0758, -8.35056, -78.7186, 4.80093
4.532, 14, -8.80958, 33.474, 23.9475, -8.40286, -78.841, 4.83424
4.536, 14, -8.88501, 33.6128, 23.8205, -8.45386, -78.9606, 4.86687
4.54, 14, -8.96029, 33.7513, 23.6941, -8.50393, -79.0784, 4.89909
4.544, 14, -9.03544, 33.8899, 23.5674, -8.5535, -79.1952, 4.93114
4.548, 14, -9.11043, 34.029, 23.4395, -8.60298, -79.3121, 4.96331
4.552, 14, -9.18513, 34.1688, 23.3097, -8.65277, -79.43, 4.99586
4.556, 14, -9.25943, 34.3094, 23.1773, -8.70325, -79.5498, 5.02902
4.56, 14, -9.33328, 34.4512, 23.0415, -8.75475, -79.6724, 5.06303
4.564, 14, -9.40672, 34.5942, 22.9019, -8.80751, -79.7983, 5.09805
4.568, 14, -9.47984, 34.7387, 22.758, -8.86171, -79.9279, 5.13421
4.572, 14, -9.55283, 34.8853, 22.6095, -8.91743, -80.0615, 5.17159
4.576, 14, -9.62595, 35.0341, 22.4562, -8.97467, -80.1991, 5.21019
4.58, 14, -9.69944, 35.1855, 22.298, -9.03333, -80.3405, 5.24998
4.584, 14, -9.77335, 35.3395, 22.1351, -9.09328, -80.4853, 5.29089
4.588, 14, -9.84753, 35.4958, 21.9678, -9.15433, -80.6332, 5.33279
4.592, 14, -9.92176, 35.6541, 21.7966, -9.21623, -80.7835, 5.37556
4.596, 14, -9.99584, 35.8138, 21.622, -9.27874, -80.9356, 5.41901
4.6, 14, -10.0697, 35.9747, 21.4447, -9.34156, -81.0889, 5.46298
4.604, 14, -10.1433, 36.1364, 21.2655, -9.40439, -81.2427, 5.50726
4.608, 14, -10.2169, 36.2986, 21.085, -9.46693, -81.3961, 5.55163
4.612, 14, -10.2903, 36.461, 20.9039, -9.52886, -81.5483, 5.59589
4.616, 14, -10.3636, 36.623, 20.7232, -9.58991, -81.6988, 5.63983
4.62, 14, -10.4366, 36.7841, 20.5437, -9.6498, -81.8468, 5.68325
4.624, 14, -10.5089, 36.9435, 20.366, -9.70829, -81.9918, 5.72597
4.628, 14, -10.5804, 37.1008, 20.1908, -9.76517, -82.133, 5.76782
4.632, 14, -10.6509, 37.2557, 20.0188, -9.82026, -82.2702, 5.80865
4.636, 14, -10.7207, 37.4082, 19.8502, -9.87342, -82.4028, 5.84835
4.64, 14, -10.79, 37.5586, 19.6853, -9.92456, -82.5307, 5.88683
4.644, 15, -10.8588, 37.7068, 19.5241, -9.97366, -82.6538, 5.92407
4.648, 15, -10.9276, 37.8534, 19.3667, -10.0208, -82.7721, 5.96007
4.652, 15, -10.9964, 37.9983, 19.2127, -10.066, -82.886, 5.99492
4.656, 15, -11.0652, 38.1419, 19.0619, -10.1095, -82.9958, 6.02875
4.66, 15, -11.134, 38.2843, 18.9137, -10.1516, -83.1022, 6.06171
4.664, 15, -11.2027, 38.4256, 18.7673, -10.1925, -83.206, 6.09402
4.668, 15, -11.2713, 38.5662, 18.622, -10.2326, -83.3077, 6.12592
4.672, 15, -11.3398, 38.7067, 18.4767, -10.272, -83.4083, 6.15764
4.676, 15, -11.408, 38.8475, 18.3306, -10.3113, -83.5086, 6.18945
4.68, 15, -11.4758, 38.9887, 18.1827, -10.3507, -83.6094, 6.2216
4.684, 15, -11.5431, 39.1306, 18.0322, -10.3904, -83.7115, 6.25434
4.688, 15, -11.6097, 39.2733, 17.8784, -10.4308, -83.8155, 6.28789
4.692, 15, -11.6756, 39.4169, 17.7205, -10.472, -83.9221, 6.32242
4.696, 15, -11.7407, 39.5617, 17.5583, -10.5142, -84.0315, 6.35807
4.7, 15, -11.8052, 39.7078, 17.3913, -10.5575, -84.144, 6.3949
4.704, 15, -11.869, 39.8553, 17.2195, -10.6018, -84.2595, 6.43293
4.708, 15, -11.9323, 40.0045, 17.0429, -10.647, -84.3778, 6.47212
4.712, 15, -11.9951, 40.1554, 16.8617, -10.6931, -84.4986, 6.51235
4.716, 15, -12.0575, 40.3076, 16.6766, -10.7398, -84.6214, 6.55349
4.72, 15, -12.1195, 40.461, 16.488, -10.7869, -84.7457, 6.59537
4.724, 15, -12.1811, 40.6152, 16.2968, -10.8342, -84.8707, 6.63778
4.728, 15, -12.2423, 40.7699, 16.1039, -10.8814, -84.9959, 6.6805
4.732, 15, -12.3032, 40.9246, 15.9102, -10.9282, -85.1204, 6.7233
4.736, 15, -12.364, 41.079, 15.7167, -10.9744, -85.2437, 6.76594
4.74, 15, -12.4247, 41.2326, 15.5243, -11.0197, -85.365, 6.80818
4.744, 15, -12.4849, 41.3848, 15.3341, -11.0639, -85.4836, 6.8498
4.748, 15, -12.5446, 41.5349, 15.1469, -11.1069, -85.5991, 6.8906
4.752, 15, -12.6034, 41.6823, 14.9636, -11.1483, -85.711, 6.93038
4.756, 15, -12.6611, 41.8263, 14.785, -11.1882, -85.8187, 6.96898
4.76, 15, -12.7173, 41.9663, 14.6117, -11.2263, -85.9221, 7.00626
4.764, 15, -12.7719, 42.1018, 14.4446, -11.2626, -86.0209, 7.0421
4.768, 15, -12.8245, 42.2322, 14.284, -11.297, -86.1147, 7.0764
4.772, 15, -12.875, 42.3571, 14.1304, -11.3295, -86.2036, 7.1091
4.776, 15, -12.9231, 42.4761, 13.9842, -11.3601, -86.2875, 7.14012
4.78, 15, -12.9687, 42.5889, 13.8458, -11.3888, -86.3662, 7.16943
4.784, 15, -13.0117, 42.6952, 13.7154, -11.4155, -86.4398, 7.19698
4.788, 15, -13.0521, 42.7951, 13.593, -11.4403, -86.5083, 7.22275
4.792, 15, -13.09, 42.8884, 13.4789, -11.4632, -86.5717, 7.24673
4.796, 15, -13.1253, 42.9753, 13.3729, -11.4843, -86.6301, 7.2689
4.8, 15, -13.1582, 43.0559, 13.2752, -11.5036, -86.6835, 7.28928
4.804, 15, -13.1887, 43.1301, 13.1857, -11.521, -86.732, 7.30789
4.808, 15, -13.2168, 43.1981, 13.1041, -11.5368, -86.7758, 7.32476
4.812, 15, -13.2426, 43.26, 13.0305, -11.5509, -86.8151, 7.33994
4.816, 15, -13.2662, 43.3161, 12.9644, -11.5634, -86.85, 7.35348
4.82, 15, -13.2876, 43.3665, 12.9056, -11.5744, -86.8807, 7.36544
4.824, 15, -13.307, 43.4116, 12.8538, -11.584, -86.9075, 7.37591
4.828, 15, -13.3247, 43.4518, 12.8085, -11.5922, -86.9306, 7.38497
4.832, 15, -13.3406, 43.4875, 12.7693, -11.5993, -86.9502, 7.39272
4.836, 15, -13.3549, 43.5188, 12.7357, -11.6052, -86.9668, 7.39926
4.84, 15, -13.3677, 43.546, 12.7072, -11.6101, -86.9805, 7.40473
4.844, 15, -13.379, 43.5695, 12.6834, -11.6141, -86.9918, 7.40922
4.848, 15, -13.3889, 43.5895, 12.6637, -11.6174, -87.0009, 7.41287
4.852, 15, -13.3974, 43.6064, 12.6477, -11.62, -87.0081, 7.41578
4.856, 15, -13.4049, 43.6206, 12.6349, -11.622, -87.0137, 7.41807
4.86, 15, -13.4113, 43.6326, 12.6247, -11.6236, -87.0181, 7.41982
4.864, 15, -13.417, 43.6427, 12.6167, -11.6247, -87.0213, 7.42115
4.868, 15, -13.4219, 43.6512, 12.6106, -11.6256, -87.0236, 7.42213
4.872, 15, -13.4261, 43.6581, 12.606, -11.6262, -87.0253, 7.42283
4.876, 15, -13.4296, 43.6638, 12.6026, -11.6266, -87.0265, 7.42333
4.88, 16, -13.4324, 43.6682, 12.6001, -11.6269, -87.0273, 7.42368
4.884, 16, -13.4345, 43.6714, 12.5984, -11.6271, -87.0278, 7.42391
4.888, 16, -13.436, 43.6737, 12.5972, -11.6272, -87.0282, 7.42407
4.892, 16, -13.4371, 43.6753, 12.5963, -11.6273, -87.0285, 7.42418
4.896, 16, -13.4378, 43.6764, 12.5958, -11.6274, -87.0286, 7.42426
4.9, 16, -13.4383, 43.6771, 12.5954, -11.6274, -87.0287, 7.42431
4.904, 16, -13.4386, 43.6776, 12.5951, -11.6274, -87.0288, 7.42434
4.908, 16, -13.4388, 43.678, 12.595, -11.6275, -87.0289, 7.42436
4.912, 16, -13.439, 43.6782, 12.5949, -11.6275, -87.0289, 7.42438
4.916, 16, -13.4391, 43.6783, 12.5948, -11.6275, -87.0289, 7.42439
4.92, 16, -13.4392, 43.6784, 12.5947, -11.6275, -87.0289, 7.4244
4.924, 16, -13.4392, 43.6785, 12.5947, -11.6275, -87.029, 7.4244
4.928, 16, -13.4392, 43.6786, 12.5947, -11.6275, -87.029, 7.4244
4.932, 16, -13.4393, 43.6786, 12.5946, -11.6275, -87.029, 7.42441
4.936, 16, -13.4393, 43.6786, 12.5946, -11.6275, -87.029, 7.42441
4.94, 16, -13.4393, 43.6786, 12.5946, -11.6275, -87.029, 7.42441
4.944, 16, -13.4393, 43.6786, 12.5946, -11.6275, -87.029, 7.42441
4.948, 16, -13.4393, 43.6786, 12.5946, -11.6275, -87.029, 7.42441
4.952, 16, -13.4393, 43.6786, 12.5946, -11.6275, -87.029, 7.42441
4.956, 16, -13.4393, 43.6786, 12.5946, -11.6275, -87.029, 7.42441
4.96, 16, -13.4393, 43.6787, 12.5946, -11.6275, -87.029, 7.42441
4.964, 16, -13.4393, 43.6787, 12.5946, -11.6275, -87.029, 7.42441
4.968, 16, -13.4393, 43.6787, 12.5946, -11.6275, -87.029, 7.42441
4.972, 16, -13.4393, 43.6787, 12.5946, -11.6275, -87.029, 7.42441
4.976, 16, -13.4393, 43.6787, 12.5946, -11.6275, -87.029, 7.42441
4.98, 16, -13.4393, 43.6787, 12.5946, -11.6275, -87.029, 7.42441
4.984, 16, -13.4393, 43.6787, 12.5946, -11.6275, -87.029, 7.42441
4.988, 16, -13.4393, 43.6787, 12.5946, -11.6275, -87.029, 7.42441
4.992, 16, -13.4393, 43.6787, 12.5946, -11.6275, -87.029, 7.42441
4.996, 16, -13.4393, 43.6787, 12.5946, -11.6275, -87.029, 7.42441
