hehonglu123/ABB_Primitive_Study/execution/movelll_30_car/curve_exe_v1000_fine.csv
timestamp, cmd_num, J1, J2, J3, J4, J5, J6
0, -1, -13.4393, 43.6787, 12.5946, -11.6275, -87.029, 7.42441
0.002, -1, -13.4393, 43.6787, 12.5946, -11.6275, -87.029, 7.42441
0.006, -1, -13.4393, 43.6787, 12.5946, -11.6275, -87.029, 7.42441
0.008, -1, -13.4393, 43.6787, 12.5946, -11.6275, -87.029, 7.42441
0.011, -1, -13.4393, 43.6787, 12.5946, -11.6275, -87.029, 7.42441
0.016, -1, -13.4393, 43.6787, 12.5946, -11.6275, -87.029, 7.42441
0.02, -1, -13.4393, 43.6787, 12.5946, -11.6275, -87.029, 7.42441
0.024, -1, -13.4393, 43.6787, 12.5946, -11.6275, -87.029, 7.42441
0.028, -1, -13.4393, 43.6787, 12.5946, -11.6275, -87.029, 7.42441
0.032, -1, -13.4393, 43.6787, 12.5946, -11.6275, -87.029, 7.42441
0.036, -1, -13.4392, 43.6786, 12.5946, -11.6275, -87.029, 7.42441
0.04, -1, -13.439, 43.6785, 12.5946, -11.6275, -87.029, 7.42441
0.044, -1, -13.4384, 43.678, 12.5947, -11.6275, -87.029, 7.42439
0.048, -1, -13.4372, 43.6772, 12.5949, -11.6274, -87.0289, 7.42434
0.052, -1, -13.4355, 43.6758, 12.5951, -11.6273, -87.0287, 7.42422
0.056, -1, -13.433, 43.6738, 12.5955, -11.627, -87.0284, 7.42397
0.06, -1, -13.4296, 43.671, 12.5961, -11.6264, -87.0277, 7.42349
0.064, -1, -13.4254, 43.6675, 12.5969, -11.6253, -87.0264, 7.42266
0.068, -1, -13.4203, 43.6631, 12.598, -11.6236, -87.0244, 7.42132
0.072, -1, -13.4141, 43.6579, 12.5994, -11.6209, -87.0213, 7.41928
0.076, -1, -13.4066, 43.6516, 12.6011, -11.617, -87.0167, 7.4163
0.08, -1, -13.3977, 43.6442, 12.6034, -11.6115, -87.0103, 7.41213
0.084, -1, -13.3869, 43.6352, 12.6062, -11.604, -87.0016, 7.40644
0.088, -1, -13.3743, 43.6247, 12.6097, -11.5941, -86.9899, 7.39892
0.092, -1, -13.3596, 43.6124, 12.6138, -11.5812, -86.9748, 7.38918
0.096, -1, -13.3427, 43.5982, 12.6186, -11.5648, -86.9557, 7.37685
0.1, -1, -13.3235, 43.582, 12.6243, -11.5444, -86.9319, 7.36155
0.104, -1, -13.3019, 43.5636, 12.6308, -11.5196, -86.9029, 7.3429
0.108, -1, -13.2776, 43.5427, 12.6382, -11.4899, -86.868, 7.32054
0.112, -1, -13.2505, 43.5193, 12.6467, -11.4547, -86.8269, 7.29416
0.116, -1, -13.2206, 43.4932, 12.6562, -11.4137, -86.7789, 7.26346
0.12, -1, -13.1877, 43.4644, 12.6669, -11.3667, -86.7238, 7.22818
0.124, -1, -13.1519, 43.4328, 12.6786, -11.3132, -86.6612, 7.18814
0.128, -1, -13.113, 43.3984, 12.6916, -11.2532, -86.591, 7.14319
0.131, -1, -13.071, 43.3611, 12.7056, -11.1865, -86.5129, 7.09326
0.136, -1, -13.026, 43.321, 12.7209, -11.1131, -86.4269, 7.03835
0.139, -1, -12.9779, 43.2779, 12.7373, -11.0331, -86.3333, 6.9785
0.144, -1, -12.9267, 43.232, 12.7548, -10.9467, -86.2321, 6.91384
0.148, -1, -12.8726, 43.1833, 12.7734, -10.854, -86.1236, 6.84454
0.152, -1, -12.8155, 43.132, 12.7932, -10.7555, -86.0082, 6.77084
0.156, -1, -12.7557, 43.0781, 12.8139, -10.6514, -85.8863, 6.69301
0.16, -1, -12.6932, 43.0219, 12.8355, -10.5422, -85.7585, 6.61137
0.164, -1, -12.6282, 42.9633, 12.8581, -10.4284, -85.6253, 6.52627
0.168, -1, -12.5607, 42.9025, 12.8815, -10.3105, -85.4872, 6.43809
0.172, -1, -12.4909, 42.8396, 12.9056, -10.189, -85.3449, 6.34721
0.176, -1, -12.4189, 42.7749, 12.9305, -10.0644, -85.1989, 6.25399
0.18, -1, -12.345, 42.7085, 12.956, -9.93711, -85.0499, 6.15879
0.184, -1, -12.2694, 42.6406, 12.9821, -9.80765, -84.8983, 6.06194
0.188, -1, -12.1925, 42.5714, 13.0086, -9.6764, -84.7446, 5.96375
0.192, -1, -12.1142, 42.5011, 13.0356, -9.54373, -84.5892, 5.86449
0.196, -1, -12.0348, 42.4297, 13.0629, -9.40995, -84.4326, 5.76439
0.2, -1, -11.9542, 42.3573, 13.0906, -9.27534, -84.2749, 5.66366
0.204, -1, -11.8724, 42.2841, 13.1185, -9.14011, -84.1166, 5.56246
0.208, -1, -11.7897, 42.21, 13.1466, -9.00443, -83.9577, 5.46092
0.212, -1, -11.7061, 42.1354, 13.1749, -8.86843, -83.7985, 5.35913
0.216, -1, -11.6218, 42.0602, 13.2033, -8.7322, -83.6389, 5.25717
0.22, -1, -11.5371, 41.9847, 13.2318, -8.5958, -83.4792, 5.15507
0.224, -1, -11.452, 41.909, 13.2603, -8.45928, -83.3194, 5.05288
0.228, -1, -11.3667, 41.8332, 13.2889, -8.32266, -83.1594, 4.95062
0.232, -1, -11.2813, 41.7572, 13.3176, -8.18597, -82.9993, 4.8483
0.236, -1, -11.1957, 41.6811, 13.3462, -8.04922, -82.8392, 4.74595
0.24, -1, -11.11, 41.605, 13.3749, -7.91243, -82.679, 4.64355
0.244, -1, -11.0243, 41.5288, 13.4035, -7.77561, -82.5188, 4.54114
0.248, -1, -10.9386, 41.4526, 13.4322, -7.63876, -82.3586, 4.4387
0.252, -1, -10.8528, 41.3764, 13.4609, -7.50189, -82.1983, 4.33625
0.256, -1, -10.767, 41.3002, 13.4896, -7.36501, -82.0381, 4.2338
0.26, -1, -10.6811, 41.2239, 13.5183, -7.22813, -81.8778, 4.13133
0.264, -1, -10.5953, 41.1477, 13.547, -7.09125, -81.7175, 4.02887
0.268, -1, -10.5094, 41.0714, 13.5757, -6.95436, -81.5572, 3.92641
0.272, -1, -10.4236, 40.9952, 13.6044, -6.81749, -81.397, 3.82396
0.276, -1, -10.3378, 40.9189, 13.6331, -6.68063, -81.2367, 3.72151
0.28, -1, -10.252, 40.8427, 13.6618, -6.54379, -81.0765, 3.61908
0.284, -1, -10.1661, 40.7665, 13.6904, -6.40697, -80.9163, 3.51666
0.288, -1, -10.0803, 40.6903, 13.7191, -6.27017, -80.7561, 3.41427
0.292, -1, -9.99456, 40.6141, 13.7478, -6.13341, -80.596, 3.31189
0.296, -1, -9.9088, 40.538, 13.7764, -5.99668, -80.4359, 3.20955
0.3, -1, -9.82306, 40.4618, 13.8051, -5.85999, -80.2758, 3.10723
0.304, -1, -9.73734, 40.3857, 13.8337, -5.72334, -80.1158, 3.00494
0.308, -1, -9.65166, 40.3096, 13.8624, -5.58674, -79.9558, 2.90269
0.312, -1, -9.566, 40.2336, 13.891, -5.45019, -79.796, 2.80048
0.316, -1, -9.48038, 40.1575, 13.9196, -5.31369, -79.6361, 2.69831
0.32, -1, -9.3948, 40.0815, 13.9482, -5.17726, -79.4764, 2.59618
0.324, -1, -9.30925, 40.0055, 13.9768, -5.04089, -79.3167, 2.4941
0.328, -1, -9.22375, 39.9296, 14.0054, -4.90458, -79.1571, 2.39207
0.332, -1, -9.13829, 39.8537, 14.0339, -4.76835, -78.9976, 2.2901
0.336, -1, -9.05287, 39.7778, 14.0625, -4.63219, -78.8382, 2.18818
0.34, -1, -8.9675, 39.702, 14.091, -4.49612, -78.6788, 2.08632
0.344, -1, -8.88219, 39.6262, 14.1195, -4.36012, -78.5196, 1.98452
0.348, -1, -8.79692, 39.5505, 14.148, -4.22421, -78.3604, 1.88279
0.352, -1, -8.71172, 39.4748, 14.1765, -4.0884, -78.2014, 1.78113
0.356, -1, -8.62657, 39.3992, 14.2049, -3.95267, -78.0425, 1.67953
0.36, -1, -8.54148, 39.3236, 14.2334, -3.81705, -77.8837, 1.57801
0.364, -1, -8.45646, 39.2481, 14.2618, -3.68152, -77.725, 1.47657
0.368, -1, -8.3715, 39.1727, 14.2902, -3.54611, -77.5664, 1.3752
0.372, -1, -8.28661, 39.0973, 14.3185, -3.4108, -77.408, 1.27392
0.376, -1, -8.20179, 39.0219, 14.3469, -3.2756, -77.2497, 1.17272
0.38, -1, -8.11704, 38.9467, 14.3752, -3.14052, -77.0915, 1.07161
0.384, -1, -8.03237, 38.8715, 14.4035, -3.00557, -76.9335, 0.970588
0.388, -1, -7.94777, 38.7963, 14.4318, -2.87073, -76.7756, 0.869659
0.392, -1, -7.86325, 38.7212, 14.46, -2.73602, -76.6179, 0.768825
0.396, -1, -7.77881, 38.6463, 14.4882, -2.60145, -76.4603, 0.668089
0.4, -1, -7.69446, 38.5713, 14.5164, -2.467, -76.3029, 0.567454
0.404, -1, -7.61019, 38.4965, 14.5446, -2.3327, -76.1456, 0.466921
0.408, -1, -7.526, 38.4217, 14.5727, -2.19854, -75.9885, 0.366494
0.412, -1, -7.44191, 38.347, 14.6008, -2.06452, -75.8316, 0.266176
0.416, -1, -7.35791, 38.2724, 14.6288, -1.93064, -75.6748, 0.165968
0.42, -1, -7.274, 38.1979, 14.6569, -1.79692, -75.5183, 0.0658724
0.424, -1, -7.19019, 38.1235, 14.6849, -1.66336, -75.3619, -0.0341072
0.428, -1, -7.10648, 38.0491, 14.7128, -1.52995, -75.2057, -0.133969
0.432, -1, -7.02287, 37.9748, 14.7408, -1.3967, -75.0496, -0.233711
0.436, -1, -6.93935, 37.9007, 14.7687, -1.26362, -74.8938, -0.33333
0.44, -1, -6.85595, 37.8266, 14.7965, -1.1307, -74.7382, -0.432824
0.444, -1, -6.77264, 37.7526, 14.8244, -0.99795, -74.5827, -0.532191
0.448, -1, -6.68945, 37.6787, 14.8522, -0.865375, -74.4275, -0.631429
0.452, -1, -6.60636, 37.6049, 14.8799, -0.732975, -74.2725, -0.730535
0.456, -1, -6.52339, 37.5312, 14.9077, -0.600755, -74.1176, -0.829507
0.46, -1, -6.44053, 37.4576, 14.9353, -0.468716, -73.963, -0.928344
0.464, -1, -6.35778, 37.3842, 14.963, -0.336861, -73.8086, -1.02704
0.468, -1, -6.27515, 37.3108, 14.9906, -0.205193, -73.6545, -1.1256
0.472, -1, -6.19264, 37.2375, 15.0181, -0.0737153, -73.5005, -1.22402
0.476, -1, -6.11024, 37.1643, 15.0457, 0.0575699, -73.3468, -1.32229
0.48, -1, -6.02797, 37.0912, 15.0732, 0.18866, -73.1933, -1.42042
0.484, -1, -5.94582, 37.0183, 15.1006, 0.319552, -73.04, -1.51839
0.488, -1, -5.8638, 36.9454, 15.128, 0.450244, -72.887, -1.61622
0.492, -1, -5.7819, 36.8727, 15.1554, 0.580734, -72.7342, -1.7139
0.496, -1, -5.70012, 36.8001, 15.1827, 0.711018, -72.5817, -1.81142
0.5, -1, -5.61848, 36.7276, 15.2099, 0.841096, -72.4294, -1.90879
0.504, -1, -5.53697, 36.6552, 15.2372, 0.970964, -72.2773, -2.006
0.508, -1, -5.45558, 36.5829, 15.2644, 1.10062, -72.1255, -2.10306
0.512, -1, -5.37433, 36.5108, 15.2915, 1.23006, -71.9739, -2.19995
0.516, -1, -5.29321, 36.4387, 15.3186, 1.35929, -71.8226, -2.29668
0.52, -1, -5.21223, 36.3668, 15.3456, 1.4883, -71.6715, -2.39325
0.524, -1, -5.13138, 36.295, 15.3726, 1.6171, -71.5207, -2.48966
0.528, -1, -5.05067, 36.2233, 15.3996, 1.74567, -71.3702, -2.5859
0.532, -1, -4.97009, 36.1518, 15.4265, 1.87402, -71.2199, -2.68198
0.536, -1, -4.88966, 36.0803, 15.4534, 2.00215, -71.0698, -2.77789
0.54, -1, -4.80936, 36.009, 15.4802, 2.13005, -70.9201, -2.87363
0.544, -1, -4.7292, 35.9378, 15.507, 2.25773, -70.7706, -2.9692
0.548, -1, -4.64919, 35.8668, 15.5337, 2.38518, -70.6213, -3.0646
0.552, -1, -4.56931, 35.7959, 15.5604, 2.51241, -70.4724, -3.15984
0.556, -1, -4.48958, 35.725, 15.587, 2.6394, -70.3237, -3.2549
0.56, -1, -4.41, 35.6544, 15.6136, 2.76617, -70.1752, -3.34979
0.564, -1, -4.33056, 35.5838, 15.6401, 2.8927, -70.0271, -3.44451
0.568, -1, -4.25126, 35.5134, 15.6666, 3.01901, -69.8792, -3.53905
0.572, -1, -4.17211, 35.4431, 15.693, 3.14508, -69.7316, -3.63342
0.576, -1, -4.0931, 35.373, 15.7194, 3.27092, -69.5842, -3.72761
0.58, -1, -4.01424, 35.3029, 15.7458, 3.39652, -69.4372, -3.82163
0.584, -1, -3.93553, 35.233, 15.772, 3.52189, -69.2904, -3.91547
0.588, -1, -3.85696, 35.1633, 15.7983, 3.64702, -69.1438, -4.00914
0.592, -1, -3.77855, 35.0936, 15.8245, 3.77191, -68.9976, -4.10263
0.596, -1, -3.70028, 35.0241, 15.8506, 3.89657, -68.8516, -4.19594
0.6, -1, -3.62216, 34.9548, 15.8767, 4.02099, -68.7059, -4.28908
0.604, -1, -3.54419, 34.8855, 15.9027, 4.14517, -68.5605, -4.38203
0.608, -1, -3.46637, 34.8164, 15.9287, 4.26911, -68.4154, -4.47481
0.612, -1, -3.3887, 34.7474, 15.9547, 4.39281, -68.2706, -4.5674
0.616, -1, -3.31118, 34.6786, 15.9806, 4.51628, -68.126, -4.65982
0.62, -1, -3.23382, 34.6099, 16.0064, 4.63949, -67.9817, -4.75205
0.624, -1, -3.1566, 34.5413, 16.0322, 4.76247, -67.8377, -4.84411
0.628, -1, -3.07954, 34.4729, 16.0579, 4.88521, -67.694, -4.93598
0.632, -1, -3.00262, 34.4046, 16.0836, 5.0077, -67.5506, -5.02767
0.636, -1, -2.92586, 34.3364, 16.1092, 5.12995, -67.4074, -5.11918
0.64, -1, -2.84926, 34.2684, 16.1348, 5.25195, -67.2646, -5.2105
0.644, -1, -2.7728, 34.2005, 16.1604, 5.37371, -67.122, -5.30165
0.648, -1, -2.6965, 34.1328, 16.1858, 5.49523, -66.9797, -5.39261
0.652, -1, -2.62035, 34.0652, 16.2113, 5.6165, -66.8377, -5.48338
0.656, -1, -2.54436, 33.9977, 16.2366, 5.73753, -66.696, -5.57398
0.66, -1, -2.46852, 33.9303, 16.262, 5.85831, -66.5546, -5.66439
0.664, -1, -2.39283, 33.8631, 16.2872, 5.97884, -66.4135, -5.75461
0.668, -1, -2.3173, 33.7961, 16.3125, 6.09913, -66.2726, -5.84465
0.672, -1, -2.24192, 33.7291, 16.3376, 6.21917, -66.1321, -5.93451
0.676, -1, -2.1667, 33.6623, 16.3628, 6.33897, -65.9918, -6.02418
0.68, -1, -2.09163, 33.5957, 16.3878, 6.45851, -65.8518, -6.11367
0.684, -1, -2.01672, 33.5292, 16.4129, 6.57781, -65.7121, -6.20297
0.688, -1, -1.94196, 33.4628, 16.4378, 6.69687, -65.5727, -6.29208
0.692, -1, -1.86736, 33.3965, 16.4627, 6.81567, -65.4336, -6.38101
0.696, -1, -1.79291, 33.3304, 16.4876, 6.93423, -65.2948, -6.46976
0.7, -1, -1.71862, 33.2645, 16.5124, 7.05254, -65.1562, -6.55832
0.704, -1, -1.64448, 33.1986, 16.5372, 7.1706, -65.018, -6.64669
0.708, -1, -1.5705, 33.1329, 16.5619, 7.28841, -64.8801, -6.73488
0.712, -1, -1.49668, 33.0674, 16.5865, 7.40597, -64.7424, -6.82288
0.716, -1, -1.42301, 33.002, 16.6111, 7.52329, -64.605, -6.9107
0.72, -1, -1.34949, 32.9367, 16.6357, 7.64036, -64.468, -6.99833
0.724, -1, -1.27614, 32.8715, 16.6602, 7.75718, -64.3312, -7.08577
0.728, -1, -1.20293, 32.8065, 16.6846, 7.87375, -64.1947, -7.17303
0.732, -1, -1.12989, 32.7417, 16.709, 7.99007, -64.0585, -7.2601
0.736, -1, -1.057, 32.677, 16.7333, 8.10615, -63.9226, -7.34699
0.74, -1, -0.984259, 32.6124, 16.7576, 8.22197, -63.7869, -7.43369
0.744, -1, -0.911678, 32.5479, 16.7819, 8.33755, -63.6516, -7.52021
0.748, -1, -0.839252, 32.4836, 16.8061, 8.45288, -63.5166, -7.60653
0.752, -1, -0.766981, 32.4194, 16.8302, 8.56796, -63.3818, -7.69268
0.756, -1, -0.694864, 32.3554, 16.8543, 8.6828, -63.2474, -7.77864
0.76, -1, -0.622901, 32.2915, 16.8783, 8.79738, -63.1132, -7.86441
0.764, -1, -0.551092, 32.2277, 16.9023, 8.91172, -62.9793, -7.95
0.768, -1, -0.479437, 32.1641, 16.9262, 9.02582, -62.8457, -8.0354
0.772, -1, -0.407935, 32.1006, 16.9501, 9.13966, -62.7124, -8.12062
0.776, -1, -0.336586, 32.0373, 16.9739, 9.25326, -62.5794, -8.20566
0.78, -1, -0.26539, 31.9741, 16.9977, 9.36662, -62.4467, -8.29051
0.784, -1, -0.194346, 31.911, 17.0214, 9.47973, -62.3142, -8.37518
0.788, -1, -0.123455, 31.848, 17.0451, 9.5926, -62.182, -8.45966
0.792, -1, -0.0527154, 31.7852, 17.0687, 9.70522, -62.0502, -8.54397
0.796, -1, 0.0178725, 31.7226, 17.0923, 9.81761, -61.9186, -8.62809
0.8, -1, 0.0883091, 31.66, 17.1158, 9.92975, -61.7873, -8.71204
0.804, -1, 0.158595, 31.5976, 17.1393, 10.0417, -61.6562, -8.7958
0.808, -1, 0.22873, 31.5353, 17.1627, 10.1533, -61.5255, -8.87938
0.812, -1, 0.298716, 31.4732, 17.186, 10.2647, -61.395, -8.96279
0.816, -1, 0.368552, 31.4112, 17.2094, 10.3759, -61.2648, -9.04602
0.82, -1, 0.438239, 31.3493, 17.2326, 10.4869, -61.1349, -9.12907
0.824, -1, 0.507778, 31.2876, 17.2559, 10.5976, -61.0053, -9.21194
0.828, -1, 0.577169, 31.226, 17.279, 10.7081, -60.8759, -9.29464
0.832, -1, 0.646413, 31.1645, 17.3021, 10.8183, -60.7468, -9.37716
0.836, -1, 0.71551, 31.1031, 17.3252, 10.9283, -60.618, -9.45951
0.84, -1, 0.78446, 31.0419, 17.3482, 11.0381, -60.4895, -9.54168
0.844, -1, 0.853266, 30.9808, 17.3712, 11.1476, -60.3612, -9.62368
0.848, -1, 0.921925, 30.9199, 17.3941, 11.2569, -60.2332, -9.7055
0.852, -1, 0.990441, 30.859, 17.417, 11.366, -60.1055, -9.78716
0.856, -1, 1.05881, 30.7983, 17.4398, 11.4749, -59.9781, -9.86864
0.86, -1, 1.12704, 30.7378, 17.4626, 11.5835, -59.8509, -9.94995
0.864, -1, 1.19512, 30.6773, 17.4854, 11.6919, -59.7239, -10.0311
0.868, -1, 1.26307, 30.617, 17.508, 11.8001, -59.5973, -10.1121
0.872, -1, 1.33087, 30.5568, 17.5307, 11.908, -59.4709, -10.1929
0.876, -1, 1.39853, 30.4967, 17.5533, 12.0157, -59.3448, -10.2735
0.88, -1, 1.46604, 30.4368, 17.5758, 12.1232, -59.2189, -10.354
0.884, -1, 1.53342, 30.377, 17.5983, 12.2305, -59.0933, -10.4343
0.888, -1, 1.60066, 30.3173, 17.6208, 12.3375, -58.9679, -10.5144
0.892, -1, 1.66775, 30.2577, 17.6432, 12.4444, -58.8429, -10.5943
0.896, -1, 1.73471, 30.1982, 17.6655, 12.551, -58.718, -10.6741
0.9, -1, 1.80153, 30.1389, 17.6878, 12.6574, -58.5935, -10.7538
0.904, -1, 1.86821, 30.0797, 17.7101, 12.7635, -58.4692, -10.8332
0.908, -1, 1.93476, 30.0206, 17.7323, 12.8695, -58.3451, -10.9125
0.912, -1, 2.00117, 29.9617, 17.7545, 12.9752, -58.2213, -10.9917
0.916, -1, 2.06744, 29.9028, 17.7766, 13.0807, -58.0978, -11.0707
0.92, -1, 2.13357, 29.8441, 17.7987, 13.186, -57.9745, -11.1495
0.924, -1, 2.19957, 29.7855, 17.8207, 13.2911, -57.8514, -11.2281
0.928, -1, 2.26543, 29.727, 17.8427, 13.3959, -57.7287, -11.3066
0.932, -1, 2.33116, 29.6687, 17.8647, 13.5006, -57.6061, -11.385
0.936, -1, 2.39676, 29.6104, 17.8866, 13.605, -57.4838, -11.4631
0.94, -1, 2.46222, 29.5523, 17.9084, 13.7092, -57.3618, -11.5412
0.944, -1, 2.52755, 29.4943, 17.9303, 13.8133, -57.24, -11.619
0.948, -1, 2.59275, 29.4364, 17.952, 13.9171, -57.1185, -11.6967
0.952, -1, 2.65781, 29.3787, 17.9738, 14.0206, -56.9972, -11.7743
0.956, -1, 2.72274, 29.321, 17.9954, 14.124, -56.8761, -11.8516
0.96, -1, 2.78755, 29.2635, 18.0171, 14.2272, -56.7553, -11.9289
0.964, -1, 2.85222, 29.2061, 18.0387, 14.3302, -56.6348, -12.0059
0.968, -1, 2.91676, 29.1488, 18.0602, 14.4329, -56.5144, -12.0829
0.972, -1, 2.98117, 29.0916, 18.0817, 14.5355, -56.3944, -12.1596
0.976, -1, 3.04545, 29.0345, 18.1032, 14.6378, -56.2745, -12.2362
0.98, -1, 3.10961, 28.9775, 18.1246, 14.7399, -56.1549, -12.3127
0.984, -1, 3.17363, 28.9207, 18.146, 14.8419, -56.0356, -12.389
0.988, -1, 3.23753, 28.864, 18.1673, 14.9436, -55.9165, -12.4651
0.992, -1, 3.3013, 28.8074, 18.1886, 15.0451, -55.7976, -12.5411
0.996, -1, 3.36494, 28.7508, 18.2099, 15.1465, -55.6789, -12.617
1, -1, 3.42846, 28.6945, 18.2311, 15.2476, -55.5605, -12.6927
1.004, -1, 3.49185, 28.6382, 18.2523, 15.3485, -55.4423, -12.7682
1.008, -1, 3.55512, 28.582, 18.2734, 15.4492, -55.3244, -12.8436
1.012, -1, 3.61826, 28.5259, 18.2945, 15.5498, -55.2067, -12.9189
1.016, -1, 3.68127, 28.47, 18.3155, 15.6501, -55.0892, -12.994
1.02, -1, 3.74416, 28.4142, 18.3365, 15.7502, -54.972, -13.0689
1.024, -1, 3.80693, 28.3584, 18.3575, 15.8502, -54.855, -13.1437
1.027, -1, 3.86958, 28.3028, 18.3784, 15.9499, -54.7382, -13.2184
1.032, -1, 3.9321, 28.2473, 18.3993, 16.0494, -54.6216, -13.2929
1.036, -1, 3.9945, 28.1919, 18.4201, 16.1488, -54.5053, -13.3673
1.04, -1, 4.05678, 28.1366, 18.4409, 16.2479, -54.3892, -13.4415
1.044, -1, 4.11893, 28.0814, 18.4616, 16.3469, -54.2733, -13.5156
1.048, -1, 4.18097, 28.0263, 18.4824, 16.4457, -54.1577, -13.5895
1.052, -1, 4.24289, 27.9714, 18.503, 16.5442, -54.0422, -13.6633
1.055, -1, 4.30468, 27.9165, 18.5237, 16.6426, -53.927, -13.7369
1.06, -1, 4.36636, 27.8617, 18.5443, 16.7408, -53.8121, -13.8104
1.064, -1, 4.42792, 27.8071, 18.5648, 16.8388, -53.6973, -13.8838
1.068, -1, 4.48936, 27.7525, 18.5853, 16.9366, -53.5828, -13.957
1.072, -1, 4.55068, 27.6981, 18.6058, 17.0343, -53.4685, -14.0301
1.076, -1, 4.61188, 27.6438, 18.6262, 17.1317, -53.3544, -14.103
1.08, -1, 4.67297, 27.5895, 18.6466, 17.229, -53.2405, -14.1758
1.084, -1, 4.73394, 27.5354, 18.667, 17.326, -53.1268, -14.2485
1.088, -1, 4.7948, 27.4814, 18.6873, 17.4229, -53.0134, -14.321
1.091, -1, 4.85554, 27.4274, 18.7076, 17.5196, -52.9002, -14.3934
1.096, -1, 4.91617, 27.3736, 18.7278, 17.6161, -52.7871, -14.4656
1.1, -1, 4.97668, 27.3199, 18.7481, 17.7125, -52.6743, -14.5378
1.104, -1, 5.03708, 27.2663, 18.7682, 17.8086, -52.5618, -14.6097
1.108, -1, 5.09737, 27.2127, 18.7883, 17.9046, -52.4494, -14.6816
1.112, -1, 5.15754, 27.1593, 18.8084, 18.0004, -52.3372, -14.7533
1.116, -1, 5.2176, 27.106, 18.8285, 18.096, -52.2253, -14.8249
1.119, -1, 5.27755, 27.0528, 18.8485, 18.1915, -52.1135, -14.8963
1.124, -1, 5.33739, 26.9996, 18.8685, 18.2867, -52.0019, -14.9676
1.128, -1, 5.39712, 26.9466, 18.8884, 18.3818, -51.8906, -15.0388
1.132, -1, 5.45673, 26.8937, 18.9083, 18.4767, -51.7795, -15.1098
1.136, -1, 5.51624, 26.8408, 18.9282, 18.5715, -51.6685, -15.1807
1.14, -1, 5.57564, 26.7881, 18.948, 18.666, -51.5578, -15.2515
1.144, -1, 5.63493, 26.7355, 18.9678, 18.7604, -51.4473, -15.3222
1.147, -1, 5.69412, 26.6829, 18.9876, 18.8547, -51.337, -15.3927
1.152, -1, 5.75319, 26.6305, 19.0073, 18.9487, -51.2268, -15.4631
1.156, -1, 5.81216, 26.5781, 19.027, 19.0426, -51.1169, -15.5334
1.16, -1, 5.87103, 26.5259, 19.0467, 19.1363, -51.0072, -15.6035
1.164, -1, 5.92979, 26.4737, 19.0663, 19.2298, -50.8976, -15.6736
1.168, -1, 5.98844, 26.4216, 19.0859, 19.3232, -50.7883, -15.7435
1.172, -1, 6.04699, 26.3696, 19.1054, 19.4164, -50.6792, -15.8132
1.175, -1, 6.10543, 26.3177, 19.1249, 19.5095, -50.5702, -15.8829
1.18, -1, 6.16377, 26.266, 19.1444, 19.6024, -50.4614, -15.9524
1.184, -1, 6.22201, 26.2142, 19.1639, 19.6951, -50.3529, -16.0218
1.188, -1, 6.28015, 26.1626, 19.1833, 19.7876, -50.2445, -16.0911
1.192, -1, 6.33818, 26.1111, 19.2027, 19.88, -50.1363, -16.1603
1.196, -1, 6.39611, 26.0597, 19.222, 19.9723, -50.0283, -16.2293
1.2, -1, 6.45394, 26.0083, 19.2413, 20.0643, -49.9205, -16.2982
1.204, -1, 6.51167, 25.9571, 19.2606, 20.1562, -49.8129, -16.367
1.208, -1, 6.5693, 25.9059, 19.2798, 20.248, -49.7055, -16.4357
1.212, -1, 6.62683, 25.8548, 19.299, 20.3396, -49.5982, -16.5042
1.216, -1, 6.68426, 25.8038, 19.3182, 20.431, -49.4912, -16.5727
1.22, -1, 6.74159, 25.7529, 19.3374, 20.5223, -49.3843, -16.641
1.224, -1, 6.79882, 25.7021, 19.3565, 20.6134, -49.2776, -16.7092
1.228, -1, 6.85596, 25.6514, 19.3756, 20.7044, -49.1711, -16.7773
1.232, -1, 6.91299, 25.6008, 19.3946, 20.7952, -49.0648, -16.8453
1.236, -1, 6.96993, 25.5502, 19.4136, 20.8858, -48.9586, -16.9131
1.24, -1, 7.02678, 25.4997, 19.4326, 20.9763, -48.8526, -16.9809
1.244, -1, 7.08352, 25.4494, 19.4515, 21.0667, -48.7469, -17.0485
1.248, -1, 7.14018, 25.3991, 19.4705, 21.1569, -48.6413, -17.116
1.252, -1, 7.19673, 25.3488, 19.4893, 21.2469, -48.5358, -17.1834
1.256, -1, 7.25319, 25.2987, 19.5082, 21.3368, -48.4306, -17.2507
1.26, -1, 7.30956, 25.2487, 19.527, 21.4266, -48.3255, -17.3179
1.264, -1, 7.36583, 25.1987, 19.5458, 21.5161, -48.2206, -17.385
1.267, -1, 7.42201, 25.1488, 19.5646, 21.6056, -48.1158, -17.4519
1.272, -1, 7.4781, 25.099, 19.5833, 21.6949, -48.0113, -17.5188
1.276, -1, 7.53409, 25.0493, 19.602, 21.784, -47.9069, -17.5855
1.28, -1, 7.58999, 24.9997, 19.6207, 21.873, -47.8027, -17.6521
1.284, -1, 7.6458, 24.9501, 19.6393, 21.9619, -47.6986, -17.7186
1.288, -1, 7.70152, 24.9007, 19.6579, 22.0506, -47.5948, -17.785
1.292, -1, 7.75715, 24.8513, 19.6765, 22.1392, -47.4911, -17.8513
1.295, -1, 7.81268, 24.802, 19.695, 22.2276, -47.3875, -17.9175
1.3, -1, 7.86813, 24.7528, 19.7135, 22.3159, -47.2842, -17.9836
1.304, -1, 7.92348, 24.7036, 19.732, 22.404, -47.181, -18.0496
1.308, -1, 7.97875, 24.6545, 19.7505, 22.492, -47.0779, -18.1154
1.312, -1, 8.03393, 24.6055, 19.7689, 22.5798, -46.9751, -18.1812
1.316, -1, 8.08901, 24.5566, 19.7873, 22.6675, -46.8724, -18.2468
1.32, -1, 8.14401, 24.5078, 19.8057, 22.7551, -46.7699, -18.3124
1.324, -1, 8.19893, 24.4591, 19.824, 22.8425, -46.6675, -18.3778
1.328, -1, 8.25375, 24.4104, 19.8423, 22.9298, -46.5653, -18.4432
1.332, -1, 8.30849, 24.3618, 19.8606, 23.017, -46.4632, -18.5084
1.336, -1, 8.36314, 24.3133, 19.8788, 23.104, -46.3614, -18.5735
1.34, -1, 8.4177, 24.2648, 19.8971, 23.1909, -46.2596, -18.6386
1.344, -1, 8.47218, 24.2165, 19.9153, 23.2776, -46.1581, -18.7035
1.348, -1, 8.52657, 24.1682, 19.9334, 23.3642, -46.0567, -18.7683
1.352, -1, 8.58088, 24.1199, 19.9515, 23.4507, -45.9554, -18.833
1.356, -1, 8.6351, 24.0718, 19.9697, 23.537, -45.8543, -18.8976
1.36, -1, 8.68923, 24.0237, 19.9877, 23.6232, -45.7534, -18.9622
1.364, -1, 8.74328, 23.9757, 20.0058, 23.7092, -45.6526, -19.0266
1.368, -1, 8.79725, 23.9278, 20.0238, 23.7952, -45.552, -19.0909
1.372, -1, 8.85114, 23.88, 20.0418, 23.881, -45.4516, -19.1551
1.376, -1, 8.90494, 23.8322, 20.0598, 23.9666, -45.3513, -19.2192
1.38, -1, 8.95866, 23.7845, 20.0777, 24.0521, -45.2511, -19.2833
1.384, -1, 9.01229, 23.7369, 20.0956, 24.1375, -45.1511, -19.3472
1.388, -1, 9.06584, 23.6894, 20.1135, 24.2228, -45.0513, -19.411
1.392, -1, 9.11932, 23.6419, 20.1314, 24.3079, -44.9516, -19.4747
1.396, -1, 9.1727, 23.5945, 20.1492, 24.393, -44.8521, -19.5384
1.4, -1, 9.22601, 23.5472, 20.167, 24.4778, -44.7527, -19.6019
1.404, -1, 9.27924, 23.4999, 20.1848, 24.5626, -44.6535, -19.6653
1.408, -1, 9.33239, 23.4527, 20.2025, 24.6472, -44.5544, -19.7287
1.412, -1, 9.38546, 23.4056, 20.2202, 24.7317, -44.4554, -19.7919
1.416, -1, 9.43844, 23.3585, 20.2379, 24.8161, -44.3567, -19.8551
1.42, -1, 9.49135, 23.3116, 20.2556, 24.9003, -44.258, -19.9181
1.424, -1, 9.54418, 23.2647, 20.2732, 24.9844, -44.1595, -19.9811
1.428, -1, 9.59693, 23.2178, 20.2908, 25.0684, -44.0612, -20.044
1.432, -1, 9.6496, 23.1711, 20.3084, 25.1523, -43.963, -20.1067
1.436, -1, 9.7022, 23.1244, 20.326, 25.236, -43.865, -20.1694
1.44, -1, 9.75472, 23.0777, 20.3435, 25.3196, -43.767, -20.232
1.444, -1, 9.80716, 23.0312, 20.361, 25.4031, -43.6693, -20.2945
1.448, -1, 9.85952, 22.9847, 20.3785, 25.4865, -43.5717, -20.3569
1.452, -1, 9.91181, 22.9383, 20.396, 25.5697, -43.4742, -20.4192
1.456, -1, 9.96403, 22.8919, 20.4134, 25.6528, -43.3769, -20.4814
1.46, -1, 10.0162, 22.8456, 20.4308, 25.7358, -43.2797, -20.5436
1.464, -1, 10.0682, 22.7994, 20.4482, 25.8187, -43.1826, -20.6056
1.468, -1, 10.1202, 22.7533, 20.4656, 25.9015, -43.0857, -20.6676
1.472, -1, 10.1721, 22.7072, 20.4829, 25.9841, -42.989, -20.7294
1.476, -1, 10.224, 22.6612, 20.5002, 26.0666, -42.8923, -20.7912
1.48, -1, 10.2757, 22.6152, 20.5175, 26.149, -42.7958, -20.8529
1.484, -1, 10.3274, 22.5693, 20.5348, 26.2313, -42.6995, -20.9145
1.488, -1, 10.379, 22.5235, 20.552, 26.3135, -42.6033, -20.976
1.492, -1, 10.4306, 22.4777, 20.5692, 26.3956, -42.5072, -21.0374
1.496, -1, 10.482, 22.432, 20.5864, 26.4775, -42.4113, -21.0987
1.5, -1, 10.5334, 22.3864, 20.6035, 26.5593, -42.3154, -21.16
1.504, -1, 10.5848, 22.3408, 20.6207, 26.641, -42.2198, -21.2212
1.508, -1, 10.636, 22.2953, 20.6378, 26.7226, -42.1242, -21.2822
1.512, -1, 10.6872, 22.2499, 20.6549, 26.8041, -42.0288, -21.3432
1.516, -1, 10.7383, 22.2045, 20.6719, 26.8855, -41.9336, -21.4041
1.52, -1, 10.7893, 22.1592, 20.689, 26.9667, -41.8384, -21.4649
1.524, -1, 10.8403, 22.114, 20.706, 27.0479, -41.7434, -21.5257
1.528, -1, 10.8912, 22.0688, 20.723, 27.1289, -41.6485, -21.5863
1.532, -1, 10.942, 22.0237, 20.74, 27.2098, -41.5538, -21.6469
1.536, -1, 10.9928, 21.9786, 20.7569, 27.2906, -41.4592, -21.7074
1.54, -1, 11.0435, 21.9336, 20.7738, 27.3713, -41.3647, -21.7678
1.544, -1, 11.0941, 21.8887, 20.7908, 27.4519, -41.2703, -21.8281
1.548, -1, 11.1446, 21.8438, 20.8076, 27.5324, -41.1761, -21.8884
1.552, -1, 11.1951, 21.799, 20.8245, 27.6127, -41.082, -21.9485
1.556, -1, 11.2455, 21.7542, 20.8413, 27.693, -40.988, -22.0086
1.56, -1, 11.2959, 21.7095, 20.8581, 27.7732, -40.8941, -22.0686
1.564, -1, 11.3462, 21.6649, 20.8749, 27.8532, -40.8004, -22.1285
1.568, -1, 11.3964, 21.6203, 20.8917, 27.9331, -40.7068, -22.1884
1.572, -1, 11.4465, 21.5758, 20.9084, 28.013, -40.6133, -22.2481
1.576, -1, 11.4966, 21.5313, 20.9251, 28.0927, -40.52, -22.3078
1.58, -1, 11.5466, 21.4869, 20.9418, 28.1723, -40.4268, -22.3674
1.584, -1, 11.5965, 21.4426, 20.9585, 28.2518, -40.3336, -22.4269
1.588, -1, 11.6464, 21.3983, 20.9752, 28.3313, -40.2407, -22.4864
1.592, -1, 11.6962, 21.3541, 20.9918, 28.4106, -40.1478, -22.5457
1.596, -1, 11.746, 21.3099, 21.0084, 28.4898, -40.0551, -22.605
1.6, -1, 11.7957, 21.2658, 21.025, 28.5689, -39.9624, -22.6642
1.604, -1, 11.8453, 21.2217, 21.0416, 28.6479, -39.8699, -22.7234
1.608, -1, 11.8948, 21.1778, 21.0581, 28.7268, -39.7776, -22.7824
1.612, -1, 11.9443, 21.1338, 21.0747, 28.8055, -39.6853, -22.8414
1.616, -1, 11.9938, 21.0899, 21.0912, 28.8842, -39.5932, -22.9003
1.62, -1, 12.0431, 21.0461, 21.1076, 28.9628, -39.5011, -22.9591
1.624, -1, 12.0924, 21.0023, 21.1241, 29.0413, -39.4092, -23.0179
1.628, -1, 12.1417, 20.9586, 21.1405, 29.1197, -39.3174, -23.0765
1.632, -1, 12.1908, 20.915, 21.157, 29.198, -39.2258, -23.1352
1.636, -1, 12.2399, 20.8714, 21.1734, 29.2762, -39.1342, -23.1937
1.64, -1, 12.289, 20.8278, 21.1897, 29.3543, -39.0428, -23.2521
1.644, -1, 12.338, 20.7843, 21.2061, 29.4323, -38.9515, -23.3105
1.648, -1, 12.3869, 20.7409, 21.2224, 29.5102, -38.8603, -23.3688
1.652, -1, 12.4358, 20.6975, 21.2388, 29.588, -38.7692, -23.4271
1.656, -1, 12.4846, 20.6542, 21.2551, 29.6657, -38.6782, -23.4852
1.66, -1, 12.5333, 20.6109, 21.2713, 29.7433, -38.5873, -23.5433
1.664, -1, 12.582, 20.5677, 21.2876, 29.8208, -38.4966, -23.6013
1.668, -1, 12.6306, 20.5245, 21.3038, 29.8982, -38.4059, -23.6593
1.672, -1, 12.6792, 20.4814, 21.32, 29.9755, -38.3154, -23.7171
1.676, -1, 12.7277, 20.4384, 21.3362, 30.0527, -38.225, -23.7749
1.68, -1, 12.7761, 20.3953, 21.3524, 30.1298, -38.1347, -23.8327
1.684, -1, 12.8245, 20.3524, 21.3686, 30.2069, -38.0445, -23.8903
1.688, -1, 12.8728, 20.3095, 21.3847, 30.2838, -37.9544, -23.9479
1.692, -1, 12.9211, 20.2666, 21.4008, 30.3606, -37.8644, -24.0054
1.696, -1, 12.9693, 20.2238, 21.4169, 30.4374, -37.7746, -24.0629
1.7, -1, 13.0174, 20.1811, 21.433, 30.514, -37.6848, -24.1203
1.704, -1, 13.0655, 20.1384, 21.449, 30.5906, -37.5951, -24.1776
1.708, -1, 13.1136, 20.0958, 21.4651, 30.6671, -37.5056, -24.2348
1.712, -1, 13.1615, 20.0532, 21.4811, 30.7435, -37.4162, -24.292
1.716, -1, 13.2094, 20.0106, 21.4971, 30.8197, -37.3269, -24.3491
1.72, -1, 13.2573, 19.9681, 21.5131, 30.8959, -37.2376, -24.4061
1.724, -1, 13.3051, 19.9257, 21.529, 30.972, -37.1485, -24.4631
1.728, -1, 13.3528, 19.8833, 21.545, 31.0481, -37.0595, -24.52
1.732, -1, 13.4005, 19.841, 21.5609, 31.124, -36.9706, -24.5768
1.736, -1, 13.4482, 19.7987, 21.5768, 31.1998, -36.8818, -24.6336
1.74, -1, 13.4957, 19.7565, 21.5927, 31.2756, -36.7931, -24.6903
1.744, -1, 13.5433, 19.7143, 21.6086, 31.3512, -36.7045, -24.7469
1.748, -1, 13.5907, 19.6721, 21.6244, 31.4268, -36.6161, -24.8035
1.752, -1, 13.6381, 19.63, 21.6402, 31.5023, -36.5277, -24.86
1.756, -1, 13.6855, 19.588, 21.6561, 31.5776, -36.4394, -24.9164
1.76, -1, 13.7328, 19.546, 21.6719, 31.6529, -36.3512, -24.9728
1.764, -1, 13.78, 19.5041, 21.6876, 31.7282, -36.2632, -25.0291
1.768, -1, 13.8272, 19.4622, 21.7034, 31.8033, -36.1752, -25.0853
1.772, -1, 13.8743, 19.4203, 21.7191, 31.8783, -36.0873, -25.1415
1.776, -1, 13.9214, 19.3785, 21.7348, 31.9533, -35.9996, -25.1976
1.78, -1, 13.9684, 19.3368, 21.7505, 32.0281, -35.9119, -25.2536
1.784, -1, 14.0154, 19.2951, 21.7662, 32.1029, -35.8243, -25.3096
1.788, -1, 14.0623, 19.2534, 21.7819, 32.1776, -35.7369, -25.3655
1.792, -1, 14.1092, 19.2118, 21.7975, 32.2522, -35.6495, -25.4214
1.796, -1, 14.156, 19.1703, 21.8132, 32.3268, -35.5622, -25.4772
1.8, -1, 14.2027, 19.1288, 21.8288, 32.4012, -35.4751, -25.5329
1.804, -1, 14.2494, 19.0873, 21.8444, 32.4756, -35.388, -25.5886
1.808, -1, 14.2961, 19.0459, 21.86, 32.5498, -35.301, -25.6442
1.812, -1, 14.3427, 19.0045, 21.8755, 32.624, -35.2142, -25.6997
1.816, -1, 14.3892, 18.9632, 21.8911, 32.6981, -35.1274, -25.7552
1.82, -1, 14.4357, 18.9219, 21.9066, 32.7722, -35.0407, -25.8106
1.824, -1, 14.4822, 18.8807, 21.9221, 32.8461, -34.9541, -25.8659
1.828, -1, 14.5286, 18.8395, 21.9376, 32.92, -34.8676, -25.9212
1.832, -1, 14.5749, 18.7983, 21.9531, 32.9938, -34.7813, -25.9764
1.836, -1, 14.6212, 18.7572, 21.9685, 33.0675, -34.695, -26.0316
1.84, -1, 14.6674, 18.7162, 21.984, 33.1411, -34.6088, -26.0867
1.844, -1, 14.7136, 18.6752, 21.9994, 33.2146, -34.5227, -26.1418
1.848, -1, 14.7598, 18.6342, 22.0148, 33.2881, -34.4367, -26.1967
1.852, -1, 14.8058, 18.5933, 22.0302, 33.3614, -34.3507, -26.2517
1.856, -1, 14.8519, 18.5524, 22.0456, 33.4347, -34.2649, -26.3065
1.86, -1, 14.8979, 18.5116, 22.0609, 33.5079, -34.1792, -26.3613
1.864, -1, 14.9438, 18.4708, 22.0762, 33.5811, -34.0936, -26.4161
1.868, -1, 14.9897, 18.4301, 22.0916, 33.6541, -34.008, -26.4708
1.872, -1, 15.0355, 18.3894, 22.1069, 33.7271, -33.9226, -26.5254
1.876, -1, 15.0813, 18.3487, 22.1222, 33.8, -33.8372, -26.58
1.88, -1, 15.127, 18.3081, 22.1374, 33.8728, -33.7519, -26.6345
1.884, -1, 15.1727, 18.2676, 22.1527, 33.9456, -33.6668, -26.6889
1.888, -1, 15.2184, 18.227, 22.1679, 34.0182, -33.5817, -26.7433
1.892, -1, 15.264, 18.1866, 22.1832, 34.0908, -33.4967, -26.7976
1.896, -1, 15.3095, 18.1461, 22.1984, 34.1633, -33.4118, -26.8519
1.9, -1, 15.355, 18.1057, 22.2136, 34.2358, -33.3269, -26.9062
1.904, -1, 15.4004, 18.0654, 22.2287, 34.3081, -33.2422, -26.9603
1.908, -1, 15.4458, 18.0251, 22.2439, 34.3804, -33.1576, -27.0144
1.912, -1, 15.4912, 17.9848, 22.259, 34.4526, -33.073, -27.0685
1.916, -1, 15.5365, 17.9446, 22.2742, 34.5248, -32.9886, -27.1225
1.92, -1, 15.5818, 17.9044, 22.2893, 34.5968, -32.9042, -27.1764
1.924, -1, 15.627, 17.8643, 22.3044, 34.6688, -32.8199, -27.2303
1.928, -1, 15.6721, 17.8242, 22.3195, 34.7407, -32.7357, -27.2841
1.932, -1, 15.7173, 17.7841, 22.3345, 34.8126, -32.6516, -27.3379
1.936, -1, 15.7623, 17.7441, 22.3496, 34.8843, -32.5676, -27.3916
1.94, -1, 15.8073, 17.7041, 22.3646, 34.956, -32.4836, -27.4453
1.944, -1, 15.8523, 17.6642, 22.3796, 35.0276, -32.3997, -27.4989
1.948, -1, 15.8973, 17.6243, 22.3946, 35.0992, -32.316, -27.5524
1.952, -1, 15.9422, 17.5844, 22.4096, 35.1707, -32.2323, -27.6059
1.956, -1, 15.987, 17.5446, 22.4246, 35.2421, -32.1487, -27.6594
1.96, -1, 16.0318, 17.5048, 22.4396, 35.3134, -32.0652, -27.7128
1.964, -1, 16.0765, 17.4651, 22.4545, 35.3846, -31.9817, -27.7661
1.968, -1, 16.1212, 17.4254, 22.4694, 35.4558, -31.8984, -27.8194
1.972, -1, 16.1659, 17.3858, 22.4844, 35.5269, -31.8151, -27.8726
1.976, -1, 16.2105, 17.3461, 22.4993, 35.598, -31.7319, -27.9258
1.98, -1, 16.2551, 17.3066, 22.5141, 35.6689, -31.6488, -27.9789
1.984, -1, 16.2996, 17.267, 22.529, 35.7398, -31.5658, -28.032
1.988, -1, 16.3441, 17.2275, 22.5439, 35.8107, -31.4829, -28.085
1.992, -1, 16.3886, 17.1881, 22.5587, 35.8814, -31.4, -28.138
1.996, -1, 16.433, 17.1487, 22.5735, 35.9521, -31.3173, -28.1909
1.999, -1, 16.4773, 17.1093, 22.5883, 36.0228, -31.2346, -28.2438
2.004, -1, 16.5216, 17.0699, 22.6031, 36.0933, -31.1519, -28.2966
2.008, -1, 16.5659, 17.0306, 22.6179, 36.1638, -31.0694, -28.3493
2.012, -1, 16.6101, 16.9914, 22.6327, 36.2342, -30.987, -28.4021
2.015, -1, 16.6543, 16.9521, 22.6474, 36.3046, -30.9046, -28.4547
2.019, -1, 16.6984, 16.9129, 22.6622, 36.3748, -30.8223, -28.5073
2.024, -1, 16.7425, 16.8738, 22.6769, 36.445, -30.7401, -28.5599
2.028, -1, 16.7866, 16.8347, 22.6916, 36.5152, -30.658, -28.6124
2.031, -1, 16.8306, 16.7956, 22.7063, 36.5853, -30.5759, -28.6648
2.036, -1, 16.8746, 16.7566, 22.721, 36.6553, -30.4939, -28.7172
2.04, -1, 16.9185, 16.7176, 22.7357, 36.7252, -30.412, -28.7696
2.044, -1, 16.9624, 16.6786, 22.7503, 36.7951, -30.3302, -28.8219
2.048, -1, 17.0062, 16.6397, 22.765, 36.8649, -30.2485, -28.8742
2.051, -1, 17.05, 16.6008, 22.7796, 36.9346, -30.1668, -28.9264
2.055, -1, 17.0938, 16.5619, 22.7942, 37.0043, -30.0852, -28.9785
2.06, -1, 17.1375, 16.5231, 22.8088, 37.0739, -30.0037, -29.0306
2.064, -1, 17.1811, 16.4844, 22.8234, 37.1435, -29.9223, -29.0827
2.068, -1, 17.2244, 16.4458, 22.8379, 37.2129, -29.841, -29.1347
2.071, -1, 17.2671, 16.4077, 22.8523, 37.2823, -29.7597, -29.1866
2.076, -1, 17.3088, 16.3701, 22.8666, 37.3515, -29.6787, -29.2384
2.08, -1, 17.3495, 16.3335, 22.8807, 37.4204, -29.5981, -29.29
2.084, -1, 17.3888, 16.2979, 22.8945, 37.4888, -29.518, -29.3412
2.087, -1, 17.4267, 16.2635, 22.9079, 37.5564, -29.4389, -29.3918
2.092, -1, 17.4632, 16.2306, 22.921, 37.6229, -29.3611, -29.4417
2.096, -1, 17.4983, 16.1992, 22.9337, 37.6879, -29.2851, -29.4903
2.1, -1, 17.5321, 16.1694, 22.9459, 37.7508, -29.2115, -29.5374
2.104, -1, 17.5644, 16.1411, 22.9576, 37.8112, -29.1408, -29.5827
2.107, -1, 17.5951, 16.1145, 22.9686, 37.8686, -29.0737, -29.6257
2.111, -1, 17.624, 16.0896, 22.9791, 37.9226, -29.0106, -29.6661
2.116, -1, 17.6513, 16.0662, 22.9888, 37.9726, -28.9521, -29.7035
2.12, -1, 17.6768, 16.044, 22.9978, 38.0183, -28.8986, -29.7378
2.124, -1, 17.7009, 16.023, 23.0061, 38.0595, -28.8504, -29.7686
2.127, -1, 17.7234, 16.0029, 23.0136, 38.0959, -28.8078, -29.7958
2.132, -1, 17.7446, 15.9838, 23.0205, 38.1275, -28.7707, -29.8195
2.136, -1, 17.7642, 15.9657, 23.0267, 38.1546, -28.739, -29.8397
2.14, -1, 17.7823, 15.9489, 23.0321, 38.1772, -28.7125, -29.8566
2.143, -1, 17.7986, 15.9337, 23.0368, 38.1957, -28.6907, -29.8705
2.148, -1, 17.8131, 15.9202, 23.0409, 38.2106, -28.6732, -29.8816
2.152, -1, 17.8259, 15.9085, 23.0443, 38.2223, -28.6594, -29.8904
2.156, -1, 17.8371, 15.8987, 23.0471, 38.2313, -28.6488, -29.8971
2.16, -1, 17.8467, 15.8905, 23.0494, 38.2381, -28.6409, -29.9021
2.163, -1, 17.855, 15.8838, 23.0513, 38.243, -28.635, -29.9058
2.168, -1, 17.8619, 15.8785, 23.0527, 38.2465, -28.6308, -29.9084
2.172, -1, 17.8674, 15.8744, 23.0538, 38.249, -28.6279, -29.9103
2.176, 2, 17.8716, 15.8714, 23.0546, 38.2507, -28.6258, -29.9115
2.179, 2, 17.8747, 15.8692, 23.0552, 38.2519, -28.6245, -29.9124
2.184, 2, 17.8769, 15.8677, 23.0556, 38.2527, -28.6235, -29.913
2.188, 2, 17.8784, 15.8667, 23.0558, 38.2532, -28.6229, -29.9134
2.192, 2, 17.8794, 15.866, 23.056, 38.2536, -28.6224, -29.9137
2.196, 2, 17.8801, 15.8655, 23.0561, 38.2538, -28.6221, -29.9138
2.199, 2, 17.8806, 15.8652, 23.0562, 38.254, -28.6219, -29.914
2.204, 2, 17.8809, 15.865, 23.0563, 38.2541, -28.6218, -29.9141
2.208, 2, 17.8811, 15.8649, 23.0563, 38.2542, -28.6217, -29.9141
2.212, 2, 17.8813, 15.8648, 23.0563, 38.2543, -28.6217, -29.9141
2.216, 2, 17.8814, 15.8647, 23.0564, 38.2543, -28.6216, -29.9142
2.219, 2, 17.8814, 15.8646, 23.0564, 38.2543, -28.6216, -29.9142
2.224, 2, 17.8815, 15.8646, 23.0564, 38.2543, -28.6216, -29.9142
2.228, 2, 17.8815, 15.8646, 23.0564, 38.2543, -28.6215, -29.9142
2.232, 2, 17.8815, 15.8646, 23.0564, 38.2543, -28.6215, -29.9142
2.235, 2, 17.8815, 15.8646, 23.0564, 38.2544, -28.6215, -29.9142
2.24, 2, 17.8815, 15.8646, 23.0564, 38.2544, -28.6215, -29.9142
2.244, 2, 17.8816, 15.8646, 23.0564, 38.2544, -28.6215, -29.9142
2.248, 2, 17.8816, 15.8646, 23.0564, 38.2544, -28.6215, -29.9142
2.252, 2, 17.8816, 15.8646, 23.0564, 38.2544, -28.6215, -29.9142
2.255, 2, 17.8816, 15.8646, 23.0564, 38.2544, -28.6215, -29.9142
2.259, 2, 17.8816, 15.8646, 23.0564, 38.2544, -28.6215, -29.9142
2.264, 2, 17.8816, 15.8645, 23.0564, 38.2544, -28.6215, -29.9142
2.268, 2, 17.8816, 15.8645, 23.0564, 38.2544, -28.6215, -29.9142
2.272, 2, 17.8816, 15.8645, 23.0564, 38.2544, -28.6215, -29.9142
2.275, 2, 17.8816, 15.8645, 23.0564, 38.2544, -28.6215, -29.9142
2.28, 2, 17.8816, 15.8645, 23.0564, 38.2544, -28.6215, -29.9142
2.284, 2, 17.8816, 15.8645, 23.0564, 38.2544, -28.6215, -29.9142
2.288, 2, 17.8816, 15.8645, 23.0564, 38.2544, -28.6215, -29.9142
2.291, 2, 17.8816, 15.8645, 23.0564, 38.2544, -28.6215, -29.9142
2.296, 2, 17.8816, 15.8645, 23.0564, 38.2544, -28.6215, -29.9142
2.3, 2, 17.8816, 15.8645, 23.0564, 38.2544, -28.6215, -29.9142
2.304, 2, 17.8816, 15.8645, 23.0564, 38.2544, -28.6215, -29.9142
2.308, 2, 17.8816, 15.8645, 23.0564, 38.2544, -28.6215, -29.9142
2.311, 2, 17.8816, 15.8645, 23.0564, 38.2544, -28.6215, -29.9142
2.316, 2, 17.8816, 15.8645, 23.0564, 38.2544, -28.6215, -29.9142
2.32, 2, 17.8816, 15.8645, 23.0564, 38.2544, -28.6215, -29.9142
2.324, 2, 17.8816, 15.8645, 23.0564, 38.2544, -28.6215, -29.9142
2.328, 2, 17.8816, 15.8645, 23.0564, 38.2544, -28.6215, -29.9142
2.331, 2, 17.8816, 15.8645, 23.0564, 38.2544, -28.6215, -29.9142
2.336, 2, 17.8816, 15.8645, 23.0564, 38.2544, -28.6215, -29.9142
2.34, 2, 17.8816, 15.8645, 23.0564, 38.2544, -28.6215, -29.9142
2.344, 2, 17.8816, 15.8645, 23.0564, 38.2544, -28.6215, -29.9142
2.347, 2, 17.8816, 15.8645, 23.0564, 38.2544, -28.6215, -29.9142
2.352, 2, 17.8816, 15.8645, 23.0564, 38.2544, -28.6215, -29.9142
2.356, 2, 17.8816, 15.8645, 23.0564, 38.2544, -28.6215, -29.9142
2.36, 2, 17.8816, 15.8645, 23.0564, 38.2544, -28.6215, -29.9142
2.364, 2, 17.8816, 15.8645, 23.0564, 38.2544, -28.6215, -29.9142
2.367, 2, 17.8816, 15.8645, 23.0564, 38.2544, -28.6215, -29.9142
2.372, 2, 17.8816, 15.8645, 23.0564, 38.2544, -28.6215, -29.9142
2.376, 2, 17.8816, 15.8645, 23.0564, 38.2544, -28.6215, -29.9142
2.38, 2, 17.8816, 15.8645, 23.0564, 38.2544, -28.6215, -29.9142
2.383, 2, 17.8816, 15.8645, 23.0564, 38.2544, -28.6215, -29.9142
2.388, 2, 17.8816, 15.8645, 23.0564, 38.2544, -28.6215, -29.9142
2.392, 2, 17.8816, 15.8645, 23.0564, 38.2544, -28.6215, -29.9142
2.396, 2, 17.8816, 15.8645, 23.0564, 38.2544, -28.6215, -29.9142
2.4, 2, 17.8816, 15.8645, 23.0564, 38.2544, -28.6215, -29.9142
2.403, 2, 17.8816, 15.8645, 23.0564, 38.2544, -28.6215, -29.9142
2.408, 2, 17.8816, 15.8645, 23.0564, 38.2544, -28.6215, -29.9142
2.412, 2, 17.8816, 15.8645, 23.0564, 38.2544, -28.6215, -29.9142
2.416, 2, 17.8816, 15.8645, 23.0564, 38.2544, -28.6215, -29.9142
2.42, 2, 17.8816, 15.8645, 23.0564, 38.2544, -28.6215, -29.9142
2.423, 2, 17.8816, 15.8645, 23.0564, 38.2544, -28.6215, -29.9142
2.428, 2, 17.8816, 15.8645, 23.0564, 38.2544, -28.6215, -29.9142
2.432, 2, 17.8816, 15.8645, 23.0564, 38.2544, -28.6215, -29.9142
2.436, 2, 17.8816, 15.8645, 23.0564, 38.2544, -28.6215, -29.9142
2.439, 2, 17.8816, 15.8645, 23.0564, 38.2544, -28.6215, -29.9142
2.444, 2, 17.8816, 15.8645, 23.0564, 38.2544, -28.6215, -29.9142
2.448, 2, 17.8816, 15.8645, 23.0564, 38.2544, -28.6215, -29.9142
2.452, 2, 17.8816, 15.8645, 23.0564, 38.2544, -28.6215, -29.9142
2.456, 2, 17.8816, 15.8645, 23.0564, 38.2544, -28.6215, -29.9142
2.459, 2, 17.8816, 15.8645, 23.0564, 38.2544, -28.6215, -29.9142
2.464, 2, 17.8816, 15.8645, 23.0564, 38.2544, -28.6215, -29.9142
2.468, 2, 17.8816, 15.8645, 23.0564, 38.2544, -28.6215, -29.9142
2.472, 2, 17.8816, 15.8645, 23.0564, 38.2544, -28.6215, -29.9142
2.476, 2, 17.8816, 15.8645, 23.0564, 38.2544, -28.6215, -29.9142
2.479, 2, 17.8816, 15.8645, 23.0564, 38.2544, -28.6215, -29.9142
2.484, 2, 17.8816, 15.8645, 23.0564, 38.2544, -28.6215, -29.9142
2.488, 2, 17.8816, 15.8645, 23.0564, 38.2544, -28.6215, -29.9142
2.492, 2, 17.8816, 15.8645, 23.0564, 38.2544, -28.6215, -29.9142
2.495, 2, 17.8816, 15.8645, 23.0564, 38.2544, -28.6215, -29.9142
2.5, 2, 17.8816, 15.8645, 23.0564, 38.2544, -28.6215, -29.9142
2.504, 2, 17.8816, 15.8645, 23.0564, 38.2544, -28.6215, -29.9142
2.508, 2, 17.8816, 15.8645, 23.0564, 38.2544, -28.6215, -29.9142
2.512, 2, 17.8816, 15.8645, 23.0564, 38.2544, -28.6215, -29.9142
2.515, 2, 17.8816, 15.8645, 23.0564, 38.2544, -28.6215, -29.9142
2.52, 2, 17.8816, 15.8645, 23.0564, 38.2544, -28.6215, -29.9142
2.524, 2, 17.8816, 15.8645, 23.0564, 38.2544, -28.6215, -29.9142
2.528, 2, 17.8816, 15.8645, 23.0564, 38.2544, -28.6215, -29.9142
2.531, 2, 17.8816, 15.8645, 23.0564, 38.2544, -28.6215, -29.9142
2.536, 2, 17.8816, 15.8645, 23.0564, 38.2544, -28.6215, -29.9142
2.54, 2, 17.8816, 15.8645, 23.0564, 38.2544, -28.6215, -29.9142
2.544, 2, 17.8816, 15.8645, 23.0564, 38.2544, -28.6215, -29.9142
2.548, 2, 17.8816, 15.8645, 23.0564, 38.2544, -28.6215, -29.9142
2.551, 2, 17.8816, 15.8645, 23.0564, 38.2544, -28.6215, -29.9142
2.556, 2, 17.8816, 15.8645, 23.0564, 38.2544, -28.6215, -29.9142
2.56, 2, 17.8816, 15.8645, 23.0564, 38.2544, -28.6215, -29.9142
2.564, 2, 17.8816, 15.8645, 23.0564, 38.2544, -28.6215, -29.9142
2.568, 2, 17.8816, 15.8645, 23.0564, 38.2544, -28.6215, -29.9142
2.571, 2, 17.8816, 15.8645, 23.0564, 38.2544, -28.6215, -29.9142
2.576, 2, 17.8816, 15.8645, 23.0564, 38.2544, -28.6215, -29.9142
2.58, 2, 17.8816, 15.8645, 23.0564, 38.2544, -28.6215, -29.9142
2.584, 2, 17.8816, 15.8645, 23.0564, 38.2544, -28.6215, -29.9142
2.587, 2, 17.8816, 15.8645, 23.0564, 38.2544, -28.6215, -29.9142
2.592, 2, 17.8816, 15.8645, 23.0564, 38.2544, -28.6215, -29.9142
2.596, 2, 17.8816, 15.8645, 23.0564, 38.2544, -28.6215, -29.9142
2.6, 2, 17.8816, 15.8645, 23.0564, 38.2544, -28.6215, -29.9142
2.604, 2, 17.8816, 15.8645, 23.0564, 38.2544, -28.6215, -29.9142
2.607, 2, 17.8816, 15.8645, 23.0564, 38.2544, -28.6215, -29.9142
2.612, 2, 17.8816, 15.8645, 23.0564, 38.2544, -28.6215, -29.9142
2.616, 2, 17.8816, 15.8645, 23.0564, 38.2544, -28.6215, -29.9142
2.62, 2, 17.8816, 15.8645, 23.0564, 38.2544, -28.6215, -29.9142
2.624, 2, 17.8816, 15.8645, 23.0564, 38.2544, -28.6215, -29.9142
2.627, 2, 17.8816, 15.8645, 23.0564, 38.2544, -28.6215, -29.9142
2.632, 2, 17.8816, 15.8645, 23.0564, 38.2544, -28.6215, -29.9142
2.636, 2, 17.8816, 15.8645, 23.0564, 38.2544, -28.6215, -29.9142
2.64, 2, 17.8816, 15.8645, 23.0564, 38.2544, -28.6215, -29.9142
2.643, 2, 17.8816, 15.8645, 23.0564, 38.2544, -28.6215, -29.9142
2.648, 2, 17.8816, 15.8645, 23.0564, 38.2544, -28.6215, -29.9142
2.652, 2, 17.8816, 15.8645, 23.0564, 38.2544, -28.6215, -29.9142
2.656, 2, 17.8816, 15.8645, 23.0564, 38.2544, -28.6215, -29.9142
2.66, 2, 17.8816, 15.8645, 23.0564, 38.2544, -28.6215, -29.9142
2.663, 2, 17.8816, 15.8645, 23.0564, 38.2544, -28.6215, -29.9142
2.668, 2, 17.8816, 15.8645, 23.0564, 38.2544, -28.6215, -29.9142
2.672, 2, 17.8816, 15.8645, 23.0564, 38.2544, -28.6215, -29.9142
2.676, 2, 17.8816, 15.8645, 23.0564, 38.2544, -28.6215, -29.9142
2.679, 2, 17.8816, 15.8645, 23.0564, 38.2544, -28.6215, -29.9142
2.684, 2, 17.8816, 15.8645, 23.0564, 38.2544, -28.6215, -29.9142
2.688, 2, 17.8816, 15.8645, 23.0564, 38.2544, -28.6215, -29.9142
2.692, 2, 17.8816, 15.8645, 23.0564, 38.2544, -28.6215, -29.9142
2.696, 2, 17.8816, 15.8645, 23.0564, 38.2544, -28.6215, -29.9142
2.699, 2, 17.8816, 15.8645, 23.0564, 38.2544, -28.6215, -29.9142
2.704, 2, 17.8816, 15.8645, 23.0564, 38.2544, -28.6215, -29.9142
2.708, 2, 17.8816, 15.8645, 23.0564, 38.2544, -28.6215, -29.9142
2.712, 2, 17.8816, 15.8645, 23.0564, 38.2544, -28.6215, -29.9142
2.716, 2, 17.8816, 15.8645, 23.0564, 38.2544, -28.6215, -29.9142
2.719, 2, 17.8816, 15.8645, 23.0564, 38.2544, -28.6215, -29.9142
2.724, 2, 17.8816, 15.8645, 23.0564, 38.2544, -28.6215, -29.9142
2.728, 2, 17.8816, 15.8645, 23.0564, 38.2544, -28.6215, -29.9142
2.732, 2, 17.8816, 15.8645, 23.0564, 38.2544, -28.6215, -29.9142
2.735, 2, 17.8816, 15.8645, 23.0564, 38.2544, -28.6215, -29.9142
2.74, 2, 17.8816, 15.8645, 23.0564, 38.2544, -28.6215, -29.9142
2.744, 2, 17.8816, 15.8645, 23.0564, 38.2544, -28.6215, -29.9142
2.748, 2, 17.8816, 15.8645, 23.0564, 38.2544, -28.6215, -29.9142
2.752, 2, 17.8816, 15.8645, 23.0564, 38.2544, -28.6215, -29.9142
2.755, 2, 17.8816, 15.8645, 23.0564, 38.2544, -28.6215, -29.9142
2.76, 2, 17.8816, 15.8645, 23.0564, 38.2544, -28.6215, -29.9142
2.764, 2, 17.8816, 15.8645, 23.0564, 38.2544, -28.6215, -29.9142
2.768, 2, 17.8816, 15.8645, 23.0564, 38.2544, -28.6215, -29.9142
2.772, 2, 17.8816, 15.8645, 23.0564, 38.2544, -28.6215, -29.9142
2.775, 2, 17.8816, 15.8645, 23.0564, 38.2544, -28.6215, -29.9142
2.78, 2, 17.8816, 15.8645, 23.0564, 38.2544, -28.6215, -29.9142
2.784, 2, 17.8816, 15.8645, 23.0564, 38.2544, -28.6215, -29.9142
2.788, 2, 17.8816, 15.8645, 23.0564, 38.2544, -28.6215, -29.9142
2.791, 2, 17.8816, 15.8645, 23.0564, 38.2544, -28.6215, -29.9142
2.796, 2, 17.8816, 15.8645, 23.0564, 38.2544, -28.6215, -29.9142
2.8, 2, 17.8816, 15.8645, 23.0564, 38.2544, -28.6215, -29.9142
2.804, 2, 17.8816, 15.8645, 23.0564, 38.2544, -28.6215, -29.9142
2.808, 2, 17.8816, 15.8645, 23.0564, 38.2544, -28.6215, -29.9142
2.811, 2, 17.8816, 15.8645, 23.0564, 38.2544, -28.6215, -29.9142
2.816, 2, 17.8816, 15.8645, 23.0564, 38.2544, -28.6215, -29.9142
2.82, 2, 17.8816, 15.8645, 23.0564, 38.2544, -28.6215, -29.9142
2.824, 2, 17.8816, 15.8645, 23.0564, 38.2544, -28.6215, -29.9142
2.828, 2, 17.8816, 15.8645, 23.0564, 38.2544, -28.6215, -29.9142
2.831, 2, 17.8816, 15.8645, 23.0564, 38.2544, -28.6215, -29.9142
2.836, 2, 17.8816, 15.8645, 23.0564, 38.2544, -28.6215, -29.9142
2.84, 2, 17.8816, 15.8645, 23.0564, 38.2544, -28.6215, -29.9142
2.844, 2, 17.8816, 15.8645, 23.0564, 38.2544, -28.6215, -29.9142
2.847, 2, 17.8816, 15.8645, 23.0564, 38.2544, -28.6215, -29.9142
2.852, 2, 17.8816, 15.8645, 23.0564, 38.2544, -28.6215, -29.9142
2.856, 2, 17.8816, 15.8645, 23.0564, 38.2544, -28.6215, -29.9142
2.86, 2, 17.8816, 15.8645, 23.0564, 38.2544, -28.6215, -29.9142
2.864, 2, 17.8816, 15.8645, 23.0564, 38.2544, -28.6215, -29.9142
2.867, 2, 17.8816, 15.8645, 23.0564, 38.2544, -28.6215, -29.9142
2.872, 2, 17.8816, 15.8645, 23.0564, 38.2544, -28.6215, -29.9142
2.876, 2, 17.8816, 15.8645, 23.0564, 38.2544, -28.6215, -29.9142
2.88, 2, 17.8816, 15.8645, 23.0564, 38.2544, -28.6215, -29.9142
2.883, 2, 17.8816, 15.8645, 23.0564, 38.2544, -28.6215, -29.9142
2.888, 2, 17.8816, 15.8645, 23.0564, 38.2544, -28.6215, -29.9142
2.892, 2, 17.8816, 15.8645, 23.0564, 38.2544, -28.6215, -29.9142
2.896, 2, 17.8816, 15.8645, 23.0564, 38.2544, -28.6215, -29.9142
2.9, 2, 17.8816, 15.8645, 23.0564, 38.2544, -28.6215, -29.9142
2.903, 2, 17.8816, 15.8645, 23.0564, 38.2544, -28.6215, -29.9142
2.908, 2, 17.8816, 15.8645, 23.0564, 38.2544, -28.6215, -29.9142
2.912, 2, 17.8816, 15.8645, 23.0564, 38.2544, -28.6215, -29.9142
2.916, 2, 17.8816, 15.8645, 23.0564, 38.2544, -28.6215, -29.9142
2.92, 2, 17.8816, 15.8645, 23.0564, 38.2544, -28.6215, -29.9142
2.923, 2, 17.8816, 15.8645, 23.0564, 38.2544, -28.6215, -29.9142
2.928, 2, 17.8816, 15.8645, 23.0564, 38.2544, -28.6215, -29.9142
2.932, 2, 17.8816, 15.8645, 23.0564, 38.2544, -28.6215, -29.9142
2.936, 2, 17.8816, 15.8645, 23.0564, 38.2544, -28.6215, -29.9142
2.939, 2, 17.8816, 15.8645, 23.0564, 38.2544, -28.6215, -29.9142
2.944, 2, 17.8816, 15.8645, 23.0564, 38.2544, -28.6215, -29.9142
2.948, 2, 17.8816, 15.8645, 23.0564, 38.2544, -28.6215, -29.9142
2.952, 2, 17.8816, 15.8645, 23.0564, 38.2544, -28.6215, -29.9142
2.956, 2, 17.8816, 15.8645, 23.0564, 38.2544, -28.6215, -29.9142
2.959, 2, 17.8816, 15.8645, 23.0564, 38.2544, -28.6215, -29.9142
2.964, 2, 17.8816, 15.8645, 23.0564, 38.2544, -28.6215, -29.9142
2.968, 2, 17.8816, 15.8645, 23.0564, 38.2544, -28.6215, -29.9142
2.972, 2, 17.8816, 15.8645, 23.0564, 38.2544, -28.6215, -29.9142
2.976, 2, 17.8816, 15.8645, 23.0564, 38.2544, -28.6215, -29.9142
2.98, 2, 17.8816, 15.8645, 23.0564, 38.2544, -28.6215, -29.9142
2.984, 2, 17.8816, 15.8645, 23.0564, 38.2544, -28.6215, -29.9142
2.988, 2, 17.8816, 15.8645, 23.0564, 38.2544, -28.6215, -29.9142
2.992, 2, 17.8816, 15.8645, 23.0564, 38.2544, -28.6215, -29.9142
2.995, 2, 17.8816, 15.8645, 23.0564, 38.2544, -28.6215, -29.9142
3, 2, 17.8816, 15.8645, 23.0564, 38.2544, -28.6215, -29.9142
3.004, 2, 17.8816, 15.8645, 23.0564, 38.2544, -28.6215, -29.9142
3.008, 2, 17.8816, 15.8645, 23.0564, 38.2544, -28.6215, -29.9142
3.012, 2, 17.8816, 15.8645, 23.0564, 38.2544, -28.6215, -29.9142
3.015, 2, 17.8816, 15.8645, 23.0564, 38.2544, -28.6215, -29.9142
3.02, 2, 17.8816, 15.8645, 23.0564, 38.2544, -28.6215, -29.9142
3.024, 2, 17.8816, 15.8645, 23.0564, 38.2544, -28.6215, -29.9142
3.028, 2, 17.8816, 15.8645, 23.0564, 38.2544, -28.6215, -29.9142
3.031, 2, 17.8816, 15.8645, 23.0564, 38.2544, -28.6215, -29.9142
3.036, 2, 17.8816, 15.8645, 23.0564, 38.2544, -28.6215, -29.9142
3.04, 2, 17.8816, 15.8645, 23.0564, 38.2544, -28.6215, -29.9142
3.044, 2, 17.8816, 15.8645, 23.0564, 38.2544, -28.6215, -29.9142
3.048, 2, 17.8816, 15.8645, 23.0564, 38.2544, -28.6215, -29.9142
3.051, 2, 17.8816, 15.8645, 23.0564, 38.2544, -28.6215, -29.9142
3.056, 2, 17.8816, 15.8645, 23.0564, 38.2544, -28.6215, -29.9142
3.06, 2, 17.8816, 15.8645, 23.0564, 38.2544, -28.6215, -29.9142
3.064, 2, 17.8816, 15.8645, 23.0564, 38.2544, -28.6215, -29.9142
3.068, 2, 17.8816, 15.8645, 23.0564, 38.2544, -28.6215, -29.9142
3.071, 2, 17.8816, 15.8645, 23.0564, 38.2544, -28.6215, -29.9142
3.076, 2, 17.8816, 15.8645, 23.0564, 38.2544, -28.6215, -29.9142
3.08, 2, 17.8816, 15.8645, 23.0564, 38.2544, -28.6215, -29.9142
3.084, 2, 17.8816, 15.8645, 23.0564, 38.2544, -28.6215, -29.9142
3.087, 2, 17.8816, 15.8645, 23.0564, 38.2544, -28.6215, -29.9142
3.092, 2, 17.8816, 15.8645, 23.0564, 38.2544, -28.6215, -29.9142
3.096, 2, 17.8816, 15.8645, 23.0564, 38.2544, -28.6215, -29.9142
3.1, 2, 17.8816, 15.8645, 23.0564, 38.2544, -28.6215, -29.9142
3.104, 2, 17.8816, 15.8645, 23.0564, 38.2544, -28.6215, -29.9142
3.107, 2, 17.8816, 15.8645, 23.0564, 38.2544, -28.6215, -29.9142
3.112, 2, 17.8816, 15.8645, 23.0564, 38.2544, -28.6215, -29.9142
3.116, 2, 17.8816, 15.8645, 23.0564, 38.2544, -28.6215, -29.9142
3.12, 2, 17.8816, 15.8645, 23.0564, 38.2544, -28.6215, -29.9142
3.124, 2, 17.8816, 15.8645, 23.0564, 38.2544, -28.6215, -29.9142
3.128, 2, 17.8816, 15.8645, 23.0564, 38.2544, -28.6215, -29.9142
3.132, 2, 17.8816, 15.8645, 23.0564, 38.2544, -28.6215, -29.9142
3.136, 2, 17.8816, 15.8645, 23.0564, 38.2544, -28.6215, -29.9142
3.14, 2, 17.8816, 15.8645, 23.0564, 38.2544, -28.6215, -29.9142
3.143, 2, 17.8816, 15.8645, 23.0564, 38.2544, -28.6215, -29.9142
3.148, 2, 17.8816, 15.8645, 23.0564, 38.2544, -28.6215, -29.9142
3.152, 2, 17.8816, 15.8645, 23.0564, 38.2544, -28.6215, -29.9142
3.156, 2, 17.8816, 15.8645, 23.0564, 38.2544, -28.6215, -29.9142
3.16, 2, 17.8816, 15.8645, 23.0564, 38.2544, -28.6215, -29.9142
3.163, 2, 17.8816, 15.8645, 23.0564, 38.2544, -28.6215, -29.9142
3.168, 2, 17.8816, 15.8645, 23.0564, 38.2544, -28.6215, -29.9142
3.172, 2, 17.8816, 15.8645, 23.0564, 38.2544, -28.6215, -29.9142
3.176, 2, 17.8816, 15.8645, 23.0564, 38.2544, -28.6215, -29.9142
3.179, 2, 17.8816, 15.8645, 23.0564, 38.2544, -28.6215, -29.9142
3.184, 2, 17.8816, 15.8645, 23.0564, 38.2544, -28.6215, -29.9142
3.188, 2, 17.8816, 15.8645, 23.0564, 38.2544, -28.6215, -29.9142
3.192, 2, 17.8816, 15.8645, 23.0564, 38.2544, -28.6215, -29.9142
3.196, 2, 17.8816, 15.8645, 23.0564, 38.2544, -28.6215, -29.9142
3.199, 2, 17.8816, 15.8645, 23.0564, 38.2544, -28.6215, -29.9142
3.204, 2, 17.8816, 15.8645, 23.0564, 38.2544, -28.6215, -29.9142
3.208, 2, 17.8816, 15.8645, 23.0564, 38.2544, -28.6215, -29.9142
3.212, 2, 17.8816, 15.8645, 23.0564, 38.2544, -28.6215, -29.9142
3.216, 2, 17.8816, 15.8645, 23.0564, 38.2544, -28.6215, -29.9142
3.22, 2, 17.8816, 15.8645, 23.0564, 38.2544, -28.6215, -29.9142
3.224, 2, 17.8816, 15.8645, 23.0564, 38.2544, -28.6215, -29.9142
3.228, 2, 17.8816, 15.8645, 23.0564, 38.2544, -28.6215, -29.9142
3.232, 2, 17.8816, 15.8645, 23.0564, 38.2544, -28.6215, -29.9142
3.235, 2, 17.8816, 15.8645, 23.0564, 38.2544, -28.6215, -29.9142
3.24, 2, 17.8816, 15.8645, 23.0564, 38.2544, -28.6215, -29.9142
3.244, 2, 17.8816, 15.8645, 23.0564, 38.2544, -28.6215, -29.9142
3.248, 4, 17.8816, 15.8645, 23.0564, 38.2544, -28.6215, -29.9142
3.252, 4, 17.8816, 15.8645, 23.0564, 38.2544, -28.6215, -29.9142
3.255, 4, 17.8816, 15.8645, 23.0564, 38.2544, -28.6215, -29.9142
3.26, 4, 17.8816, 15.8645, 23.0564, 38.2544, -28.6215, -29.9142
3.264, 4, 17.8816, 15.8645, 23.0564, 38.2544, -28.6215, -29.9142
3.268, 4, 17.8816, 15.8645, 23.0564, 38.2544, -28.6215, -29.9142
3.272, 4, 17.8816, 15.8645, 23.0564, 38.2544, -28.6215, -29.9142
3.276, 4, 17.8816, 15.8645, 23.0564, 38.2544, -28.6215, -29.9142
3.28, 4, 17.8816, 15.8645, 23.0564, 38.2544, -28.6215, -29.9142
3.284, 4, 17.8816, 15.8645, 23.0564, 38.2544, -28.6215, -29.9142
3.288, 4, 17.8816, 15.8645, 23.0564, 38.2544, -28.6215, -29.9142
3.291, 4, 17.8816, 15.8645, 23.0564, 38.2544, -28.6215, -29.9142
3.296, 4, 17.8816, 15.8645, 23.0564, 38.2544, -28.6215, -29.9142
3.3, 4, 17.8816, 15.8645, 23.0564, 38.2544, -28.6215, -29.9142
3.304, 4, 17.8816, 15.8645, 23.0564, 38.2544, -28.6215, -29.9142
3.308, 4, 17.8816, 15.8645, 23.0564, 38.2544, -28.6215, -29.9142
3.312, 4, 17.8816, 15.8645, 23.0564, 38.2544, -28.6215, -29.9142
3.316, 4, 17.8816, 15.8645, 23.0564, 38.2544, -28.6215, -29.9142
3.32, 4, 17.8816, 15.8645, 23.0564, 38.2544, -28.6215, -29.9142
3.324, 4, 17.8816, 15.8645, 23.0564, 38.2544, -28.6215, -29.9142
3.328, 4, 17.8816, 15.8645, 23.0564, 38.2544, -28.6215, -29.9142
3.332, 4, 17.8816, 15.8645, 23.0564, 38.2544, -28.6215, -29.9142
3.336, 4, 17.8816, 15.8645, 23.0564, 38.2544, -28.6215, -29.9142
3.34, 4, 17.8816, 15.8645, 23.0564, 38.2544, -28.6215, -29.9142
3.344, 4, 17.8816, 15.8645, 23.0564, 38.2544, -28.6215, -29.9142
3.347, 4, 17.8816, 15.8645, 23.0564, 38.2544, -28.6215, -29.9142
3.352, 4, 17.8816, 15.8645, 23.0564, 38.2544, -28.6215, -29.9142
3.356, 4, 17.8816, 15.8645, 23.0564, 38.2544, -28.6215, -29.9142
3.36, 4, 17.8816, 15.8645, 23.0564, 38.2544, -28.6215, -29.9142
3.364, 4, 17.8816, 15.8645, 23.0564, 38.2544, -28.6215, -29.9142
3.368, 4, 17.8816, 15.8645, 23.0564, 38.2544, -28.6215, -29.9142
3.372, 4, 17.8816, 15.8645, 23.0564, 38.2544, -28.6215, -29.9142
3.376, 4, 17.8816, 15.8645, 23.0564, 38.2544, -28.6215, -29.9142
3.38, 4, 17.8815, 15.8645, 23.0564, 38.2544, -28.6215, -29.9142
3.383, 4, 17.8812, 15.8645, 23.0564, 38.2543, -28.6215, -29.9142
3.388, 4, 17.8806, 15.8645, 23.0565, 38.2542, -28.6216, -29.9141
3.392, 4, 17.8793, 15.8645, 23.0566, 38.2539, -28.6217, -29.9139
3.396, 4, 17.8773, 15.8644, 23.0569, 38.2532, -28.6219, -29.9133
3.4, 4, 17.8745, 15.8643, 23.0576, 38.2517, -28.6225, -29.912
3.403, 4, 17.8706, 15.864, 23.0586, 38.2489, -28.6235, -29.9095
3.408, 4, 17.8657, 15.8636, 23.0603, 38.2441, -28.6252, -29.9053
3.412, 4, 17.8595, 15.863, 23.063, 38.2364, -28.628, -29.8984
3.416, 4, 17.8518, 15.862, 23.067, 38.2246, -28.6323, -29.8881
3.42, 5, 17.8424, 15.8607, 23.0727, 38.2075, -28.6384, -29.873
3.424, 5, 17.831, 15.8589, 23.0804, 38.1836, -28.647, -29.8519
3.428, 5, 17.817, 15.8565, 23.0909, 38.1512, -28.6587, -29.8232
3.432, 5, 17.8002, 15.8533, 23.1045, 38.1085, -28.6742, -29.7854
3.436, 5, 17.7803, 15.8493, 23.122, 38.0534, -28.6942, -29.7368
3.439, 5, 17.7571, 15.8443, 23.1439, 37.984, -28.7195, -29.6754
3.444, 5, 17.7302, 15.8382, 23.1708, 37.8982, -28.7509, -29.5995
3.448, 5, 17.6995, 15.8309, 23.2033, 37.7942, -28.7892, -29.5075
3.452, 5, 17.6645, 15.8222, 23.242, 37.6701, -28.8351, -29.3978
3.456, 5, 17.6249, 15.8121, 23.2873, 37.5243, -28.8894, -29.2689
3.46, 5, 17.5804, 15.8005, 23.3398, 37.3556, -28.9527, -29.1198
3.464, 5, 17.5307, 15.7874, 23.3997, 37.1628, -29.0257, -28.9496
3.468, 5, 17.4759, 15.7727, 23.4674, 36.9453, -29.1087, -28.7576
3.472, 5, 17.4161, 15.7565, 23.5429, 36.7025, -29.2023, -28.5435
3.476, 5, 17.3514, 15.7386, 23.6262, 36.4345, -29.3067, -28.3074
3.48, 5, 17.2824, 15.7193, 23.7172, 36.1419, -29.4219, -28.0497
3.484, 5, 17.2091, 15.6985, 23.8157, 35.8258, -29.5479, -27.7716
3.488, 5, 17.132, 15.6764, 23.9211, 35.4878, -29.6842, -27.4746
3.492, 5, 17.0513, 15.6532, 24.0328, 35.1303, -29.8301, -27.1607
3.495, 5, 16.9676, 15.629, 24.1499, 34.7561, -29.9849, -26.8325
3.5, 5, 16.8812, 15.6041, 24.2717, 34.3683, -30.1473, -26.4928
3.504, 5, 16.7928, 15.5788, 24.397, 33.9704, -30.3162, -26.1446
3.508, 5, 16.7028, 15.5531, 24.5247, 33.5659, -30.4901, -25.7912
3.512, 5, 16.6119, 15.5276, 24.6537, 33.1588, -30.6675, -25.4358
3.516, 5, 16.5206, 15.5022, 24.7827, 32.7527, -30.8468, -25.0818
3.52, 5, 16.4293, 15.4774, 24.9106, 32.3514, -31.0263, -24.7324
3.524, 5, 16.3383, 15.4533, 25.0363, 31.9586, -31.2043, -24.3909
3.528, 5, 16.2481, 15.4302, 25.1586, 31.5777, -31.3792, -24.0601
3.531, 5, 16.1593, 15.4082, 25.2766, 31.2115, -31.5494, -23.7426
3.536, 5, 16.0725, 15.3875, 25.3894, 30.8628, -31.7135, -23.4406
3.54, 5, 15.9884, 15.3682, 25.4964, 30.5334, -31.8703, -23.1557
3.544, 5, 15.9076, 15.3505, 25.597, 30.2251, -32.0187, -22.8894
3.548, 5, 15.8307, 15.3342, 25.6907, 29.9388, -32.158, -22.6423
3.552, 5, 15.7582, 15.3196, 25.7772, 29.6753, -32.2876, -22.4152
3.556, 5, 15.6903, 15.3064, 25.8565, 29.4348, -32.4069, -22.2081
3.56, 5, 15.6274, 15.2948, 25.9284, 29.2173, -32.5157, -22.0211
3.564, 5, 15.5694, 15.2846, 25.9931, 29.0225, -32.614, -21.8537
3.568, 5, 15.5164, 15.2759, 26.0506, 28.8498, -32.7018, -21.7054
3.572, 5, 15.4682, 15.2684, 26.1012, 28.6983, -32.7793, -21.5754
3.576, 5, 15.4247, 15.2622, 26.1453, 28.5669, -32.847, -21.4628
3.58, 5, 15.3858, 15.2571, 26.1831, 28.4543, -32.9052, -21.3664
3.584, 5, 15.3511, 15.253, 26.2153, 28.3592, -32.9547, -21.2849
3.587, 5, 15.3206, 15.2498, 26.2423, 28.2797, -32.9962, -21.2169
3.592, 5, 15.294, 15.2473, 26.2647, 28.2144, -33.0305, -21.161
3.596, 5, 15.2711, 15.2455, 26.2829, 28.1614, -33.0584, -21.1157
3.6, 5, 15.2516, 15.2442, 26.2975, 28.1191, -33.0807, -21.0796
3.604, 5, 15.2352, 15.2433, 26.309, 28.0858, -33.0982, -21.0512
3.608, 5, 15.2214, 15.2427, 26.318, 28.0602, -33.1118, -21.0294
3.612, 5, 15.2098, 15.2424, 26.3248, 28.0409, -33.1221, -21.0129
3.616, 5, 15.2001, 15.2423, 26.3299, 28.0266, -33.1297, -21.0007
3.62, 5, 15.1921, 15.2422, 26.3336, 28.0162, -33.1352, -20.9918
3.624, 5, 15.1856, 15.2423, 26.3363, 28.0089, -33.1391, -20.9856
3.628, 5, 15.1805, 15.2424, 26.3382, 28.0038, -33.1418, -20.9812
3.632, 5, 15.1766, 15.2424, 26.3395, 28.0003, -33.1436, -20.9782
3.636, 5, 15.1738, 15.2425, 26.3404, 27.9979, -33.1449, -20.9762
3.64, 5, 15.1718, 15.2425, 26.341, 27.9963, -33.1458, -20.9748
3.644, 5, 15.1702, 15.2426, 26.3414, 27.9952, -33.1464, -20.9739
3.648, 5, 15.1686, 15.2426, 26.3418, 27.9944, -33.1468, -20.9732
3.652, 5, 15.1668, 15.2427, 26.3421, 27.9936, -33.1472, -20.9726
3.656, 5, 15.1644, 15.2429, 26.3425, 27.9928, -33.1477, -20.9718
3.66, 5, 15.1612, 15.243, 26.343, 27.9914, -33.1484, -20.9707
3.664, 5, 15.157, 15.2432, 26.344, 27.9891, -33.1496, -20.9687
3.668, 5, 15.1518, 15.2434, 26.3454, 27.9853, -33.1517, -20.9655
3.672, 5, 15.1454, 15.2436, 26.3477, 27.9793, -33.155, -20.9604
3.676, 6, 15.1375, 15.2438, 26.3511, 27.9702, -33.1599, -20.9526
3.679, 6, 15.1277, 15.2439, 26.3558, 27.957, -33.1671, -20.9414
3.684, 6, 15.1158, 15.2438, 26.3624, 27.9385, -33.1771, -20.9257
3.688, 6, 15.1013, 15.2436, 26.3712, 27.9135, -33.1908, -20.9044
3.692, 6, 15.0838, 15.2432, 26.3828, 27.8805, -33.2089, -20.8764
3.696, 6, 15.0631, 15.2425, 26.3976, 27.838, -33.2322, -20.8402
3.7, 6, 15.039, 15.2414, 26.4161, 27.7843, -33.2618, -20.7946
3.704, 6, 15.011, 15.2398, 26.439, 27.718, -33.2985, -20.7382
3.708, 6, 14.979, 15.2377, 26.4666, 27.6375, -33.3432, -20.6698
3.712, 6, 14.9426, 15.235, 26.4994, 27.5415, -33.3967, -20.5883
3.716, 6, 14.9015, 15.2317, 26.5379, 27.4288, -33.46, -20.4926
3.72, 6, 14.8554, 15.2278, 26.5824, 27.2984, -33.5336, -20.382
3.724, 6, 14.804, 15.2233, 26.6332, 27.1494, -33.6181, -20.2558
3.728, 6, 14.7471, 15.2182, 26.6904, 26.9815, -33.7142, -20.1137
3.732, 6, 14.6848, 15.2126, 26.7542, 26.7942, -33.8221, -19.9553
3.735, 6, 14.6172, 15.2063, 26.8246, 26.5876, -33.9422, -19.7807
3.74, 6, 14.5446, 15.1994, 26.9015, 26.362, -34.0744, -19.5903
3.744, 6, 14.4673, 15.1919, 26.9846, 26.1181, -34.2186, -19.3847
3.748, 6, 14.3859, 15.1839, 27.0737, 25.857, -34.3746, -19.165
3.752, 6, 14.3008, 15.1753, 27.1682, 25.5803, -34.5415, -18.9325
3.756, 6, 14.2125, 15.1664, 27.2675, 25.2899, -34.7184, -18.6888
3.76, 6, 14.1217, 15.1573, 27.3708, 24.9882, -34.9042, -18.436
3.764, 6, 14.0286, 15.1481, 27.4772, 24.6777, -35.0973, -18.1762
3.768, 6, 13.9338, 15.139, 27.5859, 24.3613, -35.2962, -17.912
3.772, 6, 13.8378, 15.1301, 27.6959, 24.0419, -35.4992, -17.6456
3.776, 6, 13.7412, 15.1214, 27.806, 23.7225, -35.7043, -17.3797
3.78, 6, 13.6445, 15.1132, 27.9154, 23.406, -35.9097, -17.1166
3.784, 6, 13.5483, 15.1056, 28.0229, 23.0953, -36.1134, -16.8588
3.788, 6, 13.4531, 15.0986, 28.1277, 22.7931, -36.3135, -16.6085
3.792, 6, 13.3594, 15.0923, 28.2289, 22.5021, -36.5083, -16.3678
3.796, 6, 13.2679, 15.0868, 28.3258, 22.2242, -36.6959, -16.1384
3.8, 6, 13.1791, 15.0823, 28.4176, 21.9615, -36.8751, -15.9218
3.804, 6, 13.0936, 15.0786, 28.5038, 21.7153, -37.0445, -15.7191
3.808, 6, 13.0118, 15.0758, 28.5841, 21.4865, -37.2032, -15.5311
3.812, 6, 12.9345, 15.0738, 28.6583, 21.2759, -37.3506, -15.3582
3.816, 6, 12.862, 15.0725, 28.7261, 21.0836, -37.4862, -15.2005
3.82, 6, 12.7947, 15.0719, 28.7876, 20.9095, -37.6098, -15.058
3.824, 6, 12.7327, 15.0717, 28.8428, 20.7535, -37.7214, -14.9304
3.828, 6, 12.6761, 15.0721, 28.892, 20.6149, -37.8211, -14.8172
3.832, 6, 12.6248, 15.0729, 28.9353, 20.4931, -37.9091, -14.7178
3.836, 6, 12.5785, 15.074, 28.973, 20.3872, -37.9861, -14.6315
3.84, 6, 12.537, 15.0754, 29.0055, 20.2963, -38.0524, -14.5574
3.844, 6, 12.5001, 15.0771, 29.0331, 20.2192, -38.1089, -14.4946
3.848, 6, 12.4676, 15.079, 29.0563, 20.1547, -38.1564, -14.4421
3.852, 6, 12.4392, 15.0809, 29.0754, 20.1014, -38.1956, -14.3988
3.856, 6, 12.4147, 15.0828, 29.0911, 20.0581, -38.2277, -14.3636
3.86, 6, 12.3938, 15.0847, 29.1037, 20.0234, -38.2534, -14.3354
3.864, 6, 12.3762, 15.0864, 29.1136, 19.9961, -38.2737, -14.3131
3.868, 6, 12.3614, 15.088, 29.1214, 19.9749, -38.2894, -14.2959
3.872, 6, 12.349, 15.0894, 29.1273, 19.9589, -38.3013, -14.2829
3.876, 6, 12.3386, 15.0907, 29.1317, 19.947, -38.3102, -14.2732
3.88, 6, 12.33, 15.0918, 29.1349, 19.9383, -38.3167, -14.2662
3.884, 6, 12.3231, 15.0928, 29.1373, 19.9321, -38.3213, -14.2612
3.888, 6, 12.3175, 15.0935, 29.1389, 19.9278, -38.3245, -14.2577
3.892, 6, 12.3133, 15.0941, 29.14, 19.9249, -38.3267, -14.2552
3.896, 6, 12.3102, 15.0945, 29.1408, 19.9228, -38.3282, -14.2536
3.9, 6, 12.308, 15.0948, 29.1413, 19.9215, -38.3292, -14.2525
3.904, 6, 12.3062, 15.0951, 29.1417, 19.9205, -38.3299, -14.2517
3.908, 6, 12.3045, 15.0953, 29.142, 19.9198, -38.3304, -14.2512
3.912, 6, 12.3026, 15.0956, 29.1422, 19.9193, -38.3309, -14.2507
3.916, 6, 12.3001, 15.0959, 29.1425, 19.9186, -38.3314, -14.2501
3.92, 6, 12.2969, 15.0964, 29.143, 19.9175, -38.3322, -14.2492
3.924, 6, 12.2927, 15.0971, 29.1437, 19.9157, -38.3335, -14.2478
3.928, 6, 12.2874, 15.0979, 29.1449, 19.9128, -38.3357, -14.2454
3.932, 6, 12.2808, 15.099, 29.1466, 19.9082, -38.3392, -14.2417
3.936, 7, 12.2728, 15.1002, 29.1493, 19.9012, -38.3445, -14.236
3.94, 7, 12.2629, 15.1017, 29.1531, 19.8911, -38.3522, -14.2278
3.944, 7, 12.2507, 15.1034, 29.1583, 19.8769, -38.363, -14.2163
3.948, 7, 12.2359, 15.1054, 29.1654, 19.8576, -38.3777, -14.2007
3.952, 7, 12.2181, 15.1077, 29.1747, 19.8321, -38.3971, -14.1801
3.956, 7, 12.1969, 15.1102, 29.1866, 19.7993, -38.4223, -14.1535
3.96, 7, 12.1722, 15.1129, 29.2015, 19.7578, -38.4541, -14.12
3.964, 7, 12.1437, 15.1159, 29.22, 19.7065, -38.4937, -14.0786
3.968, 7, 12.1109, 15.119, 29.2424, 19.6442, -38.5418, -14.0284
3.972, 7, 12.0736, 15.1223, 29.269, 19.5698, -38.5995, -13.9684
3.976, 7, 12.0315, 15.1259, 29.3003, 19.4824, -38.6676, -13.898
3.98, 7, 11.9843, 15.1298, 29.3364, 19.3812, -38.7468, -13.8166
3.984, 7, 11.9317, 15.1339, 29.3776, 19.2655, -38.8378, -13.7237
3.988, 7, 11.8737, 15.1384, 29.4241, 19.135, -38.9411, -13.619
3.992, 7, 11.81, 15.1432, 29.4759, 18.9894, -39.0569, -13.5023
3.996, 7, 11.7408, 15.1484, 29.533, 18.8287, -39.1857, -13.3737
3.999, 7, 11.6662, 15.1539, 29.5953, 18.6531, -39.3273, -13.2334
4.004, 7, 11.5866, 15.1597, 29.6627, 18.4631, -39.4817, -13.0818
4.008, 7, 11.5022, 15.1658, 29.735, 18.2595, -39.6484, -12.9196
4.012, 7, 11.4138, 15.1721, 29.8116, 18.0432, -39.827, -12.7476
4.016, 7, 11.3221, 15.1786, 29.8923, 17.8157, -40.0163, -12.5671
4.02, 7, 11.2277, 15.1854, 29.9764, 17.5785, -40.2154, -12.3793
4.024, 7, 11.1312, 15.1924, 30.0632, 17.3337, -40.4226, -12.1857
4.028, 7, 11.033, 15.1998, 30.1519, 17.0833, -40.6364, -11.9882
4.032, 7, 10.9335, 15.2077, 30.2418, 16.8297, -40.8548, -11.7886
4.036, 7, 10.8331, 15.216, 30.332, 16.5752, -41.0758, -11.5886
4.04, 7, 10.7326, 15.2248, 30.4216, 16.3221, -41.2975, -11.3902
4.044, 7, 10.6324, 15.2339, 30.5099, 16.0729, -41.5176, -11.1952
4.048, 7, 10.5333, 15.2434, 30.596, 15.8297, -41.7342, -11.0053
4.052, 7, 10.4357, 15.2532, 30.6793, 15.5946, -41.9452, -10.822
4.056, 7, 10.3404, 15.2634, 30.759, 15.3694, -42.1489, -10.6469
4.06, 7, 10.2479, 15.2739, 30.8347, 15.1559, -42.3436, -10.4811
4.064, 7, 10.1586, 15.2847, 30.9057, 14.9552, -42.5279, -10.3256
4.068, 7, 10.0729, 15.2957, 30.9719, 14.7684, -42.7007, -10.181
4.072, 7, 9.99135, 15.3069, 31.033, 14.596, -42.8612, -10.0478
4.076, 7, 9.91451, 15.318, 31.0889, 14.4382, -43.0091, -9.92618
4.08, 7, 9.84285, 15.3289, 31.1395, 14.2951, -43.144, -9.81596
4.084, 7, 9.7767, 15.3395, 31.1851, 14.1663, -43.266, -9.71695
4.088, 7, 9.7162, 15.3495, 31.2257, 14.0515, -43.3754, -9.62876
4.092, 7, 9.66128, 15.359, 31.2616, 13.9501, -43.4725, -9.55093
4.096, 7, 9.61176, 15.3679, 31.293, 13.8613, -43.5578, -9.48291
4.1, 7, 9.56735, 15.3762, 31.3201, 13.7845, -43.6319, -9.42409
4.104, 7, 9.52775, 15.384, 31.3433, 13.7188, -43.6956, -9.37379
4.108, 7, 9.49272, 15.3912, 31.3629, 13.6632, -43.7495, -9.33129
4.112, 7, 9.462, 15.3978, 31.3793, 13.6168, -43.7947, -9.29581
4.116, 7, 9.43537, 15.4037, 31.3928, 13.5786, -43.8321, -9.26657
4.12, 7, 9.41256, 15.409, 31.4038, 13.5475, -43.8625, -9.24282
4.124, 7, 9.39322, 15.4136, 31.4126, 13.5226, -43.8868, -9.2238
4.128, 7, 9.37691, 15.4175, 31.4195, 13.503, -43.9061, -9.20883
4.132, 7, 9.36318, 15.421, 31.4249, 13.4879, -43.9209, -9.19725
4.136, 7, 9.35161, 15.4239, 31.4289, 13.4764, -43.9322, -9.18849
4.14, 7, 9.3419, 15.4264, 31.4319, 13.4679, -43.9405, -9.182
4.144, 7, 9.33385, 15.4284, 31.4341, 13.4618, -43.9466, -9.17729
4.148, 7, 9.32731, 15.4301, 31.4356, 13.4574, -43.9509, -9.17396
4.152, 7, 9.32215, 15.4314, 31.4367, 13.4544, -43.9538, -9.17163
4.156, 7, 9.31825, 15.4323, 31.4374, 13.4523, -43.9559, -9.17004
4.16, 7, 9.31542, 15.433, 31.4379, 13.4509, -43.9573, -9.16895
4.164, 7, 9.31338, 15.4335, 31.4383, 13.4499, -43.9582, -9.16821
4.168, 7, 9.31177, 15.4339, 31.4385, 13.4493, -43.9588, -9.16771
4.172, 7, 9.31019, 15.4342, 31.4387, 13.4488, -43.9593, -9.16734
4.176, 7, 9.30831, 15.4347, 31.4388, 13.4484, -43.9597, -9.16701
4.18, 7, 9.30585, 15.4353, 31.439, 13.4479, -43.9602, -9.1666
4.184, 7, 9.30261, 15.4361, 31.4393, 13.4471, -43.961, -9.16598
4.188, 7, 9.29842, 15.4371, 31.4398, 13.4457, -43.9624, -9.16492
4.192, 7, 9.2931, 15.4386, 31.4406, 13.4434, -43.9646, -9.16317
4.196, 7, 9.28649, 15.4404, 31.4419, 13.4398, -43.9682, -9.1604
4.2, 8, 9.27833, 15.4427, 31.4438, 13.4343, -43.9737, -9.1562
4.204, 8, 9.26828, 15.4455, 31.4466, 13.4264, -43.9817, -9.15012
4.208, 8, 9.25594, 15.449, 31.4505, 13.4152, -43.9928, -9.14159
4.212, 8, 9.24091, 15.4532, 31.4558, 13.4, -44.008, -9.13003
4.216, 8, 9.22281, 15.4583, 31.4628, 13.3799, -44.0282, -9.11474
4.22, 8, 9.20135, 15.4642, 31.4719, 13.3539, -44.0543, -9.09503
4.224, 8, 9.17627, 15.471, 31.4833, 13.3211, -44.0873, -9.07014
4.228, 8, 9.14727, 15.4788, 31.4974, 13.2804, -44.1284, -9.03934
4.232, 8, 9.11401, 15.4877, 31.5146, 13.231, -44.1784, -9.00196
4.236, 8, 9.07611, 15.4977, 31.535, 13.172, -44.2383, -8.95736
4.24, 8, 9.03327, 15.5087, 31.5591, 13.1025, -44.309, -8.90497
4.244, 8, 8.98522, 15.5208, 31.587, 13.0221, -44.3912, -8.84433
4.248, 8, 8.93183, 15.534, 31.6188, 12.93, -44.4856, -8.77508
4.252, 8, 8.87301, 15.5482, 31.6547, 12.8261, -44.5928, -8.69697
4.256, 8, 8.80875, 15.5633, 31.6946, 12.71, -44.713, -8.60989
4.26, 8, 8.73904, 15.5794, 31.7387, 12.5818, -44.8464, -8.5139
4.264, 8, 8.66396, 15.5965, 31.7868, 12.4418, -44.993, -8.40919
4.268, 8, 8.58366, 15.6145, 31.8386, 12.2902, -45.1525, -8.29611
4.272, 8, 8.49843, 15.6334, 31.8941, 12.1278, -45.3245, -8.17518
4.276, 8, 8.40875, 15.6533, 31.953, 11.9554, -45.5083, -8.04704
4.28, 8, 8.31531, 15.6739, 32.0147, 11.7739, -45.703, -7.91248
4.284, 8, 8.21892, 15.6954, 32.079, 11.5845, -45.9075, -7.77244
4.288, 8, 8.12034, 15.7177, 32.1454, 11.3888, -46.1203, -7.62799
4.292, 8, 8.02011, 15.7408, 32.2132, 11.1882, -46.34, -7.48033
4.296, 8, 7.91864, 15.7646, 32.2818, 10.9845, -46.5646, -7.33072
4.3, 8, 7.81628, 15.7893, 32.3508, 10.7794, -46.7923, -7.1805
4.304, 8, 7.71348, 15.8146, 32.4193, 10.5749, -47.021, -7.031
4.308, 8, 7.61075, 15.8403, 32.4869, 10.3726, -47.2488, -6.8835
4.312, 8, 7.50874, 15.8664, 32.5529, 10.1743, -47.4735, -6.73925
4.316, 8, 7.40817, 15.8925, 32.6169, 9.98158, -47.6934, -6.59939
4.32, 8, 7.30978, 15.9185, 32.6783, 9.79593, -47.9065, -6.46497
4.324, 8, 7.21417, 15.9442, 32.7367, 9.61868, -48.1113, -6.33692
4.328, 8, 7.12185, 15.9696, 32.7918, 9.45096, -48.3062, -6.216
4.332, 8, 7.03319, 15.9945, 32.8433, 9.29369, -48.4901, -6.10284
4.336, 8, 6.9486, 16.0188, 32.8909, 9.14752, -48.6619, -5.99787
4.34, 8, 6.86846, 16.0423, 32.9346, 9.01288, -48.821, -5.90134
4.344, 8, 6.79323, 16.0649, 32.9743, 8.88992, -48.967, -5.81334
4.348, 8, 6.7233, 16.0864, 33.0102, 8.7786, -49.0997, -5.7338
4.352, 8, 6.65893, 16.1065, 33.0422, 8.67871, -49.2194, -5.66252
4.356, 8, 6.60019, 16.1252, 33.0705, 8.5899, -49.3262, -5.59923
4.36, 8, 6.54699, 16.1424, 33.0954, 8.51171, -49.4205, -5.54357
4.364, 8, 6.49909, 16.1583, 33.117, 8.4436, -49.503, -5.49514
4.368, 8, 6.45622, 16.1727, 33.1354, 8.38493, -49.5742, -5.45345
4.372, 8, 6.41809, 16.1859, 33.1511, 8.335, -49.635, -5.41799
4.376, 8, 6.38445, 16.1977, 33.1641, 8.29304, -49.6862, -5.3882
4.38, 8, 6.35508, 16.2083, 33.1749, 8.25823, -49.7288, -5.36349
4.384, 8, 6.32974, 16.2176, 33.1837, 8.22975, -49.7637, -5.34328
4.388, 8, 6.30813, 16.2256, 33.1907, 8.2068, -49.7919, -5.32699
4.392, 8, 6.28986, 16.2325, 33.1962, 8.18858, -49.8142, -5.31406
4.396, 8, 6.27448, 16.2384, 33.2005, 8.17438, -49.8317, -5.30397
4.4, 8, 6.26155, 16.2433, 33.2037, 8.16353, -49.8451, -5.29625
4.404, 8, 6.25069, 16.2474, 33.2061, 8.15541, -49.8551, -5.29047
4.408, 8, 6.24164, 16.2508, 33.2078, 8.14947, -49.8624, -5.28624
4.412, 8, 6.2342, 16.2535, 33.209, 8.14522, -49.8676, -5.2832
4.416, 8, 6.22825, 16.2557, 33.2099, 8.14224, -49.8713, -5.28107
4.42, 8, 6.22364, 16.2573, 33.2104, 8.14019, -49.8739, -5.2796
4.424, 8, 6.22021, 16.2585, 33.2108, 8.13878, -49.8756, -5.27859
4.428, 8, 6.21772, 16.2593, 33.2111, 8.13783, -49.8768, -5.27791
4.432, 8, 6.21578, 16.26, 33.2112, 8.13718, -49.8776, -5.27744
4.436, 8, 6.21398, 16.2605, 33.2114, 8.13671, -49.8781, -5.2771
4.44, 8, 6.21194, 16.2612, 33.2114, 8.13632, -49.8786, -5.27681
4.444, 8, 6.20938, 16.262, 33.2115, 8.13588, -49.8792, -5.27648
4.448, 8, 6.20605, 16.2631, 33.2117, 8.13521, -49.88, -5.27599
4.452, 8, 6.20178, 16.2646, 33.2119, 8.1341, -49.8814, -5.27518
4.456, 8, 6.1964, 16.2666, 33.2124, 8.13227, -49.8837, -5.27386
4.46, 8, 6.18972, 16.2692, 33.2132, 8.12935, -49.8873, -5.27177
4.464, 8, 6.18147, 16.2726, 33.2144, 8.12492, -49.8928, -5.26862
4.468, 9, 6.17133, 16.2768, 33.2162, 8.11848, -49.9009, -5.26404
4.472, 9, 6.15888, 16.2822, 33.2187, 8.10944, -49.9122, -5.25763
4.476, 9, 6.1437, 16.2889, 33.2223, 8.09714, -49.9276, -5.24893
4.48, 9, 6.12544, 16.2971, 33.227, 8.08084, -49.948, -5.23743
4.484, 9, 6.1038, 16.3067, 33.2332, 8.05977, -49.9744, -5.22258
4.488, 9, 6.07851, 16.3179, 33.241, 8.0331, -50.0079, -5.20383
4.492, 9, 6.04928, 16.3304, 33.2509, 8.00005, -50.0494, -5.18063
4.496, 9, 6.01576, 16.3445, 33.2628, 7.95983, -50.1001, -5.15244
4.5, 9, 5.97758, 16.36, 33.2772, 7.91174, -50.1608, -5.11878
4.504, 9, 5.93438, 16.3771, 33.2941, 7.85514, -50.2325, -5.07923
4.508, 9, 5.88588, 16.396, 33.3137, 7.78948, -50.3159, -5.03343
4.512, 9, 5.83191, 16.4166, 33.3361, 7.7143, -50.4117, -4.98107
4.516, 9, 5.77245, 16.4392, 33.3615, 7.62928, -50.5203, -4.92197
4.52, 9, 5.70754, 16.4636, 33.3898, 7.53421, -50.6423, -4.85601
4.524, 9, 5.63723, 16.49, 33.421, 7.42907, -50.7778, -4.7832
4.528, 9, 5.5616, 16.5183, 33.455, 7.31401, -50.9266, -4.7037
4.532, 9, 5.48075, 16.5484, 33.4917, 7.18935, -51.0886, -4.61776
4.536, 9, 5.39488, 16.5804, 33.531, 7.05559, -51.2633, -4.52576
4.54, 9, 5.30438, 16.614, 33.5725, 6.91338, -51.45, -4.42818
4.544, 9, 5.20987, 16.6491, 33.616, 6.76352, -51.6477, -4.32562
4.548, 9, 5.11215, 16.6854, 33.6612, 6.60698, -51.8553, -4.21876
4.552, 9, 5.01206, 16.7228, 33.7078, 6.44484, -52.0716, -4.10839
4.556, 9, 4.91029, 16.7613, 33.7554, 6.27837, -52.2948, -3.99538
4.56, 9, 4.80735, 16.8007, 33.8035, 6.10892, -52.5234, -3.88066
4.564, 9, 4.70357, 16.8411, 33.8516, 5.93796, -52.7552, -3.76524
4.568, 9, 4.5993, 16.8823, 33.8995, 5.76697, -52.9884, -3.65013
4.572, 9, 4.49493, 16.9241, 33.9465, 5.59743, -53.2209, -3.5363
4.576, 9, 4.39104, 16.9662, 33.9923, 5.43077, -53.4507, -3.4247
4.58, 9, 4.28837, 17.0082, 34.0366, 5.26832, -53.6759, -3.3162
4.584, 9, 4.18772, 17.0498, 34.079, 5.11131, -53.8946, -3.21161
4.588, 9, 4.08979, 17.0906, 34.1193, 4.96085, -54.1054, -3.11164
4.592, 9, 3.99516, 17.1305, 34.1572, 4.81791, -54.3065, -3.01689
4.596, 9, 3.90424, 17.1693, 34.1925, 4.6833, -54.4968, -2.92786
4.6, 9, 3.81738, 17.2069, 34.2251, 4.55765, -54.6753, -2.84494
4.604, 9, 3.7349, 17.2429, 34.2549, 4.44138, -54.8412, -2.76836
4.608, 9, 3.65716, 17.2774, 34.282, 4.33473, -54.9939, -2.69825
4.612, 9, 3.58455, 17.3099, 34.3063, 4.23775, -55.1333, -2.6346
4.616, 9, 3.5174, 17.3403, 34.3279, 4.15031, -55.2594, -2.57731
4.62, 9, 3.45588, 17.3685, 34.347, 4.07219, -55.3725, -2.5262
4.624, 9, 3.39996, 17.3944, 34.3638, 4.00305, -55.4729, -2.48102
4.628, 9, 3.34949, 17.418, 34.3782, 3.94246, -55.5611, -2.44148
4.632, 9, 3.30418, 17.4394, 34.3906, 3.88995, -55.6377, -2.40723
4.636, 9, 3.26374, 17.4587, 34.401, 3.84496, -55.7035, -2.37791
4.64, 9, 3.2279, 17.4761, 34.4097, 3.80689, -55.7593, -2.35311
4.644, 9, 3.19643, 17.4915, 34.4168, 3.77507, -55.8061, -2.33238
4.648, 9, 3.1691, 17.505, 34.4226, 3.74883, -55.8446, -2.31529
4.652, 9, 3.14565, 17.5167, 34.4271, 3.7275, -55.8761, -2.3014
4.656, 9, 3.12574, 17.5268, 34.4307, 3.71042, -55.9013, -2.29026
4.66, 9, 3.10894, 17.5352, 34.4334, 3.69697, -55.9211, -2.28149
4.664, 9, 3.0948, 17.5424, 34.4355, 3.68657, -55.9365, -2.2747
4.67, 9, 3.0729, 17.5532, 34.438, 3.67287, -55.9568, -2.26573
4.672, 9, 3.0729, 17.5532, 34.438, 3.67287, -55.9568, -2.26573
4.676, 9, 3.06461, 17.5572, 34.4386, 3.66865, -55.9631, -2.26296
4.68, 9, 3.05787, 17.5603, 34.4391, 3.66567, -55.9675, -2.261
4.684, 9, 3.05254, 17.5627, 34.4394, 3.66359, -55.9706, -2.25962
4.688, 9, 3.0485, 17.5645, 34.4395, 3.66217, -55.9727, -2.25868
4.692, 9, 3.04557, 17.5658, 34.4397, 3.66121, -55.9741, -2.25804
4.696, 9, 3.04351, 17.5667, 34.4397, 3.66055, -55.9751, -2.2576
4.7, 9, 3.04204, 17.5673, 34.4398, 3.6601, -55.9758, -2.25731
4.704, 9, 3.0408, 17.5679, 34.4398, 3.6598, -55.9762, -2.2571
4.708, 9, 3.03946, 17.5685, 34.4397, 3.65957, -55.9766, -2.25695
4.712, 9, 3.0377, 17.5694, 34.4396, 3.65935, -55.9769, -2.2568
4.716, 9, 3.03526, 17.5707, 34.4394, 3.65905, -55.9773, -2.25659
4.72, 9, 3.03195, 17.5728, 34.439, 3.65854, -55.9781, -2.25625
4.724, 9, 3.0276, 17.5756, 34.4385, 3.65765, -55.9794, -2.25565
4.728, 9, 3.02205, 17.5797, 34.4378, 3.65613, -55.9817, -2.25465
4.732, 10, 3.01512, 17.5852, 34.437, 3.65369, -55.9853, -2.25306
4.736, 10, 3.00657, 17.5924, 34.4358, 3.64998, -55.9908, -2.25064
4.74, 10, 2.99605, 17.6017, 34.4344, 3.64457, -55.9988, -2.24713
4.744, 10, 2.98317, 17.6132, 34.4326, 3.63697, -56.0101, -2.24221
4.748, 10, 2.96752, 17.6271, 34.4305, 3.62662, -56.0255, -2.23553
4.752, 10, 2.94875, 17.6436, 34.428, 3.61292, -56.0459, -2.22671
4.756, 10, 2.92661, 17.6628, 34.425, 3.59522, -56.0724, -2.21533
4.76, 10, 2.90086, 17.6848, 34.4216, 3.57282, -56.1058, -2.20097
4.764, 10, 2.87126, 17.7097, 34.4176, 3.54508, -56.1473, -2.1832
4.768, 10, 2.83749, 17.738, 34.4132, 3.51135, -56.1979, -2.16164
4.772, 10, 2.79921, 17.77, 34.4081, 3.47107, -56.2584, -2.13593
4.776, 10, 2.75607, 17.806, 34.4023, 3.42371, -56.3297, -2.10576
4.78, 10, 2.70775, 17.8464, 34.3958, 3.36884, -56.4125, -2.07086
4.784, 10, 2.654, 17.8913, 34.3884, 3.30611, -56.5075, -2.03101
4.788, 10, 2.59468, 17.9411, 34.3801, 3.23523, -56.6151, -1.98608
4.792, 10, 2.52977, 17.9956, 34.3709, 3.15604, -56.7356, -1.93597
4.796, 10, 2.45925, 18.0551, 34.3606, 3.06847, -56.8694, -1.88066
4.8, 10, 2.38311, 18.1196, 34.3491, 2.97255, -57.0165, -1.82021
4.804, 10, 2.30134, 18.1892, 34.3365, 2.86846, -57.1768, -1.75475
4.808, 10, 2.21392, 18.2639, 34.3225, 2.75645, -57.35, -1.68447
4.812, 10, 2.12095, 18.3437, 34.3071, 2.63687, -57.5357, -1.60962
4.816, 10, 2.02259, 18.4286, 34.2902, 2.51015, -57.7334, -1.5305
4.82, 10, 1.9191, 18.5183, 34.2718, 2.37678, -57.9425, -1.44745
4.824, 10, 1.81081, 18.6127, 34.2518, 2.23731, -58.1623, -1.36084
4.828, 10, 1.6981, 18.7114, 34.2302, 2.09234, -58.392, -1.27106
4.832, 10, 1.58127, 18.8142, 34.207, 1.94249, -58.6307, -1.17854
4.836, 10, 1.46061, 18.9207, 34.1821, 1.78845, -58.8774, -1.08372
4.84, 10, 1.33635, 19.0309, 34.1554, 1.63088, -59.1312, -0.987023
4.844, 10, 1.20877, 19.1445, 34.127, 1.47045, -59.3912, -0.888882
4.848, 10, 1.0782, 19.2614, 34.0969, 1.3078, -59.6563, -0.789698
4.852, 10, 0.94511, 19.3813, 34.065, 1.14351, -59.9256, -0.689845
4.856, 10, 0.810034, 19.504, 34.0315, 0.978118, -60.1985, -0.58966
4.86, 10, 0.67359, 19.6292, 33.9963, 0.812122, -60.474, -0.489448
4.864, 10, 0.536354, 19.7564, 33.9597, 0.645967, -60.7515, -0.389485
4.868, 10, 0.398808, 19.8853, 33.9216, 0.480075, -61.0302, -0.290029
4.872, 10, 0.261347, 20.0152, 33.8822, 0.314854, -61.3095, -0.19132
4.876, 10, 0.124306, 20.1459, 33.8416, 0.150703, -61.5888, -0.0935934
4.88, 10, -0.0120295, 20.2767, 33.7999, -0.011975, -61.8671, 0.00291973
4.884, 10, -0.147385, 20.4073, 33.7572, -0.172769, -62.1439, 0.0979883
4.888, 10, -0.281428, 20.5372, 33.7138, -0.331258, -62.4183, 0.191379
4.892, 10, -0.413747, 20.666, 33.6698, -0.487011, -62.6894, 0.282854
4.896, 10, -0.543891, 20.7932, 33.6254, -0.639586, -62.9565, 0.372175
4.9, 10, -0.671432, 20.9185, 33.5807, -0.78853, -63.2186, 0.459098
4.904, 10, -0.796004, 21.0415, 33.536, -0.933389, -63.4748, 0.543383
4.908, 10, -0.917309, 21.1619, 33.4915, -1.07372, -63.7242, 0.624793
4.912, 10, -1.03509, 21.2794, 33.4473, -1.20909, -63.966, 0.703107
4.916, 10, -1.14913, 21.3936, 33.4036, -1.33911, -64.1992, 0.778126
4.92, 10, -1.25918, 21.5044, 33.3607, -1.46344, -64.4233, 0.849677
4.924, 10, -1.36504, 21.6114, 33.3187, -1.58179, -64.6375, 0.917624
4.928, 10, -1.46646, 21.7143, 33.2779, -1.69394, -64.8413, 0.981864
4.932, 10, -1.56319, 21.8128, 33.2385, -1.79974, -65.0342, 1.04233
4.936, 10, -1.655, 21.9066, 33.2005, -1.89907, -65.2161, 1.09899
4.94, 10, -1.74177, 21.9955, 33.1643, -1.9919, -65.3866, 1.15184
4.944, 10, -1.82343, 22.0794, 33.1298, -2.07821, -65.5457, 1.20089
4.948, 10, -1.89996, 22.1581, 33.0973, -2.15806, -65.6932, 1.24619
4.952, 10, -1.97139, 22.2318, 33.0667, -2.23152, -65.8294, 1.28781
4.956, 10, -2.03774, 22.3003, 33.0381, -2.29873, -65.9543, 1.32584
4.96, 10, -2.09906, 22.3637, 33.0116, -2.35987, -66.0682, 1.36039
4.964, 10, -2.15539, 22.422, 32.9872, -2.41513, -66.1714, 1.39159
4.968, 10, -2.20682, 22.4753, 32.9649, -2.46475, -66.2642, 1.41958
4.972, 10, -2.25349, 22.5237, 32.9446, -2.50899, -66.3471, 1.44451
4.976, 10, -2.29565, 22.5674, 32.9264, -2.54812, -66.4206, 1.46655
4.98, 10, -2.33359, 22.6067, 32.91, -2.58243, -66.4851, 1.48586
4.984, 10, -2.36762, 22.6419, 32.8955, -2.61223, -66.5412, 1.50263
4.988, 10, -2.39797, 22.6732, 32.8826, -2.63786, -66.5895, 1.51705
4.992, 10, -2.42488, 22.7009, 32.8714, -2.65966, -66.6306, 1.52932
4.996, 10, -2.44853, 22.7252, 32.8617, -2.67799, -66.6653, 1.53965
5, 10, -2.46912, 22.7462, 32.8534, -2.69324, -66.6941, 1.54823
5.004, 10, -2.48685, 22.7643, 32.8463, -2.70574, -66.7177, 1.55528
5.008, 10, -2.502, 22.7796, 32.8404, -2.71586, -66.7369, 1.56098
5.012, 10, -2.51491, 22.7925, 32.8355, -2.7239, -66.7521, 1.56552
5.016, 10, -2.52597, 22.8033, 32.8315, -2.73018, -66.764, 1.56907
5.02, 10, -2.53547, 22.8123, 32.8283, -2.73497, -66.7731, 1.57179
5.024, 10, -2.54361, 22.8198, 32.8257, -2.73854, -66.7799, 1.57382
5.028, 10, -2.55052, 22.8258, 32.8236, -2.74115, -66.7849, 1.5753
5.032, 10, -2.55625, 22.8306, 32.822, -2.743, -66.7884, 1.57637
5.036, 10, -2.56087, 22.8344, 32.8208, -2.7443, -66.7909, 1.57711
5.04, 10, -2.56445, 22.8371, 32.8199, -2.74519, -66.7925, 1.57762
5.044, 10, -2.56714, 22.8392, 32.8193, -2.74579, -66.7937, 1.57797
5.048, 10, -2.56921, 22.8407, 32.8188, -2.74621, -66.7945, 1.57821
5.052, 10, -2.57099, 22.842, 32.8184, -2.7465, -66.795, 1.57838
5.056, 10, -2.57283, 22.8433, 32.818, -2.74672, -66.7955, 1.57852
5.06, 10, -2.57499, 22.8451, 32.8174, -2.74695, -66.7959, 1.57865
5.064, 10, -2.57765, 22.8474, 32.8167, -2.74724, -66.7964, 1.57883
5.068, 10, -2.58097, 22.8508, 32.8156, -2.7477, -66.7973, 1.5791
5.072, 10, -2.58505, 22.8553, 32.814, -2.74845, -66.7987, 1.57953
5.076, 10, -2.59001, 22.8614, 32.8119, -2.74963, -66.801, 1.58022
5.08, 10, -2.59599, 22.8692, 32.8089, -2.75141, -66.8044, 1.58124
5.084, 11, -2.60318, 22.8791, 32.805, -2.754, -66.8093, 1.58272
5.088, 11, -2.61184, 22.8911, 32.7998, -2.75763, -66.8163, 1.58479
5.092, 11, -2.6222, 22.9057, 32.7931, -2.76258, -66.8258, 1.58761
5.096, 11, -2.63447, 22.9229, 32.7847, -2.76914, -66.8384, 1.59133
5.1, 11, -2.64881, 22.943, 32.7742, -2.77762, -66.8548, 1.59614
5.104, 11, -2.66534, 22.9663, 32.7614, -2.78835, -66.8755, 1.60221
5.108, 11, -2.68424, 22.9931, 32.7461, -2.80167, -66.9012, 1.60974
5.112, 11, -2.70568, 23.0237, 32.7278, -2.81789, -66.9325, 1.61889
5.116, 11, -2.7299, 23.0585, 32.7064, -2.83731, -66.97, 1.62984
5.12, 11, -2.7571, 23.098, 32.6815, -2.86019, -67.0144, 1.64272
5.124, 11, -2.78752, 23.1424, 32.6528, -2.88678, -67.0659, 1.65769
5.128, 11, -2.82133, 23.1921, 32.6202, -2.91727, -67.1251, 1.67484
5.132, 11, -2.8587, 23.2475, 32.5834, -2.95185, -67.1923, 1.69427
5.136, 11, -2.89975, 23.3086, 32.5421, -2.99065, -67.2679, 1.71607
5.14, 11, -2.94448, 23.3755, 32.4963, -3.03375, -67.3519, 1.74027
5.144, 11, -2.99283, 23.4483, 32.4459, -3.08123, -67.4447, 1.76691
5.148, 11, -3.04462, 23.5269, 32.3909, -3.13307, -67.5462, 1.79598
5.152, 11, -3.09967, 23.6109, 32.3312, -3.18921, -67.6563, 1.82745
5.156, 11, -3.15777, 23.7001, 32.2669, -3.24954, -67.7749, 1.86123
5.16, 11, -3.21871, 23.7944, 32.1982, -3.31385, -67.9016, 1.89723
5.164, 11, -3.28228, 23.8933, 32.1252, -3.38188, -68.0358, 1.93529
5.168, 11, -3.34826, 23.9964, 32.0482, -3.45327, -68.1771, 1.97521
5.172, 11, -3.41631, 24.1034, 31.9675, -3.52764, -68.3247, 2.01677
5.176, 11, -3.48599, 24.2136, 31.8834, -3.60453, -68.4776, 2.05973
5.18, 11, -3.55678, 24.3265, 31.7965, -3.68347, -68.6349, 2.10381
5.184, 11, -3.62823, 24.4415, 31.7071, -3.76393, -68.7957, 2.14873
5.188, 11, -3.7, 24.5579, 31.6159, -3.84536, -68.9588, 2.19417
5.192, 11, -3.77191, 24.6754, 31.5234, -3.92718, -69.1232, 2.23982
5.196, 11, -3.8439, 24.7935, 31.4302, -4.00883, -69.2876, 2.28536
5.2, 11, -3.91595, 24.912, 31.3367, -4.08972, -69.4509, 2.33048
5.204, 11, -3.98798, 25.0302, 31.2436, -4.16934, -69.612, 2.37489
5.208, 11, -4.05971, 25.1477, 31.1513, -4.2472, -69.7699, 2.41831
5.212, 11, -4.13069, 25.2635, 31.0604, -4.32287, -69.9237, 2.46052
5.216, 11, -4.20041, 25.3771, 30.9715, -4.39599, -70.0727, 2.50131
5.22, 11, -4.26833, 25.4876, 30.885, -4.46625, -70.2163, 2.54051
5.224, 11, -4.33405, 25.5945, 30.8015, -4.53341, -70.3537, 2.57798
5.228, 11, -4.39725, 25.6973, 30.7211, -4.59725, -70.4847, 2.61361
5.232, 11, -4.45771, 25.7956, 30.6444, -4.6576, -70.6087, 2.6473
5.236, 11, -4.5153, 25.8892, 30.5714, -4.71433, -70.7255, 2.67898
5.24, 11, -4.56993, 25.9778, 30.5025, -4.76736, -70.8349, 2.7086
5.244, 11, -4.62154, 26.0615, 30.4377, -4.81663, -70.9367, 2.73613
5.248, 11, -4.67004, 26.1399, 30.3772, -4.86215, -71.031, 2.76157
5.252, 11, -4.71537, 26.2131, 30.321, -4.90394, -71.1176, 2.78494
5.256, 11, -4.75749, 26.2809, 30.2692, -4.94208, -71.1967, 2.80627
5.26, 11, -4.79638, 26.3433, 30.2217, -4.97666, -71.2686, 2.82562
5.264, 11, -4.83204, 26.4004, 30.1786, -5.0078, -71.3334, 2.84305
5.268, 11, -4.86453, 26.4523, 30.1396, -5.03564, -71.3913, 2.85864
5.272, 11, -4.89398, 26.4992, 30.1046, -5.06033, -71.4428, 2.87248
5.276, 11, -4.9206, 26.5414, 30.0736, -5.08203, -71.488, 2.88464
5.28, 11, -4.94457, 26.5791, 30.0461, -5.10093, -71.5275, 2.89524
5.284, 11, -4.96608, 26.6127, 30.0221, -5.11721, -71.5615, 2.90438
5.288, 11, -4.98527, 26.6424, 30.0012, -5.13109, -71.5905, 2.91218
5.292, 11, -5.00227, 26.6685, 29.9833, -5.1428, -71.6149, 2.91876
5.296, 11, -5.01719, 26.691, 29.9681, -5.15254, -71.6353, 2.92425
5.3, 11, -5.03015, 26.7104, 29.9553, -5.16056, -71.652, 2.92876
5.304, 11, -5.04131, 26.7269, 29.9447, -5.16705, -71.6656, 2.93242
5.308, 11, -5.0509, 26.7407, 29.9361, -5.17223, -71.6765, 2.93535
5.312, 11, -5.05917, 26.7522, 29.929, -5.17629, -71.6849, 2.93764
5.316, 11, -5.06634, 26.7618, 29.9234, -5.1794, -71.6914, 2.93941
5.32, 11, -5.07256, 26.7697, 29.919, -5.18173, -71.6963, 2.94073
5.324, 11, -5.0779, 26.7761, 29.9156, -5.18344, -71.6998, 2.9417
5.328, 11, -5.0824, 26.7812, 29.9129, -5.18466, -71.7024, 2.9424
5.332, 11, -5.08607, 26.7852, 29.911, -5.18551, -71.7042, 2.94289
5.336, 11, -5.08895, 26.7882, 29.9096, -5.1861, -71.7054, 2.94323
5.34, 11, -5.09111, 26.7903, 29.9086, -5.1865, -71.7062, 2.94347
5.344, 11, -5.09269, 26.7918, 29.9079, -5.18678, -71.7068, 2.94362
5.348, 11, -5.09395, 26.793, 29.9074, -5.18696, -71.7072, 2.94373
5.352, 11, -5.09516, 26.794, 29.9069, -5.1871, -71.7075, 2.94381
5.356, 11, -5.09658, 26.7953, 29.9065, -5.18721, -71.7077, 2.94388
5.36, 11, -5.09843, 26.797, 29.9059, -5.18735, -71.708, 2.94396
5.364, 11, -5.10084, 26.7995, 29.905, -5.18756, -71.7084, 2.94409
5.368, 11, -5.10391, 26.803, 29.9038, -5.18791, -71.7091, 2.9443
5.372, 11, -5.10774, 26.8078, 29.9021, -5.18851, -71.7104, 2.94465
5.376, 11, -5.1124, 26.8141, 29.8996, -5.18946, -71.7123, 2.9452
5.38, 11, -5.11803, 26.822, 29.8963, -5.19092, -71.7154, 2.94604
5.384, 12, -5.1248, 26.8319, 29.8918, -5.19305, -71.7198, 2.94726
5.388, 12, -5.13291, 26.8439, 29.8858, -5.19603, -71.726, 2.94896
5.392, 12, -5.1426, 26.8582, 29.8781, -5.2001, -71.7345, 2.95128
5.396, 12, -5.15404, 26.8753, 29.8684, -5.20551, -71.7458, 2.95434
5.4, 12, -5.16736, 26.8953, 29.8562, -5.2125, -71.7604, 2.9583
5.404, 12, -5.18268, 26.9185, 29.8413, -5.22135, -71.779, 2.9633
5.408, 12, -5.20013, 26.9453, 29.8234, -5.23235, -71.8021, 2.96951
5.412, 12, -5.21988, 26.976, 29.8021, -5.24574, -71.8302, 2.97706
5.416, 12, -5.24214, 27.011, 29.777, -5.26179, -71.8639, 2.9861
5.42, 12, -5.26709, 27.0507, 29.7479, -5.2807, -71.9037, 2.99675
5.424, 12, -5.29494, 27.0954, 29.7143, -5.30268, -71.95, 3.00912
5.428, 12, -5.32586, 27.1454, 29.6761, -5.32791, -72.0033, 3.02333
5.432, 12, -5.35999, 27.2012, 29.6328, -5.35653, -72.0637, 3.03944
5.436, 12, -5.39746, 27.2627, 29.5844, -5.38865, -72.1316, 3.05752
5.44, 12, -5.43831, 27.3303, 29.5306, -5.42436, -72.2072, 3.07764
5.444, 12, -5.48251, 27.404, 29.4714, -5.4637, -72.2906, 3.09981
5.448, 12, -5.52993, 27.4835, 29.4066, -5.50671, -72.3819, 3.12405
5.452, 12, -5.58038, 27.5688, 29.3363, -5.55333, -72.481, 3.15034
5.456, 12, -5.63364, 27.6595, 29.2605, -5.60349, -72.5878, 3.17865
5.46, 12, -5.68951, 27.7554, 29.1794, -5.65704, -72.7021, 3.20889
5.464, 12, -5.74775, 27.8562, 29.0932, -5.71379, -72.8234, 3.24095
5.468, 12, -5.80818, 27.9614, 29.0022, -5.77346, -72.9512, 3.2747
5.472, 12, -5.87052, 28.0707, 28.9067, -5.83574, -73.0848, 3.30996
5.476, 12, -5.93441, 28.1834, 28.8071, -5.90028, -73.2236, 3.34654
5.48, 12, -5.99941, 28.2991, 28.7039, -5.96666, -73.3666, 3.38421
5.484, 12, -6.06507, 28.417, 28.5978, -6.03448, -73.513, 3.42273
5.488, 12, -6.13106, 28.5366, 28.4893, -6.10326, -73.6618, 3.46186
5.492, 12, -6.19718, 28.6574, 28.3792, -6.17254, -73.8119, 3.50132
5.496, 12, -6.26334, 28.7788, 28.2681, -6.24182, -73.9624, 3.54085
5.5, 12, -6.32958, 28.9007, 28.1565, -6.31064, -74.1122, 3.58017
5.504, 12, -6.39588, 29.0224, 28.0453, -6.37851, -74.2602, 3.61902
5.508, 12, -6.46205, 29.1435, 27.9351, -6.44502, -74.4055, 3.65715
5.512, 12, -6.52775, 29.2632, 27.8264, -6.50979, -74.5473, 3.69436
5.516, 12, -6.5925, 29.3808, 27.7199, -6.57249, -74.6849, 3.73044
5.52, 12, -6.6558, 29.4956, 27.6162, -6.63286, -74.8175, 3.76525
5.524, 12, -6.71722, 29.6068, 27.5159, -6.69066, -74.9448, 3.79864
5.528, 12, -6.77643, 29.7138, 27.4193, -6.74571, -75.0662, 3.83049
5.532, 12, -6.83318, 29.8164, 27.327, -6.79785, -75.1814, 3.86072
5.536, 12, -6.88733, 29.9142, 27.2391, -6.84696, -75.29, 3.88924
5.54, 12, -6.93879, 30.0069, 27.156, -6.89296, -75.392, 3.91599
5.544, 12, -6.98751, 30.0945, 27.0778, -6.9358, -75.487, 3.94096
5.548, 12, -7.03341, 30.1768, 27.0046, -6.97545, -75.5751, 3.9641
5.552, 12, -7.07644, 30.2537, 26.9366, -7.01193, -75.6563, 3.98543
5.556, 12, -7.11653, 30.3251, 26.8738, -7.0453, -75.7306, 4.00497
5.56, 12, -7.15367, 30.3911, 26.8161, -7.07561, -75.7982, 4.02275
5.564, 12, -7.18783, 30.4515, 26.7636, -7.10298, -75.8593, 4.03882
5.568, 12, -7.21904, 30.5065, 26.7161, -7.12751, -75.9141, 4.05324
5.572, 12, -7.24742, 30.5563, 26.6735, -7.14931, -75.9628, 4.06608
5.576, 12, -7.27311, 30.6011, 26.6355, -7.16854, -76.0058, 4.07742
5.58, 12, -7.29631, 30.6413, 26.6019, -7.18533, -76.0434, 4.08734
5.584, 12, -7.3172, 30.6771, 26.5724, -7.19985, -76.0759, 4.09592
5.588, 12, -7.33591, 30.7089, 26.5467, -7.21227, -76.1037, 4.10327
5.592, 12, -7.35256, 30.7368, 26.5246, -7.22278, -76.1272, 4.10951
5.596, 12, -7.36725, 30.7611, 26.5058, -7.23156, -76.1469, 4.11472
5.6, 12, -7.38009, 30.782, 26.49, -7.23882, -76.1631, 4.11903
5.604, 12, -7.3912, 30.7998, 26.4769, -7.24472, -76.1764, 4.12255
5.608, 12, -7.40076, 30.8148, 26.4661, -7.24945, -76.187, 4.12538
5.612, 12, -7.40901, 30.8274, 26.4573, -7.25318, -76.1953, 4.1276
5.616, 12, -7.41617, 30.8378, 26.4503, -7.25606, -76.2017, 4.12933
5.62, 12, -7.42242, 30.8464, 26.4448, -7.25823, -76.2066, 4.13064
5.624, 12, -7.42783, 30.8535, 26.4405, -7.25983, -76.2102, 4.1316
5.628, 12, -7.43244, 30.8591, 26.4372, -7.26099, -76.2127, 4.1323
5.632, 12, -7.43625, 30.8636, 26.4347, -7.2618, -76.2145, 4.1328
5.636, 12, -7.4393, 30.8669, 26.4329, -7.26236, -76.2158, 4.13314
5.64, 12, -7.44162, 30.8694, 26.4316, -7.26275, -76.2166, 4.13338
5.644, 12, -7.44334, 30.8712, 26.4307, -7.26301, -76.2172, 4.13354
5.648, 12, -7.44469, 30.8725, 26.4301, -7.26319, -76.2176, 4.13365
5.652, 12, -7.44596, 30.8737, 26.4295, -7.26331, -76.2179, 4.13373
5.656, 12, -7.44741, 30.8752, 26.429, -7.26342, -76.2181, 4.1338
5.66, 12, -7.44924, 30.8771, 26.4283, -7.26354, -76.2184, 4.13387
5.664, 12, -7.45159, 30.8799, 26.4274, -7.26371, -76.2188, 4.13399
5.668, 12, -7.45456, 30.8837, 26.426, -7.26401, -76.2194, 4.13417
5.672, 12, -7.45824, 30.8887, 26.4241, -7.2645, -76.2205, 4.13448
5.676, 12, -7.4627, 30.8951, 26.4213, -7.26529, -76.2223, 4.13497
5.68, 12, -7.46804, 30.9031, 26.4176, -7.2665, -76.2249, 4.13571
5.684, 13, -7.47444, 30.9129, 26.4125, -7.26826, -76.2289, 4.13678
5.688, 13, -7.48208, 30.9247, 26.4058, -7.27073, -76.2344, 4.13828
5.692, 13, -7.49116, 30.9389, 26.3971, -7.27411, -76.242, 4.14031
5.696, 13, -7.50185, 30.9557, 26.386, -7.27858, -76.252, 4.14301
5.7, 13, -7.51426, 30.9756, 26.3722, -7.28438, -76.2651, 4.1465
5.704, 13, -7.52848, 30.9988, 26.3553, -7.29173, -76.2816, 4.15091
5.708, 13, -7.54462, 31.0256, 26.3348, -7.30086, -76.3022, 4.15638
5.712, 13, -7.56285, 31.0564, 26.3105, -7.31198, -76.3273, 4.16304
5.716, 13, -7.58333, 31.0916, 26.2818, -7.32531, -76.3573, 4.17102
5.72, 13, -7.60624, 31.1315, 26.2484, -7.34103, -76.3929, 4.18043
5.724, 13, -7.63175, 31.1764, 26.2099, -7.3593, -76.4342, 4.19138
5.728, 13, -7.66001, 31.2268, 26.166, -7.38027, -76.4817, 4.20395
5.732, 13, -7.69115, 31.2828, 26.1165, -7.40406, -76.5356, 4.21823
5.736, 13, -7.72527, 31.3447, 26.0609, -7.43077, -76.5962, 4.23427
5.74, 13, -7.76244, 31.4127, 25.9993, -7.46046, -76.6637, 4.25213
5.744, 13, -7.80264, 31.4869, 25.9313, -7.49318, -76.7381, 4.27184
5.748, 13, -7.8458, 31.567, 25.8569, -7.52893, -76.8195, 4.29341
5.752, 13, -7.89174, 31.6531, 25.7761, -7.5677, -76.9079, 4.31685
5.756, 13, -7.94027, 31.7448, 25.6891, -7.60941, -77.0032, 4.34211
5.76, 13, -7.99119, 31.8418, 25.5959, -7.65396, -77.1051, 4.36916
5.764, 13, -8.04428, 31.9438, 25.4969, -7.70119, -77.2133, 4.3979
5.768, 13, -8.09936, 32.0504, 25.3922, -7.75089, -77.3274, 4.42823
5.772, 13, -8.15622, 32.1614, 25.2822, -7.80281, -77.4468, 4.46
5.776, 13, -8.21455, 32.276, 25.1675, -7.85667, -77.5709, 4.49305
5.78, 13, -8.27393, 32.3938, 25.0486, -7.91214, -77.6989, 4.52719
5.784, 13, -8.33395, 32.514, 24.9261, -7.96887, -77.8301, 4.56222
5.788, 13, -8.39425, 32.636, 24.8008, -8.0265, -77.9635, 4.59791
5.792, 13, -8.45462, 32.7592, 24.6734, -8.08463, -78.0985, 4.63405
5.796, 13, -8.51497, 32.8831, 24.5447, -8.14287, -78.2339, 4.67038
5.8, 13, -8.57534, 33.0074, 24.4155, -8.20082, -78.3688, 4.70666
5.804, 13, -8.63576, 33.1316, 24.2864, -8.25808, -78.5024, 4.74264
5.808, 13, -8.69616, 33.2554, 24.1584, -8.31428, -78.6338, 4.77809
5.812, 13, -8.75626, 33.3779, 24.032, -8.36911, -78.7622, 4.81281
5.816, 13, -8.81567, 33.4985, 23.9081, -8.42227, -78.8869, 4.84661
5.82, 13, -8.87393, 33.6164, 23.7873, -8.47352, -79.0074, 4.87932
5.824, 13, -8.9306, 33.7308, 23.6702, -8.52266, -79.1231, 4.9108
5.828, 13, -8.98536, 33.8412, 23.5575, -8.56952, -79.2336, 4.94094
5.832, 13, -9.03795, 33.947, 23.4495, -8.61396, -79.3385, 4.96962
5.836, 13, -9.08822, 34.048, 23.3467, -8.65587, -79.4377, 4.99676
5.84, 13, -9.1361, 34.144, 23.2494, -8.69517, -79.5307, 5.0223
5.844, 13, -9.18151, 34.2348, 23.1577, -8.73179, -79.6176, 5.04619
5.848, 13, -9.22441, 34.3201, 23.0719, -8.76573, -79.6982, 5.06839
5.852, 13, -9.26471, 34.4, 22.9921, -8.79699, -79.7725, 5.08891
5.856, 13, -9.30236, 34.4743, 22.9183, -8.8256, -79.8406, 5.10774
5.86, 13, -9.33731, 34.543, 22.8506, -8.85162, -79.9026, 5.12492
5.864, 13, -9.36954, 34.606, 22.7888, -8.87514, -79.9587, 5.14048
5.868, 13, -9.39905, 34.6635, 22.7329, -8.89624, -80.009, 5.15448
5.872, 13, -9.42593, 34.7155, 22.6826, -8.91502, -80.0539, 5.16698
5.876, 13, -9.45032, 34.7624, 22.6378, -8.9316, -80.0935, 5.17803
5.88, 13, -9.47239, 34.8045, 22.5981, -8.94611, -80.1282, 5.18772
5.884, 13, -9.4923, 34.842, 22.5633, -8.95867, -80.1582, 5.19613
5.888, 13, -9.51019, 34.8753, 22.533, -8.96944, -80.184, 5.20336
5.892, 13, -9.52616, 34.9047, 22.5068, -8.97856, -80.2058, 5.20949
5.896, 13, -9.54031, 34.9302, 22.4846, -8.98621, -80.2241, 5.21464
5.9, 13, -9.55272, 34.9523, 22.4658, -8.99253, -80.2392, 5.21891
5.904, 13, -9.5635, 34.9711, 22.4502, -8.99769, -80.2516, 5.2224
5.908, 13, -9.5728, 34.9869, 22.4374, -9.00183, -80.2615, 5.22522
5.912, 13, -9.58084, 35.0002, 22.427, -9.00511, -80.2693, 5.22745
5.916, 13, -9.58785, 35.0112, 22.4186, -9.00765, -80.2754, 5.22918
5.92, 13, -9.59398, 35.0204, 22.4121, -9.00957, -80.2799, 5.23049
5.924, 13, -9.59931, 35.028, 22.4069, -9.011, -80.2833, 5.23147
5.928, 13, -9.60389, 35.0341, 22.403, -9.01202, -80.2858, 5.23218
5.932, 13, -9.60772, 35.0389, 22.4001, -9.01275, -80.2875, 5.23269
5.936, 13, -9.6108, 35.0426, 22.3979, -9.01326, -80.2887, 5.23304
5.94, 13, -9.61318, 35.0454, 22.3964, -9.0136, -80.2895, 5.23328
