hehonglu123/ABB_Primitive_Study/execution/movelll_30_car/curve_exe_v50_z10.csv
timestamp, cmd_num, J1, J2, J3, J4, J5, J6
0, -1, -13.4393, 43.6787, 12.5946, -11.6275, -87.029, 7.42441
0.003, -1, -13.4393, 43.6787, 12.5946, -11.6275, -87.029, 7.42441
0.006, -1, -13.4393, 43.6787, 12.5946, -11.6275, -87.029, 7.42441
0.008, -1, -13.4393, 43.6787, 12.5946, -11.6275, -87.029, 7.42441
0.011, -1, -13.4393, 43.6787, 12.5946, -11.6275, -87.029, 7.42441
0.016, -1, -13.4393, 43.6787, 12.5946, -11.6275, -87.029, 7.42441
0.02, -1, -13.4393, 43.6787, 12.5946, -11.6275, -87.029, 7.42441
0.024, -1, -13.4393, 43.6787, 12.5946, -11.6275, -87.029, 7.42441
0.028, -1, -13.4393, 43.6787, 12.5946, -11.6275, -87.029, 7.42441
0.032, -1, -13.4393, 43.6787, 12.5946, -11.6275, -87.029, 7.42441
0.036, -1, -13.4392, 43.6786, 12.5946, -11.6275, -87.029, 7.42441
0.04, -1, -13.439, 43.6785, 12.5946, -11.6275, -87.029, 7.42441
0.044, -1, -13.4384, 43.678, 12.5947, -11.6275, -87.029, 7.42439
0.048, -1, -13.4372, 43.6772, 12.5949, -11.6274, -87.0289, 7.42434
0.052, -1, -13.4355, 43.6758, 12.5951, -11.6273, -87.0287, 7.42422
0.056, -1, -13.433, 43.6738, 12.5955, -11.627, -87.0284, 7.42397
0.06, -1, -13.4296, 43.671, 12.5961, -11.6264, -87.0277, 7.42349
0.064, -1, -13.4254, 43.6675, 12.5969, -11.6253, -87.0264, 7.42266
0.068, -1, -13.4203, 43.6631, 12.598, -11.6236, -87.0244, 7.42132
0.072, -1, -13.4141, 43.6579, 12.5994, -11.6209, -87.0213, 7.41928
0.076, -1, -13.4066, 43.6516, 12.6011, -11.617, -87.0167, 7.4163
0.08, -1, -13.3977, 43.6442, 12.6034, -11.6115, -87.0103, 7.41213
0.084, -1, -13.3869, 43.6352, 12.6062, -11.604, -87.0016, 7.40644
0.088, -1, -13.3743, 43.6247, 12.6097, -11.5941, -86.9899, 7.39892
0.092, -1, -13.3596, 43.6124, 12.6138, -11.5812, -86.9748, 7.38918
0.096, -1, -13.3427, 43.5982, 12.6186, -11.5648, -86.9557, 7.37685
0.1, -1, -13.3235, 43.582, 12.6243, -11.5444, -86.9319, 7.36155
0.104, -1, -13.3019, 43.5636, 12.6308, -11.5196, -86.9029, 7.3429
0.108, -1, -13.2776, 43.5427, 12.6382, -11.4899, -86.868, 7.32054
0.112, -1, -13.2505, 43.5193, 12.6467, -11.4547, -86.8269, 7.29416
0.116, -1, -13.2206, 43.4932, 12.6562, -11.4137, -86.7789, 7.26346
0.12, -1, -13.1877, 43.4644, 12.6669, -11.3667, -86.7238, 7.22818
0.124, -1, -13.1519, 43.4328, 12.6786, -11.3132, -86.6612, 7.18814
0.128, -1, -13.113, 43.3984, 12.6916, -11.2532, -86.591, 7.14319
0.131, -1, -13.071, 43.3611, 12.7056, -11.1865, -86.5129, 7.09326
0.136, -1, -13.026, 43.321, 12.7209, -11.1131, -86.4269, 7.03835
0.139, -1, -12.9779, 43.2779, 12.7373, -11.0331, -86.3333, 6.9785
0.144, -1, -12.9267, 43.232, 12.7548, -10.9467, -86.2321, 6.91384
0.148, -1, -12.8726, 43.1833, 12.7734, -10.854, -86.1236, 6.84454
0.152, -1, -12.8155, 43.132, 12.7932, -10.7555, -86.0082, 6.77084
0.156, -1, -12.7557, 43.0781, 12.8139, -10.6514, -85.8863, 6.69301
0.16, -1, -12.6932, 43.0219, 12.8355, -10.5422, -85.7585, 6.61137
0.164, -1, -12.6282, 42.9633, 12.8581, -10.4284, -85.6253, 6.52627
0.168, -1, -12.5607, 42.9025, 12.8815, -10.3105, -85.4872, 6.43809
0.172, -1, -12.4909, 42.8396, 12.9056, -10.189, -85.3449, 6.34721
0.176, -1, -12.4189, 42.7749, 12.9305, -10.0644, -85.1989, 6.25399
0.18, -1, -12.345, 42.7085, 12.956, -9.93711, -85.0499, 6.15879
0.184, -1, -12.2694, 42.6406, 12.9821, -9.80765, -84.8983, 6.06194
0.188, -1, -12.1925, 42.5714, 13.0086, -9.6764, -84.7446, 5.96375
0.192, -1, -12.1142, 42.5011, 13.0356, -9.54373, -84.5892, 5.86449
0.196, -1, -12.0348, 42.4297, 13.0629, -9.40995, -84.4326, 5.76439
0.2, -1, -11.9542, 42.3573, 13.0906, -9.27534, -84.2749, 5.66366
0.204, -1, -11.8724, 42.2841, 13.1185, -9.14011, -84.1166, 5.56246
0.208, -1, -11.7897, 42.21, 13.1466, -9.00443, -83.9577, 5.46092
0.212, -1, -11.7061, 42.1354, 13.1749, -8.86843, -83.7985, 5.35913
0.216, -1, -11.6218, 42.0602, 13.2033, -8.7322, -83.6389, 5.25717
0.22, -1, -11.5371, 41.9847, 13.2318, -8.5958, -83.4792, 5.15507
0.224, -1, -11.452, 41.909, 13.2603, -8.45928, -83.3194, 5.05288
0.228, -1, -11.3667, 41.8332, 13.2889, -8.32266, -83.1594, 4.95062
0.232, -1, -11.2813, 41.7572, 13.3176, -8.18597, -82.9993, 4.8483
0.236, -1, -11.1957, 41.6811, 13.3462, -8.04922, -82.8392, 4.74595
0.24, -1, -11.11, 41.605, 13.3749, -7.91243, -82.679, 4.64355
0.244, -1, -11.0243, 41.5288, 13.4035, -7.77561, -82.5188, 4.54114
0.248, -1, -10.9386, 41.4526, 13.4322, -7.63876, -82.3586, 4.4387
0.252, -1, -10.8528, 41.3764, 13.4609, -7.50189, -82.1983, 4.33625
0.256, -1, -10.767, 41.3002, 13.4896, -7.36501, -82.0381, 4.2338
0.26, -1, -10.6811, 41.2239, 13.5183, -7.22813, -81.8778, 4.13133
0.264, -1, -10.5953, 41.1477, 13.547, -7.09125, -81.7175, 4.02887
0.268, -1, -10.5094, 41.0714, 13.5757, -6.95436, -81.5572, 3.92641
0.272, -1, -10.4236, 40.9952, 13.6044, -6.81749, -81.397, 3.82396
0.276, -1, -10.3378, 40.9189, 13.6331, -6.68063, -81.2367, 3.72151
0.28, -1, -10.252, 40.8427, 13.6618, -6.54379, -81.0765, 3.61908
0.284, -1, -10.1661, 40.7665, 13.6904, -6.40697, -80.9163, 3.51666
0.288, -1, -10.0803, 40.6903, 13.7191, -6.27017, -80.7561, 3.41427
0.292, -1, -9.99456, 40.6141, 13.7478, -6.13341, -80.596, 3.31189
0.296, -1, -9.9088, 40.538, 13.7764, -5.99668, -80.4359, 3.20955
0.3, -1, -9.82306, 40.4618, 13.8051, -5.85999, -80.2758, 3.10723
0.304, -1, -9.73734, 40.3857, 13.8337, -5.72334, -80.1158, 3.00494
0.308, -1, -9.65166, 40.3096, 13.8624, -5.58674, -79.9558, 2.90269
0.312, -1, -9.566, 40.2336, 13.891, -5.45019, -79.796, 2.80048
0.316, -1, -9.48038, 40.1575, 13.9196, -5.31369, -79.6361, 2.69831
0.32, -1, -9.3948, 40.0815, 13.9482, -5.17726, -79.4764, 2.59618
0.324, -1, -9.30925, 40.0055, 13.9768, -5.04089, -79.3167, 2.4941
0.328, -1, -9.22375, 39.9296, 14.0054, -4.90458, -79.1571, 2.39207
0.332, -1, -9.13829, 39.8537, 14.0339, -4.76835, -78.9976, 2.2901
0.336, -1, -9.05287, 39.7778, 14.0625, -4.63219, -78.8382, 2.18818
0.34, -1, -8.9675, 39.702, 14.091, -4.49612, -78.6788, 2.08632
0.344, -1, -8.88219, 39.6262, 14.1195, -4.36012, -78.5196, 1.98452
0.348, -1, -8.79692, 39.5505, 14.148, -4.22421, -78.3604, 1.88279
0.352, -1, -8.71172, 39.4748, 14.1765, -4.0884, -78.2014, 1.78113
0.356, -1, -8.62657, 39.3992, 14.2049, -3.95267, -78.0425, 1.67953
0.36, -1, -8.54148, 39.3236, 14.2334, -3.81705, -77.8837, 1.57801
0.364, -1, -8.45646, 39.2481, 14.2618, -3.68152, -77.725, 1.47657
0.368, -1, -8.3715, 39.1727, 14.2902, -3.54611, -77.5664, 1.3752
0.372, -1, -8.28661, 39.0973, 14.3185, -3.4108, -77.408, 1.27392
0.376, -1, -8.20179, 39.0219, 14.3469, -3.2756, -77.2497, 1.17272
0.38, -1, -8.11704, 38.9467, 14.3752, -3.14052, -77.0915, 1.07161
0.384, -1, -8.03237, 38.8715, 14.4035, -3.00557, -76.9335, 0.970588
0.388, -1, -7.94777, 38.7963, 14.4318, -2.87073, -76.7756, 0.869659
0.392, -1, -7.86325, 38.7212, 14.46, -2.73602, -76.6179, 0.768825
0.396, -1, -7.77881, 38.6463, 14.4882, -2.60145, -76.4603, 0.668089
0.4, -1, -7.69446, 38.5713, 14.5164, -2.467, -76.3029, 0.567454
0.404, -1, -7.61019, 38.4965, 14.5446, -2.3327, -76.1456, 0.466921
0.408, -1, -7.526, 38.4217, 14.5727, -2.19854, -75.9885, 0.366494
0.412, -1, -7.44191, 38.347, 14.6008, -2.06452, -75.8316, 0.266176
0.416, -1, -7.35791, 38.2724, 14.6288, -1.93064, -75.6748, 0.165968
0.42, -1, -7.274, 38.1979, 14.6569, -1.79692, -75.5183, 0.0658724
0.424, -1, -7.19019, 38.1235, 14.6849, -1.66336, -75.3619, -0.0341072
0.428, -1, -7.10648, 38.0491, 14.7128, -1.52995, -75.2057, -0.133969
0.432, -1, -7.02287, 37.9748, 14.7408, -1.3967, -75.0496, -0.233711
0.436, -1, -6.93935, 37.9007, 14.7687, -1.26362, -74.8938, -0.33333
0.44, -1, -6.85595, 37.8266, 14.7965, -1.1307, -74.7382, -0.432824
0.444, -1, -6.77264, 37.7526, 14.8244, -0.99795, -74.5827, -0.532191
0.448, -1, -6.68945, 37.6787, 14.8522, -0.865375, -74.4275, -0.631429
0.452, -1, -6.60636, 37.6049, 14.8799, -0.732975, -74.2725, -0.730535
0.456, -1, -6.52339, 37.5312, 14.9077, -0.600755, -74.1176, -0.829507
0.46, -1, -6.44053, 37.4576, 14.9353, -0.468716, -73.963, -0.928344
0.464, -1, -6.35778, 37.3842, 14.963, -0.336861, -73.8086, -1.02704
0.468, -1, -6.27515, 37.3108, 14.9906, -0.205193, -73.6545, -1.1256
0.472, -1, -6.19264, 37.2375, 15.0181, -0.0737153, -73.5005, -1.22402
0.476, -1, -6.11024, 37.1643, 15.0457, 0.0575699, -73.3468, -1.32229
0.48, -1, -6.02797, 37.0912, 15.0732, 0.18866, -73.1933, -1.42042
0.484, -1, -5.94582, 37.0183, 15.1006, 0.319552, -73.04, -1.51839
0.488, -1, -5.8638, 36.9454, 15.128, 0.450244, -72.887, -1.61622
0.492, -1, -5.7819, 36.8727, 15.1554, 0.580734, -72.7342, -1.7139
0.496, -1, -5.70012, 36.8001, 15.1827, 0.711018, -72.5817, -1.81142
0.5, -1, -5.61848, 36.7276, 15.2099, 0.841096, -72.4294, -1.90879
0.504, -1, -5.53697, 36.6552, 15.2372, 0.970964, -72.2773, -2.006
0.508, -1, -5.45558, 36.5829, 15.2644, 1.10062, -72.1255, -2.10306
0.512, -1, -5.37433, 36.5108, 15.2915, 1.23006, -71.9739, -2.19995
0.516, -1, -5.29321, 36.4387, 15.3186, 1.35929, -71.8226, -2.29668
0.52, -1, -5.21223, 36.3668, 15.3456, 1.4883, -71.6715, -2.39325
0.524, -1, -5.13138, 36.295, 15.3726, 1.6171, -71.5207, -2.48966
0.528, -1, -5.05067, 36.2233, 15.3996, 1.74567, -71.3702, -2.5859
0.532, -1, -4.97009, 36.1518, 15.4265, 1.87402, -71.2199, -2.68198
0.536, -1, -4.88966, 36.0803, 15.4534, 2.00215, -71.0698, -2.77789
0.54, -1, -4.80936, 36.009, 15.4802, 2.13005, -70.9201, -2.87363
0.544, -1, -4.7292, 35.9378, 15.507, 2.25773, -70.7706, -2.9692
0.548, -1, -4.64919, 35.8668, 15.5337, 2.38518, -70.6213, -3.0646
0.552, -1, -4.56931, 35.7959, 15.5604, 2.51241, -70.4724, -3.15984
0.556, -1, -4.48958, 35.725, 15.587, 2.6394, -70.3237, -3.2549
0.56, -1, -4.41, 35.6544, 15.6136, 2.76617, -70.1752, -3.34979
0.564, -1, -4.33056, 35.5838, 15.6401, 2.8927, -70.0271, -3.44451
0.568, -1, -4.25126, 35.5134, 15.6666, 3.01901, -69.8792, -3.53905
0.572, -1, -4.17211, 35.4431, 15.693, 3.14508, -69.7316, -3.63342
0.576, -1, -4.0931, 35.373, 15.7194, 3.27092, -69.5842, -3.72761
0.58, -1, -4.01424, 35.3029, 15.7458, 3.39652, -69.4372, -3.82163
0.584, -1, -3.93553, 35.233, 15.772, 3.52189, -69.2904, -3.91547
0.588, -1, -3.85696, 35.1633, 15.7983, 3.64702, -69.1438, -4.00914
0.592, -1, -3.77855, 35.0936, 15.8245, 3.77191, -68.9976, -4.10263
0.596, -1, -3.70028, 35.0241, 15.8506, 3.89657, -68.8516, -4.19594
0.6, -1, -3.62216, 34.9548, 15.8767, 4.02099, -68.7059, -4.28908
0.604, -1, -3.54419, 34.8855, 15.9027, 4.14517, -68.5605, -4.38203
0.608, -1, -3.46637, 34.8164, 15.9287, 4.26911, -68.4154, -4.47481
0.612, -1, -3.3887, 34.7474, 15.9547, 4.39281, -68.2706, -4.5674
0.616, -1, -3.31118, 34.6786, 15.9806, 4.51628, -68.126, -4.65982
0.62, -1, -3.23382, 34.6099, 16.0064, 4.63949, -67.9817, -4.75205
0.624, -1, -3.1566, 34.5413, 16.0322, 4.76247, -67.8377, -4.84411
0.628, -1, -3.07954, 34.4729, 16.0579, 4.88521, -67.694, -4.93598
0.632, -1, -3.00262, 34.4046, 16.0836, 5.0077, -67.5506, -5.02767
0.636, -1, -2.92586, 34.3364, 16.1092, 5.12995, -67.4074, -5.11918
0.64, -1, -2.84926, 34.2684, 16.1348, 5.25195, -67.2646, -5.2105
0.644, -1, -2.7728, 34.2005, 16.1604, 5.37371, -67.122, -5.30165
0.648, -1, -2.6965, 34.1328, 16.1858, 5.49523, -66.9797, -5.39261
0.652, -1, -2.62035, 34.0652, 16.2113, 5.6165, -66.8377, -5.48338
0.656, -1, -2.54436, 33.9977, 16.2366, 5.73753, -66.696, -5.57398
0.66, -1, -2.46852, 33.9303, 16.262, 5.85831, -66.5546, -5.66439
0.664, -1, -2.39283, 33.8631, 16.2872, 5.97884, -66.4135, -5.75461
0.668, -1, -2.3173, 33.7961, 16.3125, 6.09913, -66.2726, -5.84465
0.672, -1, -2.24192, 33.7291, 16.3376, 6.21917, -66.1321, -5.93451
0.676, -1, -2.1667, 33.6623, 16.3628, 6.33897, -65.9918, -6.02418
0.68, -1, -2.09163, 33.5957, 16.3878, 6.45851, -65.8518, -6.11367
0.684, -1, -2.01672, 33.5292, 16.4129, 6.57781, -65.7121, -6.20297
0.688, -1, -1.94196, 33.4628, 16.4378, 6.69687, -65.5727, -6.29208
0.692, -1, -1.86736, 33.3965, 16.4627, 6.81567, -65.4336, -6.38101
0.696, -1, -1.79291, 33.3304, 16.4876, 6.93423, -65.2948, -6.46976
0.7, -1, -1.71862, 33.2645, 16.5124, 7.05254, -65.1562, -6.55832
0.704, -1, -1.64448, 33.1986, 16.5372, 7.1706, -65.018, -6.64669
0.708, -1, -1.5705, 33.1329, 16.5619, 7.28841, -64.8801, -6.73488
0.712, -1, -1.49668, 33.0674, 16.5865, 7.40597, -64.7424, -6.82288
0.716, -1, -1.42301, 33.002, 16.6111, 7.52329, -64.605, -6.9107
0.72, -1, -1.34949, 32.9367, 16.6357, 7.64036, -64.468, -6.99833
0.724, -1, -1.27614, 32.8715, 16.6602, 7.75718, -64.3312, -7.08577
0.728, -1, -1.20293, 32.8065, 16.6846, 7.87375, -64.1947, -7.17303
0.732, -1, -1.12989, 32.7417, 16.709, 7.99007, -64.0585, -7.2601
0.736, -1, -1.057, 32.677, 16.7333, 8.10615, -63.9226, -7.34699
0.74, -1, -0.984259, 32.6124, 16.7576, 8.22197, -63.7869, -7.43369
0.744, -1, -0.911678, 32.5479, 16.7819, 8.33755, -63.6516, -7.52021
0.748, -1, -0.839252, 32.4836, 16.8061, 8.45288, -63.5166, -7.60653
0.752, -1, -0.766981, 32.4194, 16.8302, 8.56796, -63.3818, -7.69268
0.756, -1, -0.694864, 32.3554, 16.8543, 8.6828, -63.2474, -7.77864
0.76, -1, -0.622901, 32.2915, 16.8783, 8.79738, -63.1132, -7.86441
0.764, -1, -0.551092, 32.2277, 16.9023, 8.91172, -62.9793, -7.95
0.768, -1, -0.479437, 32.1641, 16.9262, 9.02582, -62.8457, -8.0354
0.772, -1, -0.407935, 32.1006, 16.9501, 9.13966, -62.7124, -8.12062
0.776, -1, -0.336586, 32.0373, 16.9739, 9.25326, -62.5794, -8.20566
0.78, -1, -0.26539, 31.9741, 16.9977, 9.36662, -62.4467, -8.29051
0.784, -1, -0.194346, 31.911, 17.0214, 9.47973, -62.3142, -8.37518
0.788, -1, -0.123455, 31.848, 17.0451, 9.5926, -62.182, -8.45966
0.792, -1, -0.0527154, 31.7852, 17.0687, 9.70522, -62.0502, -8.54397
0.796, -1, 0.0178725, 31.7226, 17.0923, 9.81761, -61.9186, -8.62809
0.8, -1, 0.0883091, 31.66, 17.1158, 9.92975, -61.7873, -8.71204
0.804, -1, 0.158595, 31.5976, 17.1393, 10.0417, -61.6562, -8.7958
0.808, -1, 0.22873, 31.5353, 17.1627, 10.1533, -61.5255, -8.87938
0.812, -1, 0.298716, 31.4732, 17.186, 10.2647, -61.395, -8.96279
0.816, -1, 0.368552, 31.4112, 17.2094, 10.3759, -61.2648, -9.04602
0.82, -1, 0.438239, 31.3493, 17.2326, 10.4869, -61.1349, -9.12907
0.824, -1, 0.507778, 31.2876, 17.2559, 10.5976, -61.0053, -9.21194
0.828, -1, 0.577169, 31.226, 17.279, 10.7081, -60.8759, -9.29464
0.832, -1, 0.646413, 31.1645, 17.3021, 10.8183, -60.7468, -9.37716
0.836, -1, 0.71551, 31.1031, 17.3252, 10.9283, -60.618, -9.45951
0.84, -1, 0.78446, 31.0419, 17.3482, 11.0381, -60.4895, -9.54168
0.844, -1, 0.853266, 30.9808, 17.3712, 11.1476, -60.3612, -9.62368
0.848, -1, 0.921925, 30.9199, 17.3941, 11.2569, -60.2332, -9.7055
0.852, -1, 0.990441, 30.859, 17.417, 11.366, -60.1055, -9.78716
0.856, -1, 1.05881, 30.7983, 17.4398, 11.4749, -59.9781, -9.86864
0.86, -1, 1.12704, 30.7378, 17.4626, 11.5835, -59.8509, -9.94995
0.864, -1, 1.19512, 30.6773, 17.4854, 11.6919, -59.7239, -10.0311
0.868, -1, 1.26307, 30.617, 17.508, 11.8001, -59.5973, -10.1121
0.872, -1, 1.33087, 30.5568, 17.5307, 11.908, -59.4709, -10.1929
0.876, -1, 1.39853, 30.4967, 17.5533, 12.0157, -59.3448, -10.2735
0.88, -1, 1.46604, 30.4368, 17.5758, 12.1232, -59.2189, -10.354
0.884, -1, 1.53342, 30.377, 17.5983, 12.2305, -59.0933, -10.4343
0.888, -1, 1.60066, 30.3173, 17.6208, 12.3375, -58.9679, -10.5144
0.892, -1, 1.66775, 30.2577, 17.6432, 12.4444, -58.8429, -10.5943
0.896, -1, 1.73471, 30.1982, 17.6655, 12.551, -58.718, -10.6741
0.9, -1, 1.80153, 30.1389, 17.6878, 12.6574, -58.5935, -10.7538
0.904, -1, 1.86821, 30.0797, 17.7101, 12.7635, -58.4692, -10.8332
0.908, -1, 1.93476, 30.0206, 17.7323, 12.8695, -58.3451, -10.9125
0.912, -1, 2.00117, 29.9617, 17.7545, 12.9752, -58.2213, -10.9917
0.916, -1, 2.06744, 29.9028, 17.7766, 13.0807, -58.0978, -11.0707
0.92, -1, 2.13357, 29.8441, 17.7987, 13.186, -57.9745, -11.1495
0.924, -1, 2.19957, 29.7855, 17.8207, 13.2911, -57.8514, -11.2281
0.928, -1, 2.26543, 29.727, 17.8427, 13.3959, -57.7287, -11.3066
0.932, -1, 2.33116, 29.6687, 17.8647, 13.5006, -57.6061, -11.385
0.936, -1, 2.39676, 29.6104, 17.8866, 13.605, -57.4838, -11.4631
0.94, -1, 2.46222, 29.5523, 17.9084, 13.7092, -57.3618, -11.5412
0.944, -1, 2.52755, 29.4943, 17.9303, 13.8133, -57.24, -11.619
0.948, -1, 2.59275, 29.4364, 17.952, 13.9171, -57.1185, -11.6967
0.952, -1, 2.65781, 29.3787, 17.9738, 14.0206, -56.9972, -11.7743
0.956, -1, 2.72274, 29.321, 17.9954, 14.124, -56.8761, -11.8516
0.96, -1, 2.78755, 29.2635, 18.0171, 14.2272, -56.7553, -11.9289
0.964, -1, 2.85222, 29.2061, 18.0387, 14.3302, -56.6348, -12.0059
0.968, -1, 2.91676, 29.1488, 18.0602, 14.4329, -56.5144, -12.0829
0.972, -1, 2.98117, 29.0916, 18.0817, 14.5355, -56.3944, -12.1596
0.976, -1, 3.04545, 29.0345, 18.1032, 14.6378, -56.2745, -12.2362
0.98, -1, 3.10961, 28.9775, 18.1246, 14.7399, -56.1549, -12.3127
0.984, -1, 3.17363, 28.9207, 18.146, 14.8419, -56.0356, -12.389
0.988, -1, 3.23753, 28.864, 18.1673, 14.9436, -55.9165, -12.4651
0.992, -1, 3.3013, 28.8074, 18.1886, 15.0451, -55.7976, -12.5411
0.996, -1, 3.36494, 28.7508, 18.2099, 15.1465, -55.6789, -12.617
1, -1, 3.42846, 28.6945, 18.2311, 15.2476, -55.5605, -12.6927
1.004, -1, 3.49185, 28.6382, 18.2523, 15.3485, -55.4423, -12.7682
1.008, -1, 3.55512, 28.582, 18.2734, 15.4492, -55.3244, -12.8436
1.012, -1, 3.61826, 28.5259, 18.2945, 15.5498, -55.2067, -12.9189
1.016, -1, 3.68127, 28.47, 18.3155, 15.6501, -55.0892, -12.994
1.02, -1, 3.74416, 28.4142, 18.3365, 15.7502, -54.972, -13.0689
1.024, -1, 3.80693, 28.3584, 18.3575, 15.8502, -54.855, -13.1437
1.027, -1, 3.86958, 28.3028, 18.3784, 15.9499, -54.7382, -13.2184
1.032, -1, 3.9321, 28.2473, 18.3993, 16.0494, -54.6216, -13.2929
1.036, -1, 3.9945, 28.1919, 18.4201, 16.1488, -54.5053, -13.3673
1.04, -1, 4.05678, 28.1366, 18.4409, 16.2479, -54.3892, -13.4415
1.044, -1, 4.11893, 28.0814, 18.4616, 16.3469, -54.2733, -13.5156
1.048, -1, 4.18097, 28.0263, 18.4824, 16.4457, -54.1577, -13.5895
1.052, -1, 4.24289, 27.9714, 18.503, 16.5442, -54.0422, -13.6633
1.055, -1, 4.30468, 27.9165, 18.5237, 16.6426, -53.927, -13.7369
1.06, -1, 4.36636, 27.8617, 18.5443, 16.7408, -53.8121, -13.8104
1.064, -1, 4.42792, 27.8071, 18.5648, 16.8388, -53.6973, -13.8838
1.068, -1, 4.48936, 27.7525, 18.5853, 16.9366, -53.5828, -13.957
1.072, -1, 4.55068, 27.6981, 18.6058, 17.0343, -53.4685, -14.0301
1.076, -1, 4.61188, 27.6438, 18.6262, 17.1317, -53.3544, -14.103
1.08, -1, 4.67297, 27.5895, 18.6466, 17.229, -53.2405, -14.1758
1.084, -1, 4.73394, 27.5354, 18.667, 17.326, -53.1268, -14.2485
1.088, -1, 4.7948, 27.4814, 18.6873, 17.4229, -53.0134, -14.321
1.091, -1, 4.85554, 27.4274, 18.7076, 17.5196, -52.9002, -14.3934
1.096, -1, 4.91617, 27.3736, 18.7278, 17.6161, -52.7871, -14.4656
1.1, -1, 4.97668, 27.3199, 18.7481, 17.7125, -52.6743, -14.5378
1.104, -1, 5.03708, 27.2663, 18.7682, 17.8086, -52.5618, -14.6097
1.108, -1, 5.09737, 27.2127, 18.7883, 17.9046, -52.4494, -14.6816
1.112, -1, 5.15754, 27.1593, 18.8084, 18.0004, -52.3372, -14.7533
1.116, -1, 5.2176, 27.106, 18.8285, 18.096, -52.2253, -14.8249
1.119, -1, 5.27755, 27.0528, 18.8485, 18.1915, -52.1135, -14.8963
1.124, -1, 5.33739, 26.9996, 18.8685, 18.2867, -52.0019, -14.9676
1.128, -1, 5.39712, 26.9466, 18.8884, 18.3818, -51.8906, -15.0388
1.132, -1, 5.45673, 26.8937, 18.9083, 18.4767, -51.7795, -15.1098
1.136, -1, 5.51624, 26.8408, 18.9282, 18.5715, -51.6685, -15.1807
1.14, -1, 5.57564, 26.7881, 18.948, 18.666, -51.5578, -15.2515
1.144, -1, 5.63493, 26.7355, 18.9678, 18.7604, -51.4473, -15.3222
1.147, -1, 5.69412, 26.6829, 18.9876, 18.8547, -51.337, -15.3927
1.152, -1, 5.75319, 26.6305, 19.0073, 18.9487, -51.2268, -15.4631
1.156, -1, 5.81216, 26.5781, 19.027, 19.0426, -51.1169, -15.5334
1.16, -1, 5.87103, 26.5259, 19.0467, 19.1363, -51.0072, -15.6035
1.164, -1, 5.92979, 26.4737, 19.0663, 19.2298, -50.8976, -15.6736
1.168, -1, 5.98844, 26.4216, 19.0859, 19.3232, -50.7883, -15.7435
1.172, -1, 6.04699, 26.3696, 19.1054, 19.4164, -50.6792, -15.8132
1.175, -1, 6.10543, 26.3177, 19.1249, 19.5095, -50.5702, -15.8829
1.18, -1, 6.16377, 26.266, 19.1444, 19.6024, -50.4614, -15.9524
1.184, -1, 6.22201, 26.2142, 19.1639, 19.6951, -50.3529, -16.0218
1.188, -1, 6.28015, 26.1626, 19.1833, 19.7876, -50.2445, -16.0911
1.192, -1, 6.33818, 26.1111, 19.2027, 19.88, -50.1363, -16.1603
1.196, -1, 6.39611, 26.0597, 19.222, 19.9723, -50.0283, -16.2293
1.2, -1, 6.45394, 26.0083, 19.2413, 20.0643, -49.9205, -16.2982
1.204, -1, 6.51167, 25.9571, 19.2606, 20.1562, -49.8129, -16.367
1.208, -1, 6.5693, 25.9059, 19.2798, 20.248, -49.7055, -16.4357
1.212, -1, 6.62683, 25.8548, 19.299, 20.3396, -49.5982, -16.5042
1.216, -1, 6.68426, 25.8038, 19.3182, 20.431, -49.4912, -16.5727
1.22, -1, 6.74159, 25.7529, 19.3374, 20.5223, -49.3843, -16.641
1.224, -1, 6.79882, 25.7021, 19.3565, 20.6134, -49.2776, -16.7092
1.228, -1, 6.85596, 25.6514, 19.3756, 20.7044, -49.1711, -16.7773
1.232, -1, 6.91299, 25.6008, 19.3946, 20.7952, -49.0648, -16.8453
1.236, -1, 6.96993, 25.5502, 19.4136, 20.8858, -48.9586, -16.9131
1.24, -1, 7.02678, 25.4997, 19.4326, 20.9763, -48.8526, -16.9809
1.244, -1, 7.08352, 25.4494, 19.4515, 21.0667, -48.7469, -17.0485
1.248, -1, 7.14018, 25.3991, 19.4705, 21.1569, -48.6413, -17.116
1.252, -1, 7.19673, 25.3488, 19.4893, 21.2469, -48.5358, -17.1834
1.256, -1, 7.25319, 25.2987, 19.5082, 21.3368, -48.4306, -17.2507
1.26, -1, 7.30956, 25.2487, 19.527, 21.4266, -48.3255, -17.3179
1.264, -1, 7.36583, 25.1987, 19.5458, 21.5161, -48.2206, -17.385
1.267, -1, 7.42201, 25.1488, 19.5646, 21.6056, -48.1158, -17.4519
1.272, -1, 7.4781, 25.099, 19.5833, 21.6949, -48.0113, -17.5188
1.276, -1, 7.53409, 25.0493, 19.602, 21.784, -47.9069, -17.5855
1.28, -1, 7.58999, 24.9997, 19.6207, 21.873, -47.8027, -17.6521
1.284, -1, 7.6458, 24.9501, 19.6393, 21.9619, -47.6986, -17.7186
1.288, -1, 7.70152, 24.9007, 19.6579, 22.0506, -47.5948, -17.785
1.292, -1, 7.75715, 24.8513, 19.6765, 22.1392, -47.4911, -17.8513
1.295, -1, 7.81268, 24.802, 19.695, 22.2276, -47.3875, -17.9175
1.3, -1, 7.86813, 24.7528, 19.7135, 22.3159, -47.2842, -17.9836
1.304, -1, 7.92348, 24.7036, 19.732, 22.404, -47.181, -18.0496
1.308, -1, 7.97875, 24.6545, 19.7505, 22.492, -47.0779, -18.1154
1.312, -1, 8.03393, 24.6055, 19.7689, 22.5798, -46.9751, -18.1812
1.316, -1, 8.08901, 24.5566, 19.7873, 22.6675, -46.8724, -18.2468
1.32, -1, 8.14401, 24.5078, 19.8057, 22.7551, -46.7699, -18.3124
1.324, -1, 8.19893, 24.4591, 19.824, 22.8425, -46.6675, -18.3778
1.328, -1, 8.25375, 24.4104, 19.8423, 22.9298, -46.5653, -18.4432
1.332, -1, 8.30849, 24.3618, 19.8606, 23.017, -46.4632, -18.5084
1.336, -1, 8.36314, 24.3133, 19.8788, 23.104, -46.3614, -18.5735
1.34, -1, 8.4177, 24.2648, 19.8971, 23.1909, -46.2596, -18.6386
1.344, -1, 8.47218, 24.2165, 19.9153, 23.2776, -46.1581, -18.7035
1.348, -1, 8.52657, 24.1682, 19.9334, 23.3642, -46.0567, -18.7683
1.352, -1, 8.58088, 24.1199, 19.9515, 23.4507, -45.9554, -18.833
1.356, -1, 8.6351, 24.0718, 19.9697, 23.537, -45.8543, -18.8976
1.36, -1, 8.68923, 24.0237, 19.9877, 23.6232, -45.7534, -18.9622
1.364, -1, 8.74328, 23.9757, 20.0058, 23.7092, -45.6526, -19.0266
1.368, -1, 8.79725, 23.9278, 20.0238, 23.7952, -45.552, -19.0909
1.372, -1, 8.85114, 23.88, 20.0418, 23.881, -45.4516, -19.1551
1.376, -1, 8.90494, 23.8322, 20.0598, 23.9666, -45.3513, -19.2192
1.38, -1, 8.95866, 23.7845, 20.0777, 24.0521, -45.2511, -19.2833
1.384, -1, 9.01229, 23.7369, 20.0956, 24.1375, -45.1511, -19.3472
1.388, -1, 9.06584, 23.6894, 20.1135, 24.2228, -45.0513, -19.411
1.392, -1, 9.11932, 23.6419, 20.1314, 24.3079, -44.9516, -19.4747
1.396, -1, 9.1727, 23.5945, 20.1492, 24.393, -44.8521, -19.5384
1.4, -1, 9.22601, 23.5472, 20.167, 24.4778, -44.7527, -19.6019
1.404, -1, 9.27924, 23.4999, 20.1848, 24.5626, -44.6535, -19.6653
1.408, -1, 9.33239, 23.4527, 20.2025, 24.6472, -44.5544, -19.7287
1.412, -1, 9.38546, 23.4056, 20.2202, 24.7317, -44.4554, -19.7919
1.416, -1, 9.43844, 23.3585, 20.2379, 24.8161, -44.3567, -19.8551
1.42, -1, 9.49135, 23.3116, 20.2556, 24.9003, -44.258, -19.9181
1.424, -1, 9.54418, 23.2647, 20.2732, 24.9844, -44.1595, -19.9811
1.428, -1, 9.59693, 23.2178, 20.2908, 25.0684, -44.0612, -20.044
1.432, -1, 9.6496, 23.1711, 20.3084, 25.1523, -43.963, -20.1067
1.436, -1, 9.7022, 23.1244, 20.326, 25.236, -43.865, -20.1694
1.44, -1, 9.75472, 23.0777, 20.3435, 25.3196, -43.767, -20.232
1.444, -1, 9.80716, 23.0312, 20.361, 25.4031, -43.6693, -20.2945
1.448, -1, 9.85952, 22.9847, 20.3785, 25.4865, -43.5717, -20.3569
1.452, -1, 9.91181, 22.9383, 20.396, 25.5697, -43.4742, -20.4192
1.456, -1, 9.96403, 22.8919, 20.4134, 25.6528, -43.3769, -20.4814
1.46, -1, 10.0162, 22.8456, 20.4308, 25.7358, -43.2797, -20.5436
1.464, -1, 10.0682, 22.7994, 20.4482, 25.8187, -43.1826, -20.6056
1.468, -1, 10.1202, 22.7533, 20.4656, 25.9015, -43.0857, -20.6676
1.472, -1, 10.1721, 22.7072, 20.4829, 25.9841, -42.989, -20.7294
1.476, -1, 10.224, 22.6612, 20.5002, 26.0666, -42.8923, -20.7912
1.48, -1, 10.2757, 22.6152, 20.5175, 26.149, -42.7958, -20.8529
1.484, -1, 10.3274, 22.5693, 20.5348, 26.2313, -42.6995, -20.9145
1.488, -1, 10.379, 22.5235, 20.552, 26.3135, -42.6033, -20.976
1.492, -1, 10.4306, 22.4777, 20.5692, 26.3956, -42.5072, -21.0374
1.496, -1, 10.482, 22.432, 20.5864, 26.4775, -42.4113, -21.0987
1.5, -1, 10.5334, 22.3864, 20.6035, 26.5593, -42.3154, -21.16
1.504, -1, 10.5848, 22.3408, 20.6207, 26.641, -42.2198, -21.2212
1.508, -1, 10.636, 22.2953, 20.6378, 26.7226, -42.1242, -21.2822
1.512, -1, 10.6872, 22.2499, 20.6549, 26.8041, -42.0288, -21.3432
1.516, -1, 10.7383, 22.2045, 20.6719, 26.8855, -41.9336, -21.4041
1.52, -1, 10.7893, 22.1592, 20.689, 26.9667, -41.8384, -21.4649
1.524, -1, 10.8403, 22.114, 20.706, 27.0479, -41.7434, -21.5257
1.528, -1, 10.8912, 22.0688, 20.723, 27.1289, -41.6485, -21.5863
1.532, -1, 10.942, 22.0237, 20.74, 27.2098, -41.5538, -21.6469
1.536, -1, 10.9928, 21.9786, 20.7569, 27.2906, -41.4592, -21.7074
1.54, -1, 11.0435, 21.9336, 20.7738, 27.3713, -41.3647, -21.7678
1.544, -1, 11.0941, 21.8887, 20.7908, 27.4519, -41.2703, -21.8281
1.548, -1, 11.1446, 21.8438, 20.8076, 27.5324, -41.1761, -21.8884
1.552, -1, 11.1951, 21.799, 20.8245, 27.6127, -41.082, -21.9485
1.556, -1, 11.2455, 21.7542, 20.8413, 27.693, -40.988, -22.0086
1.56, -1, 11.2959, 21.7095, 20.8581, 27.7732, -40.8941, -22.0686
1.564, -1, 11.3462, 21.6649, 20.8749, 27.8532, -40.8004, -22.1285
1.568, -1, 11.3964, 21.6203, 20.8917, 27.9331, -40.7068, -22.1884
1.572, -1, 11.4465, 21.5758, 20.9084, 28.013, -40.6133, -22.2481
1.576, -1, 11.4966, 21.5313, 20.9251, 28.0927, -40.52, -22.3078
1.58, -1, 11.5466, 21.4869, 20.9418, 28.1723, -40.4268, -22.3674
1.584, -1, 11.5965, 21.4426, 20.9585, 28.2518, -40.3336, -22.4269
1.588, -1, 11.6464, 21.3983, 20.9752, 28.3313, -40.2407, -22.4864
1.592, -1, 11.6962, 21.3541, 20.9918, 28.4106, -40.1478, -22.5457
1.596, -1, 11.746, 21.3099, 21.0084, 28.4898, -40.0551, -22.605
1.6, -1, 11.7957, 21.2658, 21.025, 28.5689, -39.9624, -22.6642
1.604, -1, 11.8453, 21.2217, 21.0416, 28.6479, -39.8699, -22.7234
1.608, -1, 11.8948, 21.1778, 21.0581, 28.7268, -39.7776, -22.7824
1.612, -1, 11.9443, 21.1338, 21.0747, 28.8055, -39.6853, -22.8414
1.616, -1, 11.9938, 21.0899, 21.0912, 28.8842, -39.5932, -22.9003
1.62, -1, 12.0431, 21.0461, 21.1076, 28.9628, -39.5011, -22.9591
1.624, -1, 12.0924, 21.0023, 21.1241, 29.0413, -39.4092, -23.0179
1.628, -1, 12.1417, 20.9586, 21.1405, 29.1197, -39.3174, -23.0765
1.632, -1, 12.1908, 20.915, 21.157, 29.198, -39.2258, -23.1352
1.636, -1, 12.2399, 20.8714, 21.1734, 29.2762, -39.1342, -23.1937
1.64, -1, 12.289, 20.8278, 21.1897, 29.3543, -39.0428, -23.2521
1.644, -1, 12.338, 20.7843, 21.2061, 29.4323, -38.9515, -23.3105
1.648, -1, 12.3869, 20.7409, 21.2224, 29.5102, -38.8603, -23.3688
1.652, -1, 12.4358, 20.6975, 21.2388, 29.588, -38.7692, -23.4271
1.656, -1, 12.4846, 20.6542, 21.2551, 29.6657, -38.6782, -23.4852
1.66, -1, 12.5333, 20.6109, 21.2713, 29.7433, -38.5873, -23.5433
1.664, -1, 12.582, 20.5677, 21.2876, 29.8208, -38.4966, -23.6013
1.668, -1, 12.6306, 20.5245, 21.3038, 29.8982, -38.4059, -23.6593
1.672, -1, 12.6792, 20.4814, 21.32, 29.9755, -38.3154, -23.7171
1.676, -1, 12.7277, 20.4384, 21.3362, 30.0527, -38.225, -23.7749
1.68, -1, 12.7761, 20.3953, 21.3524, 30.1298, -38.1347, -23.8327
1.684, -1, 12.8245, 20.3524, 21.3686, 30.2069, -38.0445, -23.8903
1.688, -1, 12.8728, 20.3095, 21.3847, 30.2838, -37.9544, -23.9479
1.692, -1, 12.9211, 20.2666, 21.4008, 30.3606, -37.8644, -24.0054
1.696, -1, 12.9693, 20.2238, 21.4169, 30.4374, -37.7746, -24.0629
1.7, -1, 13.0174, 20.1811, 21.433, 30.514, -37.6848, -24.1203
1.704, -1, 13.0655, 20.1384, 21.449, 30.5906, -37.5951, -24.1776
1.708, -1, 13.1136, 20.0958, 21.4651, 30.6671, -37.5056, -24.2348
1.712, -1, 13.1615, 20.0532, 21.4811, 30.7435, -37.4162, -24.292
1.716, -1, 13.2094, 20.0106, 21.4971, 30.8197, -37.3269, -24.3491
1.72, -1, 13.2573, 19.9681, 21.5131, 30.8959, -37.2376, -24.4061
1.724, -1, 13.3051, 19.9257, 21.529, 30.972, -37.1485, -24.4631
1.728, -1, 13.3528, 19.8833, 21.545, 31.0481, -37.0595, -24.52
1.732, -1, 13.4005, 19.841, 21.5609, 31.124, -36.9706, -24.5768
1.736, -1, 13.4482, 19.7987, 21.5768, 31.1998, -36.8818, -24.6336
1.74, -1, 13.4957, 19.7565, 21.5927, 31.2756, -36.7931, -24.6903
1.744, -1, 13.5433, 19.7143, 21.6086, 31.3512, -36.7045, -24.7469
1.748, -1, 13.5907, 19.6721, 21.6244, 31.4268, -36.6161, -24.8035
1.752, -1, 13.6381, 19.63, 21.6402, 31.5023, -36.5277, -24.86
1.756, -1, 13.6855, 19.588, 21.6561, 31.5776, -36.4394, -24.9164
1.76, -1, 13.7328, 19.546, 21.6719, 31.6529, -36.3512, -24.9728
1.764, -1, 13.78, 19.5041, 21.6876, 31.7282, -36.2632, -25.0291
1.768, -1, 13.8272, 19.4622, 21.7034, 31.8033, -36.1752, -25.0853
1.772, -1, 13.8743, 19.4203, 21.7191, 31.8783, -36.0873, -25.1415
1.776, -1, 13.9214, 19.3785, 21.7348, 31.9533, -35.9996, -25.1976
1.78, -1, 13.9684, 19.3368, 21.7505, 32.0281, -35.9119, -25.2536
1.784, -1, 14.0154, 19.2951, 21.7662, 32.1029, -35.8243, -25.3096
1.788, -1, 14.0623, 19.2534, 21.7819, 32.1776, -35.7369, -25.3655
1.792, -1, 14.1092, 19.2118, 21.7975, 32.2522, -35.6495, -25.4214
1.796, -1, 14.156, 19.1703, 21.8132, 32.3268, -35.5622, -25.4772
1.8, -1, 14.2027, 19.1288, 21.8288, 32.4012, -35.4751, -25.5329
1.804, -1, 14.2494, 19.0873, 21.8444, 32.4756, -35.388, -25.5886
1.808, -1, 14.2961, 19.0459, 21.86, 32.5498, -35.301, -25.6442
1.812, -1, 14.3427, 19.0045, 21.8755, 32.624, -35.2142, -25.6997
1.816, -1, 14.3892, 18.9632, 21.8911, 32.6981, -35.1274, -25.7552
1.82, -1, 14.4357, 18.9219, 21.9066, 32.7722, -35.0407, -25.8106
1.824, -1, 14.4822, 18.8807, 21.9221, 32.8461, -34.9541, -25.8659
1.828, -1, 14.5286, 18.8395, 21.9376, 32.92, -34.8676, -25.9212
1.832, -1, 14.5749, 18.7983, 21.9531, 32.9938, -34.7813, -25.9764
1.836, -1, 14.6212, 18.7572, 21.9685, 33.0675, -34.695, -26.0316
1.84, -1, 14.6674, 18.7162, 21.984, 33.1411, -34.6088, -26.0867
1.844, -1, 14.7136, 18.6752, 21.9994, 33.2146, -34.5227, -26.1418
1.848, -1, 14.7598, 18.6342, 22.0148, 33.2881, -34.4367, -26.1967
1.852, -1, 14.8058, 18.5933, 22.0302, 33.3614, -34.3507, -26.2517
1.856, -1, 14.8519, 18.5524, 22.0456, 33.4347, -34.2649, -26.3065
1.86, -1, 14.8979, 18.5116, 22.0609, 33.5079, -34.1792, -26.3613
1.864, -1, 14.9438, 18.4708, 22.0762, 33.5811, -34.0936, -26.4161
1.868, -1, 14.9897, 18.4301, 22.0916, 33.6541, -34.008, -26.4708
1.872, -1, 15.0355, 18.3894, 22.1069, 33.7271, -33.9226, -26.5254
1.876, -1, 15.0813, 18.3487, 22.1222, 33.8, -33.8372, -26.58
1.88, -1, 15.127, 18.3081, 22.1374, 33.8728, -33.7519, -26.6345
1.884, -1, 15.1727, 18.2676, 22.1527, 33.9456, -33.6668, -26.6889
1.888, -1, 15.2184, 18.227, 22.1679, 34.0182, -33.5817, -26.7433
1.892, -1, 15.264, 18.1866, 22.1832, 34.0908, -33.4967, -26.7976
1.896, -1, 15.3095, 18.1461, 22.1984, 34.1633, -33.4118, -26.8519
1.9, -1, 15.355, 18.1057, 22.2136, 34.2358, -33.3269, -26.9062
1.904, -1, 15.4004, 18.0654, 22.2287, 34.3081, -33.2422, -26.9603
1.908, -1, 15.4458, 18.0251, 22.2439, 34.3804, -33.1576, -27.0144
1.912, -1, 15.4912, 17.9848, 22.259, 34.4526, -33.073, -27.0685
1.916, -1, 15.5365, 17.9446, 22.2742, 34.5248, -32.9886, -27.1225
1.92, -1, 15.5818, 17.9044, 22.2893, 34.5968, -32.9042, -27.1764
1.924, -1, 15.627, 17.8643, 22.3044, 34.6688, -32.8199, -27.2303
1.928, -1, 15.6721, 17.8242, 22.3195, 34.7407, -32.7357, -27.2841
1.932, -1, 15.7173, 17.7841, 22.3345, 34.8126, -32.6516, -27.3379
1.936, -1, 15.7623, 17.7441, 22.3496, 34.8843, -32.5676, -27.3916
1.94, -1, 15.8073, 17.7041, 22.3646, 34.956, -32.4836, -27.4453
1.944, -1, 15.8523, 17.6642, 22.3796, 35.0276, -32.3997, -27.4989
1.948, -1, 15.8973, 17.6243, 22.3946, 35.0992, -32.316, -27.5524
1.952, -1, 15.9422, 17.5844, 22.4096, 35.1707, -32.2323, -27.6059
1.956, -1, 15.987, 17.5446, 22.4246, 35.2421, -32.1487, -27.6594
1.96, -1, 16.0318, 17.5048, 22.4396, 35.3134, -32.0652, -27.7128
1.964, -1, 16.0765, 17.4651, 22.4545, 35.3846, -31.9817, -27.7661
1.968, -1, 16.1212, 17.4254, 22.4694, 35.4558, -31.8984, -27.8194
1.972, -1, 16.1659, 17.3858, 22.4844, 35.5269, -31.8151, -27.8726
1.976, -1, 16.2105, 17.3461, 22.4993, 35.598, -31.7319, -27.9258
1.98, -1, 16.2551, 17.3066, 22.5141, 35.6689, -31.6488, -27.9789
1.984, -1, 16.2996, 17.267, 22.529, 35.7398, -31.5658, -28.032
1.988, -1, 16.3441, 17.2275, 22.5439, 35.8107, -31.4829, -28.085
1.992, -1, 16.3886, 17.1881, 22.5587, 35.8814, -31.4, -28.138
1.996, -1, 16.433, 17.1487, 22.5735, 35.9521, -31.3173, -28.1909
1.999, -1, 16.4773, 17.1093, 22.5883, 36.0228, -31.2346, -28.2438
2.004, -1, 16.5216, 17.0699, 22.6031, 36.0933, -31.1519, -28.2966
2.008, -1, 16.5659, 17.0306, 22.6179, 36.1638, -31.0694, -28.3493
2.012, -1, 16.6101, 16.9914, 22.6327, 36.2342, -30.987, -28.4021
2.015, -1, 16.6543, 16.9521, 22.6474, 36.3046, -30.9046, -28.4547
2.019, -1, 16.6984, 16.9129, 22.6622, 36.3748, -30.8223, -28.5073
2.024, -1, 16.7425, 16.8738, 22.6769, 36.445, -30.7401, -28.5599
2.028, -1, 16.7866, 16.8347, 22.6916, 36.5152, -30.658, -28.6124
2.031, -1, 16.8306, 16.7956, 22.7063, 36.5853, -30.5759, -28.6648
2.036, -1, 16.8746, 16.7566, 22.721, 36.6553, -30.4939, -28.7172
2.04, -1, 16.9185, 16.7176, 22.7357, 36.7252, -30.412, -28.7696
2.044, -1, 16.9624, 16.6786, 22.7503, 36.7951, -30.3302, -28.8219
2.048, -1, 17.0062, 16.6397, 22.765, 36.8649, -30.2485, -28.8742
2.051, -1, 17.05, 16.6008, 22.7796, 36.9346, -30.1668, -28.9264
2.055, -1, 17.0938, 16.5619, 22.7942, 37.0043, -30.0852, -28.9785
2.06, -1, 17.1375, 16.5231, 22.8088, 37.0739, -30.0037, -29.0306
2.064, -1, 17.1811, 16.4844, 22.8234, 37.1435, -29.9223, -29.0827
2.068, -1, 17.2244, 16.4458, 22.8379, 37.2129, -29.841, -29.1347
2.071, -1, 17.2671, 16.4077, 22.8523, 37.2823, -29.7597, -29.1866
2.076, -1, 17.3088, 16.3701, 22.8666, 37.3515, -29.6787, -29.2384
2.08, -1, 17.3495, 16.3335, 22.8807, 37.4204, -29.5981, -29.29
2.084, -1, 17.3888, 16.2979, 22.8945, 37.4888, -29.518, -29.3412
2.087, -1, 17.4267, 16.2635, 22.9079, 37.5564, -29.4389, -29.3918
2.092, -1, 17.4632, 16.2306, 22.921, 37.6229, -29.3611, -29.4417
2.096, -1, 17.4983, 16.1992, 22.9337, 37.6879, -29.2851, -29.4903
2.1, -1, 17.5321, 16.1694, 22.9459, 37.7508, -29.2115, -29.5374
2.104, -1, 17.5644, 16.1411, 22.9576, 37.8112, -29.1408, -29.5827
2.107, -1, 17.5951, 16.1145, 22.9686, 37.8686, -29.0737, -29.6257
2.111, -1, 17.624, 16.0896, 22.9791, 37.9226, -29.0106, -29.6661
2.116, -1, 17.6513, 16.0662, 22.9888, 37.9726, -28.9521, -29.7035
2.12, -1, 17.6768, 16.044, 22.9978, 38.0183, -28.8986, -29.7378
2.124, -1, 17.7009, 16.023, 23.0061, 38.0595, -28.8504, -29.7686
2.127, -1, 17.7234, 16.0029, 23.0136, 38.0959, -28.8078, -29.7958
2.132, -1, 17.7446, 15.9838, 23.0205, 38.1275, -28.7707, -29.8195
2.136, -1, 17.7642, 15.9657, 23.0267, 38.1546, -28.739, -29.8397
2.14, -1, 17.7823, 15.9489, 23.0321, 38.1772, -28.7125, -29.8566
2.143, -1, 17.7986, 15.9337, 23.0368, 38.1957, -28.6907, -29.8705
2.148, -1, 17.8131, 15.9202, 23.0409, 38.2106, -28.6732, -29.8816
2.152, -1, 17.8259, 15.9085, 23.0443, 38.2223, -28.6594, -29.8904
2.156, -1, 17.8371, 15.8987, 23.0471, 38.2313, -28.6488, -29.8971
2.16, -1, 17.8467, 15.8905, 23.0494, 38.2381, -28.6409, -29.9021
2.163, -1, 17.855, 15.8838, 23.0513, 38.243, -28.635, -29.9058
2.168, -1, 17.8619, 15.8785, 23.0527, 38.2465, -28.6308, -29.9084
2.172, -1, 17.8674, 15.8744, 23.0538, 38.249, -28.6279, -29.9103
2.176, 2, 17.8716, 15.8714, 23.0546, 38.2507, -28.6258, -29.9115
2.179, 2, 17.8747, 15.8692, 23.0552, 38.2519, -28.6245, -29.9124
2.184, 2, 17.8769, 15.8677, 23.0556, 38.2527, -28.6235, -29.913
2.188, 2, 17.8784, 15.8667, 23.0558, 38.2532, -28.6229, -29.9134
2.192, 2, 17.8794, 15.866, 23.056, 38.2536, -28.6224, -29.9137
2.196, 2, 17.8801, 15.8655, 23.0561, 38.2538, -28.6221, -29.9138
2.199, 2, 17.8806, 15.8652, 23.0562, 38.254, -28.6219, -29.914
2.204, 2, 17.8809, 15.865, 23.0563, 38.2541, -28.6218, -29.9141
2.208, 2, 17.8811, 15.8649, 23.0563, 38.2542, -28.6217, -29.9141
2.212, 2, 17.8813, 15.8648, 23.0563, 38.2543, -28.6217, -29.9141
2.216, 2, 17.8814, 15.8647, 23.0564, 38.2543, -28.6216, -29.9142
2.219, 2, 17.8814, 15.8646, 23.0564, 38.2543, -28.6216, -29.9142
2.224, 2, 17.8815, 15.8646, 23.0564, 38.2543, -28.6216, -29.9142
2.228, 2, 17.8815, 15.8646, 23.0564, 38.2543, -28.6215, -29.9142
2.232, 2, 17.8815, 15.8646, 23.0564, 38.2543, -28.6215, -29.9142
2.235, 2, 17.8815, 15.8646, 23.0564, 38.2544, -28.6215, -29.9142
2.24, 2, 17.8815, 15.8646, 23.0564, 38.2544, -28.6215, -29.9142
2.244, 2, 17.8816, 15.8646, 23.0564, 38.2544, -28.6215, -29.9142
2.248, 2, 17.8816, 15.8646, 23.0564, 38.2544, -28.6215, -29.9142
2.252, 2, 17.8816, 15.8646, 23.0564, 38.2544, -28.6215, -29.9142
2.255, 2, 17.8816, 15.8646, 23.0564, 38.2544, -28.6215, -29.9142
2.259, 2, 17.8816, 15.8646, 23.0564, 38.2544, -28.6215, -29.9142
2.264, 2, 17.8816, 15.8645, 23.0564, 38.2544, -28.6215, -29.9142
2.268, 2, 17.8816, 15.8645, 23.0564, 38.2544, -28.6215, -29.9142
2.272, 2, 17.8816, 15.8645, 23.0564, 38.2544, -28.6215, -29.9142
2.275, 2, 17.8816, 15.8645, 23.0564, 38.2544, -28.6215, -29.9142
2.28, 2, 17.8816, 15.8645, 23.0564, 38.2544, -28.6215, -29.9142
2.284, 2, 17.8816, 15.8645, 23.0564, 38.2544, -28.6215, -29.9142
2.288, 2, 17.8816, 15.8645, 23.0564, 38.2544, -28.6215, -29.9142
2.291, 2, 17.8816, 15.8645, 23.0564, 38.2544, -28.6215, -29.9142
2.296, 2, 17.8816, 15.8645, 23.0564, 38.2544, -28.6215, -29.9142
2.3, 2, 17.8816, 15.8645, 23.0564, 38.2544, -28.6215, -29.9142
2.304, 2, 17.8816, 15.8645, 23.0564, 38.2544, -28.6215, -29.9142
2.308, 2, 17.8816, 15.8645, 23.0564, 38.2544, -28.6215, -29.9142
2.311, 2, 17.8816, 15.8645, 23.0564, 38.2544, -28.6215, -29.9142
2.316, 2, 17.8816, 15.8645, 23.0564, 38.2544, -28.6215, -29.9142
2.32, 2, 17.8816, 15.8645, 23.0564, 38.2544, -28.6215, -29.9142
2.324, 2, 17.8816, 15.8645, 23.0564, 38.2544, -28.6215, -29.9142
2.328, 2, 17.8816, 15.8645, 23.0564, 38.2544, -28.6215, -29.9142
2.331, 2, 17.8816, 15.8645, 23.0564, 38.2544, -28.6215, -29.9142
2.336, 2, 17.8816, 15.8645, 23.0564, 38.2544, -28.6215, -29.9142
2.34, 2, 17.8816, 15.8645, 23.0564, 38.2544, -28.6215, -29.9142
2.344, 2, 17.8816, 15.8645, 23.0564, 38.2544, -28.6215, -29.9142
2.347, 2, 17.8816, 15.8645, 23.0564, 38.2544, -28.6215, -29.9142
2.352, 2, 17.8816, 15.8645, 23.0564, 38.2544, -28.6215, -29.9142
2.356, 2, 17.8816, 15.8645, 23.0564, 38.2544, -28.6215, -29.9142
2.36, 2, 17.8816, 15.8645, 23.0564, 38.2544, -28.6215, -29.9142
2.364, 2, 17.8816, 15.8645, 23.0564, 38.2544, -28.6215, -29.9142
2.367, 2, 17.8816, 15.8645, 23.0564, 38.2544, -28.6215, -29.9142
2.372, 2, 17.8816, 15.8645, 23.0564, 38.2544, -28.6215, -29.9142
2.376, 2, 17.8816, 15.8645, 23.0564, 38.2544, -28.6215, -29.9142
2.38, 2, 17.8816, 15.8645, 23.0564, 38.2544, -28.6215, -29.9142
2.383, 2, 17.8816, 15.8645, 23.0564, 38.2544, -28.6215, -29.9142
2.388, 2, 17.8816, 15.8645, 23.0564, 38.2544, -28.6215, -29.9142
2.392, 2, 17.8816, 15.8645, 23.0564, 38.2544, -28.6215, -29.9142
2.396, 2, 17.8816, 15.8645, 23.0564, 38.2544, -28.6215, -29.9142
2.4, 2, 17.8816, 15.8645, 23.0564, 38.2544, -28.6215, -29.9142
2.403, 2, 17.8816, 15.8645, 23.0564, 38.2544, -28.6215, -29.9142
2.408, 2, 17.8816, 15.8645, 23.0564, 38.2544, -28.6215, -29.9142
2.412, 2, 17.8816, 15.8645, 23.0564, 38.2544, -28.6215, -29.9142
2.416, 2, 17.8816, 15.8645, 23.0564, 38.2544, -28.6215, -29.9142
2.42, 2, 17.8816, 15.8645, 23.0564, 38.2544, -28.6215, -29.9142
2.423, 2, 17.8816, 15.8645, 23.0564, 38.2544, -28.6215, -29.9142
2.428, 2, 17.8816, 15.8645, 23.0564, 38.2544, -28.6215, -29.9142
2.432, 2, 17.8816, 15.8645, 23.0564, 38.2544, -28.6215, -29.9142
2.436, 2, 17.8816, 15.8645, 23.0564, 38.2544, -28.6215, -29.9142
2.439, 2, 17.8816, 15.8645, 23.0564, 38.2544, -28.6215, -29.9142
2.444, 2, 17.8816, 15.8645, 23.0564, 38.2544, -28.6215, -29.9142
2.448, 2, 17.8816, 15.8645, 23.0564, 38.2544, -28.6215, -29.9142
2.452, 2, 17.8816, 15.8645, 23.0564, 38.2544, -28.6215, -29.9142
2.456, 2, 17.8816, 15.8645, 23.0564, 38.2544, -28.6215, -29.9142
2.459, 2, 17.8816, 15.8645, 23.0564, 38.2544, -28.6215, -29.9142
2.464, 2, 17.8816, 15.8645, 23.0564, 38.2544, -28.6215, -29.9142
2.468, 2, 17.8816, 15.8645, 23.0564, 38.2544, -28.6215, -29.9142
2.472, 2, 17.8816, 15.8645, 23.0564, 38.2544, -28.6215, -29.9142
2.476, 2, 17.8816, 15.8645, 23.0564, 38.2544, -28.6215, -29.9142
2.479, 2, 17.8816, 15.8645, 23.0564, 38.2544, -28.6215, -29.9142
2.484, 2, 17.8816, 15.8645, 23.0564, 38.2544, -28.6215, -29.9142
2.488, 2, 17.8816, 15.8645, 23.0564, 38.2544, -28.6215, -29.9142
2.492, 2, 17.8816, 15.8645, 23.0564, 38.2544, -28.6215, -29.9142
2.495, 2, 17.8816, 15.8645, 23.0564, 38.2544, -28.6215, -29.9142
2.5, 2, 17.8816, 15.8645, 23.0564, 38.2544, -28.6215, -29.9142
2.504, 2, 17.8816, 15.8645, 23.0564, 38.2544, -28.6215, -29.9142
2.508, 2, 17.8816, 15.8645, 23.0564, 38.2544, -28.6215, -29.9142
2.512, 2, 17.8816, 15.8645, 23.0564, 38.2544, -28.6215, -29.9142
2.515, 2, 17.8816, 15.8645, 23.0564, 38.2544, -28.6215, -29.9142
2.52, 2, 17.8816, 15.8645, 23.0564, 38.2544, -28.6215, -29.9142
2.524, 2, 17.8816, 15.8645, 23.0564, 38.2544, -28.6215, -29.9142
2.528, 2, 17.8816, 15.8645, 23.0564, 38.2544, -28.6215, -29.9142
2.531, 2, 17.8816, 15.8645, 23.0564, 38.2544, -28.6215, -29.9142
2.536, 2, 17.8816, 15.8645, 23.0564, 38.2544, -28.6215, -29.9142
2.54, 2, 17.8816, 15.8645, 23.0564, 38.2544, -28.6215, -29.9142
2.544, 2, 17.8816, 15.8645, 23.0564, 38.2544, -28.6215, -29.9142
2.548, 2, 17.8816, 15.8645, 23.0564, 38.2544, -28.6215, -29.9142
2.551, 2, 17.8816, 15.8645, 23.0564, 38.2544, -28.6215, -29.9142
2.556, 2, 17.8816, 15.8645, 23.0564, 38.2544, -28.6215, -29.9142
2.56, 2, 17.8816, 15.8645, 23.0564, 38.2544, -28.6215, -29.9142
2.564, 2, 17.8816, 15.8645, 23.0564, 38.2544, -28.6215, -29.9142
2.568, 2, 17.8816, 15.8645, 23.0564, 38.2544, -28.6215, -29.9142
2.571, 2, 17.8816, 15.8645, 23.0564, 38.2544, -28.6215, -29.9142
2.576, 2, 17.8816, 15.8645, 23.0564, 38.2544, -28.6215, -29.9142
2.58, 2, 17.8816, 15.8645, 23.0564, 38.2544, -28.6215, -29.9142
2.584, 2, 17.8816, 15.8645, 23.0564, 38.2544, -28.6215, -29.9142
2.587, 2, 17.8816, 15.8645, 23.0564, 38.2544, -28.6215, -29.9142
2.592, 2, 17.8816, 15.8645, 23.0564, 38.2544, -28.6215, -29.9142
2.596, 2, 17.8816, 15.8645, 23.0564, 38.2544, -28.6215, -29.9142
2.6, 2, 17.8816, 15.8645, 23.0564, 38.2544, -28.6215, -29.9142
2.604, 2, 17.8816, 15.8645, 23.0564, 38.2544, -28.6215, -29.9142
2.607, 2, 17.8816, 15.8645, 23.0564, 38.2544, -28.6215, -29.9142
2.612, 2, 17.8816, 15.8645, 23.0564, 38.2544, -28.6215, -29.9142
2.616, 2, 17.8816, 15.8645, 23.0564, 38.2544, -28.6215, -29.9142
2.62, 2, 17.8816, 15.8645, 23.0564, 38.2544, -28.6215, -29.9142
2.624, 2, 17.8816, 15.8645, 23.0564, 38.2544, -28.6215, -29.9142
2.627, 2, 17.8816, 15.8645, 23.0564, 38.2544, -28.6215, -29.9142
2.632, 2, 17.8816, 15.8645, 23.0564, 38.2544, -28.6215, -29.9142
2.636, 2, 17.8816, 15.8645, 23.0564, 38.2544, -28.6215, -29.9142
2.64, 2, 17.8816, 15.8645, 23.0564, 38.2544, -28.6215, -29.9142
2.643, 2, 17.8816, 15.8645, 23.0564, 38.2544, -28.6215, -29.9142
2.648, 2, 17.8816, 15.8645, 23.0564, 38.2544, -28.6215, -29.9142
2.652, 2, 17.8816, 15.8645, 23.0564, 38.2544, -28.6215, -29.9142
2.656, 2, 17.8816, 15.8645, 23.0564, 38.2544, -28.6215, -29.9142
2.66, 2, 17.8816, 15.8645, 23.0564, 38.2544, -28.6215, -29.9142
2.663, 2, 17.8816, 15.8645, 23.0564, 38.2544, -28.6215, -29.9142
2.668, 2, 17.8816, 15.8645, 23.0564, 38.2544, -28.6215, -29.9142
2.672, 2, 17.8816, 15.8645, 23.0564, 38.2544, -28.6215, -29.9142
2.676, 2, 17.8816, 15.8645, 23.0564, 38.2544, -28.6215, -29.9142
2.679, 2, 17.8816, 15.8645, 23.0564, 38.2544, -28.6215, -29.9142
2.684, 2, 17.8816, 15.8645, 23.0564, 38.2544, -28.6215, -29.9142
2.688, 2, 17.8816, 15.8645, 23.0564, 38.2544, -28.6215, -29.9142
2.692, 2, 17.8816, 15.8645, 23.0564, 38.2544, -28.6215, -29.9142
2.696, 2, 17.8816, 15.8645, 23.0564, 38.2544, -28.6215, -29.9142
2.699, 2, 17.8816, 15.8645, 23.0564, 38.2544, -28.6215, -29.9142
2.704, 2, 17.8816, 15.8645, 23.0564, 38.2544, -28.6215, -29.9142
2.708, 2, 17.8816, 15.8645, 23.0564, 38.2544, -28.6215, -29.9142
2.712, 2, 17.8816, 15.8645, 23.0564, 38.2544, -28.6215, -29.9142
2.716, 2, 17.8816, 15.8645, 23.0564, 38.2544, -28.6215, -29.9142
2.719, 2, 17.8816, 15.8645, 23.0564, 38.2544, -28.6215, -29.9142
2.724, 2, 17.8816, 15.8645, 23.0564, 38.2544, -28.6215, -29.9142
2.728, 2, 17.8816, 15.8645, 23.0564, 38.2544, -28.6215, -29.9142
2.732, 2, 17.8816, 15.8645, 23.0564, 38.2544, -28.6215, -29.9142
2.735, 2, 17.8816, 15.8645, 23.0564, 38.2544, -28.6215, -29.9142
2.74, 2, 17.8816, 15.8645, 23.0564, 38.2544, -28.6215, -29.9142
2.744, 2, 17.8816, 15.8645, 23.0564, 38.2544, -28.6215, -29.9142
2.748, 2, 17.8816, 15.8645, 23.0564, 38.2544, -28.6215, -29.9142
2.752, 2, 17.8816, 15.8645, 23.0564, 38.2544, -28.6215, -29.9142
2.755, 2, 17.8816, 15.8645, 23.0564, 38.2544, -28.6215, -29.9142
2.76, 2, 17.8816, 15.8645, 23.0564, 38.2544, -28.6215, -29.9142
2.764, 2, 17.8816, 15.8645, 23.0564, 38.2544, -28.6215, -29.9142
2.768, 2, 17.8816, 15.8645, 23.0564, 38.2544, -28.6215, -29.9142
2.772, 2, 17.8816, 15.8645, 23.0564, 38.2544, -28.6215, -29.9142
2.775, 2, 17.8816, 15.8645, 23.0564, 38.2544, -28.6215, -29.9142
2.78, 2, 17.8816, 15.8645, 23.0564, 38.2544, -28.6215, -29.9142
2.784, 2, 17.8816, 15.8645, 23.0564, 38.2544, -28.6215, -29.9142
2.788, 2, 17.8816, 15.8645, 23.0564, 38.2544, -28.6215, -29.9142
2.791, 2, 17.8816, 15.8645, 23.0564, 38.2544, -28.6215, -29.9142
2.796, 2, 17.8816, 15.8645, 23.0564, 38.2544, -28.6215, -29.9142
2.8, 2, 17.8816, 15.8645, 23.0564, 38.2544, -28.6215, -29.9142
2.804, 2, 17.8816, 15.8645, 23.0564, 38.2544, -28.6215, -29.9142
2.808, 2, 17.8816, 15.8645, 23.0564, 38.2544, -28.6215, -29.9142
2.811, 2, 17.8816, 15.8645, 23.0564, 38.2544, -28.6215, -29.9142
2.816, 2, 17.8816, 15.8645, 23.0564, 38.2544, -28.6215, -29.9142
2.82, 2, 17.8816, 15.8645, 23.0564, 38.2544, -28.6215, -29.9142
2.824, 2, 17.8816, 15.8645, 23.0564, 38.2544, -28.6215, -29.9142
2.828, 2, 17.8816, 15.8645, 23.0564, 38.2544, -28.6215, -29.9142
2.831, 2, 17.8816, 15.8645, 23.0564, 38.2544, -28.6215, -29.9142
2.836, 2, 17.8816, 15.8645, 23.0564, 38.2544, -28.6215, -29.9142
2.84, 2, 17.8816, 15.8645, 23.0564, 38.2544, -28.6215, -29.9142
2.844, 2, 17.8816, 15.8645, 23.0564, 38.2544, -28.6215, -29.9142
2.847, 2, 17.8816, 15.8645, 23.0564, 38.2544, -28.6215, -29.9142
2.852, 2, 17.8816, 15.8645, 23.0564, 38.2544, -28.6215, -29.9142
2.856, 2, 17.8816, 15.8645, 23.0564, 38.2544, -28.6215, -29.9142
2.86, 2, 17.8816, 15.8645, 23.0564, 38.2544, -28.6215, -29.9142
2.864, 2, 17.8816, 15.8645, 23.0564, 38.2544, -28.6215, -29.9142
2.867, 2, 17.8816, 15.8645, 23.0564, 38.2544, -28.6215, -29.9142
2.872, 2, 17.8816, 15.8645, 23.0564, 38.2544, -28.6215, -29.9142
2.876, 2, 17.8816, 15.8645, 23.0564, 38.2544, -28.6215, -29.9142
2.88, 2, 17.8816, 15.8645, 23.0564, 38.2544, -28.6215, -29.9142
2.883, 2, 17.8816, 15.8645, 23.0564, 38.2544, -28.6215, -29.9142
2.888, 2, 17.8816, 15.8645, 23.0564, 38.2544, -28.6215, -29.9142
2.892, 2, 17.8816, 15.8645, 23.0564, 38.2544, -28.6215, -29.9142
2.896, 2, 17.8816, 15.8645, 23.0564, 38.2544, -28.6215, -29.9142
2.9, 2, 17.8816, 15.8645, 23.0564, 38.2544, -28.6215, -29.9142
2.903, 2, 17.8816, 15.8645, 23.0564, 38.2544, -28.6215, -29.9142
2.908, 2, 17.8816, 15.8645, 23.0564, 38.2544, -28.6215, -29.9142
2.912, 2, 17.8816, 15.8645, 23.0564, 38.2544, -28.6215, -29.9142
2.916, 2, 17.8816, 15.8645, 23.0564, 38.2544, -28.6215, -29.9142
2.92, 2, 17.8816, 15.8645, 23.0564, 38.2544, -28.6215, -29.9142
2.923, 2, 17.8816, 15.8645, 23.0564, 38.2544, -28.6215, -29.9142
2.928, 2, 17.8816, 15.8645, 23.0564, 38.2544, -28.6215, -29.9142
2.932, 2, 17.8816, 15.8645, 23.0564, 38.2544, -28.6215, -29.9142
2.936, 2, 17.8816, 15.8645, 23.0564, 38.2544, -28.6215, -29.9142
2.939, 2, 17.8816, 15.8645, 23.0564, 38.2544, -28.6215, -29.9142
2.944, 2, 17.8816, 15.8645, 23.0564, 38.2544, -28.6215, -29.9142
2.948, 2, 17.8816, 15.8645, 23.0564, 38.2544, -28.6215, -29.9142
2.952, 2, 17.8816, 15.8645, 23.0564, 38.2544, -28.6215, -29.9142
2.956, 2, 17.8816, 15.8645, 23.0564, 38.2544, -28.6215, -29.9142
2.959, 2, 17.8816, 15.8645, 23.0564, 38.2544, -28.6215, -29.9142
2.964, 2, 17.8816, 15.8645, 23.0564, 38.2544, -28.6215, -29.9142
2.968, 2, 17.8816, 15.8645, 23.0564, 38.2544, -28.6215, -29.9142
2.972, 2, 17.8816, 15.8645, 23.0564, 38.2544, -28.6215, -29.9142
2.976, 2, 17.8816, 15.8645, 23.0564, 38.2544, -28.6215, -29.9142
2.98, 2, 17.8816, 15.8645, 23.0564, 38.2544, -28.6215, -29.9142
2.984, 2, 17.8816, 15.8645, 23.0564, 38.2544, -28.6215, -29.9142
2.988, 2, 17.8816, 15.8645, 23.0564, 38.2544, -28.6215, -29.9142
2.992, 2, 17.8816, 15.8645, 23.0564, 38.2544, -28.6215, -29.9142
2.995, 2, 17.8816, 15.8645, 23.0564, 38.2544, -28.6215, -29.9142
3, 2, 17.8816, 15.8645, 23.0564, 38.2544, -28.6215, -29.9142
3.004, 2, 17.8816, 15.8645, 23.0564, 38.2544, -28.6215, -29.9142
3.008, 2, 17.8816, 15.8645, 23.0564, 38.2544, -28.6215, -29.9142
3.012, 2, 17.8816, 15.8645, 23.0564, 38.2544, -28.6215, -29.9142
3.015, 2, 17.8816, 15.8645, 23.0564, 38.2544, -28.6215, -29.9142
3.02, 2, 17.8816, 15.8645, 23.0564, 38.2544, -28.6215, -29.9142
3.024, 2, 17.8816, 15.8645, 23.0564, 38.2544, -28.6215, -29.9142
3.028, 2, 17.8816, 15.8645, 23.0564, 38.2544, -28.6215, -29.9142
3.031, 2, 17.8816, 15.8645, 23.0564, 38.2544, -28.6215, -29.9142
3.036, 2, 17.8816, 15.8645, 23.0564, 38.2544, -28.6215, -29.9142
3.04, 2, 17.8816, 15.8645, 23.0564, 38.2544, -28.6215, -29.9142
3.044, 2, 17.8816, 15.8645, 23.0564, 38.2544, -28.6215, -29.9142
3.048, 2, 17.8816, 15.8645, 23.0564, 38.2544, -28.6215, -29.9142
3.051, 2, 17.8816, 15.8645, 23.0564, 38.2544, -28.6215, -29.9142
3.056, 2, 17.8816, 15.8645, 23.0564, 38.2544, -28.6215, -29.9142
3.06, 2, 17.8816, 15.8645, 23.0564, 38.2544, -28.6215, -29.9142
3.064, 2, 17.8816, 15.8645, 23.0564, 38.2544, -28.6215, -29.9142
3.068, 2, 17.8816, 15.8645, 23.0564, 38.2544, -28.6215, -29.9142
3.071, 2, 17.8816, 15.8645, 23.0564, 38.2544, -28.6215, -29.9142
3.076, 2, 17.8816, 15.8645, 23.0564, 38.2544, -28.6215, -29.9142
3.08, 2, 17.8816, 15.8645, 23.0564, 38.2544, -28.6215, -29.9142
3.084, 2, 17.8816, 15.8645, 23.0564, 38.2544, -28.6215, -29.9142
3.087, 2, 17.8816, 15.8645, 23.0564, 38.2544, -28.6215, -29.9142
3.092, 2, 17.8816, 15.8645, 23.0564, 38.2544, -28.6215, -29.9142
3.096, 2, 17.8816, 15.8645, 23.0564, 38.2544, -28.6215, -29.9142
3.1, 2, 17.8816, 15.8645, 23.0564, 38.2544, -28.6215, -29.9142
3.104, 2, 17.8816, 15.8645, 23.0564, 38.2544, -28.6215, -29.9142
3.107, 2, 17.8816, 15.8645, 23.0564, 38.2544, -28.6215, -29.9142
3.112, 2, 17.8816, 15.8645, 23.0564, 38.2544, -28.6215, -29.9142
3.116, 2, 17.8816, 15.8645, 23.0564, 38.2544, -28.6215, -29.9142
3.12, 2, 17.8816, 15.8645, 23.0564, 38.2544, -28.6215, -29.9142
3.124, 2, 17.8816, 15.8645, 23.0564, 38.2544, -28.6215, -29.9142
3.128, 2, 17.8816, 15.8645, 23.0564, 38.2544, -28.6215, -29.9142
3.132, 2, 17.8816, 15.8645, 23.0564, 38.2544, -28.6215, -29.9142
3.136, 2, 17.8816, 15.8645, 23.0564, 38.2544, -28.6215, -29.9142
3.14, 2, 17.8816, 15.8645, 23.0564, 38.2544, -28.6215, -29.9142
3.143, 2, 17.8816, 15.8645, 23.0564, 38.2544, -28.6215, -29.9142
3.148, 2, 17.8816, 15.8645, 23.0564, 38.2544, -28.6215, -29.9142
3.152, 2, 17.8816, 15.8645, 23.0564, 38.2544, -28.6215, -29.9142
3.156, 2, 17.8816, 15.8645, 23.0564, 38.2544, -28.6215, -29.9142
3.16, 2, 17.8816, 15.8645, 23.0564, 38.2544, -28.6215, -29.9142
3.163, 2, 17.8816, 15.8645, 23.0564, 38.2544, -28.6215, -29.9142
3.168, 2, 17.8816, 15.8645, 23.0564, 38.2544, -28.6215, -29.9142
3.172, 2, 17.8816, 15.8645, 23.0564, 38.2544, -28.6215, -29.9142
3.176, 2, 17.8816, 15.8645, 23.0564, 38.2544, -28.6215, -29.9142
3.179, 2, 17.8816, 15.8645, 23.0564, 38.2544, -28.6215, -29.9142
3.184, 2, 17.8816, 15.8645, 23.0564, 38.2544, -28.6215, -29.9142
3.188, 2, 17.8816, 15.8645, 23.0564, 38.2544, -28.6215, -29.9142
3.192, 2, 17.8816, 15.8645, 23.0564, 38.2544, -28.6215, -29.9142
3.196, 2, 17.8816, 15.8645, 23.0564, 38.2544, -28.6215, -29.9142
3.199, 2, 17.8816, 15.8645, 23.0564, 38.2544, -28.6215, -29.9142
3.204, 2, 17.8816, 15.8645, 23.0564, 38.2544, -28.6215, -29.9142
3.208, 2, 17.8816, 15.8645, 23.0564, 38.2544, -28.6215, -29.9142
3.212, 2, 17.8816, 15.8645, 23.0564, 38.2544, -28.6215, -29.9142
3.216, 2, 17.8816, 15.8645, 23.0564, 38.2544, -28.6215, -29.9142
3.22, 2, 17.8816, 15.8645, 23.0564, 38.2544, -28.6215, -29.9142
3.224, 2, 17.8816, 15.8645, 23.0564, 38.2544, -28.6215, -29.9142
3.228, 2, 17.8816, 15.8645, 23.0564, 38.2544, -28.6215, -29.9142
3.232, 2, 17.8816, 15.8645, 23.0564, 38.2544, -28.6215, -29.9142
3.235, 2, 17.8816, 15.8645, 23.0564, 38.2544, -28.6215, -29.9142
3.24, 2, 17.8816, 15.8645, 23.0564, 38.2544, -28.6215, -29.9142
3.244, 2, 17.8816, 15.8645, 23.0564, 38.2544, -28.6215, -29.9142
3.248, 4, 17.8816, 15.8645, 23.0564, 38.2544, -28.6215, -29.9142
3.252, 4, 17.8816, 15.8645, 23.0564, 38.2544, -28.6215, -29.9142
3.255, 4, 17.8816, 15.8645, 23.0564, 38.2544, -28.6215, -29.9142
3.26, 4, 17.8816, 15.8645, 23.0564, 38.2544, -28.6215, -29.9142
3.264, 4, 17.8816, 15.8645, 23.0564, 38.2544, -28.6215, -29.9142
3.268, 4, 17.8816, 15.8645, 23.0564, 38.2544, -28.6215, -29.9142
3.272, 4, 17.8816, 15.8645, 23.0564, 38.2544, -28.6215, -29.9142
3.276, 4, 17.8816, 15.8645, 23.0564, 38.2544, -28.6215, -29.9142
3.28, 4, 17.8816, 15.8645, 23.0564, 38.2544, -28.6215, -29.9142
3.284, 4, 17.8816, 15.8645, 23.0564, 38.2544, -28.6215, -29.9142
3.288, 4, 17.8816, 15.8645, 23.0564, 38.2544, -28.6215, -29.9142
3.291, 4, 17.8816, 15.8645, 23.0564, 38.2544, -28.6215, -29.9142
3.296, 4, 17.8816, 15.8645, 23.0564, 38.2544, -28.6215, -29.9142
3.3, 4, 17.8816, 15.8645, 23.0564, 38.2544, -28.6215, -29.9142
3.304, 4, 17.8816, 15.8645, 23.0564, 38.2544, -28.6215, -29.9142
3.308, 4, 17.8816, 15.8645, 23.0564, 38.2544, -28.6215, -29.9142
3.312, 4, 17.8816, 15.8645, 23.0564, 38.2544, -28.6215, -29.9142
3.316, 4, 17.8816, 15.8645, 23.0564, 38.2544, -28.6215, -29.9142
3.32, 4, 17.8816, 15.8645, 23.0564, 38.2544, -28.6215, -29.9142
3.324, 4, 17.8816, 15.8645, 23.0564, 38.2544, -28.6215, -29.9142
3.328, 4, 17.8816, 15.8645, 23.0564, 38.2544, -28.6215, -29.9142
3.332, 4, 17.8816, 15.8645, 23.0564, 38.2544, -28.6215, -29.9142
3.336, 4, 17.8816, 15.8645, 23.0564, 38.2544, -28.6215, -29.9142
3.34, 4, 17.8816, 15.8645, 23.0564, 38.2544, -28.6215, -29.9142
3.344, 4, 17.8816, 15.8645, 23.0564, 38.2544, -28.6215, -29.9142
3.347, 4, 17.8816, 15.8645, 23.0564, 38.2544, -28.6215, -29.9142
3.352, 4, 17.8816, 15.8645, 23.0564, 38.2544, -28.6215, -29.9142
3.356, 4, 17.8816, 15.8645, 23.0564, 38.2544, -28.6215, -29.9142
3.36, 4, 17.8816, 15.8645, 23.0564, 38.2544, -28.6215, -29.9142
3.364, 4, 17.8816, 15.8645, 23.0564, 38.2544, -28.6215, -29.9142
3.368, 4, 17.8816, 15.8645, 23.0564, 38.2544, -28.6215, -29.9142
3.372, 4, 17.8816, 15.8645, 23.0564, 38.2544, -28.6215, -29.9142
3.376, 4, 17.8816, 15.8645, 23.0564, 38.2544, -28.6215, -29.9142
3.38, 4, 17.8816, 15.8645, 23.0564, 38.2544, -28.6215, -29.9142
3.383, 4, 17.8816, 15.8645, 23.0564, 38.2544, -28.6215, -29.9142
3.388, 4, 17.8816, 15.8645, 23.0564, 38.2544, -28.6215, -29.9142
3.392, 4, 17.8816, 15.8645, 23.0564, 38.2544, -28.6215, -29.9142
3.396, 4, 17.8815, 15.8645, 23.0564, 38.2544, -28.6215, -29.9142
3.4, 4, 17.8812, 15.8645, 23.0564, 38.2543, -28.6215, -29.9142
3.403, 4, 17.8806, 15.8645, 23.0565, 38.2542, -28.6216, -29.9141
3.408, 4, 17.8796, 15.8645, 23.0566, 38.254, -28.6217, -29.9139
3.412, 4, 17.8782, 15.8644, 23.0568, 38.2534, -28.6219, -29.9134
3.416, 4, 17.8763, 15.8643, 23.0573, 38.2523, -28.6223, -29.9124
3.42, 4, 17.8742, 15.8642, 23.0579, 38.2504, -28.623, -29.9107
3.424, 4, 17.8719, 15.8639, 23.0589, 38.2474, -28.624, -29.9081
3.428, 4, 17.8695, 15.8636, 23.0603, 38.243, -28.6256, -29.9042
3.432, 4, 17.867, 15.8631, 23.0622, 38.2369, -28.6278, -29.8989
3.436, 4, 17.8644, 15.8625, 23.0647, 38.2291, -28.6306, -29.8919
3.439, 4, 17.8617, 15.8618, 23.0677, 38.2193, -28.6341, -29.8832
3.444, 5, 17.8586, 15.8609, 23.0713, 38.2073, -28.6383, -29.8726
3.448, 5, 17.8554, 15.8599, 23.0756, 38.1933, -28.6433, -29.8602
3.452, 5, 17.852, 15.8587, 23.0806, 38.1771, -28.6491, -29.8458
3.456, 5, 17.8485, 15.8574, 23.0861, 38.1589, -28.6556, -29.8296
3.46, 5, 17.845, 15.8559, 23.0922, 38.1387, -28.6628, -29.8117
3.464, 5, 17.8415, 15.8543, 23.0988, 38.1168, -28.6706, -29.7922
3.468, 5, 17.8378, 15.8526, 23.1058, 38.0934, -28.679, -29.7715
3.472, 5, 17.8338, 15.8509, 23.1133, 38.0688, -28.6878, -29.7497
3.476, 5, 17.8294, 15.849, 23.121, 38.0433, -28.6969, -29.7271
3.48, 5, 17.8246, 15.8471, 23.1289, 38.0172, -28.7063, -29.7039
3.484, 5, 17.8194, 15.8452, 23.137, 37.9906, -28.7158, -29.6803
3.488, 5, 17.8138, 15.8432, 23.1452, 37.9637, -28.7255, -29.6564
3.492, 5, 17.808, 15.8412, 23.1534, 37.9365, -28.7352, -29.6324
3.495, 5, 17.802, 15.8392, 23.1617, 37.9093, -28.745, -29.6082
3.5, 5, 17.7959, 15.8372, 23.1701, 37.882, -28.7549, -29.584
3.504, 5, 17.7897, 15.8352, 23.1785, 37.8546, -28.7647, -29.5597
3.508, 5, 17.7835, 15.8332, 23.1868, 37.8271, -28.7746, -29.5354
3.512, 5, 17.7772, 15.8312, 23.1952, 37.7997, -28.7846, -29.5111
3.516, 5, 17.771, 15.8292, 23.2036, 37.7723, -28.7945, -29.4868
3.52, 5, 17.7647, 15.8272, 23.212, 37.7448, -28.8044, -29.4625
3.524, 5, 17.7583, 15.8252, 23.2204, 37.7174, -28.8144, -29.4382
3.528, 5, 17.752, 15.8232, 23.2288, 37.69, -28.8243, -29.4139
3.531, 5, 17.7457, 15.8212, 23.2372, 37.6626, -28.8343, -29.3896
3.536, 5, 17.7394, 15.8193, 23.2456, 37.6352, -28.8443, -29.3653
3.54, 5, 17.733, 15.8173, 23.254, 37.6078, -28.8542, -29.3411
3.544, 5, 17.7267, 15.8153, 23.2624, 37.5804, -28.8642, -29.3168
3.548, 5, 17.7203, 15.8133, 23.2708, 37.553, -28.8742, -29.2926
3.552, 5, 17.714, 15.8113, 23.2792, 37.5257, -28.8842, -29.2684
3.556, 5, 17.7077, 15.8093, 23.2876, 37.4984, -28.8942, -29.2442
3.56, 5, 17.7013, 15.8074, 23.2959, 37.4711, -28.9042, -29.22
3.564, 5, 17.695, 15.8054, 23.3043, 37.4438, -28.9142, -29.1958
3.568, 5, 17.6886, 15.8034, 23.3127, 37.4165, -28.9242, -29.1717
3.572, 5, 17.6823, 15.8015, 23.3211, 37.3892, -28.9342, -29.1476
3.576, 5, 17.6759, 15.7995, 23.3294, 37.362, -28.9443, -29.1235
3.58, 5, 17.6696, 15.7975, 23.3378, 37.3347, -28.9543, -29.0994
3.584, 5, 17.6632, 15.7956, 23.3462, 37.3075, -28.9643, -29.0753
3.587, 5, 17.6569, 15.7936, 23.3545, 37.2803, -28.9744, -29.0512
3.592, 5, 17.6505, 15.7917, 23.3629, 37.2531, -28.9844, -29.0272
3.596, 5, 17.6441, 15.7897, 23.3713, 37.226, -28.9945, -29.0031
3.6, 5, 17.6378, 15.7878, 23.3796, 37.1988, -29.0045, -28.9791
3.604, 5, 17.6314, 15.7858, 23.388, 37.1717, -29.0146, -28.9551
3.608, 5, 17.6251, 15.7839, 23.3963, 37.1446, -29.0246, -28.9311
3.612, 5, 17.6187, 15.7819, 23.4046, 37.1175, -29.0347, -28.9071
3.616, 5, 17.6124, 15.78, 23.413, 37.0904, -29.0448, -28.8832
3.62, 5, 17.606, 15.778, 23.4213, 37.0633, -29.0549, -28.8592
3.624, 5, 17.5996, 15.7761, 23.4297, 37.0362, -29.0649, -28.8353
3.628, 5, 17.5933, 15.7742, 23.438, 37.0092, -29.075, -28.8114
3.632, 5, 17.5869, 15.7723, 23.4463, 36.9822, -29.0851, -28.7875
3.636, 5, 17.5805, 15.7703, 23.4547, 36.9552, -29.0952, -28.7636
3.64, 5, 17.5742, 15.7684, 23.463, 36.9282, -29.1054, -28.7398
3.644, 5, 17.5678, 15.7665, 23.4713, 36.9012, -29.1155, -28.7159
3.648, 5, 17.5615, 15.7646, 23.4796, 36.8742, -29.1256, -28.6921
3.652, 5, 17.5551, 15.7627, 23.488, 36.8473, -29.1357, -28.6683
3.656, 5, 17.5487, 15.7607, 23.4963, 36.8203, -29.1458, -28.6445
3.66, 5, 17.5423, 15.7588, 23.5046, 36.7934, -29.156, -28.6207
3.664, 5, 17.536, 15.7569, 23.5129, 36.7665, -29.1661, -28.597
3.668, 5, 17.5296, 15.755, 23.5212, 36.7396, -29.1763, -28.5732
3.672, 5, 17.5232, 15.7531, 23.5295, 36.7128, -29.1864, -28.5495
3.676, 5, 17.5169, 15.7512, 23.5378, 36.6859, -29.1966, -28.5258
3.679, 5, 17.5105, 15.7493, 23.5461, 36.6591, -29.2067, -28.5021
3.684, 5, 17.5041, 15.7474, 23.5544, 36.6322, -29.2169, -28.4784
3.688, 5, 17.4977, 15.7455, 23.5627, 36.6054, -29.2271, -28.4547
3.692, 5, 17.4914, 15.7437, 23.571, 36.5786, -29.2372, -28.4311
3.696, 5, 17.485, 15.7418, 23.5793, 36.5519, -29.2474, -28.4074
3.7, 5, 17.4786, 15.7399, 23.5876, 36.5251, -29.2576, -28.3838
3.704, 5, 17.4722, 15.738, 23.5959, 36.4984, -29.2678, -28.3602
3.708, 5, 17.4658, 15.7361, 23.6041, 36.4716, -29.278, -28.3366
3.712, 5, 17.4594, 15.7343, 23.6124, 36.4449, -29.2882, -28.313
3.716, 5, 17.4531, 15.7324, 23.6207, 36.4182, -29.2984, -28.2895
3.72, 5, 17.4467, 15.7305, 23.629, 36.3916, -29.3086, -28.2659
3.724, 5, 17.4403, 15.7286, 23.6372, 36.3649, -29.3188, -28.2424
3.728, 5, 17.4339, 15.7268, 23.6455, 36.3382, -29.329, -28.2189
3.732, 5, 17.4275, 15.7249, 23.6538, 36.3116, -29.3393, -28.1954
3.735, 5, 17.4211, 15.7231, 23.662, 36.285, -29.3495, -28.1719
3.74, 5, 17.4147, 15.7212, 23.6703, 36.2584, -29.3597, -28.1485
3.744, 5, 17.4084, 15.7193, 23.6785, 36.2318, -29.37, -28.125
3.748, 5, 17.402, 15.7175, 23.6868, 36.2052, -29.3802, -28.1016
3.752, 5, 17.3956, 15.7156, 23.695, 36.1787, -29.3905, -28.0782
3.756, 5, 17.3892, 15.7138, 23.7033, 36.1521, -29.4007, -28.0548
3.76, 5, 17.3828, 15.712, 23.7115, 36.1256, -29.411, -28.0314
3.764, 5, 17.3764, 15.7101, 23.7198, 36.0991, -29.4213, -28.008
3.768, 5, 17.37, 15.7083, 23.728, 36.0726, -29.4316, -27.9847
3.772, 5, 17.3636, 15.7064, 23.7363, 36.0461, -29.4418, -27.9614
3.776, 5, 17.3572, 15.7046, 23.7445, 36.0197, -29.4521, -27.938
3.78, 5, 17.3508, 15.7028, 23.7527, 35.9932, -29.4624, -27.9147
3.784, 5, 17.3444, 15.701, 23.7609, 35.9668, -29.4727, -27.8915
3.788, 5, 17.338, 15.6991, 23.7692, 35.9404, -29.483, -27.8682
3.792, 5, 17.3316, 15.6973, 23.7774, 35.914, -29.4933, -27.8449
3.796, 5, 17.3252, 15.6955, 23.7856, 35.8876, -29.5036, -27.8217
3.8, 5, 17.3188, 15.6937, 23.7938, 35.8612, -29.5139, -27.7985
3.804, 5, 17.3124, 15.6919, 23.802, 35.8349, -29.5243, -27.7753
3.808, 5, 17.306, 15.69, 23.8103, 35.8085, -29.5346, -27.7521
3.812, 5, 17.2996, 15.6882, 23.8185, 35.7822, -29.5449, -27.7289
3.816, 5, 17.2932, 15.6864, 23.8267, 35.7559, -29.5552, -27.7057
3.82, 5, 17.2868, 15.6846, 23.8349, 35.7296, -29.5656, -27.6826
3.824, 5, 17.2804, 15.6828, 23.8431, 35.7034, -29.5759, -27.6595
3.828, 5, 17.274, 15.681, 23.8513, 35.6771, -29.5863, -27.6363
3.832, 5, 17.2675, 15.6792, 23.8595, 35.6509, -29.5966, -27.6132
3.836, 5, 17.2611, 15.6774, 23.8677, 35.6246, -29.607, -27.5902
3.84, 5, 17.2547, 15.6757, 23.8759, 35.5984, -29.6174, -27.5671
3.844, 5, 17.2483, 15.6739, 23.8841, 35.5722, -29.6277, -27.544
3.848, 5, 17.2419, 15.6721, 23.8922, 35.546, -29.6381, -27.521
3.852, 5, 17.2355, 15.6703, 23.9004, 35.5199, -29.6485, -27.498
3.856, 5, 17.2291, 15.6685, 23.9086, 35.4937, -29.6589, -27.475
3.86, 5, 17.2226, 15.6667, 23.9168, 35.4676, -29.6693, -27.452
3.864, 5, 17.2162, 15.665, 23.9249, 35.4415, -29.6797, -27.429
3.868, 5, 17.2098, 15.6632, 23.9331, 35.4154, -29.6901, -27.4061
3.872, 5, 17.2034, 15.6614, 23.9413, 35.3893, -29.7005, -27.3831
3.876, 5, 17.197, 15.6597, 23.9495, 35.3632, -29.7109, -27.3602
3.88, 5, 17.1905, 15.6579, 23.9576, 35.3371, -29.7213, -27.3373
3.884, 5, 17.1841, 15.6561, 23.9658, 35.3111, -29.7317, -27.3144
3.888, 5, 17.1777, 15.6544, 23.9739, 35.2851, -29.7421, -27.2915
3.892, 5, 17.1713, 15.6526, 23.9821, 35.259, -29.7526, -27.2686
3.896, 5, 17.1649, 15.6509, 23.9902, 35.233, -29.763, -27.2458
3.9, 5, 17.1584, 15.6491, 23.9984, 35.2071, -29.7734, -27.2229
3.904, 5, 17.152, 15.6474, 24.0065, 35.1811, -29.7839, -27.2001
3.908, 5, 17.1456, 15.6456, 24.0147, 35.1551, -29.7943, -27.1773
3.912, 5, 17.1391, 15.6439, 24.0228, 35.1292, -29.8048, -27.1545
3.916, 5, 17.1327, 15.6421, 24.031, 35.1033, -29.8153, -27.1318
3.92, 5, 17.1263, 15.6404, 24.0391, 35.0774, -29.8257, -27.109
3.924, 5, 17.1199, 15.6387, 24.0472, 35.0515, -29.8362, -27.0863
3.928, 5, 17.1134, 15.6369, 24.0554, 35.0256, -29.8467, -27.0635
3.932, 5, 17.107, 15.6352, 24.0635, 34.9998, -29.8571, -27.0408
3.936, 5, 17.1006, 15.6335, 24.0716, 34.9739, -29.8676, -27.0181
3.94, 5, 17.0941, 15.6318, 24.0797, 34.9481, -29.8781, -26.9954
3.944, 5, 17.0877, 15.63, 24.0879, 34.9223, -29.8886, -26.9728
3.948, 5, 17.0812, 15.6283, 24.096, 34.8965, -29.8991, -26.9501
3.952, 5, 17.0748, 15.6266, 24.1041, 34.8707, -29.9096, -26.9275
3.956, 5, 17.0684, 15.6249, 24.1122, 34.8449, -29.9201, -26.9049
3.96, 5, 17.0619, 15.6232, 24.1203, 34.8192, -29.9306, -26.8823
3.964, 5, 17.0555, 15.6215, 24.1284, 34.7934, -29.9412, -26.8597
3.968, 5, 17.049, 15.6198, 24.1365, 34.7677, -29.9517, -26.8371
3.972, 5, 17.0426, 15.6181, 24.1446, 34.742, -29.9622, -26.8146
3.976, 5, 17.0362, 15.6164, 24.1527, 34.7163, -29.9727, -26.792
3.98, 5, 17.0297, 15.6147, 24.1608, 34.6906, -29.9833, -26.7695
3.984, 5, 17.0233, 15.613, 24.1689, 34.6649, -29.9938, -26.747
3.988, 5, 17.0168, 15.6113, 24.177, 34.6393, -30.0044, -26.7245
3.992, 5, 17.0104, 15.6096, 24.1851, 34.6137, -30.0149, -26.702
3.996, 5, 17.0039, 15.6079, 24.1932, 34.588, -30.0255, -26.6795
3.999, 5, 16.9975, 15.6062, 24.2013, 34.5624, -30.0361, -26.6571
4.004, 5, 16.991, 15.6045, 24.2093, 34.5369, -30.0466, -26.6346
4.008, 5, 16.9846, 15.6029, 24.2174, 34.5113, -30.0572, -26.6122
4.012, 5, 16.9781, 15.6012, 24.2255, 34.4857, -30.0678, -26.5898
4.016, 5, 16.9717, 15.5995, 24.2336, 34.4602, -30.0784, -26.5674
4.02, 5, 16.9652, 15.5978, 24.2416, 34.4347, -30.0889, -26.5451
4.024, 5, 16.9588, 15.5962, 24.2497, 34.4091, -30.0995, -26.5227
4.028, 5, 16.9523, 15.5945, 24.2578, 34.3836, -30.1101, -26.5004
4.032, 5, 16.9458, 15.5929, 24.2658, 34.3582, -30.1207, -26.478
4.036, 5, 16.9394, 15.5912, 24.2739, 34.3327, -30.1313, -26.4557
4.04, 5, 16.9329, 15.5895, 24.2819, 34.3072, -30.1419, -26.4334
4.044, 5, 16.9265, 15.5879, 24.29, 34.2818, -30.1526, -26.4111
4.048, 5, 16.92, 15.5862, 24.298, 34.2564, -30.1632, -26.3889
4.052, 5, 16.9135, 15.5846, 24.3061, 34.231, -30.1738, -26.3666
4.056, 5, 16.9071, 15.5829, 24.3141, 34.2056, -30.1844, -26.3444
4.06, 5, 16.9006, 15.5813, 24.3222, 34.1802, -30.1951, -26.3222
4.064, 5, 16.8942, 15.5796, 24.3302, 34.1548, -30.2057, -26.2999
4.068, 5, 16.8877, 15.578, 24.3382, 34.1295, -30.2164, -26.2778
4.072, 5, 16.8812, 15.5764, 24.3463, 34.1042, -30.227, -26.2556
4.076, 5, 16.8748, 15.5747, 24.3543, 34.0788, -30.2377, -26.2334
4.08, 5, 16.8683, 15.5731, 24.3623, 34.0535, -30.2483, -26.2113
4.084, 5, 16.8618, 15.5715, 24.3703, 34.0282, -30.259, -26.1891
4.088, 5, 16.8554, 15.5699, 24.3784, 34.003, -30.2697, -26.167
4.092, 5, 16.8489, 15.5682, 24.3864, 33.9777, -30.2803, -26.1449
4.096, 5, 16.8424, 15.5666, 24.3944, 33.9525, -30.291, -26.1228
4.1, 5, 16.8359, 15.565, 24.4024, 33.9272, -30.3017, -26.1008
4.104, 5, 16.8295, 15.5634, 24.4104, 33.902, -30.3124, -26.0787
4.108, 5, 16.823, 15.5618, 24.4184, 33.8768, -30.3231, -26.0567
4.112, 5, 16.8165, 15.5602, 24.4264, 33.8516, -30.3338, -26.0346
4.116, 5, 16.81, 15.5586, 24.4344, 33.8265, -30.3445, -26.0126
4.12, 5, 16.8036, 15.557, 24.4424, 33.8013, -30.3552, -25.9906
4.124, 5, 16.7971, 15.5554, 24.4504, 33.7762, -30.3659, -25.9687
4.128, 5, 16.7906, 15.5538, 24.4584, 33.7511, -30.3766, -25.9467
4.132, 5, 16.7841, 15.5522, 24.4664, 33.7259, -30.3873, -25.9247
4.136, 5, 16.7776, 15.5506, 24.4744, 33.7009, -30.398, -25.9028
4.14, 5, 16.7712, 15.549, 24.4824, 33.6758, -30.4088, -25.8809
4.144, 5, 16.7647, 15.5474, 24.4904, 33.6507, -30.4195, -25.859
4.148, 5, 16.7582, 15.5458, 24.4983, 33.6257, -30.4302, -25.8371
4.152, 5, 16.7517, 15.5442, 24.5063, 33.6006, -30.441, -25.8152
4.156, 5, 16.7452, 15.5426, 24.5143, 33.5756, -30.4517, -25.7933
4.16, 5, 16.7387, 15.5411, 24.5223, 33.5506, -30.4625, -25.7715
4.164, 5, 16.7322, 15.5395, 24.5302, 33.5256, -30.4732, -25.7497
4.168, 5, 16.7258, 15.5379, 24.5382, 33.5006, -30.484, -25.7278
4.172, 5, 16.7193, 15.5364, 24.5462, 33.4757, -30.4948, -25.706
4.176, 5, 16.7128, 15.5348, 24.5541, 33.4507, -30.5055, -25.6843
4.18, 5, 16.7063, 15.5332, 24.5621, 33.4258, -30.5163, -25.6625
4.184, 5, 16.6998, 15.5317, 24.57, 33.4009, -30.5271, -25.6407
4.188, 5, 16.6933, 15.5301, 24.578, 33.376, -30.5379, -25.619
4.192, 5, 16.6868, 15.5286, 24.5859, 33.3511, -30.5487, -25.5973
4.196, 5, 16.6803, 15.527, 24.5939, 33.3262, -30.5595, -25.5755
4.2, 5, 16.6738, 15.5255, 24.6018, 33.3013, -30.5703, -25.5538
4.204, 5, 16.6673, 15.5239, 24.6098, 33.2765, -30.5811, -25.5322
4.208, 5, 16.6608, 15.5224, 24.6177, 33.2517, -30.5919, -25.5105
4.212, 5, 16.6543, 15.5208, 24.6256, 33.2268, -30.6027, -25.4888
4.216, 5, 16.6478, 15.5193, 24.6336, 33.202, -30.6135, -25.4672
4.22, 5, 16.6413, 15.5177, 24.6415, 33.1772, -30.6243, -25.4456
4.224, 5, 16.6348, 15.5162, 24.6494, 33.1525, -30.6352, -25.424
4.228, 5, 16.6283, 15.5147, 24.6574, 33.1277, -30.646, -25.4024
4.232, 5, 16.6218, 15.5132, 24.6653, 33.103, -30.6568, -25.3808
4.236, 5, 16.6153, 15.5116, 24.6732, 33.0782, -30.6677, -25.3592
4.24, 5, 16.6088, 15.5101, 24.6811, 33.0535, -30.6785, -25.3377
4.244, 5, 16.6023, 15.5086, 24.689, 33.0288, -30.6894, -25.3161
4.248, 5, 16.5958, 15.5071, 24.6969, 33.0041, -30.7002, -25.2946
4.252, 5, 16.5893, 15.5056, 24.7049, 32.9795, -30.7111, -25.2731
4.256, 5, 16.5828, 15.504, 24.7128, 32.9548, -30.7219, -25.2516
4.26, 5, 16.5763, 15.5025, 24.7207, 32.9302, -30.7328, -25.2302
4.264, 5, 16.5698, 15.501, 24.7286, 32.9056, -30.7437, -25.2087
4.268, 5, 16.5633, 15.4995, 24.7365, 32.8809, -30.7546, -25.1872
4.272, 5, 16.5567, 15.498, 24.7444, 32.8563, -30.7654, -25.1658
4.276, 5, 16.5502, 15.4965, 24.7522, 32.8318, -30.7763, -25.1444
4.28, 5, 16.5437, 15.495, 24.7601, 32.8072, -30.7872, -25.123
4.284, 5, 16.5372, 15.4935, 24.768, 32.7826, -30.7981, -25.1016
4.288, 5, 16.5307, 15.492, 24.7759, 32.7581, -30.809, -25.0802
4.292, 5, 16.5242, 15.4906, 24.7838, 32.7336, -30.8199, -25.0589
4.296, 5, 16.5176, 15.4891, 24.7917, 32.7091, -30.8308, -25.0375
4.3, 5, 16.5111, 15.4876, 24.7995, 32.6846, -30.8418, -25.0162
4.304, 5, 16.5046, 15.4861, 24.8074, 32.6601, -30.8527, -24.9949
4.308, 5, 16.4981, 15.4846, 24.8153, 32.6356, -30.8636, -24.9736
4.312, 5, 16.4916, 15.4832, 24.8231, 32.6112, -30.8745, -24.9523
4.316, 5, 16.485, 15.4817, 24.831, 32.5867, -30.8855, -24.931
4.32, 5, 16.4785, 15.4802, 24.8389, 32.5623, -30.8964, -24.9098
4.324, 5, 16.472, 15.4788, 24.8467, 32.5379, -30.9073, -24.8885
4.328, 5, 16.4655, 15.4773, 24.8546, 32.5135, -30.9183, -24.8673
4.332, 5, 16.4589, 15.4758, 24.8624, 32.4891, -30.9292, -24.8461
4.336, 5, 16.4524, 15.4744, 24.8703, 32.4647, -30.9402, -24.8249
4.34, 5, 16.4459, 15.4729, 24.8781, 32.4404, -30.9511, -24.8037
4.344, 5, 16.4394, 15.4715, 24.886, 32.416, -30.9621, -24.7825
4.348, 5, 16.4328, 15.47, 24.8938, 32.3917, -30.9731, -24.7614
4.352, 5, 16.4263, 15.4686, 24.9016, 32.3674, -30.984, -24.7402
4.356, 5, 16.4198, 15.4671, 24.9095, 32.3431, -30.995, -24.7191
4.36, 5, 16.4132, 15.4657, 24.9173, 32.3188, -31.006, -24.698
4.364, 5, 16.4067, 15.4643, 24.9251, 32.2946, -31.017, -24.6769
4.368, 5, 16.4002, 15.4628, 24.933, 32.2703, -31.028, -24.6558
4.372, 5, 16.3936, 15.4614, 24.9408, 32.2461, -31.039, -24.6347
4.376, 5, 16.3871, 15.46, 24.9486, 32.2219, -31.05, -24.6137
4.38, 5, 16.3806, 15.4585, 24.9564, 32.1976, -31.061, -24.5926
4.384, 5, 16.374, 15.4571, 24.9643, 32.1734, -31.072, -24.5716
4.388, 5, 16.3675, 15.4557, 24.9721, 32.1493, -31.083, -24.5506
4.392, 5, 16.3609, 15.4543, 24.9799, 32.1251, -31.094, -24.5296
4.396, 5, 16.3544, 15.4528, 24.9877, 32.1009, -31.105, -24.5086
4.4, 5, 16.3479, 15.4514, 24.9955, 32.0768, -31.1161, -24.4877
4.404, 5, 16.3413, 15.45, 25.0033, 32.0527, -31.1271, -24.4667
4.408, 5, 16.3348, 15.4486, 25.0111, 32.0286, -31.1381, -24.4458
4.412, 5, 16.3282, 15.4472, 25.0189, 32.0045, -31.1492, -24.4248
4.416, 5, 16.3217, 15.4458, 25.0267, 31.9804, -31.1602, -24.4039
4.42, 5, 16.3151, 15.4444, 25.0345, 31.9563, -31.1712, -24.383
4.424, 5, 16.3086, 15.443, 25.0423, 31.9323, -31.1823, -24.3622
4.428, 5, 16.302, 15.4416, 25.0501, 31.9082, -31.1934, -24.3413
4.432, 5, 16.2955, 15.4402, 25.0578, 31.8842, -31.2044, -24.3204
4.436, 5, 16.2889, 15.4388, 25.0656, 31.8602, -31.2155, -24.2996
4.44, 5, 16.2824, 15.4374, 25.0734, 31.8362, -31.2265, -24.2788
4.444, 5, 16.2758, 15.4361, 25.0812, 31.8122, -31.2376, -24.258
4.448, 5, 16.2693, 15.4347, 25.0889, 31.7882, -31.2487, -24.2372
4.452, 5, 16.2627, 15.4333, 25.0967, 31.7643, -31.2598, -24.2164
4.456, 5, 16.2562, 15.4319, 25.1045, 31.7403, -31.2709, -24.1956
4.46, 5, 16.2496, 15.4305, 25.1122, 31.7164, -31.282, -24.1749
4.464, 5, 16.2431, 15.4292, 25.12, 31.6925, -31.2931, -24.1541
4.468, 5, 16.2365, 15.4278, 25.1278, 31.6686, -31.3042, -24.1334
4.472, 5, 16.23, 15.4264, 25.1355, 31.6447, -31.3153, -24.1127
4.476, 5, 16.2234, 15.4251, 25.1433, 31.6208, -31.3264, -24.092
4.48, 5, 16.2168, 15.4237, 25.151, 31.597, -31.3375, -24.0713
4.484, 5, 16.2103, 15.4224, 25.1588, 31.5731, -31.3486, -24.0506
4.488, 5, 16.2037, 15.421, 25.1665, 31.5493, -31.3597, -24.03
4.492, 5, 16.1972, 15.4196, 25.1743, 31.5255, -31.3708, -24.0094
4.496, 5, 16.1906, 15.4183, 25.182, 31.5017, -31.382, -23.9887
4.5, 5, 16.184, 15.417, 25.1897, 31.4779, -31.3931, -23.9681
4.504, 5, 16.1775, 15.4156, 25.1975, 31.4541, -31.4043, -23.9475
4.508, 5, 16.1709, 15.4143, 25.2052, 31.4304, -31.4154, -23.9269
4.512, 5, 16.1643, 15.4129, 25.2129, 31.4066, -31.4265, -23.9064
4.516, 5, 16.1578, 15.4116, 25.2206, 31.3829, -31.4377, -23.8858
4.52, 5, 16.1512, 15.4103, 25.2284, 31.3592, -31.4488, -23.8653
4.524, 5, 16.1446, 15.4089, 25.2361, 31.3355, -31.46, -23.8448
4.528, 5, 16.1381, 15.4076, 25.2438, 31.3118, -31.4712, -23.8242
4.532, 5, 16.1315, 15.4063, 25.2515, 31.2881, -31.4823, -23.8037
4.536, 5, 16.1249, 15.405, 25.2592, 31.2645, -31.4935, -23.7833
4.54, 5, 16.1183, 15.4036, 25.2669, 31.2408, -31.5047, -23.7628
4.544, 5, 16.1118, 15.4023, 25.2746, 31.2172, -31.5159, -23.7423
4.548, 5, 16.1052, 15.401, 25.2823, 31.1936, -31.5271, -23.7219
4.552, 5, 16.0986, 15.3997, 25.29, 31.1699, -31.5383, -23.7015
4.556, 5, 16.092, 15.3984, 25.2977, 31.1464, -31.5494, -23.681
4.56, 5, 16.0855, 15.3971, 25.3054, 31.1228, -31.5606, -23.6606
4.564, 5, 16.0789, 15.3958, 25.3131, 31.0992, -31.5718, -23.6403
4.568, 5, 16.0723, 15.3945, 25.3208, 31.0757, -31.5831, -23.6199
4.572, 5, 16.0657, 15.3932, 25.3285, 31.0521, -31.5943, -23.5995
4.576, 5, 16.0591, 15.3919, 25.3362, 31.0286, -31.6055, -23.5792
4.58, 5, 16.0526, 15.3906, 25.3439, 31.0051, -31.6167, -23.5589
4.584, 5, 16.046, 15.3893, 25.3515, 30.9816, -31.6279, -23.5385
4.588, 5, 16.0394, 15.388, 25.3592, 30.9581, -31.6392, -23.5182
4.592, 5, 16.0328, 15.3867, 25.3669, 30.9346, -31.6504, -23.498
4.596, 5, 16.0262, 15.3855, 25.3746, 30.9112, -31.6616, -23.4777
4.6, 5, 16.0196, 15.3842, 25.3822, 30.8877, -31.6729, -23.4574
4.604, 5, 16.013, 15.3829, 25.3899, 30.8643, -31.6841, -23.4372
4.608, 5, 16.0064, 15.3816, 25.3976, 30.8409, -31.6954, -23.4169
4.612, 5, 15.9999, 15.3804, 25.4052, 30.8175, -31.7066, -23.3967
4.616, 5, 15.9933, 15.3791, 25.4129, 30.7941, -31.7179, -23.3765
4.62, 5, 15.9867, 15.3778, 25.4205, 30.7708, -31.7291, -23.3563
4.624, 5, 15.9801, 15.3766, 25.4282, 30.7474, -31.7404, -23.3362
4.628, 5, 15.9735, 15.3753, 25.4358, 30.724, -31.7517, -23.316
4.632, 5, 15.9669, 15.374, 25.4435, 30.7007, -31.7629, -23.2958
4.636, 5, 15.9603, 15.3728, 25.4511, 30.6774, -31.7742, -23.2757
4.64, 5, 15.9537, 15.3715, 25.4587, 30.6541, -31.7855, -23.2556
4.644, 5, 15.9471, 15.3703, 25.4664, 30.6308, -31.7968, -23.2355
4.648, 5, 15.9405, 15.369, 25.474, 30.6075, -31.8081, -23.2154
4.652, 5, 15.9339, 15.3678, 25.4816, 30.5843, -31.8194, -23.1953
4.656, 5, 15.9273, 15.3666, 25.4893, 30.561, -31.8307, -23.1752
4.66, 5, 15.9207, 15.3653, 25.4969, 30.5378, -31.842, -23.1552
4.664, 5, 15.9141, 15.3641, 25.5045, 30.5146, -31.8533, -23.1352
4.668, 5, 15.9075, 15.3629, 25.5121, 30.4913, -31.8646, -23.1151
4.672, 5, 15.9009, 15.3616, 25.5198, 30.4682, -31.8759, -23.0951
4.676, 5, 15.8943, 15.3604, 25.5274, 30.445, -31.8872, -23.0751
4.68, 5, 15.8877, 15.3592, 25.535, 30.4218, -31.8986, -23.0551
4.684, 5, 15.8811, 15.3579, 25.5426, 30.3986, -31.9099, -23.0352
4.688, 5, 15.8745, 15.3567, 25.5502, 30.3755, -31.9212, -23.0152
4.692, 5, 15.8679, 15.3555, 25.5578, 30.3524, -31.9326, -22.9953
4.696, 5, 15.8613, 15.3543, 25.5654, 30.3293, -31.9439, -22.9753
4.7, 5, 15.8547, 15.3531, 25.573, 30.3062, -31.9553, -22.9554
4.704, 5, 15.8481, 15.3519, 25.5806, 30.2831, -31.9666, -22.9355
4.708, 5, 15.8414, 15.3507, 25.5882, 30.26, -31.978, -22.9156
4.712, 5, 15.8348, 15.3495, 25.5958, 30.2369, -31.9893, -22.8958
4.716, 5, 15.8282, 15.3483, 25.6034, 30.2139, -32.0007, -22.8759
4.72, 5, 15.8216, 15.3471, 25.611, 30.1909, -32.012, -22.8561
4.724, 5, 15.815, 15.3459, 25.6185, 30.1678, -32.0234, -22.8362
4.728, 5, 15.8084, 15.3447, 25.6261, 30.1448, -32.0348, -22.8164
4.732, 5, 15.8018, 15.3435, 25.6337, 30.1218, -32.0462, -22.7966
4.736, 5, 15.7951, 15.3423, 25.6413, 30.0989, -32.0576, -22.7768
4.74, 5, 15.7885, 15.3411, 25.6488, 30.0759, -32.0689, -22.757
4.744, 5, 15.7819, 15.3399, 25.6564, 30.053, -32.0803, -22.7373
4.748, 5, 15.7753, 15.3388, 25.664, 30.03, -32.0917, -22.7175
4.752, 5, 15.7687, 15.3376, 25.6715, 30.0071, -32.1031, -22.6978
4.756, 5, 15.762, 15.3364, 25.6791, 29.9842, -32.1145, -22.6781
4.76, 5, 15.7554, 15.3352, 25.6866, 29.9613, -32.1259, -22.6583
4.764, 5, 15.7488, 15.3341, 25.6942, 29.9384, -32.1373, -22.6386
4.768, 5, 15.7422, 15.3329, 25.7017, 29.9155, -32.1488, -22.619
4.772, 5, 15.7355, 15.3317, 25.7093, 29.8927, -32.1602, -22.5993
4.776, 5, 15.7289, 15.3306, 25.7168, 29.8698, -32.1716, -22.5796
4.78, 5, 15.7223, 15.3294, 25.7244, 29.847, -32.183, -22.56
4.784, 5, 15.7157, 15.3283, 25.7319, 29.8242, -32.1945, -22.5404
4.788, 5, 15.709, 15.3271, 25.7395, 29.8014, -32.2059, -22.5208
4.792, 5, 15.7024, 15.326, 25.747, 29.7786, -32.2173, -22.5011
4.796, 5, 15.6958, 15.3248, 25.7545, 29.7558, -32.2288, -22.4816
4.8, 5, 15.6891, 15.3237, 25.7621, 29.733, -32.2402, -22.462
4.804, 5, 15.6825, 15.3225, 25.7696, 29.7103, -32.2517, -22.4424
4.808, 5, 15.6759, 15.3214, 25.7771, 29.6875, -32.2631, -22.4229
4.812, 5, 15.6692, 15.3203, 25.7846, 29.6648, -32.2746, -22.4033
4.816, 5, 15.6626, 15.3191, 25.7921, 29.6421, -32.286, -22.3838
4.82, 5, 15.656, 15.318, 25.7997, 29.6194, -32.2975, -22.3643
4.824, 5, 15.6493, 15.3169, 25.8072, 29.5967, -32.309, -22.3448
4.828, 5, 15.6427, 15.3158, 25.8147, 29.574, -32.3205, -22.3253
4.832, 5, 15.6361, 15.3146, 25.8222, 29.5514, -32.3319, -22.3059
4.836, 5, 15.6294, 15.3135, 25.8297, 29.5287, -32.3434, -22.2864
4.84, 5, 15.6228, 15.3124, 25.8372, 29.5061, -32.3549, -22.267
4.844, 5, 15.6161, 15.3113, 25.8447, 29.4835, -32.3664, -22.2475
4.848, 5, 15.6095, 15.3102, 25.8522, 29.4609, -32.3779, -22.2281
4.852, 5, 15.6029, 15.3091, 25.8597, 29.4383, -32.3894, -22.2087
4.856, 5, 15.5962, 15.308, 25.8672, 29.4157, -32.4009, -22.1893
4.86, 5, 15.5896, 15.3069, 25.8747, 29.3931, -32.4124, -22.17
4.864, 5, 15.5829, 15.3058, 25.8821, 29.3706, -32.4239, -22.1506
4.868, 5, 15.5763, 15.3047, 25.8896, 29.348, -32.4354, -22.1313
4.872, 5, 15.5696, 15.3036, 25.8971, 29.3255, -32.447, -22.1119
4.876, 5, 15.563, 15.3025, 25.9046, 29.303, -32.4585, -22.0926
4.88, 5, 15.5563, 15.3014, 25.912, 29.2805, -32.47, -22.0733
4.884, 5, 15.5497, 15.3003, 25.9195, 29.258, -32.4815, -22.054
4.888, 5, 15.543, 15.2992, 25.927, 29.2355, -32.4931, -22.0347
4.892, 5, 15.5364, 15.2981, 25.9345, 29.2131, -32.5046, -22.0155
4.896, 5, 15.5297, 15.2971, 25.9419, 29.1906, -32.5161, -21.9962
4.9, 5, 15.5231, 15.296, 25.9494, 29.1682, -32.5277, -21.977
4.904, 5, 15.5164, 15.2949, 25.9568, 29.1458, -32.5392, -21.9577
4.908, 5, 15.5098, 15.2938, 25.9643, 29.1233, -32.5508, -21.9385
4.912, 5, 15.5031, 15.2928, 25.9717, 29.101, -32.5624, -21.9193
4.916, 5, 15.4964, 15.2917, 25.9792, 29.0786, -32.5739, -21.9001
4.92, 5, 15.4898, 15.2906, 25.9866, 29.0562, -32.5855, -21.881
4.924, 5, 15.4831, 15.2896, 25.9941, 29.0338, -32.5971, -21.8618
4.928, 5, 15.4765, 15.2885, 26.0015, 29.0115, -32.6086, -21.8426
4.932, 5, 15.4698, 15.2875, 26.0089, 28.9892, -32.6202, -21.8235
4.936, 5, 15.4631, 15.2864, 26.0164, 28.9668, -32.6318, -21.8044
4.94, 5, 15.4565, 15.2854, 26.0238, 28.9445, -32.6434, -21.7853
4.944, 5, 15.4498, 15.2843, 26.0312, 28.9222, -32.655, -21.7662
4.948, 5, 15.4432, 15.2833, 26.0387, 28.9, -32.6666, -21.7471
4.952, 5, 15.4365, 15.2822, 26.0461, 28.8777, -32.6782, -21.728
4.956, 5, 15.4298, 15.2812, 26.0535, 28.8554, -32.6898, -21.709
4.96, 5, 15.4232, 15.2802, 26.0609, 28.8332, -32.7014, -21.6899
4.964, 5, 15.4165, 15.2791, 26.0683, 28.811, -32.713, -21.6709
4.968, 5, 15.4098, 15.2781, 26.0758, 28.7888, -32.7246, -21.6519
4.972, 5, 15.4031, 15.2771, 26.0832, 28.7666, -32.7362, -21.6329
4.976, 5, 15.3965, 15.2761, 26.0906, 28.7444, -32.7478, -21.6139
4.98, 5, 15.3898, 15.275, 26.098, 28.7222, -32.7594, -21.5949
4.984, 5, 15.3831, 15.274, 26.1054, 28.7, -32.7711, -21.5759
4.988, 5, 15.3765, 15.273, 26.1128, 28.6779, -32.7827, -21.557
4.992, 5, 15.3698, 15.272, 26.1202, 28.6557, -32.7943, -21.5381
4.996, 5, 15.3631, 15.271, 26.1276, 28.6336, -32.806, -21.5191
5, 5, 15.3564, 15.27, 26.135, 28.6115, -32.8176, -21.5002
5.004, 5, 15.3498, 15.269, 26.1423, 28.5894, -32.8293, -21.4813
5.008, 5, 15.3431, 15.268, 26.1497, 28.5673, -32.8409, -21.4624
5.012, 5, 15.3364, 15.267, 26.1571, 28.5452, -32.8526, -21.4436
5.016, 5, 15.3297, 15.266, 26.1645, 28.5232, -32.8642, -21.4247
5.02, 5, 15.323, 15.265, 26.1719, 28.5011, -32.8759, -21.4059
5.024, 5, 15.3164, 15.264, 26.1792, 28.4791, -32.8876, -21.387
5.028, 5, 15.3097, 15.263, 26.1866, 28.4571, -32.8992, -21.3682
5.032, 5, 15.303, 15.262, 26.194, 28.4351, -32.9109, -21.3494
5.036, 5, 15.2963, 15.261, 26.2013, 28.4131, -32.9226, -21.3306
5.04, 5, 15.2896, 15.26, 26.2087, 28.3911, -32.9343, -21.3118
5.044, 5, 15.283, 15.2591, 26.2161, 28.3691, -32.946, -21.293
5.048, 5, 15.2763, 15.2581, 26.2234, 28.3471, -32.9577, -21.2743
5.052, 5, 15.2696, 15.2571, 26.2308, 28.3252, -32.9693, -21.2555
5.056, 5, 15.2629, 15.2561, 26.2381, 28.3033, -32.981, -21.2368
5.06, 5, 15.2562, 15.2552, 26.2455, 28.2813, -32.9927, -21.2181
5.064, 5, 15.2495, 15.2542, 26.2528, 28.2594, -33.0045, -21.1994
5.068, 5, 15.2428, 15.2533, 26.2602, 28.2375, -33.0162, -21.1807
5.072, 5, 15.2361, 15.2523, 26.2675, 28.2157, -33.0279, -21.162
5.076, 5, 15.2294, 15.2513, 26.2748, 28.1938, -33.0396, -21.1433
5.08, 5, 15.2227, 15.2504, 26.2822, 28.1719, -33.0513, -21.1247
5.084, 6, 15.2161, 15.2494, 26.2895, 28.1501, -33.063, -21.106
5.088, 6, 15.2094, 15.2485, 26.2968, 28.1283, -33.0748, -21.0874
5.092, 6, 15.2027, 15.2475, 26.3041, 28.1064, -33.0865, -21.0688
5.096, 6, 15.196, 15.2466, 26.3115, 28.0846, -33.0982, -21.0502
5.1, 6, 15.1893, 15.2457, 26.3188, 28.0628, -33.11, -21.0316
5.104, 6, 15.1826, 15.2447, 26.3261, 28.041, -33.1217, -21.013
5.108, 6, 15.1759, 15.2438, 26.3334, 28.0193, -33.1335, -20.9945
5.112, 6, 15.1692, 15.2429, 26.3407, 27.9975, -33.1452, -20.9759
5.116, 6, 15.1625, 15.2419, 26.348, 27.9758, -33.157, -20.9574
5.12, 6, 15.1558, 15.241, 26.3554, 27.954, -33.1687, -20.9389
5.124, 6, 15.1491, 15.2401, 26.3627, 27.9323, -33.1805, -20.9203
5.128, 6, 15.1424, 15.2392, 26.37, 27.9106, -33.1922, -20.9018
5.132, 6, 15.1357, 15.2383, 26.3773, 27.8889, -33.204, -20.8834
5.136, 6, 15.1289, 15.2373, 26.3845, 27.8672, -33.2158, -20.8649
5.14, 6, 15.1222, 15.2364, 26.3918, 27.8456, -33.2276, -20.8464
5.144, 6, 15.1155, 15.2355, 26.3991, 27.8239, -33.2393, -20.828
5.148, 6, 15.1088, 15.2346, 26.4064, 27.8023, -33.2511, -20.8095
5.152, 6, 15.1021, 15.2337, 26.4137, 27.7806, -33.2629, -20.7911
5.156, 6, 15.0954, 15.2328, 26.421, 27.759, -33.2747, -20.7727
5.16, 6, 15.0887, 15.2319, 26.4283, 27.7374, -33.2865, -20.7543
5.164, 6, 15.082, 15.231, 26.4355, 27.7158, -33.2983, -20.7359
5.168, 6, 15.0753, 15.2301, 26.4428, 27.6942, -33.3101, -20.7175
5.172, 6, 15.0686, 15.2292, 26.4501, 27.6727, -33.3219, -20.6992
5.176, 6, 15.0618, 15.2283, 26.4573, 27.6511, -33.3337, -20.6808
5.18, 6, 15.0551, 15.2275, 26.4646, 27.6296, -33.3455, -20.6625
5.184, 6, 15.0484, 15.2266, 26.4719, 27.608, -33.3573, -20.6442
5.188, 6, 15.0417, 15.2257, 26.4791, 27.5865, -33.3692, -20.6259
5.192, 6, 15.035, 15.2248, 26.4864, 27.565, -33.381, -20.6076
5.196, 6, 15.0283, 15.2239, 26.4936, 27.5435, -33.3928, -20.5893
5.2, 6, 15.0215, 15.2231, 26.5009, 27.522, -33.4046, -20.571
5.204, 6, 15.0148, 15.2222, 26.5081, 27.5006, -33.4165, -20.5527
5.208, 6, 15.0081, 15.2213, 26.5154, 27.4791, -33.4283, -20.5345
5.212, 6, 15.0014, 15.2205, 26.5226, 27.4577, -33.4402, -20.5163
5.216, 6, 14.9947, 15.2196, 26.5299, 27.4362, -33.452, -20.498
5.22, 6, 14.9879, 15.2188, 26.5371, 27.4148, -33.4639, -20.4798
5.224, 6, 14.9812, 15.2179, 26.5443, 27.3934, -33.4757, -20.4616
5.228, 6, 14.9745, 15.2171, 26.5516, 27.372, -33.4876, -20.4434
5.232, 6, 14.9678, 15.2162, 26.5588, 27.3506, -33.4994, -20.4253
5.236, 6, 14.961, 15.2154, 26.566, 27.3293, -33.5113, -20.4071
5.24, 6, 14.9543, 15.2145, 26.5732, 27.3079, -33.5232, -20.389
5.244, 6, 14.9476, 15.2137, 26.5805, 27.2865, -33.535, -20.3708
5.248, 6, 14.9408, 15.2128, 26.5877, 27.2652, -33.5469, -20.3527
5.252, 6, 14.9341, 15.212, 26.5949, 27.2439, -33.5588, -20.3346
5.256, 6, 14.9274, 15.2112, 26.6021, 27.2226, -33.5707, -20.3165
5.26, 6, 14.9207, 15.2103, 26.6093, 27.2013, -33.5826, -20.2984
5.264, 6, 14.9139, 15.2095, 26.6165, 27.18, -33.5945, -20.2803
5.268, 6, 14.9072, 15.2087, 26.6237, 27.1587, -33.6063, -20.2623
5.272, 6, 14.9005, 15.2079, 26.6309, 27.1375, -33.6182, -20.2442
5.276, 6, 14.8937, 15.2071, 26.6381, 27.1162, -33.6301, -20.2262
5.28, 6, 14.887, 15.2062, 26.6453, 27.095, -33.642, -20.2082
5.284, 6, 14.8802, 15.2054, 26.6525, 27.0738, -33.654, -20.1902
5.288, 6, 14.8735, 15.2046, 26.6597, 27.0525, -33.6659, -20.1722
5.292, 6, 14.8668, 15.2038, 26.6669, 27.0313, -33.6778, -20.1542
5.296, 6, 14.86, 15.203, 26.674, 27.0102, -33.6897, -20.1362
5.3, 6, 14.8533, 15.2022, 26.6812, 26.989, -33.7016, -20.1182
5.304, 6, 14.8465, 15.2014, 26.6884, 26.9678, -33.7135, -20.1003
5.308, 6, 14.8398, 15.2006, 26.6956, 26.9467, -33.7255, -20.0824
5.312, 6, 14.8331, 15.1998, 26.7027, 26.9255, -33.7374, -20.0644
5.316, 6, 14.8263, 15.199, 26.7099, 26.9044, -33.7493, -20.0465
5.32, 6, 14.8196, 15.1982, 26.7171, 26.8833, -33.7613, -20.0286
5.324, 6, 14.8128, 15.1974, 26.7242, 26.8622, -33.7732, -20.0107
5.328, 6, 14.8061, 15.1967, 26.7314, 26.8411, -33.7852, -19.9929
5.332, 6, 14.7993, 15.1959, 26.7386, 26.82, -33.7971, -19.975
5.336, 6, 14.7926, 15.1951, 26.7457, 26.7989, -33.8091, -19.9571
5.34, 6, 14.7858, 15.1943, 26.7529, 26.7779, -33.821, -19.9393
5.344, 6, 14.7791, 15.1936, 26.76, 26.7569, -33.833, -19.9215
5.348, 6, 14.7723, 15.1928, 26.7672, 26.7358, -33.845, -19.9037
5.352, 6, 14.7656, 15.192, 26.7743, 26.7148, -33.8569, -19.8859
5.356, 6, 14.7588, 15.1913, 26.7815, 26.6938, -33.8689, -19.8681
5.36, 6, 14.7521, 15.1905, 26.7886, 26.6728, -33.8809, -19.8503
5.364, 6, 14.7453, 15.1897, 26.7957, 26.6518, -33.8929, -19.8325
5.368, 6, 14.7386, 15.189, 26.8029, 26.6308, -33.9048, -19.8148
5.372, 6, 14.7318, 15.1882, 26.81, 26.6099, -33.9168, -19.797
5.376, 6, 14.725, 15.1875, 26.8171, 26.5889, -33.9288, -19.7793
5.38, 6, 14.7183, 15.1867, 26.8242, 26.568, -33.9408, -19.7616
5.384, 6, 14.7115, 15.186, 26.8314, 26.5471, -33.9528, -19.7439
5.388, 6, 14.7048, 15.1853, 26.8385, 26.5262, -33.9648, -19.7262
5.392, 6, 14.698, 15.1845, 26.8456, 26.5053, -33.9768, -19.7085
5.396, 6, 14.6912, 15.1838, 26.8527, 26.4844, -33.9888, -19.6909
5.4, 6, 14.6845, 15.183, 26.8598, 26.4635, -34.0008, -19.6732
5.404, 6, 14.6777, 15.1823, 26.8669, 26.4427, -34.0129, -19.6556
5.408, 6, 14.671, 15.1816, 26.874, 26.4218, -34.0249, -19.6379
5.412, 6, 14.6642, 15.1809, 26.8811, 26.401, -34.0369, -19.6203
5.416, 6, 14.6574, 15.1801, 26.8882, 26.3801, -34.0489, -19.6027
5.42, 6, 14.6507, 15.1794, 26.8953, 26.3593, -34.0609, -19.5851
5.424, 6, 14.6439, 15.1787, 26.9024, 26.3385, -34.073, -19.5675
5.428, 6, 14.6371, 15.178, 26.9095, 26.3177, -34.085, -19.55
5.432, 6, 14.6304, 15.1773, 26.9166, 26.297, -34.097, -19.5324
5.436, 6, 14.6236, 15.1766, 26.9237, 26.2762, -34.1091, -19.5148
5.44, 6, 14.6168, 15.1759, 26.9308, 26.2554, -34.1211, -19.4973
5.444, 6, 14.61, 15.1752, 26.9378, 26.2347, -34.1332, -19.4798
5.448, 6, 14.6033, 15.1745, 26.9449, 26.214, -34.1452, -19.4623
5.452, 6, 14.5965, 15.1738, 26.952, 26.1932, -34.1573, -19.4448
5.456, 6, 14.5897, 15.1731, 26.9591, 26.1725, -34.1694, -19.4273
5.46, 6, 14.583, 15.1724, 26.9661, 26.1518, -34.1814, -19.4098
5.464, 6, 14.5762, 15.1717, 26.9732, 26.1312, -34.1935, -19.3924
5.468, 6, 14.5694, 15.171, 26.9802, 26.1105, -34.2056, -19.3749
5.472, 6, 14.5626, 15.1703, 26.9873, 26.0898, -34.2176, -19.3575
5.476, 6, 14.5558, 15.1696, 26.9944, 26.0692, -34.2297, -19.34
5.48, 6, 14.5491, 15.169, 27.0014, 26.0485, -34.2418, -19.3226
5.484, 6, 14.5423, 15.1683, 27.0085, 26.0279, -34.2539, -19.3052
5.488, 6, 14.5355, 15.1676, 27.0155, 26.0073, -34.266, -19.2878
5.492, 6, 14.5287, 15.1669, 27.0226, 25.9867, -34.2781, -19.2705
5.496, 6, 14.5219, 15.1663, 27.0296, 25.9661, -34.2901, -19.2531
5.5, 6, 14.5152, 15.1656, 27.0366, 25.9455, -34.3022, -19.2357
5.504, 6, 14.5084, 15.1649, 27.0437, 25.925, -34.3143, -19.2184
5.508, 6, 14.5016, 15.1643, 27.0507, 25.9044, -34.3265, -19.2011
5.512, 6, 14.4948, 15.1636, 27.0577, 25.8839, -34.3386, -19.1838
5.516, 6, 14.488, 15.163, 27.0648, 25.8633, -34.3507, -19.1665
5.52, 6, 14.4812, 15.1623, 27.0718, 25.8428, -34.3628, -19.1492
5.524, 6, 14.4744, 15.1617, 27.0788, 25.8223, -34.3749, -19.1319
5.528, 6, 14.4676, 15.161, 27.0858, 25.8018, -34.387, -19.1146
5.532, 6, 14.4609, 15.1604, 27.0929, 25.7813, -34.3991, -19.0973
5.536, 6, 14.4541, 15.1597, 27.0999, 25.7609, -34.4113, -19.0801
5.54, 6, 14.4473, 15.1591, 27.1069, 25.7404, -34.4234, -19.0629
5.544, 6, 14.4405, 15.1585, 27.1139, 25.7199, -34.4355, -19.0456
5.548, 6, 14.4337, 15.1578, 27.1209, 25.6995, -34.4477, -19.0284
5.552, 6, 14.4269, 15.1572, 27.1279, 25.6791, -34.4598, -19.0112
5.556, 6, 14.4201, 15.1566, 27.1349, 25.6587, -34.472, -18.994
5.56, 6, 14.4133, 15.156, 27.1419, 25.6383, -34.4841, -18.9769
5.564, 6, 14.4065, 15.1553, 27.1489, 25.6179, -34.4963, -18.9597
5.568, 6, 14.3997, 15.1547, 27.1559, 25.5975, -34.5084, -18.9426
5.572, 6, 14.3929, 15.1541, 27.1629, 25.5771, -34.5206, -18.9254
5.576, 6, 14.3861, 15.1535, 27.1699, 25.5568, -34.5327, -18.9083
5.58, 6, 14.3793, 15.1529, 27.1769, 25.5364, -34.5449, -18.8912
5.584, 6, 14.3725, 15.1523, 27.1838, 25.5161, -34.5571, -18.8741
5.588, 6, 14.3657, 15.1517, 27.1908, 25.4958, -34.5693, -18.857
5.592, 6, 14.3589, 15.1511, 27.1978, 25.4755, -34.5814, -18.8399
5.596, 6, 14.3521, 15.1505, 27.2048, 25.4552, -34.5936, -18.8228
5.6, 6, 14.3453, 15.1499, 27.2117, 25.4349, -34.6058, -18.8058
5.604, 6, 14.3385, 15.1493, 27.2187, 25.4146, -34.618, -18.7887
5.608, 6, 14.3317, 15.1487, 27.2257, 25.3943, -34.6302, -18.7717
5.612, 6, 14.3249, 15.1481, 27.2326, 25.3741, -34.6424, -18.7547
5.616, 6, 14.3181, 15.1475, 27.2396, 25.3538, -34.6546, -18.7376
5.62, 6, 14.3113, 15.1469, 27.2465, 25.3336, -34.6668, -18.7206
5.624, 6, 14.3045, 15.1464, 27.2535, 25.3134, -34.679, -18.7036
5.628, 6, 14.2976, 15.1458, 27.2604, 25.2932, -34.6912, -18.6867
5.632, 6, 14.2908, 15.1452, 27.2674, 25.273, -34.7034, -18.6697
5.636, 6, 14.284, 15.1446, 27.2743, 25.2528, -34.7156, -18.6528
5.64, 6, 14.2772, 15.1441, 27.2813, 25.2326, -34.7278, -18.6358
5.644, 6, 14.2704, 15.1435, 27.2882, 25.2125, -34.74, -18.6189
5.648, 6, 14.2636, 15.1429, 27.2951, 25.1923, -34.7522, -18.602
5.652, 6, 14.2568, 15.1424, 27.3021, 25.1722, -34.7645, -18.5851
5.656, 6, 14.2499, 15.1418, 27.309, 25.1521, -34.7767, -18.5682
5.66, 6, 14.2431, 15.1413, 27.3159, 25.1319, -34.7889, -18.5513
5.664, 6, 14.2363, 15.1407, 27.3229, 25.1118, -34.8012, -18.5344
5.668, 6, 14.2295, 15.1402, 27.3298, 25.0917, -34.8134, -18.5175
5.672, 6, 14.2227, 15.1396, 27.3367, 25.0717, -34.8256, -18.5007
5.676, 6, 14.2158, 15.1391, 27.3436, 25.0516, -34.8379, -18.4839
5.68, 6, 14.209, 15.1385, 27.3505, 25.0315, -34.8501, -18.467
5.684, 6, 14.2022, 15.138, 27.3574, 25.0115, -34.8624, -18.4502
5.688, 6, 14.1954, 15.1375, 27.3643, 24.9915, -34.8746, -18.4334
5.692, 6, 14.1886, 15.1369, 27.3712, 24.9714, -34.8869, -18.4166
5.696, 6, 14.1817, 15.1364, 27.3781, 24.9514, -34.8992, -18.3998
5.7, 6, 14.1749, 15.1359, 27.385, 24.9314, -34.9114, -18.3831
5.704, 6, 14.1681, 15.1354, 27.3919, 24.9114, -34.9237, -18.3663
5.708, 6, 14.1613, 15.1348, 27.3988, 24.8914, -34.936, -18.3496
5.712, 6, 14.1544, 15.1343, 27.4057, 24.8715, -34.9482, -18.3328
5.716, 6, 14.1476, 15.1338, 27.4126, 24.8515, -34.9605, -18.3161
5.72, 6, 14.1408, 15.1333, 27.4195, 24.8316, -34.9728, -18.2994
5.724, 6, 14.1339, 15.1328, 27.4264, 24.8116, -34.9851, -18.2827
5.728, 6, 14.1271, 15.1323, 27.4333, 24.7917, -34.9974, -18.266
5.732, 6, 14.1203, 15.1318, 27.4401, 24.7718, -35.0097, -18.2493
5.736, 6, 14.1134, 15.1313, 27.447, 24.7519, -35.022, -18.2327
5.74, 6, 14.1066, 15.1308, 27.4539, 24.732, -35.0343, -18.216
5.744, 6, 14.0998, 15.1303, 27.4607, 24.7121, -35.0466, -18.1994
5.748, 6, 14.0929, 15.1298, 27.4676, 24.6923, -35.0589, -18.1827
5.752, 6, 14.0861, 15.1293, 27.4745, 24.6724, -35.0712, -18.1661
5.756, 6, 14.0793, 15.1288, 27.4813, 24.6526, -35.0835, -18.1495
5.76, 6, 14.0724, 15.1283, 27.4882, 24.6327, -35.0958, -18.1329
5.764, 6, 14.0656, 15.1278, 27.495, 24.6129, -35.1081, -18.1163
5.768, 6, 14.0588, 15.1273, 27.5019, 24.5931, -35.1204, -18.0998
5.772, 6, 14.0519, 15.1269, 27.5087, 24.5733, -35.1328, -18.0832
5.776, 6, 14.0451, 15.1264, 27.5156, 24.5535, -35.1451, -18.0666
5.78, 6, 14.0382, 15.1259, 27.5224, 24.5337, -35.1574, -18.0501
5.784, 6, 14.0314, 15.1255, 27.5293, 24.514, -35.1698, -18.0336
5.788, 6, 14.0245, 15.125, 27.5361, 24.4942, -35.1821, -18.017
5.792, 6, 14.0177, 15.1245, 27.5429, 24.4744, -35.1944, -18.0005
5.796, 6, 14.0109, 15.1241, 27.5498, 24.4547, -35.2068, -17.984
5.8, 6, 14.004, 15.1236, 27.5566, 24.435, -35.2191, -17.9676
5.804, 6, 13.9972, 15.1232, 27.5634, 24.4153, -35.2315, -17.9511
5.808, 6, 13.9903, 15.1227, 27.5702, 24.3956, -35.2438, -17.9346
5.812, 6, 13.9835, 15.1223, 27.5771, 24.3759, -35.2562, -17.9182
5.816, 6, 13.9766, 15.1218, 27.5839, 24.3562, -35.2685, -17.9017
5.82, 6, 13.9698, 15.1214, 27.5907, 24.3365, -35.2809, -17.8853
5.824, 6, 13.9629, 15.1209, 27.5975, 24.3169, -35.2933, -17.8689
5.828, 6, 13.9561, 15.1205, 27.6043, 24.2972, -35.3056, -17.8525
5.832, 6, 13.9492, 15.12, 27.6111, 24.2776, -35.318, -17.8361
5.836, 6, 13.9424, 15.1196, 27.6179, 24.258, -35.3304, -17.8197
5.84, 6, 13.9355, 15.1192, 27.6247, 24.2384, -35.3427, -17.8033
5.844, 6, 13.9286, 15.1188, 27.6315, 24.2188, -35.3551, -17.787
5.848, 6, 13.9218, 15.1183, 27.6383, 24.1992, -35.3675, -17.7706
5.852, 6, 13.9149, 15.1179, 27.6451, 24.1796, -35.3799, -17.7543
5.856, 6, 13.9081, 15.1175, 27.6519, 24.16, -35.3923, -17.738
5.86, 6, 13.9012, 15.1171, 27.6587, 24.1405, -35.4047, -17.7216
5.864, 6, 13.8944, 15.1167, 27.6654, 24.1209, -35.4171, -17.7053
5.868, 6, 13.8875, 15.1163, 27.6722, 24.1014, -35.4295, -17.689
5.872, 6, 13.8806, 15.1158, 27.679, 24.0819, -35.4419, -17.6728
5.876, 6, 13.8738, 15.1154, 27.6858, 24.0623, -35.4543, -17.6565
5.88, 6, 13.8669, 15.115, 27.6925, 24.0428, -35.4667, -17.6402
5.884, 6, 13.86, 15.1146, 27.6993, 24.0234, -35.4791, -17.624
5.888, 6, 13.8532, 15.1142, 27.7061, 24.0039, -35.4915, -17.6077
5.892, 6, 13.8463, 15.1139, 27.7128, 23.9844, -35.5039, -17.5915
5.896, 6, 13.8395, 15.1135, 27.7196, 23.9649, -35.5164, -17.5753
5.9, 6, 13.8326, 15.1131, 27.7264, 23.9455, -35.5288, -17.5591
5.904, 6, 13.8257, 15.1127, 27.7331, 23.9261, -35.5412, -17.5429
5.908, 6, 13.8189, 15.1123, 27.7399, 23.9066, -35.5536, -17.5267
5.912, 6, 13.812, 15.1119, 27.7466, 23.8872, -35.5661, -17.5105
5.916, 6, 13.8051, 15.1116, 27.7534, 23.8678, -35.5785, -17.4944
5.92, 6, 13.7982, 15.1112, 27.7601, 23.8484, -35.591, -17.4782
5.924, 6, 13.7914, 15.1108, 27.7668, 23.829, -35.6034, -17.4621
5.928, 6, 13.7845, 15.1104, 27.7736, 23.8097, -35.6158, -17.446
5.932, 6, 13.7776, 15.1101, 27.7803, 23.7903, -35.6283, -17.4298
5.936, 6, 13.7708, 15.1097, 27.787, 23.7709, -35.6407, -17.4137
5.94, 6, 13.7639, 15.1093, 27.7938, 23.7516, -35.6532, -17.3976
5.944, 6, 13.757, 15.109, 27.8005, 23.7323, -35.6657, -17.3815
5.948, 6, 13.7501, 15.1086, 27.8072, 23.7129, -35.6781, -17.3655
5.952, 6, 13.7432, 15.1083, 27.8139, 23.6936, -35.6906, -17.3494
5.956, 6, 13.7364, 15.1079, 27.8207, 23.6743, -35.7031, -17.3334
5.96, 6, 13.7295, 15.1076, 27.8274, 23.6551, -35.7155, -17.3173
5.964, 6, 13.7226, 15.1072, 27.8341, 23.6358, -35.728, -17.3013
5.968, 6, 13.7157, 15.1069, 27.8408, 23.6165, -35.7405, -17.2853
5.972, 6, 13.7088, 15.1066, 27.8475, 23.5973, -35.753, -17.2693
5.976, 6, 13.702, 15.1062, 27.8542, 23.578, -35.7654, -17.2533
5.98, 6, 13.6951, 15.1059, 27.8609, 23.5588, -35.7779, -17.2373
