hehonglu123/ABB_Primitive_Study/execution/movelll_30_car/curve_exe_v300_z1.csv
timestamp, cmd_num, J1, J2, J3, J4, J5, J6
0, -1, -13.4393, 43.6787, 12.5946, -11.6275, -87.029, 7.42441
0.002, -1, -13.4393, 43.6787, 12.5946, -11.6275, -87.029, 7.42441
0.006, -1, -13.4393, 43.6787, 12.5946, -11.6275, -87.029, 7.42441
0.008, -1, -13.4393, 43.6787, 12.5946, -11.6275, -87.029, 7.42441
0.011, -1, -13.4393, 43.6787, 12.5946, -11.6275, -87.029, 7.42441
0.016, -1, -13.4393, 43.6787, 12.5946, -11.6275, -87.029, 7.42441
0.02, -1, -13.4393, 43.6787, 12.5946, -11.6275, -87.029, 7.42441
0.024, -1, -13.4393, 43.6787, 12.5946, -11.6275, -87.029, 7.42441
0.028, -1, -13.4393, 43.6787, 12.5946, -11.6275, -87.029, 7.42441
0.032, -1, -13.4393, 43.6787, 12.5946, -11.6275, -87.029, 7.42441
0.036, -1, -13.4392, 43.6786, 12.5946, -11.6275, -87.029, 7.42441
0.04, -1, -13.439, 43.6785, 12.5946, -11.6275, -87.029, 7.42441
0.044, -1, -13.4384, 43.678, 12.5947, -11.6275, -87.029, 7.42439
0.048, -1, -13.4372, 43.6772, 12.5949, -11.6274, -87.0289, 7.42434
0.052, -1, -13.4355, 43.6758, 12.5951, -11.6273, -87.0287, 7.42422
0.056, -1, -13.433, 43.6738, 12.5955, -11.627, -87.0284, 7.42397
0.06, -1, -13.4296, 43.671, 12.5961, -11.6264, -87.0277, 7.42349
0.064, -1, -13.4254, 43.6675, 12.5969, -11.6253, -87.0264, 7.42266
0.068, -1, -13.4203, 43.6631, 12.598, -11.6236, -87.0244, 7.42132
0.072, -1, -13.4141, 43.6579, 12.5994, -11.6209, -87.0213, 7.41928
0.076, -1, -13.4066, 43.6516, 12.6011, -11.617, -87.0167, 7.4163
0.08, -1, -13.3977, 43.6442, 12.6034, -11.6115, -87.0103, 7.41213
0.084, -1, -13.3869, 43.6352, 12.6062, -11.604, -87.0016, 7.40644
0.088, -1, -13.3743, 43.6247, 12.6097, -11.5941, -86.9899, 7.39892
0.092, -1, -13.3596, 43.6124, 12.6138, -11.5812, -86.9748, 7.38918
0.096, -1, -13.3427, 43.5982, 12.6186, -11.5648, -86.9557, 7.37685
0.1, -1, -13.3235, 43.582, 12.6243, -11.5444, -86.9319, 7.36155
0.104, -1, -13.3019, 43.5636, 12.6308, -11.5196, -86.9029, 7.3429
0.108, -1, -13.2776, 43.5427, 12.6382, -11.4899, -86.868, 7.32054
0.112, -1, -13.2505, 43.5193, 12.6467, -11.4547, -86.8269, 7.29416
0.116, -1, -13.2206, 43.4932, 12.6562, -11.4137, -86.7789, 7.26346
0.12, -1, -13.1877, 43.4644, 12.6669, -11.3667, -86.7238, 7.22818
0.124, -1, -13.1519, 43.4328, 12.6786, -11.3132, -86.6612, 7.18814
0.128, -1, -13.113, 43.3984, 12.6916, -11.2532, -86.591, 7.14319
0.131, -1, -13.071, 43.3611, 12.7056, -11.1865, -86.5129, 7.09326
0.136, -1, -13.026, 43.321, 12.7209, -11.1131, -86.4269, 7.03835
0.139, -1, -12.9779, 43.2779, 12.7373, -11.0331, -86.3333, 6.9785
0.144, -1, -12.9267, 43.232, 12.7548, -10.9467, -86.2321, 6.91384
0.148, -1, -12.8726, 43.1833, 12.7734, -10.854, -86.1236, 6.84454
0.152, -1, -12.8155, 43.132, 12.7932, -10.7555, -86.0082, 6.77084
0.156, -1, -12.7557, 43.0781, 12.8139, -10.6514, -85.8863, 6.69301
0.16, -1, -12.6932, 43.0219, 12.8355, -10.5422, -85.7585, 6.61137
0.164, -1, -12.6282, 42.9633, 12.8581, -10.4284, -85.6253, 6.52627
0.168, -1, -12.5607, 42.9025, 12.8815, -10.3105, -85.4872, 6.43809
0.172, -1, -12.4909, 42.8396, 12.9056, -10.189, -85.3449, 6.34721
0.176, -1, -12.4189, 42.7749, 12.9305, -10.0644, -85.1989, 6.25399
0.18, -1, -12.345, 42.7085, 12.956, -9.93711, -85.0499, 6.15879
0.184, -1, -12.2694, 42.6406, 12.9821, -9.80765, -84.8983, 6.06194
0.188, -1, -12.1925, 42.5714, 13.0086, -9.6764, -84.7446, 5.96375
0.192, -1, -12.1142, 42.5011, 13.0356, -9.54373, -84.5892, 5.86449
0.196, -1, -12.0348, 42.4297, 13.0629, -9.40995, -84.4326, 5.76439
0.2, -1, -11.9542, 42.3573, 13.0906, -9.27534, -84.2749, 5.66366
0.204, -1, -11.8724, 42.2841, 13.1185, -9.14011, -84.1166, 5.56246
0.208, -1, -11.7897, 42.21, 13.1466, -9.00443, -83.9577, 5.46092
0.212, -1, -11.7061, 42.1354, 13.1749, -8.86843, -83.7985, 5.35913
0.216, -1, -11.6218, 42.0602, 13.2033, -8.7322, -83.6389, 5.25717
0.22, -1, -11.5371, 41.9847, 13.2318, -8.5958, -83.4792, 5.15507
0.224, -1, -11.452, 41.909, 13.2603, -8.45928, -83.3194, 5.05288
0.228, -1, -11.3667, 41.8332, 13.2889, -8.32266, -83.1594, 4.95062
0.232, -1, -11.2813, 41.7572, 13.3176, -8.18597, -82.9993, 4.8483
0.236, -1, -11.1957, 41.6811, 13.3462, -8.04922, -82.8392, 4.74595
0.24, -1, -11.11, 41.605, 13.3749, -7.91243, -82.679, 4.64355
0.244, -1, -11.0243, 41.5288, 13.4035, -7.77561, -82.5188, 4.54114
0.248, -1, -10.9386, 41.4526, 13.4322, -7.63876, -82.3586, 4.4387
0.252, -1, -10.8528, 41.3764, 13.4609, -7.50189, -82.1983, 4.33625
0.256, -1, -10.767, 41.3002, 13.4896, -7.36501, -82.0381, 4.2338
0.26, -1, -10.6811, 41.2239, 13.5183, -7.22813, -81.8778, 4.13133
0.264, -1, -10.5953, 41.1477, 13.547, -7.09125, -81.7175, 4.02887
0.268, -1, -10.5094, 41.0714, 13.5757, -6.95436, -81.5572, 3.92641
0.272, -1, -10.4236, 40.9952, 13.6044, -6.81749, -81.397, 3.82396
0.276, -1, -10.3378, 40.9189, 13.6331, -6.68063, -81.2367, 3.72151
0.28, -1, -10.252, 40.8427, 13.6618, -6.54379, -81.0765, 3.61908
0.284, -1, -10.1661, 40.7665, 13.6904, -6.40697, -80.9163, 3.51666
0.288, -1, -10.0803, 40.6903, 13.7191, -6.27017, -80.7561, 3.41427
0.292, -1, -9.99456, 40.6141, 13.7478, -6.13341, -80.596, 3.31189
0.296, -1, -9.9088, 40.538, 13.7764, -5.99668, -80.4359, 3.20955
0.3, -1, -9.82306, 40.4618, 13.8051, -5.85999, -80.2758, 3.10723
0.304, -1, -9.73734, 40.3857, 13.8337, -5.72334, -80.1158, 3.00494
0.308, -1, -9.65166, 40.3096, 13.8624, -5.58674, -79.9558, 2.90269
0.312, -1, -9.566, 40.2336, 13.891, -5.45019, -79.796, 2.80048
0.316, -1, -9.48038, 40.1575, 13.9196, -5.31369, -79.6361, 2.69831
0.32, -1, -9.3948, 40.0815, 13.9482, -5.17726, -79.4764, 2.59618
0.324, -1, -9.30925, 40.0055, 13.9768, -5.04089, -79.3167, 2.4941
0.328, -1, -9.22375, 39.9296, 14.0054, -4.90458, -79.1571, 2.39207
0.332, -1, -9.13829, 39.8537, 14.0339, -4.76835, -78.9976, 2.2901
0.336, -1, -9.05287, 39.7778, 14.0625, -4.63219, -78.8382, 2.18818
0.34, -1, -8.9675, 39.702, 14.091, -4.49612, -78.6788, 2.08632
0.344, -1, -8.88219, 39.6262, 14.1195, -4.36012, -78.5196, 1.98452
0.348, -1, -8.79692, 39.5505, 14.148, -4.22421, -78.3604, 1.88279
0.352, -1, -8.71172, 39.4748, 14.1765, -4.0884, -78.2014, 1.78113
0.356, -1, -8.62657, 39.3992, 14.2049, -3.95267, -78.0425, 1.67953
0.36, -1, -8.54148, 39.3236, 14.2334, -3.81705, -77.8837, 1.57801
0.364, -1, -8.45646, 39.2481, 14.2618, -3.68152, -77.725, 1.47657
0.368, -1, -8.3715, 39.1727, 14.2902, -3.54611, -77.5664, 1.3752
0.372, -1, -8.28661, 39.0973, 14.3185, -3.4108, -77.408, 1.27392
0.376, -1, -8.20179, 39.0219, 14.3469, -3.2756, -77.2497, 1.17272
0.38, -1, -8.11704, 38.9467, 14.3752, -3.14052, -77.0915, 1.07161
0.384, -1, -8.03237, 38.8715, 14.4035, -3.00557, -76.9335, 0.970588
0.388, -1, -7.94777, 38.7963, 14.4318, -2.87073, -76.7756, 0.869659
0.392, -1, -7.86325, 38.7212, 14.46, -2.73602, -76.6179, 0.768825
0.396, -1, -7.77881, 38.6463, 14.4882, -2.60145, -76.4603, 0.668089
0.4, -1, -7.69446, 38.5713, 14.5164, -2.467, -76.3029, 0.567454
0.404, -1, -7.61019, 38.4965, 14.5446, -2.3327, -76.1456, 0.466921
0.408, -1, -7.526, 38.4217, 14.5727, -2.19854, -75.9885, 0.366494
0.412, -1, -7.44191, 38.347, 14.6008, -2.06452, -75.8316, 0.266176
0.416, -1, -7.35791, 38.2724, 14.6288, -1.93064, -75.6748, 0.165968
0.42, -1, -7.274, 38.1979, 14.6569, -1.79692, -75.5183, 0.0658724
0.424, -1, -7.19019, 38.1235, 14.6849, -1.66336, -75.3619, -0.0341072
0.428, -1, -7.10648, 38.0491, 14.7128, -1.52995, -75.2057, -0.133969
0.432, -1, -7.02287, 37.9748, 14.7408, -1.3967, -75.0496, -0.233711
0.436, -1, -6.93935, 37.9007, 14.7687, -1.26362, -74.8938, -0.33333
0.44, -1, -6.85595, 37.8266, 14.7965, -1.1307, -74.7382, -0.432824
0.444, -1, -6.77264, 37.7526, 14.8244, -0.99795, -74.5827, -0.532191
0.448, -1, -6.68945, 37.6787, 14.8522, -0.865375, -74.4275, -0.631429
0.452, -1, -6.60636, 37.6049, 14.8799, -0.732975, -74.2725, -0.730535
0.456, -1, -6.52339, 37.5312, 14.9077, -0.600755, -74.1176, -0.829507
0.46, -1, -6.44053, 37.4576, 14.9353, -0.468716, -73.963, -0.928344
0.464, -1, -6.35778, 37.3842, 14.963, -0.336861, -73.8086, -1.02704
0.468, -1, -6.27515, 37.3108, 14.9906, -0.205193, -73.6545, -1.1256
0.472, -1, -6.19264, 37.2375, 15.0181, -0.0737153, -73.5005, -1.22402
0.476, -1, -6.11024, 37.1643, 15.0457, 0.0575699, -73.3468, -1.32229
0.48, -1, -6.02797, 37.0912, 15.0732, 0.18866, -73.1933, -1.42042
0.484, -1, -5.94582, 37.0183, 15.1006, 0.319552, -73.04, -1.51839
0.488, -1, -5.8638, 36.9454, 15.128, 0.450244, -72.887, -1.61622
0.492, -1, -5.7819, 36.8727, 15.1554, 0.580734, -72.7342, -1.7139
0.496, -1, -5.70012, 36.8001, 15.1827, 0.711018, -72.5817, -1.81142
0.5, -1, -5.61848, 36.7276, 15.2099, 0.841096, -72.4294, -1.90879
0.504, -1, -5.53697, 36.6552, 15.2372, 0.970964, -72.2773, -2.006
0.508, -1, -5.45558, 36.5829, 15.2644, 1.10062, -72.1255, -2.10306
0.512, -1, -5.37433, 36.5108, 15.2915, 1.23006, -71.9739, -2.19995
0.516, -1, -5.29321, 36.4387, 15.3186, 1.35929, -71.8226, -2.29668
0.52, -1, -5.21223, 36.3668, 15.3456, 1.4883, -71.6715, -2.39325
0.524, -1, -5.13138, 36.295, 15.3726, 1.6171, -71.5207, -2.48966
0.528, -1, -5.05067, 36.2233, 15.3996, 1.74567, -71.3702, -2.5859
0.532, -1, -4.97009, 36.1518, 15.4265, 1.87402, -71.2199, -2.68198
0.536, -1, -4.88966, 36.0803, 15.4534, 2.00215, -71.0698, -2.77789
0.54, -1, -4.80936, 36.009, 15.4802, 2.13005, -70.9201, -2.87363
0.544, -1, -4.7292, 35.9378, 15.507, 2.25773, -70.7706, -2.9692
0.548, -1, -4.64919, 35.8668, 15.5337, 2.38518, -70.6213, -3.0646
0.552, -1, -4.56931, 35.7959, 15.5604, 2.51241, -70.4724, -3.15984
0.556, -1, -4.48958, 35.725, 15.587, 2.6394, -70.3237, -3.2549
0.56, -1, -4.41, 35.6544, 15.6136, 2.76617, -70.1752, -3.34979
0.564, -1, -4.33056, 35.5838, 15.6401, 2.8927, -70.0271, -3.44451
0.568, -1, -4.25126, 35.5134, 15.6666, 3.01901, -69.8792, -3.53905
0.572, -1, -4.17211, 35.4431, 15.693, 3.14508, -69.7316, -3.63342
0.576, -1, -4.0931, 35.373, 15.7194, 3.27092, -69.5842, -3.72761
0.58, -1, -4.01424, 35.3029, 15.7458, 3.39652, -69.4372, -3.82163
0.584, -1, -3.93553, 35.233, 15.772, 3.52189, -69.2904, -3.91547
0.588, -1, -3.85696, 35.1633, 15.7983, 3.64702, -69.1438, -4.00914
0.592, -1, -3.77855, 35.0936, 15.8245, 3.77191, -68.9976, -4.10263
0.596, -1, -3.70028, 35.0241, 15.8506, 3.89657, -68.8516, -4.19594
0.6, -1, -3.62216, 34.9548, 15.8767, 4.02099, -68.7059, -4.28908
0.604, -1, -3.54419, 34.8855, 15.9027, 4.14517, -68.5605, -4.38203
0.608, -1, -3.46637, 34.8164, 15.9287, 4.26911, -68.4154, -4.47481
0.612, -1, -3.3887, 34.7474, 15.9547, 4.39281, -68.2706, -4.5674
0.616, -1, -3.31118, 34.6786, 15.9806, 4.51628, -68.126, -4.65982
0.62, -1, -3.23382, 34.6099, 16.0064, 4.63949, -67.9817, -4.75205
0.624, -1, -3.1566, 34.5413, 16.0322, 4.76247, -67.8377, -4.84411
0.628, -1, -3.07954, 34.4729, 16.0579, 4.88521, -67.694, -4.93598
0.632, -1, -3.00262, 34.4046, 16.0836, 5.0077, -67.5506, -5.02767
0.636, -1, -2.92586, 34.3364, 16.1092, 5.12995, -67.4074, -5.11918
0.64, -1, -2.84926, 34.2684, 16.1348, 5.25195, -67.2646, -5.2105
0.644, -1, -2.7728, 34.2005, 16.1604, 5.37371, -67.122, -5.30165
0.648, -1, -2.6965, 34.1328, 16.1858, 5.49523, -66.9797, -5.39261
0.652, -1, -2.62035, 34.0652, 16.2113, 5.6165, -66.8377, -5.48338
0.656, -1, -2.54436, 33.9977, 16.2366, 5.73753, -66.696, -5.57398
0.66, -1, -2.46852, 33.9303, 16.262, 5.85831, -66.5546, -5.66439
0.664, -1, -2.39283, 33.8631, 16.2872, 5.97884, -66.4135, -5.75461
0.668, -1, -2.3173, 33.7961, 16.3125, 6.09913, -66.2726, -5.84465
0.672, -1, -2.24192, 33.7291, 16.3376, 6.21917, -66.1321, -5.93451
0.676, -1, -2.1667, 33.6623, 16.3628, 6.33897, -65.9918, -6.02418
0.68, -1, -2.09163, 33.5957, 16.3878, 6.45851, -65.8518, -6.11367
0.684, -1, -2.01672, 33.5292, 16.4129, 6.57781, -65.7121, -6.20297
0.688, -1, -1.94196, 33.4628, 16.4378, 6.69687, -65.5727, -6.29208
0.692, -1, -1.86736, 33.3965, 16.4627, 6.81567, -65.4336, -6.38101
0.696, -1, -1.79291, 33.3304, 16.4876, 6.93423, -65.2948, -6.46976
0.7, -1, -1.71862, 33.2645, 16.5124, 7.05254, -65.1562, -6.55832
0.704, -1, -1.64448, 33.1986, 16.5372, 7.1706, -65.018, -6.64669
0.708, -1, -1.5705, 33.1329, 16.5619, 7.28841, -64.8801, -6.73488
0.712, -1, -1.49668, 33.0674, 16.5865, 7.40597, -64.7424, -6.82288
0.716, -1, -1.42301, 33.002, 16.6111, 7.52329, -64.605, -6.9107
0.72, -1, -1.34949, 32.9367, 16.6357, 7.64036, -64.468, -6.99833
0.724, -1, -1.27614, 32.8715, 16.6602, 7.75718, -64.3312, -7.08577
0.728, -1, -1.20293, 32.8065, 16.6846, 7.87375, -64.1947, -7.17303
0.732, -1, -1.12989, 32.7417, 16.709, 7.99007, -64.0585, -7.2601
0.736, -1, -1.057, 32.677, 16.7333, 8.10615, -63.9226, -7.34699
0.74, -1, -0.984259, 32.6124, 16.7576, 8.22197, -63.7869, -7.43369
0.744, -1, -0.911678, 32.5479, 16.7819, 8.33755, -63.6516, -7.52021
0.748, -1, -0.839252, 32.4836, 16.8061, 8.45288, -63.5166, -7.60653
0.752, -1, -0.766981, 32.4194, 16.8302, 8.56796, -63.3818, -7.69268
0.756, -1, -0.694864, 32.3554, 16.8543, 8.6828, -63.2474, -7.77864
0.76, -1, -0.622901, 32.2915, 16.8783, 8.79738, -63.1132, -7.86441
0.764, -1, -0.551092, 32.2277, 16.9023, 8.91172, -62.9793, -7.95
0.768, -1, -0.479437, 32.1641, 16.9262, 9.02582, -62.8457, -8.0354
0.772, -1, -0.407935, 32.1006, 16.9501, 9.13966, -62.7124, -8.12062
0.776, -1, -0.336586, 32.0373, 16.9739, 9.25326, -62.5794, -8.20566
0.78, -1, -0.26539, 31.9741, 16.9977, 9.36662, -62.4467, -8.29051
0.784, -1, -0.194346, 31.911, 17.0214, 9.47973, -62.3142, -8.37518
0.788, -1, -0.123455, 31.848, 17.0451, 9.5926, -62.182, -8.45966
0.792, -1, -0.0527154, 31.7852, 17.0687, 9.70522, -62.0502, -8.54397
0.796, -1, 0.0178725, 31.7226, 17.0923, 9.81761, -61.9186, -8.62809
0.8, -1, 0.0883091, 31.66, 17.1158, 9.92975, -61.7873, -8.71204
0.804, -1, 0.158595, 31.5976, 17.1393, 10.0417, -61.6562, -8.7958
0.808, -1, 0.22873, 31.5353, 17.1627, 10.1533, -61.5255, -8.87938
0.812, -1, 0.298716, 31.4732, 17.186, 10.2647, -61.395, -8.96279
0.816, -1, 0.368552, 31.4112, 17.2094, 10.3759, -61.2648, -9.04602
0.82, -1, 0.438239, 31.3493, 17.2326, 10.4869, -61.1349, -9.12907
0.824, -1, 0.507778, 31.2876, 17.2559, 10.5976, -61.0053, -9.21194
0.828, -1, 0.577169, 31.226, 17.279, 10.7081, -60.8759, -9.29464
0.832, -1, 0.646413, 31.1645, 17.3021, 10.8183, -60.7468, -9.37716
0.836, -1, 0.71551, 31.1031, 17.3252, 10.9283, -60.618, -9.45951
0.84, -1, 0.78446, 31.0419, 17.3482, 11.0381, -60.4895, -9.54168
0.844, -1, 0.853266, 30.9808, 17.3712, 11.1476, -60.3612, -9.62368
0.848, -1, 0.921925, 30.9199, 17.3941, 11.2569, -60.2332, -9.7055
0.852, -1, 0.990441, 30.859, 17.417, 11.366, -60.1055, -9.78716
0.856, -1, 1.05881, 30.7983, 17.4398, 11.4749, -59.9781, -9.86864
0.86, -1, 1.12704, 30.7378, 17.4626, 11.5835, -59.8509, -9.94995
0.864, -1, 1.19512, 30.6773, 17.4854, 11.6919, -59.7239, -10.0311
0.868, -1, 1.26307, 30.617, 17.508, 11.8001, -59.5973, -10.1121
0.872, -1, 1.33087, 30.5568, 17.5307, 11.908, -59.4709, -10.1929
0.876, -1, 1.39853, 30.4967, 17.5533, 12.0157, -59.3448, -10.2735
0.88, -1, 1.46604, 30.4368, 17.5758, 12.1232, -59.2189, -10.354
0.884, -1, 1.53342, 30.377, 17.5983, 12.2305, -59.0933, -10.4343
0.888, -1, 1.60066, 30.3173, 17.6208, 12.3375, -58.9679, -10.5144
0.892, -1, 1.66775, 30.2577, 17.6432, 12.4444, -58.8429, -10.5943
0.896, -1, 1.73471, 30.1982, 17.6655, 12.551, -58.718, -10.6741
0.9, -1, 1.80153, 30.1389, 17.6878, 12.6574, -58.5935, -10.7538
0.904, -1, 1.86821, 30.0797, 17.7101, 12.7635, -58.4692, -10.8332
0.908, -1, 1.93476, 30.0206, 17.7323, 12.8695, -58.3451, -10.9125
0.912, -1, 2.00117, 29.9617, 17.7545, 12.9752, -58.2213, -10.9917
0.916, -1, 2.06744, 29.9028, 17.7766, 13.0807, -58.0978, -11.0707
0.92, -1, 2.13357, 29.8441, 17.7987, 13.186, -57.9745, -11.1495
0.924, -1, 2.19957, 29.7855, 17.8207, 13.2911, -57.8514, -11.2281
0.928, -1, 2.26543, 29.727, 17.8427, 13.3959, -57.7287, -11.3066
0.932, -1, 2.33116, 29.6687, 17.8647, 13.5006, -57.6061, -11.385
0.936, -1, 2.39676, 29.6104, 17.8866, 13.605, -57.4838, -11.4631
0.94, -1, 2.46222, 29.5523, 17.9084, 13.7092, -57.3618, -11.5412
0.944, -1, 2.52755, 29.4943, 17.9303, 13.8133, -57.24, -11.619
0.948, -1, 2.59275, 29.4364, 17.952, 13.9171, -57.1185, -11.6967
0.952, -1, 2.65781, 29.3787, 17.9738, 14.0206, -56.9972, -11.7743
0.956, -1, 2.72274, 29.321, 17.9954, 14.124, -56.8761, -11.8516
0.96, -1, 2.78755, 29.2635, 18.0171, 14.2272, -56.7553, -11.9289
0.964, -1, 2.85222, 29.2061, 18.0387, 14.3302, -56.6348, -12.0059
0.968, -1, 2.91676, 29.1488, 18.0602, 14.4329, -56.5144, -12.0829
0.972, -1, 2.98117, 29.0916, 18.0817, 14.5355, -56.3944, -12.1596
0.976, -1, 3.04545, 29.0345, 18.1032, 14.6378, -56.2745, -12.2362
0.98, -1, 3.10961, 28.9775, 18.1246, 14.7399, -56.1549, -12.3127
0.984, -1, 3.17363, 28.9207, 18.146, 14.8419, -56.0356, -12.389
0.988, -1, 3.23753, 28.864, 18.1673, 14.9436, -55.9165, -12.4651
0.992, -1, 3.3013, 28.8074, 18.1886, 15.0451, -55.7976, -12.5411
0.996, -1, 3.36494, 28.7508, 18.2099, 15.1465, -55.6789, -12.617
1, -1, 3.42846, 28.6945, 18.2311, 15.2476, -55.5605, -12.6927
1.004, -1, 3.49185, 28.6382, 18.2523, 15.3485, -55.4423, -12.7682
1.008, -1, 3.55512, 28.582, 18.2734, 15.4492, -55.3244, -12.8436
1.012, -1, 3.61826, 28.5259, 18.2945, 15.5498, -55.2067, -12.9189
1.016, -1, 3.68127, 28.47, 18.3155, 15.6501, -55.0892, -12.994
1.02, -1, 3.74416, 28.4142, 18.3365, 15.7502, -54.972, -13.0689
1.024, -1, 3.80693, 28.3584, 18.3575, 15.8502, -54.855, -13.1437
1.027, -1, 3.86958, 28.3028, 18.3784, 15.9499, -54.7382, -13.2184
1.032, -1, 3.9321, 28.2473, 18.3993, 16.0494, -54.6216, -13.2929
1.036, -1, 3.9945, 28.1919, 18.4201, 16.1488, -54.5053, -13.3673
1.04, -1, 4.05678, 28.1366, 18.4409, 16.2479, -54.3892, -13.4415
1.044, -1, 4.11893, 28.0814, 18.4616, 16.3469, -54.2733, -13.5156
1.048, -1, 4.18097, 28.0263, 18.4824, 16.4457, -54.1577, -13.5895
1.052, -1, 4.24289, 27.9714, 18.503, 16.5442, -54.0422, -13.6633
1.055, -1, 4.30468, 27.9165, 18.5237, 16.6426, -53.927, -13.7369
1.06, -1, 4.36636, 27.8617, 18.5443, 16.7408, -53.8121, -13.8104
1.064, -1, 4.42792, 27.8071, 18.5648, 16.8388, -53.6973, -13.8838
1.068, -1, 4.48936, 27.7525, 18.5853, 16.9366, -53.5828, -13.957
1.072, -1, 4.55068, 27.6981, 18.6058, 17.0343, -53.4685, -14.0301
1.076, -1, 4.61188, 27.6438, 18.6262, 17.1317, -53.3544, -14.103
1.08, -1, 4.67297, 27.5895, 18.6466, 17.229, -53.2405, -14.1758
1.084, -1, 4.73394, 27.5354, 18.667, 17.326, -53.1268, -14.2485
1.088, -1, 4.7948, 27.4814, 18.6873, 17.4229, -53.0134, -14.321
1.091, -1, 4.85554, 27.4274, 18.7076, 17.5196, -52.9002, -14.3934
1.096, -1, 4.91617, 27.3736, 18.7278, 17.6161, -52.7871, -14.4656
1.1, -1, 4.97668, 27.3199, 18.7481, 17.7125, -52.6743, -14.5378
1.104, -1, 5.03708, 27.2663, 18.7682, 17.8086, -52.5618, -14.6097
1.108, -1, 5.09737, 27.2127, 18.7883, 17.9046, -52.4494, -14.6816
1.112, -1, 5.15754, 27.1593, 18.8084, 18.0004, -52.3372, -14.7533
1.116, -1, 5.2176, 27.106, 18.8285, 18.096, -52.2253, -14.8249
1.119, -1, 5.27755, 27.0528, 18.8485, 18.1915, -52.1135, -14.8963
1.124, -1, 5.33739, 26.9996, 18.8685, 18.2867, -52.0019, -14.9676
1.128, -1, 5.39712, 26.9466, 18.8884, 18.3818, -51.8906, -15.0388
1.132, -1, 5.45673, 26.8937, 18.9083, 18.4767, -51.7795, -15.1098
1.136, -1, 5.51624, 26.8408, 18.9282, 18.5715, -51.6685, -15.1807
1.14, -1, 5.57564, 26.7881, 18.948, 18.666, -51.5578, -15.2515
1.144, -1, 5.63493, 26.7355, 18.9678, 18.7604, -51.4473, -15.3222
1.147, -1, 5.69412, 26.6829, 18.9876, 18.8547, -51.337, -15.3927
1.152, -1, 5.75319, 26.6305, 19.0073, 18.9487, -51.2268, -15.4631
1.156, -1, 5.81216, 26.5781, 19.027, 19.0426, -51.1169, -15.5334
1.16, -1, 5.87103, 26.5259, 19.0467, 19.1363, -51.0072, -15.6035
1.164, -1, 5.92979, 26.4737, 19.0663, 19.2298, -50.8976, -15.6736
1.168, -1, 5.98844, 26.4216, 19.0859, 19.3232, -50.7883, -15.7435
1.172, -1, 6.04699, 26.3696, 19.1054, 19.4164, -50.6792, -15.8132
1.175, -1, 6.10543, 26.3177, 19.1249, 19.5095, -50.5702, -15.8829
1.18, -1, 6.16377, 26.266, 19.1444, 19.6024, -50.4614, -15.9524
1.184, -1, 6.22201, 26.2142, 19.1639, 19.6951, -50.3529, -16.0218
1.188, -1, 6.28015, 26.1626, 19.1833, 19.7876, -50.2445, -16.0911
1.192, -1, 6.33818, 26.1111, 19.2027, 19.88, -50.1363, -16.1603
1.196, -1, 6.39611, 26.0597, 19.222, 19.9723, -50.0283, -16.2293
1.2, -1, 6.45394, 26.0083, 19.2413, 20.0643, -49.9205, -16.2982
1.204, -1, 6.51167, 25.9571, 19.2606, 20.1562, -49.8129, -16.367
1.208, -1, 6.5693, 25.9059, 19.2798, 20.248, -49.7055, -16.4357
1.212, -1, 6.62683, 25.8548, 19.299, 20.3396, -49.5982, -16.5042
1.216, -1, 6.68426, 25.8038, 19.3182, 20.431, -49.4912, -16.5727
1.22, -1, 6.74159, 25.7529, 19.3374, 20.5223, -49.3843, -16.641
1.224, -1, 6.79882, 25.7021, 19.3565, 20.6134, -49.2776, -16.7092
1.228, -1, 6.85596, 25.6514, 19.3756, 20.7044, -49.1711, -16.7773
1.232, -1, 6.91299, 25.6008, 19.3946, 20.7952, -49.0648, -16.8453
1.236, -1, 6.96993, 25.5502, 19.4136, 20.8858, -48.9586, -16.9131
1.24, -1, 7.02678, 25.4997, 19.4326, 20.9763, -48.8526, -16.9809
1.244, -1, 7.08352, 25.4494, 19.4515, 21.0667, -48.7469, -17.0485
1.248, -1, 7.14018, 25.3991, 19.4705, 21.1569, -48.6413, -17.116
1.252, -1, 7.19673, 25.3488, 19.4893, 21.2469, -48.5358, -17.1834
1.256, -1, 7.25319, 25.2987, 19.5082, 21.3368, -48.4306, -17.2507
1.26, -1, 7.30956, 25.2487, 19.527, 21.4266, -48.3255, -17.3179
1.264, -1, 7.36583, 25.1987, 19.5458, 21.5161, -48.2206, -17.385
1.267, -1, 7.42201, 25.1488, 19.5646, 21.6056, -48.1158, -17.4519
1.272, -1, 7.4781, 25.099, 19.5833, 21.6949, -48.0113, -17.5188
1.276, -1, 7.53409, 25.0493, 19.602, 21.784, -47.9069, -17.5855
1.28, -1, 7.58999, 24.9997, 19.6207, 21.873, -47.8027, -17.6521
1.284, -1, 7.6458, 24.9501, 19.6393, 21.9619, -47.6986, -17.7186
1.288, -1, 7.70152, 24.9007, 19.6579, 22.0506, -47.5948, -17.785
1.292, -1, 7.75715, 24.8513, 19.6765, 22.1392, -47.4911, -17.8513
1.295, -1, 7.81268, 24.802, 19.695, 22.2276, -47.3875, -17.9175
1.3, -1, 7.86813, 24.7528, 19.7135, 22.3159, -47.2842, -17.9836
1.304, -1, 7.92348, 24.7036, 19.732, 22.404, -47.181, -18.0496
1.308, -1, 7.97875, 24.6545, 19.7505, 22.492, -47.0779, -18.1154
1.312, -1, 8.03393, 24.6055, 19.7689, 22.5798, -46.9751, -18.1812
1.316, -1, 8.08901, 24.5566, 19.7873, 22.6675, -46.8724, -18.2468
1.32, -1, 8.14401, 24.5078, 19.8057, 22.7551, -46.7699, -18.3124
1.324, -1, 8.19893, 24.4591, 19.824, 22.8425, -46.6675, -18.3778
1.328, -1, 8.25375, 24.4104, 19.8423, 22.9298, -46.5653, -18.4432
1.332, -1, 8.30849, 24.3618, 19.8606, 23.017, -46.4632, -18.5084
1.336, -1, 8.36314, 24.3133, 19.8788, 23.104, -46.3614, -18.5735
1.34, -1, 8.4177, 24.2648, 19.8971, 23.1909, -46.2596, -18.6386
1.344, -1, 8.47218, 24.2165, 19.9153, 23.2776, -46.1581, -18.7035
1.348, -1, 8.52657, 24.1682, 19.9334, 23.3642, -46.0567, -18.7683
1.352, -1, 8.58088, 24.1199, 19.9515, 23.4507, -45.9554, -18.833
1.356, -1, 8.6351, 24.0718, 19.9697, 23.537, -45.8543, -18.8976
1.36, -1, 8.68923, 24.0237, 19.9877, 23.6232, -45.7534, -18.9622
1.364, -1, 8.74328, 23.9757, 20.0058, 23.7092, -45.6526, -19.0266
1.368, -1, 8.79725, 23.9278, 20.0238, 23.7952, -45.552, -19.0909
1.372, -1, 8.85114, 23.88, 20.0418, 23.881, -45.4516, -19.1551
1.376, -1, 8.90494, 23.8322, 20.0598, 23.9666, -45.3513, -19.2192
1.38, -1, 8.95866, 23.7845, 20.0777, 24.0521, -45.2511, -19.2833
1.384, -1, 9.01229, 23.7369, 20.0956, 24.1375, -45.1511, -19.3472
1.388, -1, 9.06584, 23.6894, 20.1135, 24.2228, -45.0513, -19.411
1.392, -1, 9.11932, 23.6419, 20.1314, 24.3079, -44.9516, -19.4747
1.396, -1, 9.1727, 23.5945, 20.1492, 24.393, -44.8521, -19.5384
1.4, -1, 9.22601, 23.5472, 20.167, 24.4778, -44.7527, -19.6019
1.404, -1, 9.27924, 23.4999, 20.1848, 24.5626, -44.6535, -19.6653
1.408, -1, 9.33239, 23.4527, 20.2025, 24.6472, -44.5544, -19.7287
1.412, -1, 9.38546, 23.4056, 20.2202, 24.7317, -44.4554, -19.7919
1.416, -1, 9.43844, 23.3585, 20.2379, 24.8161, -44.3567, -19.8551
1.42, -1, 9.49135, 23.3116, 20.2556, 24.9003, -44.258, -19.9181
1.424, -1, 9.54418, 23.2647, 20.2732, 24.9844, -44.1595, -19.9811
1.428, -1, 9.59693, 23.2178, 20.2908, 25.0684, -44.0612, -20.044
1.432, -1, 9.6496, 23.1711, 20.3084, 25.1523, -43.963, -20.1067
1.436, -1, 9.7022, 23.1244, 20.326, 25.236, -43.865, -20.1694
1.44, -1, 9.75472, 23.0777, 20.3435, 25.3196, -43.767, -20.232
1.444, -1, 9.80716, 23.0312, 20.361, 25.4031, -43.6693, -20.2945
1.448, -1, 9.85952, 22.9847, 20.3785, 25.4865, -43.5717, -20.3569
1.452, -1, 9.91181, 22.9383, 20.396, 25.5697, -43.4742, -20.4192
1.456, -1, 9.96403, 22.8919, 20.4134, 25.6528, -43.3769, -20.4814
1.46, -1, 10.0162, 22.8456, 20.4308, 25.7358, -43.2797, -20.5436
1.464, -1, 10.0682, 22.7994, 20.4482, 25.8187, -43.1826, -20.6056
1.468, -1, 10.1202, 22.7533, 20.4656, 25.9015, -43.0857, -20.6676
1.472, -1, 10.1721, 22.7072, 20.4829, 25.9841, -42.989, -20.7294
1.476, -1, 10.224, 22.6612, 20.5002, 26.0666, -42.8923, -20.7912
1.48, -1, 10.2757, 22.6152, 20.5175, 26.149, -42.7958, -20.8529
1.484, -1, 10.3274, 22.5693, 20.5348, 26.2313, -42.6995, -20.9145
1.488, -1, 10.379, 22.5235, 20.552, 26.3135, -42.6033, -20.976
1.492, -1, 10.4306, 22.4777, 20.5692, 26.3956, -42.5072, -21.0374
1.496, -1, 10.482, 22.432, 20.5864, 26.4775, -42.4113, -21.0987
1.5, -1, 10.5334, 22.3864, 20.6035, 26.5593, -42.3154, -21.16
1.504, -1, 10.5848, 22.3408, 20.6207, 26.641, -42.2198, -21.2212
1.508, -1, 10.636, 22.2953, 20.6378, 26.7226, -42.1242, -21.2822
1.512, -1, 10.6872, 22.2499, 20.6549, 26.8041, -42.0288, -21.3432
1.516, -1, 10.7383, 22.2045, 20.6719, 26.8855, -41.9336, -21.4041
1.52, -1, 10.7893, 22.1592, 20.689, 26.9667, -41.8384, -21.4649
1.524, -1, 10.8403, 22.114, 20.706, 27.0479, -41.7434, -21.5257
1.528, -1, 10.8912, 22.0688, 20.723, 27.1289, -41.6485, -21.5863
1.532, -1, 10.942, 22.0237, 20.74, 27.2098, -41.5538, -21.6469
1.536, -1, 10.9928, 21.9786, 20.7569, 27.2906, -41.4592, -21.7074
1.54, -1, 11.0435, 21.9336, 20.7738, 27.3713, -41.3647, -21.7678
1.544, -1, 11.0941, 21.8887, 20.7908, 27.4519, -41.2703, -21.8281
1.548, -1, 11.1446, 21.8438, 20.8076, 27.5324, -41.1761, -21.8884
1.552, -1, 11.1951, 21.799, 20.8245, 27.6127, -41.082, -21.9485
1.556, -1, 11.2455, 21.7542, 20.8413, 27.693, -40.988, -22.0086
1.56, -1, 11.2959, 21.7095, 20.8581, 27.7732, -40.8941, -22.0686
1.564, -1, 11.3462, 21.6649, 20.8749, 27.8532, -40.8004, -22.1285
1.568, -1, 11.3964, 21.6203, 20.8917, 27.9331, -40.7068, -22.1884
1.572, -1, 11.4465, 21.5758, 20.9084, 28.013, -40.6133, -22.2481
1.576, -1, 11.4966, 21.5313, 20.9251, 28.0927, -40.52, -22.3078
1.58, -1, 11.5466, 21.4869, 20.9418, 28.1723, -40.4268, -22.3674
1.584, -1, 11.5965, 21.4426, 20.9585, 28.2518, -40.3336, -22.4269
1.588, -1, 11.6464, 21.3983, 20.9752, 28.3313, -40.2407, -22.4864
1.592, -1, 11.6962, 21.3541, 20.9918, 28.4106, -40.1478, -22.5457
1.596, -1, 11.746, 21.3099, 21.0084, 28.4898, -40.0551, -22.605
1.6, -1, 11.7957, 21.2658, 21.025, 28.5689, -39.9624, -22.6642
1.604, -1, 11.8453, 21.2217, 21.0416, 28.6479, -39.8699, -22.7234
1.608, -1, 11.8948, 21.1778, 21.0581, 28.7268, -39.7776, -22.7824
1.612, -1, 11.9443, 21.1338, 21.0747, 28.8055, -39.6853, -22.8414
1.616, -1, 11.9938, 21.0899, 21.0912, 28.8842, -39.5932, -22.9003
1.62, -1, 12.0431, 21.0461, 21.1076, 28.9628, -39.5011, -22.9591
1.624, -1, 12.0924, 21.0023, 21.1241, 29.0413, -39.4092, -23.0179
1.628, -1, 12.1417, 20.9586, 21.1405, 29.1197, -39.3174, -23.0765
1.632, -1, 12.1908, 20.915, 21.157, 29.198, -39.2258, -23.1352
1.636, -1, 12.2399, 20.8714, 21.1734, 29.2762, -39.1342, -23.1937
1.64, -1, 12.289, 20.8278, 21.1897, 29.3543, -39.0428, -23.2521
1.644, -1, 12.338, 20.7843, 21.2061, 29.4323, -38.9515, -23.3105
1.648, -1, 12.3869, 20.7409, 21.2224, 29.5102, -38.8603, -23.3688
1.652, -1, 12.4358, 20.6975, 21.2388, 29.588, -38.7692, -23.4271
1.656, -1, 12.4846, 20.6542, 21.2551, 29.6657, -38.6782, -23.4852
1.66, -1, 12.5333, 20.6109, 21.2713, 29.7433, -38.5873, -23.5433
1.664, -1, 12.582, 20.5677, 21.2876, 29.8208, -38.4966, -23.6013
1.668, -1, 12.6306, 20.5245, 21.3038, 29.8982, -38.4059, -23.6593
1.672, -1, 12.6792, 20.4814, 21.32, 29.9755, -38.3154, -23.7171
1.676, -1, 12.7277, 20.4384, 21.3362, 30.0527, -38.225, -23.7749
1.68, -1, 12.7761, 20.3953, 21.3524, 30.1298, -38.1347, -23.8327
1.684, -1, 12.8245, 20.3524, 21.3686, 30.2069, -38.0445, -23.8903
1.688, -1, 12.8728, 20.3095, 21.3847, 30.2838, -37.9544, -23.9479
1.692, -1, 12.9211, 20.2666, 21.4008, 30.3606, -37.8644, -24.0054
1.696, -1, 12.9693, 20.2238, 21.4169, 30.4374, -37.7746, -24.0629
1.7, -1, 13.0174, 20.1811, 21.433, 30.514, -37.6848, -24.1203
1.704, -1, 13.0655, 20.1384, 21.449, 30.5906, -37.5951, -24.1776
1.708, -1, 13.1136, 20.0958, 21.4651, 30.6671, -37.5056, -24.2348
1.712, -1, 13.1615, 20.0532, 21.4811, 30.7435, -37.4162, -24.292
1.716, -1, 13.2094, 20.0106, 21.4971, 30.8197, -37.3269, -24.3491
1.72, -1, 13.2573, 19.9681, 21.5131, 30.8959, -37.2376, -24.4061
1.724, -1, 13.3051, 19.9257, 21.529, 30.972, -37.1485, -24.4631
1.728, -1, 13.3528, 19.8833, 21.545, 31.0481, -37.0595, -24.52
1.732, -1, 13.4005, 19.841, 21.5609, 31.124, -36.9706, -24.5768
1.736, -1, 13.4482, 19.7987, 21.5768, 31.1998, -36.8818, -24.6336
1.74, -1, 13.4957, 19.7565, 21.5927, 31.2756, -36.7931, -24.6903
1.744, -1, 13.5433, 19.7143, 21.6086, 31.3512, -36.7045, -24.7469
1.748, -1, 13.5907, 19.6721, 21.6244, 31.4268, -36.6161, -24.8035
1.752, -1, 13.6381, 19.63, 21.6402, 31.5023, -36.5277, -24.86
1.756, -1, 13.6855, 19.588, 21.6561, 31.5776, -36.4394, -24.9164
1.76, -1, 13.7328, 19.546, 21.6719, 31.6529, -36.3512, -24.9728
1.764, -1, 13.78, 19.5041, 21.6876, 31.7282, -36.2632, -25.0291
1.768, -1, 13.8272, 19.4622, 21.7034, 31.8033, -36.1752, -25.0853
1.772, -1, 13.8743, 19.4203, 21.7191, 31.8783, -36.0873, -25.1415
1.776, -1, 13.9214, 19.3785, 21.7348, 31.9533, -35.9996, -25.1976
1.78, -1, 13.9684, 19.3368, 21.7505, 32.0281, -35.9119, -25.2536
1.784, -1, 14.0154, 19.2951, 21.7662, 32.1029, -35.8243, -25.3096
1.788, -1, 14.0623, 19.2534, 21.7819, 32.1776, -35.7369, -25.3655
1.792, -1, 14.1092, 19.2118, 21.7975, 32.2522, -35.6495, -25.4214
1.796, -1, 14.156, 19.1703, 21.8132, 32.3268, -35.5622, -25.4772
1.8, -1, 14.2027, 19.1288, 21.8288, 32.4012, -35.4751, -25.5329
1.804, -1, 14.2494, 19.0873, 21.8444, 32.4756, -35.388, -25.5886
1.808, -1, 14.2961, 19.0459, 21.86, 32.5498, -35.301, -25.6442
1.812, -1, 14.3427, 19.0045, 21.8755, 32.624, -35.2142, -25.6997
1.816, -1, 14.3892, 18.9632, 21.8911, 32.6981, -35.1274, -25.7552
1.82, -1, 14.4357, 18.9219, 21.9066, 32.7722, -35.0407, -25.8106
1.824, -1, 14.4822, 18.8807, 21.9221, 32.8461, -34.9541, -25.8659
1.828, -1, 14.5286, 18.8395, 21.9376, 32.92, -34.8676, -25.9212
1.832, -1, 14.5749, 18.7983, 21.9531, 32.9938, -34.7813, -25.9764
1.836, -1, 14.6212, 18.7572, 21.9685, 33.0675, -34.695, -26.0316
1.84, -1, 14.6674, 18.7162, 21.984, 33.1411, -34.6088, -26.0867
1.844, -1, 14.7136, 18.6752, 21.9994, 33.2146, -34.5227, -26.1418
1.848, -1, 14.7598, 18.6342, 22.0148, 33.2881, -34.4367, -26.1967
1.852, -1, 14.8058, 18.5933, 22.0302, 33.3614, -34.3507, -26.2517
1.856, -1, 14.8519, 18.5524, 22.0456, 33.4347, -34.2649, -26.3065
1.86, -1, 14.8979, 18.5116, 22.0609, 33.5079, -34.1792, -26.3613
1.864, -1, 14.9438, 18.4708, 22.0762, 33.5811, -34.0936, -26.4161
1.868, -1, 14.9897, 18.4301, 22.0916, 33.6541, -34.008, -26.4708
1.872, -1, 15.0355, 18.3894, 22.1069, 33.7271, -33.9226, -26.5254
1.876, -1, 15.0813, 18.3487, 22.1222, 33.8, -33.8372, -26.58
1.88, -1, 15.127, 18.3081, 22.1374, 33.8728, -33.7519, -26.6345
1.884, -1, 15.1727, 18.2676, 22.1527, 33.9456, -33.6668, -26.6889
1.888, -1, 15.2184, 18.227, 22.1679, 34.0182, -33.5817, -26.7433
1.892, -1, 15.264, 18.1866, 22.1832, 34.0908, -33.4967, -26.7976
1.896, -1, 15.3095, 18.1461, 22.1984, 34.1633, -33.4118, -26.8519
1.9, -1, 15.355, 18.1057, 22.2136, 34.2358, -33.3269, -26.9062
1.904, -1, 15.4004, 18.0654, 22.2287, 34.3081, -33.2422, -26.9603
1.908, -1, 15.4458, 18.0251, 22.2439, 34.3804, -33.1576, -27.0144
1.912, -1, 15.4912, 17.9848, 22.259, 34.4526, -33.073, -27.0685
1.916, -1, 15.5365, 17.9446, 22.2742, 34.5248, -32.9886, -27.1225
1.92, -1, 15.5818, 17.9044, 22.2893, 34.5968, -32.9042, -27.1764
1.924, -1, 15.627, 17.8643, 22.3044, 34.6688, -32.8199, -27.2303
1.928, -1, 15.6721, 17.8242, 22.3195, 34.7407, -32.7357, -27.2841
1.932, -1, 15.7173, 17.7841, 22.3345, 34.8126, -32.6516, -27.3379
1.936, -1, 15.7623, 17.7441, 22.3496, 34.8843, -32.5676, -27.3916
1.94, -1, 15.8073, 17.7041, 22.3646, 34.956, -32.4836, -27.4453
1.944, -1, 15.8523, 17.6642, 22.3796, 35.0276, -32.3997, -27.4989
1.948, -1, 15.8973, 17.6243, 22.3946, 35.0992, -32.316, -27.5524
1.952, -1, 15.9422, 17.5844, 22.4096, 35.1707, -32.2323, -27.6059
1.956, -1, 15.987, 17.5446, 22.4246, 35.2421, -32.1487, -27.6594
1.96, -1, 16.0318, 17.5048, 22.4396, 35.3134, -32.0652, -27.7128
1.964, -1, 16.0765, 17.4651, 22.4545, 35.3846, -31.9817, -27.7661
1.968, -1, 16.1212, 17.4254, 22.4694, 35.4558, -31.8984, -27.8194
1.972, -1, 16.1659, 17.3858, 22.4844, 35.5269, -31.8151, -27.8726
1.976, -1, 16.2105, 17.3461, 22.4993, 35.598, -31.7319, -27.9258
1.98, -1, 16.2551, 17.3066, 22.5141, 35.6689, -31.6488, -27.9789
1.984, -1, 16.2996, 17.267, 22.529, 35.7398, -31.5658, -28.032
1.988, -1, 16.3441, 17.2275, 22.5439, 35.8107, -31.4829, -28.085
1.992, -1, 16.3886, 17.1881, 22.5587, 35.8814, -31.4, -28.138
1.996, -1, 16.433, 17.1487, 22.5735, 35.9521, -31.3173, -28.1909
1.999, -1, 16.4773, 17.1093, 22.5883, 36.0228, -31.2346, -28.2438
2.004, -1, 16.5216, 17.0699, 22.6031, 36.0933, -31.1519, -28.2966
2.008, -1, 16.5659, 17.0306, 22.6179, 36.1638, -31.0694, -28.3493
2.012, -1, 16.6101, 16.9914, 22.6327, 36.2342, -30.987, -28.4021
2.015, -1, 16.6543, 16.9521, 22.6474, 36.3046, -30.9046, -28.4547
2.019, -1, 16.6984, 16.9129, 22.6622, 36.3748, -30.8223, -28.5073
2.024, -1, 16.7425, 16.8738, 22.6769, 36.445, -30.7401, -28.5599
2.028, -1, 16.7866, 16.8347, 22.6916, 36.5152, -30.658, -28.6124
2.031, -1, 16.8306, 16.7956, 22.7063, 36.5853, -30.5759, -28.6648
2.036, -1, 16.8746, 16.7566, 22.721, 36.6553, -30.4939, -28.7172
2.04, -1, 16.9185, 16.7176, 22.7357, 36.7252, -30.412, -28.7696
2.044, -1, 16.9624, 16.6786, 22.7503, 36.7951, -30.3302, -28.8219
2.048, -1, 17.0062, 16.6397, 22.765, 36.8649, -30.2485, -28.8742
2.051, -1, 17.05, 16.6008, 22.7796, 36.9346, -30.1668, -28.9264
2.055, -1, 17.0938, 16.5619, 22.7942, 37.0043, -30.0852, -28.9785
2.06, -1, 17.1375, 16.5231, 22.8088, 37.0739, -30.0037, -29.0306
2.064, -1, 17.1811, 16.4844, 22.8234, 37.1435, -29.9223, -29.0827
2.068, -1, 17.2244, 16.4458, 22.8379, 37.2129, -29.841, -29.1347
2.071, -1, 17.2671, 16.4077, 22.8523, 37.2823, -29.7597, -29.1866
2.076, -1, 17.3088, 16.3701, 22.8666, 37.3515, -29.6787, -29.2384
2.08, -1, 17.3495, 16.3335, 22.8807, 37.4204, -29.5981, -29.29
2.084, -1, 17.3888, 16.2979, 22.8945, 37.4888, -29.518, -29.3412
2.087, -1, 17.4267, 16.2635, 22.9079, 37.5564, -29.4389, -29.3918
2.092, -1, 17.4632, 16.2306, 22.921, 37.6229, -29.3611, -29.4417
2.096, -1, 17.4983, 16.1992, 22.9337, 37.6879, -29.2851, -29.4903
2.1, -1, 17.5321, 16.1694, 22.9459, 37.7508, -29.2115, -29.5374
2.104, -1, 17.5644, 16.1411, 22.9576, 37.8112, -29.1408, -29.5827
2.107, -1, 17.5951, 16.1145, 22.9686, 37.8686, -29.0737, -29.6257
2.111, -1, 17.624, 16.0896, 22.9791, 37.9226, -29.0106, -29.6661
2.116, -1, 17.6513, 16.0662, 22.9888, 37.9726, -28.9521, -29.7035
2.12, -1, 17.6768, 16.044, 22.9978, 38.0183, -28.8986, -29.7378
2.124, -1, 17.7009, 16.023, 23.0061, 38.0595, -28.8504, -29.7686
2.127, -1, 17.7234, 16.0029, 23.0137, 38.0959, -28.8078, -29.7958
2.132, -1, 17.7446, 15.9838, 23.0205, 38.1275, -28.7707, -29.8195
2.136, -1, 17.7642, 15.9657, 23.0267, 38.1546, -28.739, -29.8397
2.14, -1, 17.7823, 15.9489, 23.0321, 38.1772, -28.7125, -29.8566
2.143, -1, 17.7986, 15.9337, 23.0368, 38.1957, -28.6907, -29.8705
2.148, -1, 17.8131, 15.9202, 23.0409, 38.2106, -28.6732, -29.8816
2.152, -1, 17.8259, 15.9085, 23.0443, 38.2223, -28.6594, -29.8904
2.156, -1, 17.8371, 15.8987, 23.0471, 38.2313, -28.6488, -29.8971
2.16, -1, 17.8467, 15.8905, 23.0494, 38.2381, -28.6409, -29.9021
2.163, -1, 17.855, 15.8838, 23.0513, 38.243, -28.635, -29.9058
2.168, -1, 17.8619, 15.8785, 23.0527, 38.2465, -28.6308, -29.9084
2.172, -1, 17.8674, 15.8744, 23.0538, 38.249, -28.6279, -29.9103
2.176, 2, 17.8716, 15.8714, 23.0546, 38.2507, -28.6258, -29.9115
2.179, 2, 17.8747, 15.8692, 23.0552, 38.2519, -28.6245, -29.9124
2.184, 2, 17.8769, 15.8677, 23.0556, 38.2527, -28.6235, -29.913
2.188, 2, 17.8784, 15.8667, 23.0558, 38.2532, -28.6229, -29.9134
2.192, 2, 17.8794, 15.866, 23.056, 38.2536, -28.6224, -29.9137
2.196, 2, 17.8801, 15.8655, 23.0561, 38.2538, -28.6221, -29.9138
2.199, 2, 17.8806, 15.8652, 23.0562, 38.254, -28.6219, -29.914
2.204, 2, 17.8809, 15.865, 23.0563, 38.2541, -28.6218, -29.9141
2.208, 2, 17.8811, 15.8649, 23.0563, 38.2542, -28.6217, -29.9141
2.212, 2, 17.8813, 15.8648, 23.0563, 38.2543, -28.6217, -29.9141
2.216, 2, 17.8814, 15.8647, 23.0564, 38.2543, -28.6216, -29.9142
2.219, 2, 17.8814, 15.8646, 23.0564, 38.2543, -28.6216, -29.9142
2.224, 2, 17.8815, 15.8646, 23.0564, 38.2543, -28.6216, -29.9142
2.228, 2, 17.8815, 15.8646, 23.0564, 38.2543, -28.6215, -29.9142
2.232, 2, 17.8815, 15.8646, 23.0564, 38.2543, -28.6215, -29.9142
2.235, 2, 17.8815, 15.8646, 23.0564, 38.2544, -28.6215, -29.9142
2.24, 2, 17.8815, 15.8646, 23.0564, 38.2544, -28.6215, -29.9142
2.244, 2, 17.8816, 15.8646, 23.0564, 38.2544, -28.6215, -29.9142
2.248, 2, 17.8816, 15.8646, 23.0564, 38.2544, -28.6215, -29.9142
2.252, 2, 17.8816, 15.8646, 23.0564, 38.2544, -28.6215, -29.9142
2.255, 2, 17.8816, 15.8646, 23.0564, 38.2544, -28.6215, -29.9142
2.259, 2, 17.8816, 15.8646, 23.0564, 38.2544, -28.6215, -29.9142
2.264, 2, 17.8816, 15.8645, 23.0564, 38.2544, -28.6215, -29.9142
2.268, 2, 17.8816, 15.8645, 23.0564, 38.2544, -28.6215, -29.9142
2.272, 2, 17.8816, 15.8645, 23.0564, 38.2544, -28.6215, -29.9142
2.275, 2, 17.8816, 15.8645, 23.0564, 38.2544, -28.6215, -29.9142
2.28, 2, 17.8816, 15.8645, 23.0564, 38.2544, -28.6215, -29.9142
2.284, 2, 17.8816, 15.8645, 23.0564, 38.2544, -28.6215, -29.9142
2.288, 2, 17.8816, 15.8645, 23.0564, 38.2544, -28.6215, -29.9142
2.291, 2, 17.8816, 15.8645, 23.0564, 38.2544, -28.6215, -29.9142
2.296, 2, 17.8816, 15.8645, 23.0564, 38.2544, -28.6215, -29.9142
2.3, 2, 17.8816, 15.8645, 23.0564, 38.2544, -28.6215, -29.9142
2.304, 2, 17.8816, 15.8645, 23.0564, 38.2544, -28.6215, -29.9142
2.308, 2, 17.8816, 15.8645, 23.0564, 38.2544, -28.6215, -29.9142
2.311, 2, 17.8816, 15.8645, 23.0564, 38.2544, -28.6215, -29.9142
2.316, 2, 17.8816, 15.8645, 23.0564, 38.2544, -28.6215, -29.9142
2.32, 2, 17.8816, 15.8645, 23.0564, 38.2544, -28.6215, -29.9142
2.324, 2, 17.8816, 15.8645, 23.0564, 38.2544, -28.6215, -29.9142
2.328, 2, 17.8816, 15.8645, 23.0564, 38.2544, -28.6215, -29.9142
2.331, 2, 17.8816, 15.8645, 23.0564, 38.2544, -28.6215, -29.9142
2.336, 2, 17.8816, 15.8645, 23.0564, 38.2544, -28.6215, -29.9142
2.34, 2, 17.8816, 15.8645, 23.0564, 38.2544, -28.6215, -29.9142
2.344, 2, 17.8816, 15.8645, 23.0564, 38.2544, -28.6215, -29.9142
2.347, 2, 17.8816, 15.8645, 23.0564, 38.2544, -28.6215, -29.9142
2.352, 2, 17.8816, 15.8645, 23.0564, 38.2544, -28.6215, -29.9142
2.356, 2, 17.8816, 15.8645, 23.0564, 38.2544, -28.6215, -29.9142
2.36, 2, 17.8816, 15.8645, 23.0564, 38.2544, -28.6215, -29.9142
2.364, 2, 17.8816, 15.8645, 23.0564, 38.2544, -28.6215, -29.9142
2.367, 2, 17.8816, 15.8645, 23.0564, 38.2544, -28.6215, -29.9142
2.372, 2, 17.8816, 15.8645, 23.0564, 38.2544, -28.6215, -29.9142
2.376, 2, 17.8816, 15.8645, 23.0564, 38.2544, -28.6215, -29.9142
2.38, 2, 17.8816, 15.8645, 23.0564, 38.2544, -28.6215, -29.9142
2.383, 2, 17.8816, 15.8645, 23.0564, 38.2544, -28.6215, -29.9142
2.388, 2, 17.8816, 15.8645, 23.0564, 38.2544, -28.6215, -29.9142
2.392, 2, 17.8816, 15.8645, 23.0564, 38.2544, -28.6215, -29.9142
2.396, 2, 17.8816, 15.8645, 23.0564, 38.2544, -28.6215, -29.9142
2.4, 2, 17.8816, 15.8645, 23.0564, 38.2544, -28.6215, -29.9142
2.403, 2, 17.8816, 15.8645, 23.0564, 38.2544, -28.6215, -29.9142
2.408, 2, 17.8816, 15.8645, 23.0564, 38.2544, -28.6215, -29.9142
2.412, 2, 17.8816, 15.8645, 23.0564, 38.2544, -28.6215, -29.9142
2.416, 2, 17.8816, 15.8645, 23.0564, 38.2544, -28.6215, -29.9142
2.42, 2, 17.8816, 15.8645, 23.0564, 38.2544, -28.6215, -29.9142
2.423, 2, 17.8816, 15.8645, 23.0564, 38.2544, -28.6215, -29.9142
2.428, 2, 17.8816, 15.8645, 23.0564, 38.2544, -28.6215, -29.9142
2.432, 2, 17.8816, 15.8645, 23.0564, 38.2544, -28.6215, -29.9142
2.436, 2, 17.8816, 15.8645, 23.0564, 38.2544, -28.6215, -29.9142
2.439, 2, 17.8816, 15.8645, 23.0564, 38.2544, -28.6215, -29.9142
2.444, 2, 17.8816, 15.8645, 23.0564, 38.2544, -28.6215, -29.9142
2.448, 2, 17.8816, 15.8645, 23.0564, 38.2544, -28.6215, -29.9142
2.452, 2, 17.8816, 15.8645, 23.0564, 38.2544, -28.6215, -29.9142
2.456, 2, 17.8816, 15.8645, 23.0564, 38.2544, -28.6215, -29.9142
2.459, 2, 17.8816, 15.8645, 23.0564, 38.2544, -28.6215, -29.9142
2.464, 2, 17.8816, 15.8645, 23.0564, 38.2544, -28.6215, -29.9142
2.468, 2, 17.8816, 15.8645, 23.0564, 38.2544, -28.6215, -29.9142
2.472, 2, 17.8816, 15.8645, 23.0564, 38.2544, -28.6215, -29.9142
2.476, 2, 17.8816, 15.8645, 23.0564, 38.2544, -28.6215, -29.9142
2.479, 2, 17.8816, 15.8645, 23.0564, 38.2544, -28.6215, -29.9142
2.484, 2, 17.8816, 15.8645, 23.0564, 38.2544, -28.6215, -29.9142
2.488, 2, 17.8816, 15.8645, 23.0564, 38.2544, -28.6215, -29.9142
2.492, 2, 17.8816, 15.8645, 23.0564, 38.2544, -28.6215, -29.9142
2.495, 2, 17.8816, 15.8645, 23.0564, 38.2544, -28.6215, -29.9142
2.5, 2, 17.8816, 15.8645, 23.0564, 38.2544, -28.6215, -29.9142
2.504, 2, 17.8816, 15.8645, 23.0564, 38.2544, -28.6215, -29.9142
2.508, 2, 17.8816, 15.8645, 23.0564, 38.2544, -28.6215, -29.9142
2.512, 2, 17.8816, 15.8645, 23.0564, 38.2544, -28.6215, -29.9142
2.515, 2, 17.8816, 15.8645, 23.0564, 38.2544, -28.6215, -29.9142
2.52, 2, 17.8816, 15.8645, 23.0564, 38.2544, -28.6215, -29.9142
2.524, 2, 17.8816, 15.8645, 23.0564, 38.2544, -28.6215, -29.9142
2.528, 2, 17.8816, 15.8645, 23.0564, 38.2544, -28.6215, -29.9142
2.531, 2, 17.8816, 15.8645, 23.0564, 38.2544, -28.6215, -29.9142
2.536, 2, 17.8816, 15.8645, 23.0564, 38.2544, -28.6215, -29.9142
2.54, 2, 17.8816, 15.8645, 23.0564, 38.2544, -28.6215, -29.9142
2.544, 2, 17.8816, 15.8645, 23.0564, 38.2544, -28.6215, -29.9142
2.548, 2, 17.8816, 15.8645, 23.0564, 38.2544, -28.6215, -29.9142
2.551, 2, 17.8816, 15.8645, 23.0564, 38.2544, -28.6215, -29.9142
2.556, 2, 17.8816, 15.8645, 23.0564, 38.2544, -28.6215, -29.9142
2.56, 2, 17.8816, 15.8645, 23.0564, 38.2544, -28.6215, -29.9142
2.564, 2, 17.8816, 15.8645, 23.0564, 38.2544, -28.6215, -29.9142
2.568, 2, 17.8816, 15.8645, 23.0564, 38.2544, -28.6215, -29.9142
2.571, 2, 17.8816, 15.8645, 23.0564, 38.2544, -28.6215, -29.9142
2.576, 2, 17.8816, 15.8645, 23.0564, 38.2544, -28.6215, -29.9142
2.58, 2, 17.8816, 15.8645, 23.0564, 38.2544, -28.6215, -29.9142
2.584, 2, 17.8816, 15.8645, 23.0564, 38.2544, -28.6215, -29.9142
2.587, 2, 17.8816, 15.8645, 23.0564, 38.2544, -28.6215, -29.9142
2.592, 2, 17.8816, 15.8645, 23.0564, 38.2544, -28.6215, -29.9142
2.596, 2, 17.8816, 15.8645, 23.0564, 38.2544, -28.6215, -29.9142
2.6, 2, 17.8816, 15.8645, 23.0564, 38.2544, -28.6215, -29.9142
2.604, 2, 17.8816, 15.8645, 23.0564, 38.2544, -28.6215, -29.9142
2.607, 2, 17.8816, 15.8645, 23.0564, 38.2544, -28.6215, -29.9142
2.612, 2, 17.8816, 15.8645, 23.0564, 38.2544, -28.6215, -29.9142
2.616, 2, 17.8816, 15.8645, 23.0564, 38.2544, -28.6215, -29.9142
2.62, 2, 17.8816, 15.8645, 23.0564, 38.2544, -28.6215, -29.9142
2.624, 2, 17.8816, 15.8645, 23.0564, 38.2544, -28.6215, -29.9142
2.627, 2, 17.8816, 15.8645, 23.0564, 38.2544, -28.6215, -29.9142
2.632, 2, 17.8816, 15.8645, 23.0564, 38.2544, -28.6215, -29.9142
2.636, 2, 17.8816, 15.8645, 23.0564, 38.2544, -28.6215, -29.9142
2.64, 2, 17.8816, 15.8645, 23.0564, 38.2544, -28.6215, -29.9142
2.643, 2, 17.8816, 15.8645, 23.0564, 38.2544, -28.6215, -29.9142
2.648, 2, 17.8816, 15.8645, 23.0564, 38.2544, -28.6215, -29.9142
2.652, 2, 17.8816, 15.8645, 23.0564, 38.2544, -28.6215, -29.9142
2.656, 2, 17.8816, 15.8645, 23.0564, 38.2544, -28.6215, -29.9142
2.66, 2, 17.8816, 15.8645, 23.0564, 38.2544, -28.6215, -29.9142
2.663, 2, 17.8816, 15.8645, 23.0564, 38.2544, -28.6215, -29.9142
2.668, 2, 17.8816, 15.8645, 23.0564, 38.2544, -28.6215, -29.9142
2.672, 2, 17.8816, 15.8645, 23.0564, 38.2544, -28.6215, -29.9142
2.676, 2, 17.8816, 15.8645, 23.0564, 38.2544, -28.6215, -29.9142
2.679, 2, 17.8816, 15.8645, 23.0564, 38.2544, -28.6215, -29.9142
2.684, 2, 17.8816, 15.8645, 23.0564, 38.2544, -28.6215, -29.9142
2.688, 2, 17.8816, 15.8645, 23.0564, 38.2544, -28.6215, -29.9142
2.692, 2, 17.8816, 15.8645, 23.0564, 38.2544, -28.6215, -29.9142
2.696, 2, 17.8816, 15.8645, 23.0564, 38.2544, -28.6215, -29.9142
2.699, 2, 17.8816, 15.8645, 23.0564, 38.2544, -28.6215, -29.9142
2.704, 2, 17.8816, 15.8645, 23.0564, 38.2544, -28.6215, -29.9142
2.708, 2, 17.8816, 15.8645, 23.0564, 38.2544, -28.6215, -29.9142
2.712, 2, 17.8816, 15.8645, 23.0564, 38.2544, -28.6215, -29.9142
2.716, 2, 17.8816, 15.8645, 23.0564, 38.2544, -28.6215, -29.9142
2.719, 2, 17.8816, 15.8645, 23.0564, 38.2544, -28.6215, -29.9142
2.724, 2, 17.8816, 15.8645, 23.0564, 38.2544, -28.6215, -29.9142
2.728, 2, 17.8816, 15.8645, 23.0564, 38.2544, -28.6215, -29.9142
2.732, 2, 17.8816, 15.8645, 23.0564, 38.2544, -28.6215, -29.9142
2.735, 2, 17.8816, 15.8645, 23.0564, 38.2544, -28.6215, -29.9142
2.74, 2, 17.8816, 15.8645, 23.0564, 38.2544, -28.6215, -29.9142
2.744, 2, 17.8816, 15.8645, 23.0564, 38.2544, -28.6215, -29.9142
2.748, 2, 17.8816, 15.8645, 23.0564, 38.2544, -28.6215, -29.9142
2.752, 2, 17.8816, 15.8645, 23.0564, 38.2544, -28.6215, -29.9142
2.755, 2, 17.8816, 15.8645, 23.0564, 38.2544, -28.6215, -29.9142
2.76, 2, 17.8816, 15.8645, 23.0564, 38.2544, -28.6215, -29.9142
2.764, 2, 17.8816, 15.8645, 23.0564, 38.2544, -28.6215, -29.9142
2.768, 2, 17.8816, 15.8645, 23.0564, 38.2544, -28.6215, -29.9142
2.772, 2, 17.8816, 15.8645, 23.0564, 38.2544, -28.6215, -29.9142
2.775, 2, 17.8816, 15.8645, 23.0564, 38.2544, -28.6215, -29.9142
2.78, 2, 17.8816, 15.8645, 23.0564, 38.2544, -28.6215, -29.9142
2.784, 2, 17.8816, 15.8645, 23.0564, 38.2544, -28.6215, -29.9142
2.788, 2, 17.8816, 15.8645, 23.0564, 38.2544, -28.6215, -29.9142
2.791, 2, 17.8816, 15.8645, 23.0564, 38.2544, -28.6215, -29.9142
2.796, 2, 17.8816, 15.8645, 23.0564, 38.2544, -28.6215, -29.9142
2.8, 2, 17.8816, 15.8645, 23.0564, 38.2544, -28.6215, -29.9142
2.804, 2, 17.8816, 15.8645, 23.0564, 38.2544, -28.6215, -29.9142
2.808, 2, 17.8816, 15.8645, 23.0564, 38.2544, -28.6215, -29.9142
2.811, 2, 17.8816, 15.8645, 23.0564, 38.2544, -28.6215, -29.9142
2.816, 2, 17.8816, 15.8645, 23.0564, 38.2544, -28.6215, -29.9142
2.82, 2, 17.8816, 15.8645, 23.0564, 38.2544, -28.6215, -29.9142
2.824, 2, 17.8816, 15.8645, 23.0564, 38.2544, -28.6215, -29.9142
2.828, 2, 17.8816, 15.8645, 23.0564, 38.2544, -28.6215, -29.9142
2.831, 2, 17.8816, 15.8645, 23.0564, 38.2544, -28.6215, -29.9142
2.836, 2, 17.8816, 15.8645, 23.0564, 38.2544, -28.6215, -29.9142
2.84, 2, 17.8816, 15.8645, 23.0564, 38.2544, -28.6215, -29.9142
2.844, 2, 17.8816, 15.8645, 23.0564, 38.2544, -28.6215, -29.9142
2.847, 2, 17.8816, 15.8645, 23.0564, 38.2544, -28.6215, -29.9142
2.852, 2, 17.8816, 15.8645, 23.0564, 38.2544, -28.6215, -29.9142
2.856, 2, 17.8816, 15.8645, 23.0564, 38.2544, -28.6215, -29.9142
2.86, 2, 17.8816, 15.8645, 23.0564, 38.2544, -28.6215, -29.9142
2.864, 2, 17.8816, 15.8645, 23.0564, 38.2544, -28.6215, -29.9142
2.867, 2, 17.8816, 15.8645, 23.0564, 38.2544, -28.6215, -29.9142
2.872, 2, 17.8816, 15.8645, 23.0564, 38.2544, -28.6215, -29.9142
2.876, 2, 17.8816, 15.8645, 23.0564, 38.2544, -28.6215, -29.9142
2.88, 2, 17.8816, 15.8645, 23.0564, 38.2544, -28.6215, -29.9142
2.883, 2, 17.8816, 15.8645, 23.0564, 38.2544, -28.6215, -29.9142
2.888, 2, 17.8816, 15.8645, 23.0564, 38.2544, -28.6215, -29.9142
2.892, 2, 17.8816, 15.8645, 23.0564, 38.2544, -28.6215, -29.9142
2.896, 2, 17.8816, 15.8645, 23.0564, 38.2544, -28.6215, -29.9142
2.9, 2, 17.8816, 15.8645, 23.0564, 38.2544, -28.6215, -29.9142
2.903, 2, 17.8816, 15.8645, 23.0564, 38.2544, -28.6215, -29.9142
2.908, 2, 17.8816, 15.8645, 23.0564, 38.2544, -28.6215, -29.9142
2.912, 2, 17.8816, 15.8645, 23.0564, 38.2544, -28.6215, -29.9142
2.916, 2, 17.8816, 15.8645, 23.0564, 38.2544, -28.6215, -29.9142
2.92, 2, 17.8816, 15.8645, 23.0564, 38.2544, -28.6215, -29.9142
2.923, 2, 17.8816, 15.8645, 23.0564, 38.2544, -28.6215, -29.9142
2.928, 2, 17.8816, 15.8645, 23.0564, 38.2544, -28.6215, -29.9142
2.932, 2, 17.8816, 15.8645, 23.0564, 38.2544, -28.6215, -29.9142
2.936, 2, 17.8816, 15.8645, 23.0564, 38.2544, -28.6215, -29.9142
2.939, 2, 17.8816, 15.8645, 23.0564, 38.2544, -28.6215, -29.9142
2.944, 2, 17.8816, 15.8645, 23.0564, 38.2544, -28.6215, -29.9142
2.948, 2, 17.8816, 15.8645, 23.0564, 38.2544, -28.6215, -29.9142
2.952, 2, 17.8816, 15.8645, 23.0564, 38.2544, -28.6215, -29.9142
2.956, 2, 17.8816, 15.8645, 23.0564, 38.2544, -28.6215, -29.9142
2.959, 2, 17.8816, 15.8645, 23.0564, 38.2544, -28.6215, -29.9142
2.964, 2, 17.8816, 15.8645, 23.0564, 38.2544, -28.6215, -29.9142
2.968, 2, 17.8816, 15.8645, 23.0564, 38.2544, -28.6215, -29.9142
2.972, 2, 17.8816, 15.8645, 23.0564, 38.2544, -28.6215, -29.9142
2.976, 2, 17.8816, 15.8645, 23.0564, 38.2544, -28.6215, -29.9142
2.98, 2, 17.8816, 15.8645, 23.0564, 38.2544, -28.6215, -29.9142
2.984, 2, 17.8816, 15.8645, 23.0564, 38.2544, -28.6215, -29.9142
2.988, 2, 17.8816, 15.8645, 23.0564, 38.2544, -28.6215, -29.9142
2.992, 2, 17.8816, 15.8645, 23.0564, 38.2544, -28.6215, -29.9142
2.995, 2, 17.8816, 15.8645, 23.0564, 38.2544, -28.6215, -29.9142
3, 2, 17.8816, 15.8645, 23.0564, 38.2544, -28.6215, -29.9142
3.004, 2, 17.8816, 15.8645, 23.0564, 38.2544, -28.6215, -29.9142
3.008, 2, 17.8816, 15.8645, 23.0564, 38.2544, -28.6215, -29.9142
3.012, 2, 17.8816, 15.8645, 23.0564, 38.2544, -28.6215, -29.9142
3.015, 2, 17.8816, 15.8645, 23.0564, 38.2544, -28.6215, -29.9142
3.02, 2, 17.8816, 15.8645, 23.0564, 38.2544, -28.6215, -29.9142
3.024, 2, 17.8816, 15.8645, 23.0564, 38.2544, -28.6215, -29.9142
3.028, 2, 17.8816, 15.8645, 23.0564, 38.2544, -28.6215, -29.9142
3.031, 2, 17.8816, 15.8645, 23.0564, 38.2544, -28.6215, -29.9142
3.036, 2, 17.8816, 15.8645, 23.0564, 38.2544, -28.6215, -29.9142
3.04, 2, 17.8816, 15.8645, 23.0564, 38.2544, -28.6215, -29.9142
3.044, 2, 17.8816, 15.8645, 23.0564, 38.2544, -28.6215, -29.9142
3.048, 2, 17.8816, 15.8645, 23.0564, 38.2544, -28.6215, -29.9142
3.051, 2, 17.8816, 15.8645, 23.0564, 38.2544, -28.6215, -29.9142
3.056, 2, 17.8816, 15.8645, 23.0564, 38.2544, -28.6215, -29.9142
3.06, 2, 17.8816, 15.8645, 23.0564, 38.2544, -28.6215, -29.9142
3.064, 2, 17.8816, 15.8645, 23.0564, 38.2544, -28.6215, -29.9142
3.068, 2, 17.8816, 15.8645, 23.0564, 38.2544, -28.6215, -29.9142
3.071, 2, 17.8816, 15.8645, 23.0564, 38.2544, -28.6215, -29.9142
3.076, 2, 17.8816, 15.8645, 23.0564, 38.2544, -28.6215, -29.9142
3.08, 2, 17.8816, 15.8645, 23.0564, 38.2544, -28.6215, -29.9142
3.084, 2, 17.8816, 15.8645, 23.0564, 38.2544, -28.6215, -29.9142
3.087, 2, 17.8816, 15.8645, 23.0564, 38.2544, -28.6215, -29.9142
3.092, 2, 17.8816, 15.8645, 23.0564, 38.2544, -28.6215, -29.9142
3.096, 2, 17.8816, 15.8645, 23.0564, 38.2544, -28.6215, -29.9142
3.1, 2, 17.8816, 15.8645, 23.0564, 38.2544, -28.6215, -29.9142
3.104, 2, 17.8816, 15.8645, 23.0564, 38.2544, -28.6215, -29.9142
3.107, 2, 17.8816, 15.8645, 23.0564, 38.2544, -28.6215, -29.9142
3.112, 2, 17.8816, 15.8645, 23.0564, 38.2544, -28.6215, -29.9142
3.116, 2, 17.8816, 15.8645, 23.0564, 38.2544, -28.6215, -29.9142
3.12, 2, 17.8816, 15.8645, 23.0564, 38.2544, -28.6215, -29.9142
3.124, 2, 17.8816, 15.8645, 23.0564, 38.2544, -28.6215, -29.9142
3.128, 2, 17.8816, 15.8645, 23.0564, 38.2544, -28.6215, -29.9142
3.132, 2, 17.8816, 15.8645, 23.0564, 38.2544, -28.6215, -29.9142
3.136, 2, 17.8816, 15.8645, 23.0564, 38.2544, -28.6215, -29.9142
3.14, 2, 17.8816, 15.8645, 23.0564, 38.2544, -28.6215, -29.9142
3.143, 2, 17.8816, 15.8645, 23.0564, 38.2544, -28.6215, -29.9142
3.148, 2, 17.8816, 15.8645, 23.0564, 38.2544, -28.6215, -29.9142
3.152, 2, 17.8816, 15.8645, 23.0564, 38.2544, -28.6215, -29.9142
3.156, 2, 17.8816, 15.8645, 23.0564, 38.2544, -28.6215, -29.9142
3.16, 2, 17.8816, 15.8645, 23.0564, 38.2544, -28.6215, -29.9142
3.163, 2, 17.8816, 15.8645, 23.0564, 38.2544, -28.6215, -29.9142
3.168, 2, 17.8816, 15.8645, 23.0564, 38.2544, -28.6215, -29.9142
3.172, 2, 17.8816, 15.8645, 23.0564, 38.2544, -28.6215, -29.9142
3.176, 2, 17.8816, 15.8645, 23.0564, 38.2544, -28.6215, -29.9142
3.179, 2, 17.8816, 15.8645, 23.0564, 38.2544, -28.6215, -29.9142
3.184, 2, 17.8816, 15.8645, 23.0564, 38.2544, -28.6215, -29.9142
3.188, 2, 17.8816, 15.8645, 23.0564, 38.2544, -28.6215, -29.9142
3.192, 2, 17.8816, 15.8645, 23.0564, 38.2544, -28.6215, -29.9142
3.196, 2, 17.8816, 15.8645, 23.0564, 38.2544, -28.6215, -29.9142
3.199, 2, 17.8816, 15.8645, 23.0564, 38.2544, -28.6215, -29.9142
3.204, 2, 17.8816, 15.8645, 23.0564, 38.2544, -28.6215, -29.9142
3.208, 2, 17.8816, 15.8645, 23.0564, 38.2544, -28.6215, -29.9142
3.212, 2, 17.8816, 15.8645, 23.0564, 38.2544, -28.6215, -29.9142
3.216, 2, 17.8816, 15.8645, 23.0564, 38.2544, -28.6215, -29.9142
3.22, 2, 17.8816, 15.8645, 23.0564, 38.2544, -28.6215, -29.9142
3.224, 2, 17.8816, 15.8645, 23.0564, 38.2544, -28.6215, -29.9142
3.228, 2, 17.8816, 15.8645, 23.0564, 38.2544, -28.6215, -29.9142
3.232, 2, 17.8816, 15.8645, 23.0564, 38.2544, -28.6215, -29.9142
3.235, 2, 17.8816, 15.8645, 23.0564, 38.2544, -28.6215, -29.9142
3.24, 2, 17.8816, 15.8645, 23.0564, 38.2544, -28.6215, -29.9142
3.244, 2, 17.8816, 15.8645, 23.0564, 38.2544, -28.6215, -29.9142
3.248, 4, 17.8816, 15.8645, 23.0564, 38.2544, -28.6215, -29.9142
3.252, 4, 17.8816, 15.8645, 23.0564, 38.2544, -28.6215, -29.9142
3.255, 4, 17.8816, 15.8645, 23.0564, 38.2544, -28.6215, -29.9142
3.26, 4, 17.8816, 15.8645, 23.0564, 38.2544, -28.6215, -29.9142
3.264, 4, 17.8816, 15.8645, 23.0564, 38.2544, -28.6215, -29.9142
3.268, 4, 17.8816, 15.8645, 23.0564, 38.2544, -28.6215, -29.9142
3.272, 4, 17.8816, 15.8645, 23.0564, 38.2544, -28.6215, -29.9142
3.276, 4, 17.8816, 15.8645, 23.0564, 38.2544, -28.6215, -29.9142
3.28, 4, 17.8816, 15.8645, 23.0564, 38.2544, -28.6215, -29.9142
3.284, 4, 17.8816, 15.8645, 23.0564, 38.2544, -28.6215, -29.9142
3.288, 4, 17.8816, 15.8645, 23.0564, 38.2544, -28.6215, -29.9142
3.291, 4, 17.8816, 15.8645, 23.0564, 38.2544, -28.6215, -29.9142
3.296, 4, 17.8816, 15.8645, 23.0564, 38.2544, -28.6215, -29.9142
3.3, 4, 17.8816, 15.8645, 23.0564, 38.2544, -28.6215, -29.9142
3.304, 4, 17.8816, 15.8645, 23.0564, 38.2544, -28.6215, -29.9142
3.308, 4, 17.8816, 15.8645, 23.0564, 38.2544, -28.6215, -29.9142
3.312, 4, 17.8816, 15.8645, 23.0564, 38.2544, -28.6215, -29.9142
3.316, 4, 17.8816, 15.8645, 23.0564, 38.2544, -28.6215, -29.9142
3.32, 4, 17.8816, 15.8645, 23.0564, 38.2544, -28.6215, -29.9142
3.324, 4, 17.8816, 15.8645, 23.0564, 38.2544, -28.6215, -29.9142
3.328, 4, 17.8816, 15.8645, 23.0564, 38.2544, -28.6215, -29.9142
3.332, 4, 17.8816, 15.8645, 23.0564, 38.2544, -28.6215, -29.9142
3.336, 4, 17.8816, 15.8645, 23.0564, 38.2544, -28.6215, -29.9142
3.34, 4, 17.8816, 15.8645, 23.0564, 38.2544, -28.6215, -29.9142
3.344, 4, 17.8816, 15.8645, 23.0564, 38.2544, -28.6215, -29.9142
3.347, 4, 17.8816, 15.8645, 23.0564, 38.2544, -28.6215, -29.9142
3.354, 4, 17.8816, 15.8645, 23.0564, 38.2544, -28.6215, -29.9142
3.356, 4, 17.8816, 15.8645, 23.0564, 38.2544, -28.6215, -29.9142
3.36, 4, 17.8816, 15.8645, 23.0564, 38.2544, -28.6215, -29.9142
3.364, 4, 17.8816, 15.8645, 23.0564, 38.2544, -28.6215, -29.9142
3.368, 4, 17.8816, 15.8645, 23.0564, 38.2544, -28.6215, -29.9142
3.372, 4, 17.8816, 15.8645, 23.0564, 38.2544, -28.6215, -29.9142
3.376, 4, 17.8816, 15.8645, 23.0564, 38.2544, -28.6215, -29.9142
3.38, 4, 17.8815, 15.8645, 23.0564, 38.2544, -28.6215, -29.9142
3.383, 4, 17.8812, 15.8645, 23.0564, 38.2543, -28.6215, -29.9142
3.388, 4, 17.8806, 15.8645, 23.0565, 38.2542, -28.6216, -29.9141
3.392, 4, 17.8793, 15.8645, 23.0566, 38.2539, -28.6217, -29.9139
3.396, 4, 17.8773, 15.8644, 23.0569, 38.2532, -28.6219, -29.9133
3.4, 4, 17.8745, 15.8643, 23.0576, 38.2517, -28.6225, -29.912
3.403, 4, 17.8707, 15.864, 23.0586, 38.2489, -28.6235, -29.9095
3.408, 4, 17.8659, 15.8636, 23.0603, 38.2441, -28.6252, -29.9053
3.412, 4, 17.8601, 15.863, 23.0629, 38.2365, -28.628, -29.8986
3.416, 4, 17.8533, 15.8621, 23.0667, 38.225, -28.6321, -29.8884
3.42, 5, 17.8454, 15.8608, 23.072, 38.2087, -28.6379, -29.874
3.424, 5, 17.8363, 15.8592, 23.0792, 38.1865, -28.646, -29.8543
3.428, 5, 17.8257, 15.857, 23.0884, 38.1572, -28.6565, -29.8284
3.432, 5, 17.8136, 15.8542, 23.1001, 38.1198, -28.67, -29.7953
3.436, 5, 17.8, 15.8508, 23.1146, 38.0733, -28.6867, -29.7542
3.439, 5, 17.7848, 15.8467, 23.132, 38.017, -28.7071, -29.7043
3.444, 5, 17.7681, 15.8419, 23.1525, 37.9502, -28.7313, -29.6452
3.448, 5, 17.75, 15.8363, 23.1763, 37.8727, -28.7595, -29.5765
3.452, 5, 17.7303, 15.83, 23.2033, 37.7844, -28.7917, -29.4983
3.456, 5, 17.7091, 15.823, 23.2335, 37.6856, -28.8279, -29.4108
3.46, 5, 17.6863, 15.8152, 23.2666, 37.5769, -28.8678, -29.3145
3.464, 5, 17.6618, 15.8069, 23.3026, 37.459, -28.9113, -29.2101
3.468, 5, 17.6357, 15.7979, 23.3411, 37.3328, -28.9579, -29.0985
3.472, 5, 17.6082, 15.7885, 23.3818, 37.1995, -29.0075, -28.9806
3.476, 5, 17.5792, 15.7787, 23.4245, 37.0601, -29.0595, -28.8573
3.48, 5, 17.549, 15.7685, 23.4688, 36.9157, -29.1138, -28.7296
3.484, 5, 17.5176, 15.7581, 23.5144, 36.7672, -29.1698, -28.5984
3.488, 5, 17.4852, 15.7475, 23.5611, 36.6156, -29.2273, -28.4645
3.492, 5, 17.4516, 15.7367, 23.6085, 36.4618, -29.286, -28.3287
3.495, 5, 17.4171, 15.7259, 23.6565, 36.3065, -29.3456, -28.1917
3.5, 5, 17.3816, 15.7151, 23.7049, 36.1503, -29.4059, -28.0539
3.504, 5, 17.3453, 15.7042, 23.7536, 35.9936, -29.4667, -27.9158
3.508, 5, 17.3083, 15.6934, 23.8024, 35.8367, -29.528, -27.7776
3.512, 5, 17.2708, 15.6827, 23.8513, 35.6799, -29.5897, -27.6396
3.516, 5, 17.233, 15.672, 23.9002, 35.5233, -29.6516, -27.5018
3.52, 5, 17.195, 15.6614, 23.949, 35.3671, -29.7138, -27.3644
3.524, 5, 17.1567, 15.6509, 23.9979, 35.2113, -29.7763, -27.2274
3.528, 5, 17.1183, 15.6405, 24.0467, 35.0559, -29.839, -27.0909
3.531, 5, 17.0799, 15.6301, 24.0954, 34.901, -29.9018, -26.9549
3.536, 5, 17.0413, 15.6199, 24.144, 34.7466, -29.9649, -26.8194
3.54, 5, 17.0027, 15.6097, 24.1925, 34.5927, -30.0281, -26.6844
3.544, 5, 16.964, 15.5996, 24.2409, 34.4393, -30.0915, -26.55
3.548, 5, 16.9253, 15.5897, 24.2893, 34.2865, -30.1552, -26.416
3.552, 5, 16.8866, 15.5798, 24.3375, 34.1342, -30.2189, -26.2827
3.556, 5, 16.8478, 15.57, 24.3857, 33.9824, -30.2829, -26.1498
3.56, 5, 16.8089, 15.5603, 24.4338, 33.8312, -30.347, -26.0175
3.564, 5, 16.77, 15.5508, 24.4817, 33.6804, -30.4113, -25.8857
3.568, 5, 16.7311, 15.5413, 24.5296, 33.5303, -30.4758, -25.7545
3.572, 5, 16.6922, 15.5319, 24.5774, 33.3806, -30.5404, -25.6238
3.576, 5, 16.6532, 15.5226, 24.625, 33.2315, -30.6052, -25.4937
3.58, 5, 16.6142, 15.5134, 24.6726, 33.0828, -30.6702, -25.364
3.584, 5, 16.5752, 15.5043, 24.7201, 32.9348, -30.7353, -25.2349
3.587, 5, 16.5361, 15.4953, 24.7674, 32.7872, -30.8006, -25.1064
3.592, 5, 16.497, 15.4864, 24.8147, 32.6402, -30.8661, -24.9783
3.596, 5, 16.4578, 15.4775, 24.8619, 32.4936, -30.9317, -24.8508
3.6, 5, 16.4186, 15.4688, 24.9089, 32.3476, -30.9975, -24.7238
3.604, 5, 16.3794, 15.4602, 24.9559, 32.2021, -31.0634, -24.5973
3.608, 5, 16.3402, 15.4517, 25.0028, 32.0571, -31.1296, -24.4714
3.612, 5, 16.3009, 15.4433, 25.0495, 31.9127, -31.1958, -24.3459
3.616, 5, 16.2616, 15.435, 25.0962, 31.7687, -31.2622, -24.221
3.62, 5, 16.2223, 15.4267, 25.1428, 31.6252, -31.3288, -24.0966
3.624, 5, 16.1829, 15.4186, 25.1892, 31.4823, -31.3956, -23.9727
3.628, 5, 16.1435, 15.4106, 25.2356, 31.3398, -31.4625, -23.8493
3.632, 5, 16.104, 15.4027, 25.2818, 31.1979, -31.5295, -23.7264
3.636, 5, 16.0646, 15.3948, 25.328, 31.0564, -31.5967, -23.604
3.64, 5, 16.0251, 15.3871, 25.3741, 30.9155, -31.6641, -23.4822
3.644, 5, 15.9855, 15.3795, 25.42, 30.775, -31.7316, -23.3608
3.648, 5, 15.946, 15.3719, 25.4659, 30.635, -31.7992, -23.2399
3.652, 5, 15.9064, 15.3645, 25.5117, 30.4956, -31.867, -23.1195
3.656, 5, 15.8667, 15.3572, 25.5573, 30.3566, -31.935, -22.9997
3.66, 5, 15.827, 15.3499, 25.6029, 30.2181, -32.0031, -22.8803
3.664, 5, 15.7873, 15.3428, 25.6483, 30.08, -32.0713, -22.7614
3.668, 5, 15.7476, 15.3358, 25.6937, 29.9425, -32.1397, -22.643
3.672, 5, 15.7079, 15.3288, 25.7389, 29.8054, -32.2083, -22.525
3.676, 5, 15.6681, 15.322, 25.7841, 29.6689, -32.277, -22.4076
3.679, 5, 15.6282, 15.3152, 25.8291, 29.5328, -32.3458, -22.2907
3.684, 5, 15.5884, 15.3086, 25.8741, 29.3971, -32.4148, -22.1742
3.688, 5, 15.5485, 15.302, 25.919, 29.262, -32.4839, -22.0582
3.692, 5, 15.5086, 15.2956, 25.9637, 29.1273, -32.5532, -21.9427
3.696, 5, 15.4686, 15.2892, 26.0084, 28.9931, -32.6226, -21.8277
3.7, 5, 15.4286, 15.283, 26.0529, 28.8593, -32.6921, -21.7131
3.704, 5, 15.3886, 15.2768, 26.0974, 28.7261, -32.7618, -21.599
3.708, 5, 15.3485, 15.2708, 26.1417, 28.5932, -32.8316, -21.4854
3.712, 5, 15.3085, 15.2648, 26.186, 28.4609, -32.9016, -21.3723
3.716, 5, 15.2683, 15.2589, 26.2301, 28.329, -32.9717, -21.2596
3.72, 5, 15.2282, 15.2532, 26.2742, 28.1976, -33.0419, -21.1474
3.724, 5, 15.188, 15.2475, 26.3181, 28.0666, -33.1123, -21.0356
3.728, 5, 15.1478, 15.242, 26.362, 27.936, -33.1828, -20.9243
3.732, 5, 15.1076, 15.2365, 26.4057, 27.806, -33.2534, -20.8135
3.735, 5, 15.0673, 15.2311, 26.4494, 27.6763, -33.3242, -20.7031
3.74, 6, 15.027, 15.2258, 26.4929, 27.5472, -33.3951, -20.5932
3.744, 6, 14.9867, 15.2207, 26.5364, 27.4184, -33.4662, -20.4837
3.748, 6, 14.9463, 15.2156, 26.5797, 27.2901, -33.5373, -20.3747
3.752, 6, 14.9059, 15.2106, 26.623, 27.1623, -33.6087, -20.2661
3.756, 6, 14.8655, 15.2057, 26.6661, 27.0349, -33.6801, -20.158
3.76, 6, 14.825, 15.2009, 26.7092, 26.9079, -33.7516, -20.0503
3.764, 6, 14.7845, 15.1963, 26.7521, 26.7814, -33.8233, -19.9431
3.768, 6, 14.744, 15.1917, 26.795, 26.6553, -33.8952, -19.8363
3.772, 6, 14.7035, 15.1872, 26.8377, 26.5297, -33.9671, -19.73
3.776, 6, 14.6629, 15.1828, 26.8804, 26.4045, -34.0392, -19.6241
3.78, 6, 14.6223, 15.1785, 26.9229, 26.2797, -34.1114, -19.5186
3.784, 6, 14.5816, 15.1743, 26.9654, 26.1553, -34.1837, -19.4136
3.788, 6, 14.541, 15.1702, 27.0077, 26.0314, -34.2562, -19.309
3.792, 6, 14.5003, 15.1662, 27.05, 25.9079, -34.3287, -19.2048
3.796, 6, 14.4595, 15.1623, 27.0921, 25.7848, -34.4014, -19.1011
3.8, 6, 14.4188, 15.1585, 27.1342, 25.6621, -34.4743, -18.9977
3.804, 6, 14.378, 15.1548, 27.1761, 25.5399, -34.5472, -18.8949
3.808, 6, 14.3372, 15.1512, 27.218, 25.418, -34.6203, -18.7924
3.812, 6, 14.2963, 15.1477, 27.2597, 25.2966, -34.6935, -18.6904
3.816, 6, 14.2554, 15.1443, 27.3014, 25.1756, -34.7668, -18.5888
3.82, 6, 14.2145, 15.141, 27.3429, 25.055, -34.8402, -18.4876
3.824, 6, 14.1736, 15.1378, 27.3843, 24.9349, -34.9138, -18.3868
3.828, 6, 14.1326, 15.1347, 27.4257, 24.8151, -34.9874, -18.2864
3.832, 6, 14.0916, 15.1317, 27.4669, 24.6957, -35.0612, -18.1865
3.836, 6, 14.0506, 15.1288, 27.5081, 24.5768, -35.1351, -18.0869
3.84, 6, 14.0095, 15.126, 27.5491, 24.4582, -35.2091, -17.9878
3.844, 6, 13.9684, 15.1233, 27.59, 24.34, -35.2833, -17.8891
3.848, 6, 13.9273, 15.1206, 27.6309, 24.2223, -35.3575, -17.7907
3.852, 6, 13.8861, 15.1181, 27.6716, 24.1049, -35.4319, -17.6928
3.856, 6, 13.8449, 15.1157, 27.7122, 23.9879, -35.5063, -17.5953
3.86, 6, 13.8037, 15.1134, 27.7527, 23.8713, -35.5809, -17.4982
3.864, 6, 13.7625, 15.1112, 27.7932, 23.7551, -35.6556, -17.4014
3.868, 6, 13.7212, 15.1091, 27.8335, 23.6393, -35.7304, -17.3051
3.872, 6, 13.6799, 15.1071, 27.8737, 23.5239, -35.8053, -17.2091
3.876, 6, 13.6386, 15.1052, 27.9138, 23.4088, -35.8803, -17.1136
3.88, 6, 13.5972, 15.1034, 27.9538, 23.2941, -35.9555, -17.0184
3.884, 6, 13.5558, 15.1017, 27.9937, 23.1799, -36.0307, -16.9236
3.888, 6, 13.5144, 15.1001, 28.0335, 23.0659, -36.1061, -16.8292
3.892, 6, 13.473, 15.0986, 28.0732, 22.9524, -36.1815, -16.7352
3.896, 6, 13.4315, 15.0972, 28.1128, 22.8393, -36.2571, -16.6416
3.9, 6, 13.39, 15.0959, 28.1523, 22.7265, -36.3328, -16.5483
3.904, 6, 13.3485, 15.0947, 28.1917, 22.6141, -36.4085, -16.4555
3.908, 6, 13.3069, 15.0936, 28.231, 22.502, -36.4844, -16.363
3.912, 6, 13.2653, 15.0926, 28.2702, 22.3903, -36.5604, -16.2708
3.916, 6, 13.2237, 15.0917, 28.3092, 22.279, -36.6365, -16.1791
3.92, 6, 13.1821, 15.0909, 28.3482, 22.1681, -36.7127, -16.0877
3.924, 6, 13.1404, 15.0902, 28.3871, 22.0575, -36.7889, -15.9967
3.928, 6, 13.0987, 15.0896, 28.4258, 21.9472, -36.8653, -15.9061
3.932, 6, 13.057, 15.0891, 28.4645, 21.8374, -36.9418, -15.8158
3.936, 6, 13.0152, 15.0887, 28.5031, 21.7278, -37.0184, -15.7259
3.94, 6, 12.9734, 15.0884, 28.5415, 21.6187, -37.0951, -15.6363
3.944, 6, 12.9316, 15.0882, 28.5798, 21.5099, -37.1719, -15.5471
3.948, 6, 12.8898, 15.0881, 28.6181, 21.4014, -37.2488, -15.4583
3.952, 6, 12.8479, 15.0881, 28.6562, 21.2933, -37.3258, -15.3698
3.956, 6, 12.806, 15.0882, 28.6943, 21.1856, -37.4029, -15.2817
3.96, 6, 12.7641, 15.0885, 28.7322, 21.0782, -37.4801, -15.1939
3.964, 6, 12.7221, 15.0888, 28.77, 20.9711, -37.5573, -15.1065
3.968, 6, 12.6801, 15.0892, 28.8077, 20.8644, -37.6347, -15.0195
3.972, 6, 12.6381, 15.0897, 28.8454, 20.758, -37.7122, -14.9327
3.976, 6, 12.5961, 15.0903, 28.8829, 20.652, -37.7898, -14.8464
3.98, 6, 12.554, 15.091, 28.9203, 20.5463, -37.8674, -14.7604
3.984, 6, 12.5119, 15.0919, 28.9576, 20.4409, -37.9452, -14.6747
3.988, 6, 12.4698, 15.0928, 28.9948, 20.3359, -38.023, -14.5894
3.992, 6, 12.4277, 15.0938, 29.0319, 20.2313, -38.101, -14.5044
3.996, 6, 12.3855, 15.0949, 29.0689, 20.1269, -38.179, -14.4198
3.999, 6, 12.3433, 15.0961, 29.1058, 20.0229, -38.2571, -14.3355
4.004, 6, 12.3011, 15.0975, 29.1425, 19.9192, -38.3354, -14.2515
4.008, 6, 12.2588, 15.0989, 29.1792, 19.8159, -38.4137, -14.1679
4.012, 6, 12.2165, 15.1004, 29.2158, 19.7128, -38.4921, -14.0846
4.016, 6, 12.1742, 15.102, 29.2523, 19.6101, -38.5706, -14.0016
4.02, 6, 12.1319, 15.1038, 29.2886, 19.5078, -38.6491, -13.919
4.024, 6, 12.0895, 15.1056, 29.3249, 19.4057, -38.7278, -13.8367
4.028, 6, 12.0471, 15.1075, 29.361, 19.304, -38.8066, -13.7548
4.032, 6, 12.0047, 15.1096, 29.3971, 19.2026, -38.8854, -13.6731
4.036, 6, 11.9623, 15.1117, 29.433, 19.1015, -38.9644, -13.5918
4.04, 6, 11.9198, 15.1139, 29.4689, 19.0008, -39.0434, -13.5109
4.044, 6, 11.8773, 15.1163, 29.5046, 18.9003, -39.1225, -13.4302
4.048, 6, 11.8348, 15.1187, 29.5402, 18.8002, -39.2017, -13.3499
4.052, 6, 11.7923, 15.1212, 29.5758, 18.7004, -39.281, -13.2699
4.056, 7, 11.7497, 15.1239, 29.6112, 18.6009, -39.3603, -13.1902
4.06, 7, 11.7071, 15.1266, 29.6465, 18.5017, -39.4398, -13.1108
4.064, 7, 11.6645, 15.1294, 29.6817, 18.4028, -39.5193, -13.0318
4.068, 7, 11.6218, 15.1324, 29.7168, 18.3042, -39.599, -12.9531
4.072, 7, 11.5791, 15.1354, 29.7518, 18.206, -39.6787, -12.8746
4.076, 7, 11.5364, 15.1386, 29.7867, 18.108, -39.7585, -12.7965
4.08, 7, 11.4937, 15.1418, 29.8215, 18.0104, -39.8383, -12.7188
4.084, 7, 11.4509, 15.1451, 29.8562, 17.913, -39.9183, -12.6413
4.088, 7, 11.4082, 15.1486, 29.8908, 17.816, -39.9983, -12.5641
4.092, 7, 11.3653, 15.1521, 29.9253, 17.7193, -40.0785, -12.4873
4.096, 7, 11.3225, 15.1558, 29.9597, 17.6228, -40.1587, -12.4107
4.1, 7, 11.2797, 15.1595, 29.9939, 17.5267, -40.239, -12.3345
4.104, 7, 11.2368, 15.1634, 30.0281, 17.4309, -40.3193, -12.2585
4.108, 7, 11.1939, 15.1673, 30.0622, 17.3353, -40.3998, -12.1829
4.112, 7, 11.1509, 15.1714, 30.0961, 17.24, -40.4803, -12.1076
4.116, 7, 11.108, 15.1755, 30.13, 17.1451, -40.5609, -12.0325
4.12, 7, 11.065, 15.1798, 30.1637, 17.0504, -40.6416, -11.9578
4.124, 7, 11.022, 15.1842, 30.1973, 16.956, -40.7223, -11.8833
4.128, 7, 10.9789, 15.1886, 30.2309, 16.8619, -40.8032, -11.8092
4.132, 7, 10.9359, 15.1932, 30.2643, 16.7681, -40.8841, -11.7353
4.136, 7, 10.8928, 15.1978, 30.2976, 16.6746, -40.9651, -11.6618
4.14, 7, 10.8497, 15.2026, 30.3308, 16.5814, -41.0462, -11.5885
4.144, 7, 10.8066, 15.2075, 30.3639, 16.4884, -41.1273, -11.5155
4.148, 7, 10.7634, 15.2124, 30.3969, 16.3957, -41.2085, -11.4428
4.152, 7, 10.7202, 15.2175, 30.4298, 16.3033, -41.2898, -11.3704
4.156, 7, 10.677, 15.2227, 30.4626, 16.2112, -41.3712, -11.2983
4.16, 7, 10.6338, 15.228, 30.4953, 16.1194, -41.4526, -11.2264
4.164, 7, 10.5905, 15.2333, 30.5278, 16.0278, -41.5341, -11.1549
4.168, 7, 10.5473, 15.2388, 30.5603, 15.9365, -41.6157, -11.0836
4.172, 7, 10.504, 15.2444, 30.5926, 15.8455, -41.6973, -11.0126
4.176, 7, 10.4606, 15.2501, 30.6249, 15.7547, -41.7791, -10.9419
4.18, 7, 10.4173, 15.2558, 30.657, 15.6642, -41.8608, -10.8714
4.184, 7, 10.3739, 15.2617, 30.6891, 15.574, -41.9427, -10.8012
4.188, 7, 10.3305, 15.2677, 30.721, 15.484, -42.0246, -10.7313
4.192, 7, 10.2871, 15.2738, 30.7528, 15.3943, -42.1066, -10.6617
4.196, 7, 10.2437, 15.28, 30.7845, 15.3049, -42.1887, -10.5923
4.2, 7, 10.2002, 15.2862, 30.8161, 15.2157, -42.2709, -10.5232
4.204, 7, 10.1567, 15.2926, 30.8476, 15.1268, -42.3531, -10.4544
4.208, 7, 10.1132, 15.2991, 30.879, 15.0382, -42.4353, -10.3859
4.212, 7, 10.0697, 15.3057, 30.9103, 14.9498, -42.5177, -10.3176
4.216, 7, 10.0261, 15.3124, 30.9415, 14.8616, -42.6001, -10.2495
4.22, 7, 9.98253, 15.3192, 30.9725, 14.7738, -42.6825, -10.1818
4.224, 7, 9.93893, 15.3261, 31.0035, 14.6861, -42.7651, -10.1143
4.228, 7, 9.8953, 15.3331, 31.0344, 14.5988, -42.8477, -10.047
4.232, 7, 9.85166, 15.3402, 31.0651, 14.5116, -42.9303, -9.98003
4.236, 7, 9.80799, 15.3474, 31.0957, 14.4248, -43.0131, -9.9133
4.24, 7, 9.7643, 15.3547, 31.1263, 14.3381, -43.0959, -9.84683
4.244, 7, 9.72059, 15.3621, 31.1567, 14.2518, -43.1787, -9.78061
4.248, 7, 9.67685, 15.3696, 31.187, 14.1656, -43.2616, -9.71465
4.252, 7, 9.6331, 15.3772, 31.2172, 14.0798, -43.3446, -9.64894
4.256, 7, 9.58932, 15.3849, 31.2473, 13.9941, -43.4277, -9.58349
4.26, 7, 9.54552, 15.3927, 31.2773, 13.9087, -43.5108, -9.51828
4.264, 7, 9.5017, 15.4006, 31.3072, 13.8236, -43.5939, -9.45333
4.268, 7, 9.45786, 15.4086, 31.3369, 13.7387, -43.6772, -9.38862
4.272, 7, 9.41399, 15.4167, 31.3666, 13.654, -43.7604, -9.32416
4.276, 7, 9.37011, 15.4249, 31.3962, 13.5696, -43.8438, -9.25995
4.28, 7, 9.3262, 15.4332, 31.4256, 13.4854, -43.9272, -9.19598
4.284, 7, 9.28228, 15.4416, 31.4549, 13.4015, -44.0107, -9.13226
4.288, 7, 9.23833, 15.4501, 31.4842, 13.3177, -44.0942, -9.06878
4.292, 7, 9.19436, 15.4588, 31.5133, 13.2343, -44.1778, -9.00555
4.296, 7, 9.15037, 15.4675, 31.5423, 13.151, -44.2614, -8.94255
4.3, 7, 9.10636, 15.4763, 31.5712, 13.068, -44.3451, -8.8798
4.304, 7, 9.06232, 15.4852, 31.6, 12.9852, -44.4289, -8.81729
4.308, 7, 9.01827, 15.4942, 31.6287, 12.9027, -44.5127, -8.75501
4.312, 7, 8.9742, 15.5033, 31.6573, 12.8204, -44.5966, -8.69297
4.316, 7, 8.9301, 15.5126, 31.6857, 12.7383, -44.6805, -8.63117
4.32, 7, 8.88599, 15.5219, 31.7141, 12.6564, -44.7645, -8.56961
4.324, 7, 8.84185, 15.5313, 31.7423, 12.5748, -44.8485, -8.50828
4.328, 7, 8.7977, 15.5408, 31.7705, 12.4934, -44.9326, -8.44718
4.332, 7, 8.75352, 15.5505, 31.7985, 12.4122, -45.0168, -8.38632
4.336, 7, 8.70932, 15.5602, 31.8264, 12.3312, -45.101, -8.32568
4.34, 7, 8.66511, 15.57, 31.8542, 12.2505, -45.1852, -8.26528
4.344, 7, 8.62087, 15.5799, 31.8819, 12.17, -45.2695, -8.20511
4.348, 7, 8.57662, 15.59, 31.9095, 12.0897, -45.3539, -8.14517
4.352, 7, 8.53234, 15.6001, 31.937, 12.0096, -45.4383, -8.08546
4.356, 7, 8.48804, 15.6103, 31.9644, 11.9298, -45.5228, -8.02597
4.36, 7, 8.44373, 15.6207, 31.9916, 11.8502, -45.6073, -7.96671
4.364, 7, 8.39939, 15.6311, 32.0188, 11.7708, -45.6919, -7.90768
4.368, 7, 8.35504, 15.6416, 32.0458, 11.6916, -45.7765, -7.84887
4.372, 8, 8.31066, 15.6523, 32.0727, 11.6126, -45.8612, -7.79029
4.376, 8, 8.26627, 15.663, 32.0996, 11.5339, -45.946, -7.73193
4.38, 8, 8.22185, 15.6738, 32.1263, 11.4553, -46.0307, -7.67379
4.384, 8, 8.17742, 15.6848, 32.1529, 11.377, -46.1156, -7.61587
4.388, 8, 8.13297, 15.6958, 32.1794, 11.2989, -46.2005, -7.55818
4.392, 8, 8.0885, 15.707, 32.2057, 11.221, -46.2854, -7.5007
4.396, 8, 8.04401, 15.7182, 32.232, 11.1433, -46.3704, -7.44344
4.4, 8, 7.9995, 15.7295, 32.2582, 11.0658, -46.4554, -7.3864
4.404, 8, 7.95497, 15.741, 32.2842, 10.9885, -46.5405, -7.32957
4.408, 8, 7.91042, 15.7525, 32.3102, 10.9115, -46.6257, -7.27296
4.412, 8, 7.86586, 15.7642, 32.336, 10.8346, -46.7108, -7.21656
4.416, 8, 7.82127, 15.7759, 32.3617, 10.758, -46.7961, -7.16038
4.42, 8, 7.77667, 15.7878, 32.3873, 10.6815, -46.8814, -7.10441
4.424, 8, 7.73205, 15.7997, 32.4128, 10.6053, -46.9667, -7.04865
4.428, 8, 7.68741, 15.8118, 32.4382, 10.5292, -47.0521, -6.9931
4.432, 8, 7.64275, 15.8239, 32.4635, 10.4534, -47.1375, -6.93776
4.436, 8, 7.59808, 15.8362, 32.4886, 10.3778, -47.2229, -6.88263
4.442, 8, 7.50868, 15.861, 32.5386, 10.2271, -47.394, -6.77298
4.444, 8, 7.50868, 15.861, 32.5386, 10.2271, -47.394, -6.77298
4.448, 8, 7.46395, 15.8735, 32.5634, 10.1521, -47.4796, -6.71847
4.452, 8, 7.4192, 15.8862, 32.5882, 10.0772, -47.5653, -6.66416
4.456, 8, 7.37444, 15.899, 32.6128, 10.0026, -47.6509, -6.61005
4.46, 8, 7.32966, 15.9118, 32.6373, 9.92813, -47.7367, -6.55614
4.464, 8, 7.28486, 15.9248, 32.6616, 9.85387, -47.8225, -6.50244
4.468, 8, 7.24005, 15.9378, 32.6859, 9.77981, -47.9083, -6.44893
4.472, 8, 7.19522, 15.951, 32.7101, 9.70594, -47.9941, -6.39563
4.476, 8, 7.15037, 15.9642, 32.7341, 9.63226, -48.08, -6.34252
4.48, 8, 7.1055, 15.9776, 32.758, 9.55877, -48.166, -6.28961
4.484, 8, 7.06062, 15.9911, 32.7819, 9.48547, -48.252, -6.2369
4.488, 8, 7.01573, 16.0046, 32.8056, 9.41236, -48.338, -6.18438
4.492, 8, 6.97081, 16.0183, 32.8292, 9.33943, -48.424, -6.13206
4.496, 8, 6.92588, 16.032, 32.8527, 9.2667, -48.5102, -6.07993
4.5, 8, 6.88094, 16.0459, 32.8761, 9.19415, -48.5963, -6.02799
4.504, 8, 6.83597, 16.0598, 32.8993, 9.12178, -48.6825, -5.97625
4.508, 8, 6.791, 16.0739, 32.9225, 9.0496, -48.7687, -5.92469
4.512, 8, 6.746, 16.088, 32.9455, 8.9776, -48.855, -5.87333
4.516, 8, 6.70099, 16.1023, 32.9684, 8.90578, -48.9413, -5.82215
4.52, 8, 6.65597, 16.1166, 32.9913, 8.83415, -49.0276, -5.77116
4.524, 8, 6.61093, 16.1311, 33.014, 8.76269, -49.114, -5.72037
4.528, 8, 6.56587, 16.1456, 33.0366, 8.69142, -49.2004, -5.66975
4.532, 8, 6.5208, 16.1603, 33.059, 8.62032, -49.2868, -5.61932
4.536, 8, 6.47572, 16.175, 33.0814, 8.54941, -49.3733, -5.56908
4.54, 8, 6.43062, 16.1899, 33.1037, 8.47867, -49.4598, -5.51902
4.544, 8, 6.3855, 16.2048, 33.1258, 8.4081, -49.5464, -5.46915
4.548, 8, 6.34037, 16.2198, 33.1479, 8.33772, -49.6329, -5.41946
4.552, 8, 6.29523, 16.235, 33.1698, 8.26751, -49.7196, -5.36995
4.556, 8, 6.25007, 16.2502, 33.1916, 8.19747, -49.8062, -5.32062
4.56, 8, 6.2049, 16.2656, 33.2133, 8.12761, -49.8929, -5.27147
4.564, 8, 6.15971, 16.281, 33.2349, 8.05791, -49.9796, -5.2225
4.568, 8, 6.11451, 16.2965, 33.2563, 7.98839, -50.0664, -5.1737
4.572, 8, 6.06929, 16.3122, 33.2777, 7.91905, -50.1532, -5.12509
4.576, 8, 6.02406, 16.3279, 33.2989, 7.84987, -50.24, -5.07665
4.58, 8, 5.97882, 16.3437, 33.3201, 7.78086, -50.3268, -5.02839
4.584, 8, 5.93356, 16.3596, 33.3411, 7.71202, -50.4137, -4.98031
4.588, 8, 5.88829, 16.3757, 33.362, 7.64335, -50.5006, -4.9324
4.592, 8, 5.843, 16.3918, 33.3828, 7.57485, -50.5876, -4.88466
4.596, 8, 5.79771, 16.408, 33.4035, 7.50652, -50.6746, -4.8371
4.6, 8, 5.7524, 16.4243, 33.424, 7.43835, -50.7616, -4.78971
4.604, 8, 5.70707, 16.4407, 33.4445, 7.37034, -50.8486, -4.74249
4.608, 8, 5.66173, 16.4572, 33.4648, 7.30251, -50.9357, -4.69544
4.612, 8, 5.61638, 16.4738, 33.4851, 7.23483, -51.0228, -4.64857
4.616, 8, 5.57102, 16.4905, 33.5052, 7.16732, -51.1099, -4.60186
4.62, 8, 5.52564, 16.5074, 33.5252, 7.09997, -51.1971, -4.55532
4.624, 8, 5.48025, 16.5243, 33.5451, 7.03279, -51.2842, -4.50896
4.628, 8, 5.43485, 16.5413, 33.5648, 6.96576, -51.3714, -4.46275
4.632, 8, 5.38943, 16.5583, 33.5845, 6.8989, -51.4587, -4.41672
4.636, 8, 5.34401, 16.5755, 33.604, 6.83219, -51.546, -4.37085
4.64, 8, 5.29857, 16.5928, 33.6235, 6.76565, -51.6333, -4.32515
4.644, 8, 5.25311, 16.6102, 33.6428, 6.69927, -51.7206, -4.27961
4.648, 8, 5.20765, 16.6277, 33.662, 6.63304, -51.8079, -4.23424
4.652, 8, 5.16217, 16.6453, 33.6811, 6.56697, -51.8953, -4.18903
4.656, 8, 5.11668, 16.663, 33.7001, 6.50106, -51.9827, -4.14399
4.66, 8, 5.07118, 16.6808, 33.7189, 6.4353, -52.0701, -4.09911
4.664, 8, 5.02567, 16.6986, 33.7377, 6.3697, -52.1576, -4.05439
4.668, 8, 4.98015, 16.7166, 33.7563, 6.30426, -52.2451, -4.00983
4.672, 8, 4.93461, 16.7347, 33.7748, 6.23897, -52.3326, -3.96543
4.676, 8, 4.88906, 16.7528, 33.7932, 6.17383, -52.4201, -3.92119
4.68, 8, 4.8435, 16.7711, 33.8115, 6.10885, -52.5076, -3.87711
4.684, 8, 4.79793, 16.7895, 33.8297, 6.04402, -52.5952, -3.8332
4.688, 9, 4.75235, 16.8079, 33.8478, 5.97934, -52.6828, -3.78943
4.692, 9, 4.70676, 16.8265, 33.8657, 5.91481, -52.7705, -3.74583
4.696, 9, 4.66115, 16.8452, 33.8835, 5.85044, -52.8581, -3.70238
4.7, 9, 4.61554, 16.8639, 33.9012, 5.78621, -52.9458, -3.65909
4.704, 9, 4.56991, 16.8828, 33.9188, 5.72213, -53.0335, -3.61596
4.708, 9, 4.52427, 16.9017, 33.9363, 5.65821, -53.1212, -3.57298
4.712, 9, 4.47862, 16.9208, 33.9537, 5.59443, -53.2089, -3.53015
4.716, 9, 4.43297, 16.9399, 33.9709, 5.5308, -53.2967, -3.48748
4.72, 9, 4.3873, 16.9592, 33.988, 5.46731, -53.3845, -3.44496
4.724, 9, 4.34162, 16.9785, 34.0051, 5.40397, -53.4723, -3.4026
4.728, 9, 4.29593, 16.998, 34.0219, 5.34078, -53.5601, -3.36038
4.732, 9, 4.25023, 17.0175, 34.0387, 5.27773, -53.6479, -3.31832
4.736, 9, 4.20452, 17.0371, 34.0554, 5.21483, -53.7358, -3.2764
4.74, 9, 4.1588, 17.0569, 34.0719, 5.15207, -53.8237, -3.23464
4.744, 9, 4.11308, 17.0767, 34.0883, 5.08945, -53.9116, -3.19302
4.748, 9, 4.06734, 17.0966, 34.1046, 5.02697, -53.9995, -3.15156
4.752, 9, 4.02159, 17.1167, 34.1208, 4.96464, -54.0875, -3.11024
4.756, 9, 3.97583, 17.1368, 34.1369, 4.90245, -54.1754, -3.06906
4.76, 9, 3.93007, 17.157, 34.1528, 4.8404, -54.2634, -3.02804
4.764, 9, 3.88429, 17.1773, 34.1687, 4.77848, -54.3514, -2.98716
4.768, 9, 3.83851, 17.1977, 34.1844, 4.71671, -54.4394, -2.94642
4.772, 9, 3.79271, 17.2182, 34.2, 4.65508, -54.5274, -2.90583
4.776, 9, 3.74691, 17.2388, 34.2155, 4.59358, -54.6155, -2.86538
4.78, 9, 3.7011, 17.2595, 34.2309, 4.53223, -54.7035, -2.82507
4.784, 9, 3.65528, 17.2803, 34.2461, 4.471, -54.7916, -2.78491
4.788, 9, 3.60945, 17.3012, 34.2613, 4.40992, -54.8797, -2.74489
4.792, 9, 3.56362, 17.3222, 34.2763, 4.34897, -54.9678, -2.70501
4.796, 9, 3.51777, 17.3433, 34.2912, 4.28816, -55.0559, -2.66527
4.8, 9, 3.47192, 17.3644, 34.306, 4.22748, -55.1441, -2.62567
4.804, 9, 3.42606, 17.3857, 34.3207, 4.16694, -55.2322, -2.58621
4.808, 9, 3.3802, 17.407, 34.3352, 4.10652, -55.3204, -2.54689
4.812, 9, 3.33432, 17.4285, 34.3497, 4.04625, -55.4085, -2.50771
4.816, 9, 3.28844, 17.45, 34.364, 3.9861, -55.4967, -2.46866
4.82, 9, 3.24255, 17.4717, 34.3782, 3.92609, -55.5849, -2.42975
4.824, 9, 3.19665, 17.4934, 34.3923, 3.86621, -55.6731, -2.39098
4.828, 9, 3.15075, 17.5152, 34.4063, 3.80645, -55.7614, -2.35234
4.832, 9, 3.10484, 17.5371, 34.4202, 3.74683, -55.8496, -2.31384
4.836, 9, 3.05892, 17.5591, 34.4339, 3.68734, -55.9379, -2.27547
4.84, 9, 3.013, 17.5812, 34.4476, 3.62798, -56.0261, -2.23724
4.844, 9, 2.96707, 17.6034, 34.4611, 3.56875, -56.1144, -2.19914
4.848, 9, 2.92113, 17.6257, 34.4745, 3.50964, -56.2027, -2.16117
4.852, 9, 2.87518, 17.6481, 34.4878, 3.45066, -56.291, -2.12334
4.856, 9, 2.82923, 17.6706, 34.5009, 3.39181, -56.3792, -2.08563
4.86, 9, 2.78328, 17.6931, 34.514, 3.33309, -56.4676, -2.04806
4.864, 9, 2.73732, 17.7158, 34.5269, 3.27449, -56.5559, -2.01062
4.868, 9, 2.69135, 17.7385, 34.5398, 3.21602, -56.6442, -1.97331
4.872, 9, 2.64538, 17.7613, 34.5525, 3.15767, -56.7325, -1.93612
4.876, 9, 2.5994, 17.7843, 34.5651, 3.09945, -56.8209, -1.89907
4.88, 9, 2.55341, 17.8073, 34.5775, 3.04135, -56.9092, -1.86214
4.884, 9, 2.50742, 17.8304, 34.5899, 2.98337, -56.9976, -1.82535
4.888, 9, 2.46143, 17.8536, 34.6021, 2.92552, -57.0859, -1.78868
4.892, 9, 2.41543, 17.8769, 34.6143, 2.86779, -57.1743, -1.75213
4.896, 9, 2.36942, 17.9003, 34.6263, 2.81018, -57.2627, -1.71572
4.9, 9, 2.32341, 17.9237, 34.6382, 2.7527, -57.3511, -1.67943
4.904, 9, 2.2774, 17.9473, 34.6499, 2.69533, -57.4394, -1.64326
4.908, 9, 2.23138, 17.971, 34.6616, 2.63809, -57.5278, -1.60722
4.912, 9, 2.18535, 17.9947, 34.6731, 2.58096, -57.6162, -1.5713
4.916, 9, 2.13932, 18.0185, 34.6846, 2.52396, -57.7046, -1.53551
4.92, 9, 2.09329, 18.0425, 34.6959, 2.46707, -57.793, -1.49984
4.924, 9, 2.04725, 18.0665, 34.7071, 2.41031, -57.8815, -1.46429
4.928, 9, 2.00121, 18.0906, 34.7181, 2.35366, -57.9699, -1.42887
4.932, 9, 1.95517, 18.1148, 34.7291, 2.29713, -58.0583, -1.39356
4.936, 9, 1.90912, 18.1391, 34.7399, 2.24072, -58.1467, -1.35838
4.94, 9, 1.86306, 18.1634, 34.7506, 2.18442, -58.2351, -1.32332
4.944, 9, 1.81701, 18.1879, 34.7613, 2.12824, -58.3236, -1.28837
4.948, 9, 1.77095, 18.2125, 34.7717, 2.07218, -58.412, -1.25355
4.952, 9, 1.72488, 18.2371, 34.7821, 2.01623, -58.5004, -1.21885
4.956, 9, 1.67881, 18.2618, 34.7924, 1.96039, -58.5889, -1.18426
4.96, 9, 1.63274, 18.2867, 34.8025, 1.90468, -58.6773, -1.1498
4.964, 9, 1.58669, 18.3116, 34.8125, 1.84907, -58.7657, -1.11545
4.968, 9, 1.54066, 18.3366, 34.8224, 1.79358, -58.8542, -1.08122
4.972, 9, 1.4947, 18.3616, 34.8322, 1.73821, -58.9426, -1.04711
4.976, 9, 1.44885, 18.3867, 34.8419, 1.68295, -59.031, -1.01311
4.98, 9, 1.40314, 18.4119, 34.8515, 1.62782, -59.1194, -0.979248
4.984, 9, 1.3576, 18.4371, 34.8609, 1.57283, -59.2078, -0.945513
4.988, 9, 1.31222, 18.4624, 34.8702, 1.518, -59.296, -0.91192
4.992, 9, 1.267, 18.488, 34.8793, 1.46333, -59.3842, -0.878481
4.996, 9, 1.2219, 18.5139, 34.888, 1.40887, -59.4722, -0.845213
5, 9, 1.17687, 18.5404, 34.8964, 1.35463, -59.56, -0.812135
5.004, 9, 1.13187, 18.5675, 34.9043, 1.30067, -59.6475, -0.779265
5.008, 10, 1.08686, 18.5952, 34.9115, 1.247, -59.7347, -0.746624
5.012, 10, 1.04183, 18.6236, 34.918, 1.19365, -59.8216, -0.714227
5.016, 10, 0.996766, 18.6525, 34.9235, 1.14066, -59.908, -0.682086
5.02, 10, 0.951668, 18.6821, 34.9281, 1.08804, -59.994, -0.650206
5.024, 10, 0.906543, 18.7122, 34.9315, 1.03577, -60.0796, -0.618585
5.028, 10, 0.86141, 18.7431, 34.9336, 0.983844, -60.1647, -0.587212
5.032, 10, 0.816286, 18.7749, 34.9343, 0.932237, -60.2496, -0.556071
5.036, 10, 0.771183, 18.8075, 34.9337, 0.880912, -60.3341, -0.525141
5.04, 10, 0.726108, 18.8409, 34.9315, 0.829831, -60.4184, -0.494398
5.044, 10, 0.68108, 18.8751, 34.928, 0.778952, -60.5025, -0.463815
5.048, 10, 0.636135, 18.9099, 34.9232, 0.728234, -60.5866, -0.433366
5.052, 10, 0.591314, 18.9454, 34.9171, 0.677632, -60.6706, -0.403026
5.056, 10, 0.546662, 18.9815, 34.9099, 0.627106, -60.7547, -0.372769
5.06, 10, 0.502216, 19.0182, 34.9017, 0.576624, -60.8388, -0.342576
5.064, 10, 0.457998, 19.0557, 34.8926, 0.526159, -60.9231, -0.312434
5.068, 10, 0.414002, 19.0939, 34.8827, 0.475697, -61.0075, -0.282332
5.072, 10, 0.370178, 19.1329, 34.8722, 0.425235, -61.0921, -0.252271
5.076, 10, 0.326449, 19.1726, 34.8612, 0.374781, -61.1768, -0.222253
5.08, 10, 0.282731, 19.2128, 34.8497, 0.324351, -61.2617, -0.192286
5.084, 10, 0.238958, 19.2534, 34.8379, 0.273963, -61.3466, -0.162381
5.088, 10, 0.195088, 19.2943, 34.8259, 0.223634, -61.4316, -0.132546
5.092, 10, 0.151105, 19.3355, 34.8136, 0.173381, -61.5166, -0.10279
5.096, 10, 0.107018, 19.3769, 34.8011, 0.123215, -61.6017, -0.0731199
5.1, 10, 0.0628508, 19.4185, 34.7885, 0.0731441, -61.6867, -0.0435403
5.104, 10, 0.0186322, 19.4603, 34.7756, 0.0231752, -61.7717, -0.0140545
5.108, 10, -0.0256154, 19.5021, 34.7627, -0.0266882, -61.8567, 0.0153354
5.112, 10, -0.0698675, 19.5441, 34.7496, -0.0764437, -61.9417, 0.0446281
5.116, 10, -0.114073, 19.5862, 34.7363, -0.12609, -62.0267, 0.0738226
5.12, 10, -0.158141, 19.6286, 34.7229, -0.175626, -62.1116, 0.102917
5.124, 10, -0.201971, 19.6713, 34.7092, -0.225044, -62.1965, 0.131906
5.128, 10, -0.245504, 19.7145, 34.6951, -0.274327, -62.2813, 0.160779
5.132, 10, -0.288736, 19.7581, 34.6806, -0.323446, -62.3659, 0.18952
5.136, 11, -0.331692, 19.8022, 34.6655, -0.372356, -62.4504, 0.218105
5.14, 11, -0.374419, 19.8469, 34.6497, -0.421007, -62.5346, 0.246506
5.144, 11, -0.416986, 19.892, 34.6331, -0.469339, -62.6185, 0.274695
5.148, 11, -0.459455, 19.9376, 34.6155, -0.517298, -62.7019, 0.30264
5.152, 11, -0.50184, 19.9837, 34.5969, -0.564835, -62.7848, 0.330317
5.156, 11, -0.544094, 20.0303, 34.5771, -0.611914, -62.8672, 0.357707
5.16, 11, -0.586146, 20.0776, 34.556, -0.65851, -62.9489, 0.384795
5.164, 11, -0.627955, 20.1256, 34.5335, -0.704607, -63.03, 0.411572
5.168, 11, -0.669545, 20.1743, 34.5097, -0.750194, -63.1105, 0.438035
5.172, 11, -0.710982, 20.2236, 34.4845, -0.79527, -63.1903, 0.464185
5.176, 11, -0.752325, 20.2734, 34.458, -0.839848, -63.2695, 0.490031
5.18, 11, -0.793584, 20.3238, 34.4303, -0.883954, -63.348, 0.515588
5.184, 11, -0.834731, 20.3747, 34.4015, -0.92763, -63.4261, 0.540881
5.188, 11, -0.875721, 20.4261, 34.3717, -0.970928, -63.5036, 0.565937
5.192, 11, -0.916486, 20.478, 34.3411, -1.0139, -63.5808, 0.590789
5.196, 11, -0.956951, 20.5305, 34.3097, -1.05661, -63.6577, 0.615466
5.2, 11, -0.997071, 20.5835, 34.2777, -1.09911, -63.7343, 0.639996
5.204, 11, -1.03687, 20.637, 34.2452, -1.14142, -63.8107, 0.664401
5.208, 11, -1.0764, 20.6909, 34.2123, -1.18357, -63.887, 0.688695
5.212, 11, -1.11575, 20.745, 34.1791, -1.22559, -63.9631, 0.71289
5.216, 11, -1.15495, 20.7993, 34.1457, -1.26748, -64.0392, 0.736993
5.22, 11, -1.19405, 20.8538, 34.1121, -1.30925, -64.1152, 0.761011
5.224, 11, -1.23306, 20.9083, 34.0783, -1.35091, -64.191, 0.784945
5.228, 11, -1.272, 20.963, 34.0443, -1.39246, -64.2668, 0.8088
5.232, 11, -1.31089, 21.0177, 34.0102, -1.4339, -64.3426, 0.832578
5.236, 11, -1.34973, 21.0724, 33.976, -1.47524, -64.4183, 0.856278
5.24, 11, -1.38852, 21.1273, 33.9417, -1.51647, -64.4939, 0.879904
5.244, 11, -1.42728, 21.1821, 33.9072, -1.5576, -64.5694, 0.903455
5.248, 11, -1.46599, 21.237, 33.8726, -1.59863, -64.6449, 0.926933
5.252, 11, -1.50466, 21.292, 33.8379, -1.63956, -64.7203, 0.950338
5.256, 11, -1.5433, 21.347, 33.8031, -1.68039, -64.7956, 0.973671
5.26, 11, -1.58191, 21.402, 33.7681, -1.72112, -64.8709, 0.996931
5.264, 11, -1.62047, 21.4571, 33.733, -1.76175, -64.9461, 1.02012
5.268, 11, -1.659, 21.5122, 33.6978, -1.80228, -65.0212, 1.04324
5.272, 11, -1.6975, 21.5673, 33.6625, -1.84271, -65.0963, 1.06629
5.276, 11, -1.73596, 21.6225, 33.6271, -1.88304, -65.1713, 1.08927
5.28, 11, -1.77439, 21.6777, 33.5916, -1.92328, -65.2463, 1.11217
5.284, 11, -1.81278, 21.733, 33.5559, -1.96342, -65.3212, 1.13501
5.288, 11, -1.85114, 21.7883, 33.5202, -2.00346, -65.396, 1.15778
5.292, 11, -1.88946, 21.8436, 33.4843, -2.0434, -65.4707, 1.18049
5.296, 11, -1.92775, 21.899, 33.4483, -2.08325, -65.5454, 1.20312
5.3, 11, -1.966, 21.9544, 33.4122, -2.123, -65.62, 1.22569
5.304, 11, -2.00421, 22.0098, 33.3759, -2.16265, -65.6946, 1.24819
5.308, 11, -2.0424, 22.0653, 33.3396, -2.20221, -65.7691, 1.27062
5.312, 11, -2.08054, 22.1208, 33.3031, -2.24167, -65.8435, 1.29299
5.316, 11, -2.11866, 22.1764, 33.2666, -2.28104, -65.9178, 1.31529
5.32, 11, -2.15673, 22.232, 33.2299, -2.32031, -65.9921, 1.33753
5.324, 11, -2.19477, 22.2876, 33.1931, -2.35949, -66.0663, 1.3597
5.328, 11, -2.23278, 22.3433, 33.1561, -2.39857, -66.1405, 1.38181
5.332, 11, -2.27075, 22.3989, 33.1191, -2.43756, -66.2145, 1.40385
5.336, 11, -2.30869, 22.4547, 33.0819, -2.47646, -66.2885, 1.42583
5.34, 11, -2.34659, 22.5104, 33.0446, -2.51526, -66.3625, 1.44775
5.344, 11, -2.38446, 22.5662, 33.0073, -2.55397, -66.4363, 1.4696
5.348, 11, -2.42229, 22.6221, 32.9697, -2.59258, -66.5102, 1.49139
5.352, 11, -2.46008, 22.6779, 32.9321, -2.6311, -66.5839, 1.51312
5.356, 11, -2.49784, 22.7338, 32.8944, -2.66953, -66.6575, 1.53479
5.36, 11, -2.53557, 22.7897, 32.8565, -2.70787, -66.7311, 1.55639
5.364, 11, -2.57325, 22.8457, 32.8186, -2.74612, -66.8047, 1.57794
5.368, 11, -2.61091, 22.9017, 32.7805, -2.78427, -66.8781, 1.59942
5.372, 11, -2.64853, 22.9577, 32.7423, -2.82234, -66.9515, 1.62085
5.376, 11, -2.68611, 23.0138, 32.704, -2.86031, -67.0248, 1.64221
5.38, 11, -2.72366, 23.0699, 32.6655, -2.89819, -67.098, 1.66351
5.384, 11, -2.76117, 23.126, 32.627, -2.93598, -67.1712, 1.68476
5.388, 11, -2.79864, 23.1822, 32.5883, -2.97369, -67.2443, 1.70595
5.392, 11, -2.83608, 23.2384, 32.5495, -3.0113, -67.3173, 1.72708
5.396, 11, -2.87349, 23.2946, 32.5106, -3.04882, -67.3903, 1.74815
5.4, 11, -2.91086, 23.3509, 32.4716, -3.08625, -67.4631, 1.76916
5.404, 11, -2.94819, 23.4072, 32.4325, -3.12359, -67.5359, 1.79012
5.408, 11, -2.98549, 23.4635, 32.3932, -3.16085, -67.6087, 1.81102
5.412, 11, -3.02275, 23.5199, 32.3539, -3.19801, -67.6813, 1.83186
5.416, 11, -3.05997, 23.5763, 32.3144, -3.23509, -67.7539, 1.85265
5.42, 11, -3.09716, 23.6327, 32.2748, -3.27208, -67.8264, 1.87338
5.424, 11, -3.13432, 23.6891, 32.2351, -3.30898, -67.8989, 1.89406
5.428, 11, -3.17143, 23.7456, 32.1953, -3.3458, -67.9712, 1.91468
5.432, 11, -3.20851, 23.8022, 32.1553, -3.38252, -68.0435, 1.93525
5.436, 11, -3.24556, 23.8587, 32.1153, -3.41916, -68.1158, 1.95576
5.44, 11, -3.28257, 23.9153, 32.0751, -3.45572, -68.1879, 1.97622
5.444, 11, -3.31954, 23.9719, 32.0348, -3.49218, -68.26, 1.99663
5.448, 11, -3.35647, 24.0285, 31.9944, -3.52856, -68.332, 2.01698
5.452, 11, -3.39337, 24.0852, 31.9539, -3.56486, -68.4039, 2.03728
5.456, 12, -3.43022, 24.1419, 31.9132, -3.60107, -68.4757, 2.05753
5.46, 12, -3.46705, 24.1986, 31.8725, -3.63719, -68.5474, 2.07773
5.464, 12, -3.50383, 24.2554, 31.8316, -3.67323, -68.6191, 2.09787
5.468, 12, -3.54058, 24.3121, 31.7906, -3.70918, -68.6907, 2.11797
5.472, 12, -3.5773, 24.3689, 31.7495, -3.74504, -68.7622, 2.13801
5.476, 12, -3.61397, 24.4258, 31.7083, -3.78083, -68.8335, 2.158
5.48, 12, -3.65061, 24.4826, 31.6669, -3.81652, -68.9048, 2.17795
5.484, 12, -3.68722, 24.5395, 31.6255, -3.85213, -68.9761, 2.19784
5.488, 12, -3.72378, 24.5964, 31.5839, -3.88766, -69.0472, 2.21768
5.492, 12, -3.76032, 24.6534, 31.5422, -3.92311, -69.1182, 2.23748
5.496, 12, -3.79681, 24.7104, 31.5004, -3.95847, -69.1891, 2.25723
5.5, 12, -3.83327, 24.7674, 31.4584, -3.99374, -69.26, 2.27693
5.504, 12, -3.8697, 24.8244, 31.4164, -4.02894, -69.3307, 2.29658
5.508, 12, -3.90608, 24.8814, 31.3742, -4.06405, -69.4014, 2.31618
5.512, 12, -3.94243, 24.9385, 31.3319, -4.09908, -69.472, 2.33574
5.516, 12, -3.97874, 24.9956, 31.2895, -4.13402, -69.5425, 2.35525
5.52, 12, -4.01502, 25.0528, 31.247, -4.16889, -69.6129, 2.37471
5.524, 12, -4.05125, 25.1099, 31.2044, -4.20367, -69.6832, 2.39412
5.528, 12, -4.08745, 25.1671, 31.1616, -4.23837, -69.7535, 2.4135
5.532, 12, -4.12361, 25.2243, 31.1187, -4.27298, -69.8237, 2.43282
5.536, 12, -4.15974, 25.2816, 31.0758, -4.30752, -69.8938, 2.4521
5.54, 12, -4.19583, 25.3388, 31.0327, -4.34198, -69.9638, 2.47134
5.544, 12, -4.23188, 25.3961, 30.9894, -4.37635, -70.0337, 2.49053
5.548, 12, -4.26789, 25.4535, 30.9461, -4.41065, -70.1036, 2.50967
5.552, 12, -4.30387, 25.5108, 30.9027, -4.44486, -70.1733, 2.52877
5.556, 12, -4.33981, 25.5682, 30.8591, -4.47899, -70.243, 2.54783
5.56, 12, -4.37572, 25.6256, 30.8154, -4.51304, -70.3127, 2.56685
5.564, 12, -4.41158, 25.683, 30.7716, -4.54702, -70.3822, 2.58582
5.568, 12, -4.44741, 25.7405, 30.7277, -4.58091, -70.4517, 2.60475
5.572, 12, -4.48321, 25.798, 30.6837, -4.61472, -70.521, 2.62364
5.576, 12, -4.51897, 25.8555, 30.6396, -4.64846, -70.5903, 2.64248
5.58, 12, -4.55469, 25.913, 30.5953, -4.68211, -70.6596, 2.66129
5.584, 12, -4.59037, 25.9706, 30.5509, -4.71569, -70.7287, 2.68005
5.588, 12, -4.62602, 26.0282, 30.5065, -4.74919, -70.7978, 2.69877
5.592, 12, -4.66163, 26.0858, 30.4619, -4.7826, -70.8668, 2.71745
5.596, 12, -4.69721, 26.1435, 30.4171, -4.81594, -70.9356, 2.73609
5.6, 12, -4.73274, 26.2011, 30.3723, -4.8492, -71.0045, 2.75469
5.604, 12, -4.76824, 26.2588, 30.3274, -4.88239, -71.0732, 2.77325
5.608, 12, -4.80371, 26.3166, 30.2823, -4.91549, -71.1419, 2.79177
5.612, 12, -4.83914, 26.3743, 30.2371, -4.94852, -71.2104, 2.81025
5.616, 12, -4.87453, 26.4321, 30.1918, -4.98147, -71.2789, 2.82869
5.62, 12, -4.90988, 26.4899, 30.1464, -5.01434, -71.3473, 2.84709
5.624, 12, -4.9452, 26.5477, 30.1009, -5.04714, -71.4156, 2.86546
5.628, 12, -4.98048, 26.6056, 30.0553, -5.07985, -71.4839, 2.88379
5.632, 12, -5.01572, 26.6635, 30.0095, -5.11249, -71.5521, 2.90208
5.636, 12, -5.05093, 26.7214, 29.9636, -5.14506, -71.6201, 2.92033
5.64, 12, -5.0861, 26.7793, 29.9177, -5.17754, -71.6881, 2.93854
5.644, 12, -5.12123, 26.8372, 29.8716, -5.20996, -71.7561, 2.95672
5.648, 12, -5.15633, 26.8952, 29.8254, -5.24229, -71.8239, 2.97486
5.652, 12, -5.19139, 26.9532, 29.779, -5.27455, -71.8916, 2.99296
5.656, 12, -5.22641, 27.0113, 29.7326, -5.30673, -71.9593, 3.01103
5.66, 12, -5.26139, 27.0693, 29.686, -5.33884, -72.0269, 3.02907
5.664, 12, -5.29634, 27.1274, 29.6393, -5.37087, -72.0944, 3.04706
5.668, 12, -5.33125, 27.1855, 29.5926, -5.40282, -72.1618, 3.06503
5.672, 12, -5.36613, 27.2436, 29.5457, -5.43471, -72.2291, 3.08295
5.676, 12, -5.40097, 27.3018, 29.4986, -5.46651, -72.2964, 3.10085
5.68, 12, -5.43577, 27.36, 29.4515, -5.49824, -72.3635, 3.11871
5.684, 12, -5.47053, 27.4182, 29.4043, -5.5299, -72.4306, 3.13653
5.688, 12, -5.50526, 27.4764, 29.3569, -5.56148, -72.4976, 3.15432
5.692, 12, -5.53995, 27.5346, 29.3094, -5.59298, -72.5645, 3.17208
5.696, 12, -5.5746, 27.5929, 29.2618, -5.62442, -72.6314, 3.18981
5.7, 12, -5.60922, 27.6512, 29.2141, -5.65577, -72.6981, 3.2075
5.704, 12, -5.6438, 27.7095, 29.1663, -5.68706, -72.7648, 3.22516
5.708, 12, -5.67834, 27.7679, 29.1183, -5.71827, -72.8313, 3.24279
5.712, 12, -5.71284, 27.8262, 29.0703, -5.7494, -72.8978, 3.26038
5.716, 12, -5.74731, 27.8846, 29.0221, -5.78047, -72.9642, 3.27795
5.72, 12, -5.78174, 27.943, 28.9738, -5.81146, -73.0306, 3.29548
5.724, 12, -5.81613, 28.0015, 28.9254, -5.84237, -73.0968, 3.31298
5.728, 12, -5.85049, 28.0599, 28.8769, -5.87322, -73.1629, 3.33045
5.732, 12, -5.88481, 28.1184, 28.8283, -5.90399, -73.229, 3.3479
5.736, 12, -5.91909, 28.1769, 28.7795, -5.93469, -73.295, 3.36531
5.74, 12, -5.95334, 28.2355, 28.7307, -5.96531, -73.3609, 3.38269
5.744, 12, -5.98754, 28.294, 28.6817, -5.99586, -73.4267, 3.40004
5.748, 12, -6.02172, 28.3526, 28.6326, -6.02635, -73.4924, 3.41736
5.752, 12, -6.05585, 28.4112, 28.5834, -6.05675, -73.558, 3.43465
5.756, 12, -6.08994, 28.4698, 28.534, -6.08709, -73.6235, 3.45192
5.76, 12, -6.124, 28.5284, 28.4846, -6.11735, -73.689, 3.46916
5.764, 12, -6.15802, 28.5871, 28.435, -6.14755, -73.7544, 3.48636
5.768, 12, -6.19201, 28.6458, 28.3854, -6.17767, -73.8196, 3.50354
5.772, 13, -6.22596, 28.7045, 28.3356, -6.20772, -73.8848, 3.52069
5.776, 13, -6.25987, 28.7632, 28.2857, -6.2377, -73.95, 3.53782
5.78, 13, -6.29374, 28.822, 28.2357, -6.2676, -74.015, 3.55492
5.784, 13, -6.32757, 28.8808, 28.1855, -6.29744, -74.0799, 3.57199
5.788, 13, -6.36137, 28.9396, 28.1353, -6.32721, -74.1447, 3.58903
5.792, 13, -6.39513, 28.9984, 28.0849, -6.3569, -74.2095, 3.60605
5.796, 13, -6.42885, 29.0572, 28.0344, -6.38653, -74.2742, 3.62304
5.8, 13, -6.46254, 29.1161, 27.9838, -6.41608, -74.3387, 3.64001
5.804, 13, -6.49619, 29.175, 27.9331, -6.44556, -74.4032, 3.65695
5.808, 13, -6.5298, 29.2339, 27.8823, -6.47498, -74.4676, 3.67387
5.812, 13, -6.56337, 29.2928, 27.8314, -6.50432, -74.5319, 3.69076
5.816, 13, -6.59691, 29.3517, 27.7803, -6.53359, -74.5962, 3.70762
5.82, 13, -6.6304, 29.4107, 27.7291, -6.5628, -74.6603, 3.72447
5.824, 13, -6.66387, 29.4697, 27.6778, -6.59193, -74.7243, 3.74128
5.828, 13, -6.69729, 29.5287, 27.6264, -6.62099, -74.7883, 3.75808
5.832, 13, -6.73068, 29.5877, 27.5749, -6.64999, -74.8522, 3.77485
5.836, 13, -6.76403, 29.6468, 27.5233, -6.67891, -74.916, 3.79159
5.84, 13, -6.79734, 29.7059, 27.4715, -6.70777, -74.9796, 3.80832
5.844, 13, -6.83061, 29.765, 27.4197, -6.73655, -75.0432, 3.82502
5.848, 13, -6.86385, 29.8241, 27.3677, -6.76527, -75.1068, 3.84169
5.852, 13, -6.89705, 29.8832, 27.3156, -6.79392, -75.1702, 3.85835
5.856, 13, -6.93021, 29.9424, 27.2634, -6.8225, -75.2335, 3.87498
5.86, 13, -6.96334, 30.0016, 27.211, -6.85101, -75.2968, 3.89159
5.864, 13, -6.99642, 30.0608, 27.1586, -6.87945, -75.3599, 3.90818
5.868, 13, -7.02948, 30.12, 27.106, -6.90782, -75.423, 3.92475
5.872, 13, -7.06249, 30.1792, 27.0534, -6.93612, -75.4859, 3.9413
5.876, 13, -7.09547, 30.2385, 27.0006, -6.96436, -75.5488, 3.95782
5.88, 13, -7.1284, 30.2977, 26.9477, -6.99253, -75.6116, 3.97432
5.884, 13, -7.16131, 30.357, 26.8946, -7.02063, -75.6743, 3.99081
5.888, 13, -7.19417, 30.4164, 26.8415, -7.04866, -75.7369, 4.00727
5.892, 13, -7.227, 30.4757, 26.7882, -7.07662, -75.7995, 4.02371
5.896, 13, -7.25979, 30.5351, 26.7349, -7.10452, -75.8619, 4.04014
5.9, 13, -7.29254, 30.5944, 26.6814, -7.13235, -75.9242, 4.05654
5.904, 13, -7.32526, 30.6539, 26.6278, -7.16011, -75.9865, 4.07292
5.908, 13, -7.35793, 30.7133, 26.5741, -7.1878, -76.0487, 4.08929
5.912, 13, -7.39058, 30.7727, 26.5203, -7.21542, -76.1107, 4.10563
5.916, 13, -7.42318, 30.8322, 26.4663, -7.24298, -76.1727, 4.12196
5.92, 13, -7.45575, 30.8917, 26.4122, -7.27047, -76.2346, 4.13827
5.924, 13, -7.48828, 30.9512, 26.3581, -7.2979, -76.2964, 4.15456
5.928, 13, -7.52077, 31.0107, 26.3038, -7.32525, -76.3581, 4.17083
5.932, 13, -7.55323, 31.0702, 26.2494, -7.35254, -76.4197, 4.18708
5.936, 13, -7.58564, 31.1298, 26.1948, -7.37976, -76.4812, 4.20332
5.94, 13, -7.61802, 31.1894, 26.1402, -7.40692, -76.5427, 4.21953
