hehonglu123/ABB_Primitive_Study/execution/movelll_30_car/curve_exe_v1000_z1.csv
timestamp, cmd_num, J1, J2, J3, J4, J5, J6
0, -1, -13.4393, 43.6787, 12.5946, -11.6275, -87.029, 7.42441
0.003, -1, -13.4393, 43.6787, 12.5946, -11.6275, -87.029, 7.42441
0.006, -1, -13.4393, 43.6787, 12.5946, -11.6275, -87.029, 7.42441
0.008, -1, -13.4393, 43.6787, 12.5946, -11.6275, -87.029, 7.42441
0.011, -1, -13.4393, 43.6787, 12.5946, -11.6275, -87.029, 7.42441
0.016, -1, -13.4393, 43.6787, 12.5946, -11.6275, -87.029, 7.42441
0.02, -1, -13.4393, 43.6787, 12.5946, -11.6275, -87.029, 7.42441
0.024, -1, -13.4393, 43.6787, 12.5946, -11.6275, -87.029, 7.42441
0.028, -1, -13.4393, 43.6787, 12.5946, -11.6275, -87.029, 7.42441
0.032, -1, -13.4393, 43.6787, 12.5946, -11.6275, -87.029, 7.42441
0.036, -1, -13.4392, 43.6786, 12.5946, -11.6275, -87.029, 7.42441
0.04, -1, -13.439, 43.6785, 12.5946, -11.6275, -87.029, 7.42441
0.044, -1, -13.4384, 43.678, 12.5947, -11.6275, -87.029, 7.42439
0.048, -1, -13.4372, 43.6772, 12.5949, -11.6274, -87.0289, 7.42434
0.052, -1, -13.4355, 43.6758, 12.5951, -11.6273, -87.0287, 7.42422
0.056, -1, -13.433, 43.6738, 12.5955, -11.627, -87.0284, 7.42397
0.06, -1, -13.4296, 43.671, 12.5961, -11.6264, -87.0277, 7.42349
0.064, -1, -13.4254, 43.6675, 12.5969, -11.6253, -87.0264, 7.42266
0.068, -1, -13.4203, 43.6631, 12.598, -11.6236, -87.0244, 7.42132
0.072, -1, -13.4141, 43.6579, 12.5994, -11.6209, -87.0213, 7.41928
0.076, -1, -13.4066, 43.6516, 12.6011, -11.617, -87.0167, 7.4163
0.08, -1, -13.3977, 43.6442, 12.6034, -11.6115, -87.0103, 7.41213
0.084, -1, -13.3869, 43.6352, 12.6062, -11.604, -87.0016, 7.40644
0.088, -1, -13.3743, 43.6247, 12.6097, -11.5941, -86.9899, 7.39892
0.092, -1, -13.3596, 43.6124, 12.6138, -11.5812, -86.9748, 7.38918
0.096, -1, -13.3427, 43.5982, 12.6186, -11.5648, -86.9557, 7.37685
0.1, -1, -13.3235, 43.582, 12.6243, -11.5444, -86.9319, 7.36155
0.104, -1, -13.3019, 43.5636, 12.6308, -11.5196, -86.9029, 7.3429
0.108, -1, -13.2776, 43.5427, 12.6382, -11.4899, -86.868, 7.32054
0.112, -1, -13.2505, 43.5193, 12.6467, -11.4547, -86.8269, 7.29416
0.116, -1, -13.2206, 43.4932, 12.6562, -11.4137, -86.7789, 7.26346
0.12, -1, -13.1877, 43.4644, 12.6669, -11.3667, -86.7238, 7.22818
0.124, -1, -13.1519, 43.4328, 12.6786, -11.3132, -86.6612, 7.18814
0.128, -1, -13.113, 43.3984, 12.6916, -11.2532, -86.591, 7.14319
0.131, -1, -13.071, 43.3611, 12.7056, -11.1865, -86.5129, 7.09326
0.136, -1, -13.026, 43.321, 12.7209, -11.1131, -86.4269, 7.03835
0.139, -1, -12.9779, 43.2779, 12.7373, -11.0331, -86.3333, 6.9785
0.144, -1, -12.9267, 43.232, 12.7548, -10.9467, -86.2321, 6.91384
0.148, -1, -12.8726, 43.1833, 12.7734, -10.854, -86.1236, 6.84454
0.152, -1, -12.8155, 43.132, 12.7932, -10.7555, -86.0082, 6.77084
0.156, -1, -12.7557, 43.0781, 12.8139, -10.6514, -85.8863, 6.69301
0.16, -1, -12.6932, 43.0219, 12.8355, -10.5422, -85.7585, 6.61137
0.164, -1, -12.6282, 42.9633, 12.8581, -10.4284, -85.6253, 6.52627
0.168, -1, -12.5607, 42.9025, 12.8815, -10.3105, -85.4872, 6.43809
0.172, -1, -12.4909, 42.8396, 12.9056, -10.189, -85.3449, 6.34721
0.176, -1, -12.4189, 42.7749, 12.9305, -10.0644, -85.1989, 6.25399
0.18, -1, -12.345, 42.7085, 12.956, -9.93711, -85.0499, 6.15879
0.184, -1, -12.2694, 42.6406, 12.9821, -9.80765, -84.8983, 6.06194
0.188, -1, -12.1925, 42.5714, 13.0086, -9.6764, -84.7446, 5.96375
0.192, -1, -12.1142, 42.5011, 13.0356, -9.54373, -84.5892, 5.86449
0.196, -1, -12.0348, 42.4297, 13.0629, -9.40995, -84.4326, 5.76439
0.2, -1, -11.9542, 42.3573, 13.0906, -9.27534, -84.2749, 5.66366
0.204, -1, -11.8724, 42.2841, 13.1185, -9.14011, -84.1166, 5.56246
0.208, -1, -11.7897, 42.21, 13.1466, -9.00443, -83.9577, 5.46092
0.212, -1, -11.7061, 42.1354, 13.1749, -8.86843, -83.7985, 5.35913
0.216, -1, -11.6218, 42.0602, 13.2033, -8.7322, -83.6389, 5.25717
0.22, -1, -11.5371, 41.9847, 13.2318, -8.5958, -83.4792, 5.15507
0.224, -1, -11.452, 41.909, 13.2603, -8.45928, -83.3194, 5.05288
0.228, -1, -11.3667, 41.8332, 13.2889, -8.32266, -83.1594, 4.95062
0.232, -1, -11.2813, 41.7572, 13.3176, -8.18597, -82.9993, 4.8483
0.236, -1, -11.1957, 41.6811, 13.3462, -8.04922, -82.8392, 4.74595
0.24, -1, -11.11, 41.605, 13.3749, -7.91243, -82.679, 4.64355
0.244, -1, -11.0243, 41.5288, 13.4035, -7.77561, -82.5188, 4.54114
0.248, -1, -10.9386, 41.4526, 13.4322, -7.63876, -82.3586, 4.4387
0.252, -1, -10.8528, 41.3764, 13.4609, -7.50189, -82.1983, 4.33625
0.256, -1, -10.767, 41.3002, 13.4896, -7.36501, -82.0381, 4.2338
0.26, -1, -10.6811, 41.2239, 13.5183, -7.22813, -81.8778, 4.13133
0.264, -1, -10.5953, 41.1477, 13.547, -7.09125, -81.7175, 4.02887
0.268, -1, -10.5094, 41.0714, 13.5757, -6.95436, -81.5572, 3.92641
0.272, -1, -10.4236, 40.9952, 13.6044, -6.81749, -81.397, 3.82396
0.276, -1, -10.3378, 40.9189, 13.6331, -6.68063, -81.2367, 3.72151
0.28, -1, -10.252, 40.8427, 13.6618, -6.54379, -81.0765, 3.61908
0.284, -1, -10.1661, 40.7665, 13.6904, -6.40697, -80.9163, 3.51666
0.288, -1, -10.0803, 40.6903, 13.7191, -6.27017, -80.7561, 3.41427
0.292, -1, -9.99456, 40.6141, 13.7478, -6.13341, -80.596, 3.31189
0.296, -1, -9.9088, 40.538, 13.7764, -5.99668, -80.4359, 3.20955
0.3, -1, -9.82306, 40.4618, 13.8051, -5.85999, -80.2758, 3.10723
0.304, -1, -9.73734, 40.3857, 13.8337, -5.72334, -80.1158, 3.00494
0.308, -1, -9.65166, 40.3096, 13.8624, -5.58674, -79.9558, 2.90269
0.312, -1, -9.566, 40.2336, 13.891, -5.45019, -79.796, 2.80048
0.316, -1, -9.48038, 40.1575, 13.9196, -5.31369, -79.6361, 2.69831
0.32, -1, -9.3948, 40.0815, 13.9482, -5.17726, -79.4764, 2.59618
0.324, -1, -9.30925, 40.0055, 13.9768, -5.04089, -79.3167, 2.4941
0.328, -1, -9.22375, 39.9296, 14.0054, -4.90458, -79.1571, 2.39207
0.332, -1, -9.13829, 39.8537, 14.0339, -4.76835, -78.9976, 2.2901
0.336, -1, -9.05287, 39.7778, 14.0625, -4.63219, -78.8382, 2.18818
0.34, -1, -8.9675, 39.702, 14.091, -4.49612, -78.6788, 2.08632
0.344, -1, -8.88219, 39.6262, 14.1195, -4.36012, -78.5196, 1.98452
0.348, -1, -8.79692, 39.5505, 14.148, -4.22421, -78.3604, 1.88279
0.352, -1, -8.71172, 39.4748, 14.1765, -4.0884, -78.2014, 1.78113
0.356, -1, -8.62657, 39.3992, 14.2049, -3.95267, -78.0425, 1.67953
0.36, -1, -8.54148, 39.3236, 14.2334, -3.81705, -77.8837, 1.57801
0.364, -1, -8.45646, 39.2481, 14.2618, -3.68152, -77.725, 1.47657
0.368, -1, -8.3715, 39.1727, 14.2902, -3.54611, -77.5664, 1.3752
0.372, -1, -8.28661, 39.0973, 14.3185, -3.4108, -77.408, 1.27392
0.376, -1, -8.20179, 39.0219, 14.3469, -3.2756, -77.2497, 1.17272
0.38, -1, -8.11704, 38.9467, 14.3752, -3.14052, -77.0915, 1.07161
0.384, -1, -8.03237, 38.8715, 14.4035, -3.00557, -76.9335, 0.970588
0.388, -1, -7.94777, 38.7963, 14.4318, -2.87073, -76.7756, 0.869659
0.392, -1, -7.86325, 38.7212, 14.46, -2.73602, -76.6179, 0.768825
0.396, -1, -7.77881, 38.6463, 14.4882, -2.60145, -76.4603, 0.668089
0.4, -1, -7.69446, 38.5713, 14.5164, -2.467, -76.3029, 0.567454
0.404, -1, -7.61019, 38.4965, 14.5446, -2.3327, -76.1456, 0.466921
0.408, -1, -7.526, 38.4217, 14.5727, -2.19854, -75.9885, 0.366494
0.412, -1, -7.44191, 38.347, 14.6008, -2.06452, -75.8316, 0.266176
0.416, -1, -7.35791, 38.2724, 14.6288, -1.93064, -75.6748, 0.165968
0.42, -1, -7.274, 38.1979, 14.6569, -1.79692, -75.5183, 0.0658724
0.424, -1, -7.19019, 38.1235, 14.6849, -1.66336, -75.3619, -0.0341072
0.428, -1, -7.10648, 38.0491, 14.7128, -1.52995, -75.2057, -0.133969
0.432, -1, -7.02287, 37.9748, 14.7408, -1.3967, -75.0496, -0.233711
0.436, -1, -6.93935, 37.9007, 14.7687, -1.26362, -74.8938, -0.33333
0.44, -1, -6.85595, 37.8266, 14.7965, -1.1307, -74.7382, -0.432824
0.444, -1, -6.77264, 37.7526, 14.8244, -0.99795, -74.5827, -0.532191
0.448, -1, -6.68945, 37.6787, 14.8522, -0.865375, -74.4275, -0.631429
0.452, -1, -6.60636, 37.6049, 14.8799, -0.732975, -74.2725, -0.730535
0.456, -1, -6.52339, 37.5312, 14.9077, -0.600755, -74.1176, -0.829507
0.46, -1, -6.44053, 37.4576, 14.9353, -0.468716, -73.963, -0.928344
0.464, -1, -6.35778, 37.3842, 14.963, -0.336861, -73.8086, -1.02704
0.468, -1, -6.27515, 37.3108, 14.9906, -0.205193, -73.6545, -1.1256
0.472, -1, -6.19264, 37.2375, 15.0181, -0.0737153, -73.5005, -1.22402
0.476, -1, -6.11024, 37.1643, 15.0457, 0.0575699, -73.3468, -1.32229
0.48, -1, -6.02797, 37.0912, 15.0732, 0.18866, -73.1933, -1.42042
0.484, -1, -5.94582, 37.0183, 15.1006, 0.319552, -73.04, -1.51839
0.488, -1, -5.8638, 36.9454, 15.128, 0.450244, -72.887, -1.61622
0.492, -1, -5.7819, 36.8727, 15.1554, 0.580734, -72.7342, -1.7139
0.496, -1, -5.70012, 36.8001, 15.1827, 0.711018, -72.5817, -1.81142
0.5, -1, -5.61848, 36.7276, 15.2099, 0.841096, -72.4294, -1.90879
0.504, -1, -5.53697, 36.6552, 15.2372, 0.970964, -72.2773, -2.006
0.508, -1, -5.45558, 36.5829, 15.2644, 1.10062, -72.1255, -2.10306
0.512, -1, -5.37433, 36.5108, 15.2915, 1.23006, -71.9739, -2.19995
0.516, -1, -5.29321, 36.4387, 15.3186, 1.35929, -71.8226, -2.29668
0.52, -1, -5.21223, 36.3668, 15.3456, 1.4883, -71.6715, -2.39325
0.524, -1, -5.13138, 36.295, 15.3726, 1.6171, -71.5207, -2.48966
0.528, -1, -5.05067, 36.2233, 15.3996, 1.74567, -71.3702, -2.5859
0.532, -1, -4.97009, 36.1518, 15.4265, 1.87402, -71.2199, -2.68198
0.536, -1, -4.88966, 36.0803, 15.4534, 2.00215, -71.0698, -2.77789
0.54, -1, -4.80936, 36.009, 15.4802, 2.13005, -70.9201, -2.87363
0.544, -1, -4.7292, 35.9378, 15.507, 2.25773, -70.7706, -2.9692
0.548, -1, -4.64919, 35.8668, 15.5337, 2.38518, -70.6213, -3.0646
0.552, -1, -4.56931, 35.7959, 15.5604, 2.51241, -70.4724, -3.15984
0.556, -1, -4.48958, 35.725, 15.587, 2.6394, -70.3237, -3.2549
0.56, -1, -4.41, 35.6544, 15.6136, 2.76617, -70.1752, -3.34979
0.564, -1, -4.33056, 35.5838, 15.6401, 2.8927, -70.0271, -3.44451
0.568, -1, -4.25126, 35.5134, 15.6666, 3.01901, -69.8792, -3.53905
0.572, -1, -4.17211, 35.4431, 15.693, 3.14508, -69.7316, -3.63342
0.576, -1, -4.0931, 35.373, 15.7194, 3.27092, -69.5842, -3.72761
0.58, -1, -4.01424, 35.3029, 15.7458, 3.39652, -69.4372, -3.82163
0.584, -1, -3.93553, 35.233, 15.772, 3.52189, -69.2904, -3.91547
0.588, -1, -3.85696, 35.1633, 15.7983, 3.64702, -69.1438, -4.00914
0.592, -1, -3.77855, 35.0936, 15.8245, 3.77191, -68.9976, -4.10263
0.596, -1, -3.70028, 35.0241, 15.8506, 3.89657, -68.8516, -4.19594
0.6, -1, -3.62216, 34.9548, 15.8767, 4.02099, -68.7059, -4.28908
0.604, -1, -3.54419, 34.8855, 15.9027, 4.14517, -68.5605, -4.38203
0.608, -1, -3.46637, 34.8164, 15.9287, 4.26911, -68.4154, -4.47481
0.612, -1, -3.3887, 34.7474, 15.9547, 4.39281, -68.2706, -4.5674
0.616, -1, -3.31118, 34.6786, 15.9806, 4.51628, -68.126, -4.65982
0.62, -1, -3.23382, 34.6099, 16.0064, 4.63949, -67.9817, -4.75205
0.624, -1, -3.1566, 34.5413, 16.0322, 4.76247, -67.8377, -4.84411
0.628, -1, -3.07954, 34.4729, 16.0579, 4.88521, -67.694, -4.93598
0.632, -1, -3.00262, 34.4046, 16.0836, 5.0077, -67.5506, -5.02767
0.636, -1, -2.92586, 34.3364, 16.1092, 5.12995, -67.4074, -5.11918
0.64, -1, -2.84926, 34.2684, 16.1348, 5.25195, -67.2646, -5.2105
0.644, -1, -2.7728, 34.2005, 16.1604, 5.37371, -67.122, -5.30165
0.648, -1, -2.6965, 34.1328, 16.1858, 5.49523, -66.9797, -5.39261
0.652, -1, -2.62035, 34.0652, 16.2113, 5.6165, -66.8377, -5.48338
0.656, -1, -2.54436, 33.9977, 16.2366, 5.73753, -66.696, -5.57398
0.66, -1, -2.46852, 33.9303, 16.262, 5.85831, -66.5546, -5.66439
0.664, -1, -2.39283, 33.8631, 16.2872, 5.97884, -66.4135, -5.75461
0.668, -1, -2.3173, 33.7961, 16.3125, 6.09913, -66.2726, -5.84465
0.672, -1, -2.24192, 33.7291, 16.3376, 6.21917, -66.1321, -5.93451
0.676, -1, -2.1667, 33.6623, 16.3628, 6.33897, -65.9918, -6.02418
0.68, -1, -2.09163, 33.5957, 16.3878, 6.45851, -65.8518, -6.11367
0.684, -1, -2.01672, 33.5292, 16.4129, 6.57781, -65.7121, -6.20297
0.688, -1, -1.94196, 33.4628, 16.4378, 6.69687, -65.5727, -6.29208
0.692, -1, -1.86736, 33.3965, 16.4627, 6.81567, -65.4336, -6.38101
0.696, -1, -1.79291, 33.3304, 16.4876, 6.93423, -65.2948, -6.46976
0.7, -1, -1.71862, 33.2645, 16.5124, 7.05254, -65.1562, -6.55832
0.704, -1, -1.64448, 33.1986, 16.5372, 7.1706, -65.018, -6.64669
0.708, -1, -1.5705, 33.1329, 16.5619, 7.28841, -64.8801, -6.73488
0.712, -1, -1.49668, 33.0674, 16.5865, 7.40597, -64.7424, -6.82288
0.716, -1, -1.42301, 33.002, 16.6111, 7.52329, -64.605, -6.9107
0.72, -1, -1.34949, 32.9367, 16.6357, 7.64036, -64.468, -6.99833
0.724, -1, -1.27614, 32.8715, 16.6602, 7.75718, -64.3312, -7.08577
0.728, -1, -1.20293, 32.8065, 16.6846, 7.87375, -64.1947, -7.17303
0.732, -1, -1.12989, 32.7417, 16.709, 7.99007, -64.0585, -7.2601
0.736, -1, -1.057, 32.677, 16.7333, 8.10615, -63.9226, -7.34699
0.74, -1, -0.984259, 32.6124, 16.7576, 8.22197, -63.7869, -7.43369
0.744, -1, -0.911678, 32.5479, 16.7819, 8.33755, -63.6516, -7.52021
0.748, -1, -0.839252, 32.4836, 16.8061, 8.45288, -63.5166, -7.60653
0.752, -1, -0.766981, 32.4194, 16.8302, 8.56796, -63.3818, -7.69268
0.756, -1, -0.694864, 32.3554, 16.8543, 8.6828, -63.2474, -7.77864
0.76, -1, -0.622901, 32.2915, 16.8783, 8.79738, -63.1132, -7.86441
0.764, -1, -0.551092, 32.2277, 16.9023, 8.91172, -62.9793, -7.95
0.768, -1, -0.479437, 32.1641, 16.9262, 9.02582, -62.8457, -8.0354
0.772, -1, -0.407935, 32.1006, 16.9501, 9.13966, -62.7124, -8.12062
0.776, -1, -0.336586, 32.0373, 16.9739, 9.25326, -62.5794, -8.20566
0.78, -1, -0.26539, 31.9741, 16.9977, 9.36662, -62.4467, -8.29051
0.784, -1, -0.194346, 31.911, 17.0214, 9.47973, -62.3142, -8.37518
0.788, -1, -0.123455, 31.848, 17.0451, 9.5926, -62.182, -8.45966
0.792, -1, -0.0527154, 31.7852, 17.0687, 9.70522, -62.0502, -8.54397
0.796, -1, 0.0178725, 31.7226, 17.0923, 9.81761, -61.9186, -8.62809
0.8, -1, 0.0883091, 31.66, 17.1158, 9.92975, -61.7873, -8.71204
0.804, -1, 0.158595, 31.5976, 17.1393, 10.0417, -61.6562, -8.7958
0.808, -1, 0.22873, 31.5353, 17.1627, 10.1533, -61.5255, -8.87938
0.812, -1, 0.298716, 31.4732, 17.186, 10.2647, -61.395, -8.96279
0.816, -1, 0.368552, 31.4112, 17.2094, 10.3759, -61.2648, -9.04602
0.82, -1, 0.438239, 31.3493, 17.2326, 10.4869, -61.1349, -9.12907
0.824, -1, 0.507778, 31.2876, 17.2559, 10.5976, -61.0053, -9.21194
0.828, -1, 0.577169, 31.226, 17.279, 10.7081, -60.8759, -9.29464
0.832, -1, 0.646413, 31.1645, 17.3021, 10.8183, -60.7468, -9.37716
0.836, -1, 0.71551, 31.1031, 17.3252, 10.9283, -60.618, -9.45951
0.84, -1, 0.78446, 31.0419, 17.3482, 11.0381, -60.4895, -9.54168
0.844, -1, 0.853266, 30.9808, 17.3712, 11.1476, -60.3612, -9.62368
0.848, -1, 0.921925, 30.9199, 17.3941, 11.2569, -60.2332, -9.7055
0.852, -1, 0.990441, 30.859, 17.417, 11.366, -60.1055, -9.78716
0.856, -1, 1.05881, 30.7983, 17.4398, 11.4749, -59.9781, -9.86864
0.86, -1, 1.12704, 30.7378, 17.4626, 11.5835, -59.8509, -9.94995
0.864, -1, 1.19512, 30.6773, 17.4854, 11.6919, -59.7239, -10.0311
0.868, -1, 1.26307, 30.617, 17.508, 11.8001, -59.5973, -10.1121
0.872, -1, 1.33087, 30.5568, 17.5307, 11.908, -59.4709, -10.1929
0.876, -1, 1.39853, 30.4967, 17.5533, 12.0157, -59.3448, -10.2735
0.88, -1, 1.46604, 30.4368, 17.5758, 12.1232, -59.2189, -10.354
0.884, -1, 1.53342, 30.377, 17.5983, 12.2305, -59.0933, -10.4343
0.888, -1, 1.60066, 30.3173, 17.6208, 12.3375, -58.9679, -10.5144
0.892, -1, 1.66775, 30.2577, 17.6432, 12.4444, -58.8429, -10.5943
0.896, -1, 1.73471, 30.1982, 17.6655, 12.551, -58.718, -10.6741
0.9, -1, 1.80153, 30.1389, 17.6878, 12.6574, -58.5935, -10.7538
0.904, -1, 1.86821, 30.0797, 17.7101, 12.7635, -58.4692, -10.8332
0.908, -1, 1.93476, 30.0206, 17.7323, 12.8695, -58.3451, -10.9125
0.912, -1, 2.00117, 29.9617, 17.7545, 12.9752, -58.2213, -10.9917
0.916, -1, 2.06744, 29.9028, 17.7766, 13.0807, -58.0978, -11.0707
0.92, -1, 2.13357, 29.8441, 17.7987, 13.186, -57.9745, -11.1495
0.924, -1, 2.19957, 29.7855, 17.8207, 13.2911, -57.8514, -11.2281
0.928, -1, 2.26543, 29.727, 17.8427, 13.3959, -57.7287, -11.3066
0.932, -1, 2.33116, 29.6687, 17.8647, 13.5006, -57.6061, -11.385
0.936, -1, 2.39676, 29.6104, 17.8866, 13.605, -57.4838, -11.4631
0.94, -1, 2.46222, 29.5523, 17.9084, 13.7092, -57.3618, -11.5412
0.944, -1, 2.52755, 29.4943, 17.9303, 13.8133, -57.24, -11.619
0.948, -1, 2.59275, 29.4364, 17.952, 13.9171, -57.1185, -11.6967
0.952, -1, 2.65781, 29.3787, 17.9738, 14.0206, -56.9972, -11.7743
0.956, -1, 2.72274, 29.321, 17.9954, 14.124, -56.8761, -11.8516
0.96, -1, 2.78755, 29.2635, 18.0171, 14.2272, -56.7553, -11.9289
0.964, -1, 2.85222, 29.2061, 18.0387, 14.3302, -56.6348, -12.0059
0.968, -1, 2.91676, 29.1488, 18.0602, 14.4329, -56.5144, -12.0829
0.972, -1, 2.98117, 29.0916, 18.0817, 14.5355, -56.3944, -12.1596
0.976, -1, 3.04545, 29.0345, 18.1032, 14.6378, -56.2745, -12.2362
0.98, -1, 3.10961, 28.9775, 18.1246, 14.7399, -56.1549, -12.3127
0.984, -1, 3.17363, 28.9207, 18.146, 14.8419, -56.0356, -12.389
0.988, -1, 3.23753, 28.864, 18.1673, 14.9436, -55.9165, -12.4651
0.992, -1, 3.3013, 28.8074, 18.1886, 15.0451, -55.7976, -12.5411
0.996, -1, 3.36494, 28.7508, 18.2099, 15.1465, -55.6789, -12.617
1, -1, 3.42846, 28.6945, 18.2311, 15.2476, -55.5605, -12.6927
1.004, -1, 3.49185, 28.6382, 18.2523, 15.3485, -55.4423, -12.7682
1.008, -1, 3.55512, 28.582, 18.2734, 15.4492, -55.3244, -12.8436
1.012, -1, 3.61826, 28.5259, 18.2945, 15.5498, -55.2067, -12.9189
1.016, -1, 3.68127, 28.47, 18.3155, 15.6501, -55.0892, -12.994
1.02, -1, 3.74416, 28.4142, 18.3365, 15.7502, -54.972, -13.0689
1.024, -1, 3.80693, 28.3584, 18.3575, 15.8502, -54.855, -13.1437
1.027, -1, 3.86958, 28.3028, 18.3784, 15.9499, -54.7382, -13.2184
1.032, -1, 3.9321, 28.2473, 18.3993, 16.0494, -54.6216, -13.2929
1.036, -1, 3.9945, 28.1919, 18.4201, 16.1488, -54.5053, -13.3673
1.04, -1, 4.05678, 28.1366, 18.4409, 16.2479, -54.3892, -13.4415
1.044, -1, 4.11893, 28.0814, 18.4616, 16.3469, -54.2733, -13.5156
1.048, -1, 4.18097, 28.0263, 18.4824, 16.4457, -54.1577, -13.5895
1.052, -1, 4.24289, 27.9714, 18.503, 16.5442, -54.0422, -13.6633
1.055, -1, 4.30468, 27.9165, 18.5237, 16.6426, -53.927, -13.7369
1.06, -1, 4.36636, 27.8617, 18.5443, 16.7408, -53.8121, -13.8104
1.064, -1, 4.42792, 27.8071, 18.5648, 16.8388, -53.6973, -13.8838
1.068, -1, 4.48936, 27.7525, 18.5853, 16.9366, -53.5828, -13.957
1.072, -1, 4.55068, 27.6981, 18.6058, 17.0343, -53.4685, -14.0301
1.076, -1, 4.61188, 27.6438, 18.6262, 17.1317, -53.3544, -14.103
1.08, -1, 4.67297, 27.5895, 18.6466, 17.229, -53.2405, -14.1758
1.084, -1, 4.73394, 27.5354, 18.667, 17.326, -53.1268, -14.2485
1.088, -1, 4.7948, 27.4814, 18.6873, 17.4229, -53.0134, -14.321
1.091, -1, 4.85554, 27.4274, 18.7076, 17.5196, -52.9002, -14.3934
1.096, -1, 4.91617, 27.3736, 18.7278, 17.6161, -52.7871, -14.4656
1.1, -1, 4.97668, 27.3199, 18.7481, 17.7125, -52.6743, -14.5378
1.104, -1, 5.03708, 27.2663, 18.7682, 17.8086, -52.5618, -14.6097
1.108, -1, 5.09737, 27.2127, 18.7883, 17.9046, -52.4494, -14.6816
1.112, -1, 5.15754, 27.1593, 18.8084, 18.0004, -52.3372, -14.7533
1.116, -1, 5.2176, 27.106, 18.8285, 18.096, -52.2253, -14.8249
1.119, -1, 5.27755, 27.0528, 18.8485, 18.1915, -52.1135, -14.8963
1.124, -1, 5.33739, 26.9996, 18.8685, 18.2867, -52.0019, -14.9676
1.128, -1, 5.39712, 26.9466, 18.8884, 18.3818, -51.8906, -15.0388
1.132, -1, 5.45673, 26.8937, 18.9083, 18.4767, -51.7795, -15.1098
1.136, -1, 5.51624, 26.8408, 18.9282, 18.5715, -51.6685, -15.1807
1.14, -1, 5.57564, 26.7881, 18.948, 18.666, -51.5578, -15.2515
1.144, -1, 5.63493, 26.7355, 18.9678, 18.7604, -51.4473, -15.3222
1.147, -1, 5.69412, 26.6829, 18.9876, 18.8547, -51.337, -15.3927
1.152, -1, 5.75319, 26.6305, 19.0073, 18.9487, -51.2268, -15.4631
1.156, -1, 5.81216, 26.5781, 19.027, 19.0426, -51.1169, -15.5334
1.16, -1, 5.87103, 26.5259, 19.0467, 19.1363, -51.0072, -15.6035
1.164, -1, 5.92979, 26.4737, 19.0663, 19.2298, -50.8976, -15.6736
1.168, -1, 5.98844, 26.4216, 19.0859, 19.3232, -50.7883, -15.7435
1.172, -1, 6.04699, 26.3696, 19.1054, 19.4164, -50.6792, -15.8132
1.175, -1, 6.10543, 26.3177, 19.1249, 19.5095, -50.5702, -15.8829
1.18, -1, 6.16377, 26.266, 19.1444, 19.6024, -50.4614, -15.9524
1.184, -1, 6.22201, 26.2142, 19.1639, 19.6951, -50.3529, -16.0218
1.188, -1, 6.28015, 26.1626, 19.1833, 19.7876, -50.2445, -16.0911
1.192, -1, 6.33818, 26.1111, 19.2027, 19.88, -50.1363, -16.1603
1.196, -1, 6.39611, 26.0597, 19.222, 19.9723, -50.0283, -16.2293
1.2, -1, 6.45394, 26.0083, 19.2413, 20.0643, -49.9205, -16.2982
1.204, -1, 6.51167, 25.9571, 19.2606, 20.1562, -49.8129, -16.367
1.208, -1, 6.5693, 25.9059, 19.2798, 20.248, -49.7055, -16.4357
1.212, -1, 6.62683, 25.8548, 19.299, 20.3396, -49.5982, -16.5042
1.216, -1, 6.68426, 25.8038, 19.3182, 20.431, -49.4912, -16.5727
1.22, -1, 6.74159, 25.7529, 19.3374, 20.5223, -49.3843, -16.641
1.224, -1, 6.79882, 25.7021, 19.3565, 20.6134, -49.2776, -16.7092
1.228, -1, 6.85596, 25.6514, 19.3756, 20.7044, -49.1711, -16.7773
1.232, -1, 6.91299, 25.6008, 19.3946, 20.7952, -49.0648, -16.8453
1.236, -1, 6.96993, 25.5502, 19.4136, 20.8858, -48.9586, -16.9131
1.24, -1, 7.02678, 25.4997, 19.4326, 20.9763, -48.8526, -16.9809
1.244, -1, 7.08352, 25.4494, 19.4515, 21.0667, -48.7469, -17.0485
1.248, -1, 7.14018, 25.3991, 19.4705, 21.1569, -48.6413, -17.116
1.252, -1, 7.19673, 25.3488, 19.4893, 21.2469, -48.5358, -17.1834
1.256, -1, 7.25319, 25.2987, 19.5082, 21.3368, -48.4306, -17.2507
1.26, -1, 7.30956, 25.2487, 19.527, 21.4266, -48.3255, -17.3179
1.264, -1, 7.36583, 25.1987, 19.5458, 21.5161, -48.2206, -17.385
1.267, -1, 7.42201, 25.1488, 19.5646, 21.6056, -48.1158, -17.4519
1.272, -1, 7.4781, 25.099, 19.5833, 21.6949, -48.0113, -17.5188
1.276, -1, 7.53409, 25.0493, 19.602, 21.784, -47.9069, -17.5855
1.28, -1, 7.58999, 24.9997, 19.6207, 21.873, -47.8027, -17.6521
1.284, -1, 7.6458, 24.9501, 19.6393, 21.9619, -47.6986, -17.7186
1.288, -1, 7.70152, 24.9007, 19.6579, 22.0506, -47.5948, -17.785
1.292, -1, 7.75715, 24.8513, 19.6765, 22.1392, -47.4911, -17.8513
1.295, -1, 7.81268, 24.802, 19.695, 22.2276, -47.3875, -17.9175
1.3, -1, 7.86813, 24.7528, 19.7135, 22.3159, -47.2842, -17.9836
1.304, -1, 7.92348, 24.7036, 19.732, 22.404, -47.181, -18.0496
1.308, -1, 7.97875, 24.6545, 19.7505, 22.492, -47.0779, -18.1154
1.312, -1, 8.03393, 24.6055, 19.7689, 22.5798, -46.9751, -18.1812
1.316, -1, 8.08901, 24.5566, 19.7873, 22.6675, -46.8724, -18.2468
1.32, -1, 8.14401, 24.5078, 19.8057, 22.7551, -46.7699, -18.3124
1.324, -1, 8.19893, 24.4591, 19.824, 22.8425, -46.6675, -18.3778
1.328, -1, 8.25375, 24.4104, 19.8423, 22.9298, -46.5653, -18.4432
1.332, -1, 8.30849, 24.3618, 19.8606, 23.017, -46.4632, -18.5084
1.336, -1, 8.36314, 24.3133, 19.8788, 23.104, -46.3614, -18.5735
1.34, -1, 8.4177, 24.2648, 19.8971, 23.1909, -46.2596, -18.6386
1.344, -1, 8.47218, 24.2165, 19.9153, 23.2776, -46.1581, -18.7035
1.348, -1, 8.52657, 24.1682, 19.9334, 23.3642, -46.0567, -18.7683
1.352, -1, 8.58088, 24.1199, 19.9515, 23.4507, -45.9554, -18.833
1.356, -1, 8.6351, 24.0718, 19.9697, 23.537, -45.8543, -18.8976
1.36, -1, 8.68923, 24.0237, 19.9877, 23.6232, -45.7534, -18.9622
1.364, -1, 8.74328, 23.9757, 20.0058, 23.7092, -45.6526, -19.0266
1.368, -1, 8.79725, 23.9278, 20.0238, 23.7952, -45.552, -19.0909
1.372, -1, 8.85114, 23.88, 20.0418, 23.881, -45.4516, -19.1551
1.376, -1, 8.90494, 23.8322, 20.0598, 23.9666, -45.3513, -19.2192
1.38, -1, 8.95866, 23.7845, 20.0777, 24.0521, -45.2511, -19.2833
1.384, -1, 9.01229, 23.7369, 20.0956, 24.1375, -45.1511, -19.3472
1.388, -1, 9.06584, 23.6894, 20.1135, 24.2228, -45.0513, -19.411
1.392, -1, 9.11932, 23.6419, 20.1314, 24.3079, -44.9516, -19.4747
1.396, -1, 9.1727, 23.5945, 20.1492, 24.393, -44.8521, -19.5384
1.4, -1, 9.22601, 23.5472, 20.167, 24.4778, -44.7527, -19.6019
1.404, -1, 9.27924, 23.4999, 20.1848, 24.5626, -44.6535, -19.6653
1.408, -1, 9.33239, 23.4527, 20.2025, 24.6472, -44.5544, -19.7287
1.412, -1, 9.38546, 23.4056, 20.2202, 24.7317, -44.4554, -19.7919
1.416, -1, 9.43844, 23.3585, 20.2379, 24.8161, -44.3567, -19.8551
1.42, -1, 9.49135, 23.3116, 20.2556, 24.9003, -44.258, -19.9181
1.424, -1, 9.54418, 23.2647, 20.2732, 24.9844, -44.1595, -19.9811
1.428, -1, 9.59693, 23.2178, 20.2908, 25.0684, -44.0612, -20.044
1.432, -1, 9.6496, 23.1711, 20.3084, 25.1523, -43.963, -20.1067
1.436, -1, 9.7022, 23.1244, 20.326, 25.236, -43.865, -20.1694
1.44, -1, 9.75472, 23.0777, 20.3435, 25.3196, -43.767, -20.232
1.444, -1, 9.80716, 23.0312, 20.361, 25.4031, -43.6693, -20.2945
1.448, -1, 9.85952, 22.9847, 20.3785, 25.4865, -43.5717, -20.3569
1.452, -1, 9.91181, 22.9383, 20.396, 25.5697, -43.4742, -20.4192
1.456, -1, 9.96403, 22.8919, 20.4134, 25.6528, -43.3769, -20.4814
1.46, -1, 10.0162, 22.8456, 20.4308, 25.7358, -43.2797, -20.5436
1.464, -1, 10.0682, 22.7994, 20.4482, 25.8187, -43.1826, -20.6056
1.468, -1, 10.1202, 22.7533, 20.4656, 25.9015, -43.0857, -20.6676
1.472, -1, 10.1721, 22.7072, 20.4829, 25.9841, -42.989, -20.7294
1.476, -1, 10.224, 22.6612, 20.5002, 26.0666, -42.8923, -20.7912
1.48, -1, 10.2757, 22.6152, 20.5175, 26.149, -42.7958, -20.8529
1.484, -1, 10.3274, 22.5693, 20.5348, 26.2313, -42.6995, -20.9145
1.488, -1, 10.379, 22.5235, 20.552, 26.3135, -42.6033, -20.976
1.492, -1, 10.4306, 22.4777, 20.5692, 26.3956, -42.5072, -21.0374
1.496, -1, 10.482, 22.432, 20.5864, 26.4775, -42.4113, -21.0987
1.5, -1, 10.5334, 22.3864, 20.6035, 26.5593, -42.3154, -21.16
1.504, -1, 10.5848, 22.3408, 20.6207, 26.641, -42.2198, -21.2212
1.508, -1, 10.636, 22.2953, 20.6378, 26.7226, -42.1242, -21.2822
1.512, -1, 10.6872, 22.2499, 20.6549, 26.8041, -42.0288, -21.3432
1.516, -1, 10.7383, 22.2045, 20.6719, 26.8855, -41.9336, -21.4041
1.52, -1, 10.7893, 22.1592, 20.689, 26.9667, -41.8384, -21.4649
1.524, -1, 10.8403, 22.114, 20.706, 27.0479, -41.7434, -21.5257
1.528, -1, 10.8912, 22.0688, 20.723, 27.1289, -41.6485, -21.5863
1.532, -1, 10.942, 22.0237, 20.74, 27.2098, -41.5538, -21.6469
1.536, -1, 10.9928, 21.9786, 20.7569, 27.2906, -41.4592, -21.7074
1.54, -1, 11.0435, 21.9336, 20.7738, 27.3713, -41.3647, -21.7678
1.544, -1, 11.0941, 21.8887, 20.7908, 27.4519, -41.2703, -21.8281
1.548, -1, 11.1446, 21.8438, 20.8076, 27.5324, -41.1761, -21.8884
1.552, -1, 11.1951, 21.799, 20.8245, 27.6127, -41.082, -21.9485
1.556, -1, 11.2455, 21.7542, 20.8413, 27.693, -40.988, -22.0086
1.56, -1, 11.2959, 21.7095, 20.8581, 27.7732, -40.8941, -22.0686
1.564, -1, 11.3462, 21.6649, 20.8749, 27.8532, -40.8004, -22.1285
1.568, -1, 11.3964, 21.6203, 20.8917, 27.9331, -40.7068, -22.1884
1.572, -1, 11.4465, 21.5758, 20.9084, 28.013, -40.6133, -22.2481
1.576, -1, 11.4966, 21.5313, 20.9251, 28.0927, -40.52, -22.3078
1.58, -1, 11.5466, 21.4869, 20.9418, 28.1723, -40.4268, -22.3674
1.584, -1, 11.5965, 21.4426, 20.9585, 28.2518, -40.3336, -22.4269
1.588, -1, 11.6464, 21.3983, 20.9752, 28.3313, -40.2407, -22.4864
1.592, -1, 11.6962, 21.3541, 20.9918, 28.4106, -40.1478, -22.5457
1.596, -1, 11.746, 21.3099, 21.0084, 28.4898, -40.0551, -22.605
1.6, -1, 11.7957, 21.2658, 21.025, 28.5689, -39.9624, -22.6642
1.604, -1, 11.8453, 21.2217, 21.0416, 28.6479, -39.8699, -22.7234
1.608, -1, 11.8948, 21.1778, 21.0581, 28.7268, -39.7776, -22.7824
1.612, -1, 11.9443, 21.1338, 21.0747, 28.8055, -39.6853, -22.8414
1.616, -1, 11.9938, 21.0899, 21.0912, 28.8842, -39.5932, -22.9003
1.62, -1, 12.0431, 21.0461, 21.1076, 28.9628, -39.5011, -22.9591
1.624, -1, 12.0924, 21.0023, 21.1241, 29.0413, -39.4092, -23.0179
1.628, -1, 12.1417, 20.9586, 21.1405, 29.1197, -39.3174, -23.0765
1.632, -1, 12.1908, 20.915, 21.157, 29.198, -39.2258, -23.1352
1.636, -1, 12.2399, 20.8714, 21.1734, 29.2762, -39.1342, -23.1937
1.64, -1, 12.289, 20.8278, 21.1897, 29.3543, -39.0428, -23.2521
1.644, -1, 12.338, 20.7843, 21.2061, 29.4323, -38.9515, -23.3105
1.648, -1, 12.3869, 20.7409, 21.2224, 29.5102, -38.8603, -23.3688
1.652, -1, 12.4358, 20.6975, 21.2388, 29.588, -38.7692, -23.4271
1.656, -1, 12.4846, 20.6542, 21.2551, 29.6657, -38.6782, -23.4852
1.66, -1, 12.5333, 20.6109, 21.2713, 29.7433, -38.5873, -23.5433
1.664, -1, 12.582, 20.5677, 21.2876, 29.8208, -38.4966, -23.6013
1.668, -1, 12.6306, 20.5245, 21.3038, 29.8982, -38.4059, -23.6593
1.672, -1, 12.6792, 20.4814, 21.32, 29.9755, -38.3154, -23.7171
1.676, -1, 12.7277, 20.4384, 21.3362, 30.0527, -38.225, -23.7749
1.68, -1, 12.7761, 20.3953, 21.3524, 30.1298, -38.1347, -23.8327
1.684, -1, 12.8245, 20.3524, 21.3686, 30.2069, -38.0445, -23.8903
1.688, -1, 12.8728, 20.3095, 21.3847, 30.2838, -37.9544, -23.9479
1.692, -1, 12.9211, 20.2666, 21.4008, 30.3606, -37.8644, -24.0054
1.696, -1, 12.9693, 20.2238, 21.4169, 30.4374, -37.7746, -24.0629
1.7, -1, 13.0174, 20.1811, 21.433, 30.514, -37.6848, -24.1203
1.704, -1, 13.0655, 20.1384, 21.449, 30.5906, -37.5951, -24.1776
1.708, -1, 13.1136, 20.0958, 21.4651, 30.6671, -37.5056, -24.2348
1.712, -1, 13.1615, 20.0532, 21.4811, 30.7435, -37.4162, -24.292
1.716, -1, 13.2094, 20.0106, 21.4971, 30.8197, -37.3269, -24.3491
1.72, -1, 13.2573, 19.9681, 21.5131, 30.8959, -37.2376, -24.4061
1.724, -1, 13.3051, 19.9257, 21.529, 30.972, -37.1485, -24.4631
1.728, -1, 13.3528, 19.8833, 21.545, 31.0481, -37.0595, -24.52
1.732, -1, 13.4005, 19.841, 21.5609, 31.124, -36.9706, -24.5768
1.736, -1, 13.4482, 19.7987, 21.5768, 31.1998, -36.8818, -24.6336
1.74, -1, 13.4957, 19.7565, 21.5927, 31.2756, -36.7931, -24.6903
1.744, -1, 13.5433, 19.7143, 21.6086, 31.3512, -36.7045, -24.7469
1.748, -1, 13.5907, 19.6721, 21.6244, 31.4268, -36.6161, -24.8035
1.752, -1, 13.6381, 19.63, 21.6402, 31.5023, -36.5277, -24.86
1.756, -1, 13.6855, 19.588, 21.6561, 31.5776, -36.4394, -24.9164
1.76, -1, 13.7328, 19.546, 21.6719, 31.6529, -36.3512, -24.9728
1.764, -1, 13.78, 19.5041, 21.6876, 31.7282, -36.2632, -25.0291
1.768, -1, 13.8272, 19.4622, 21.7034, 31.8033, -36.1752, -25.0853
1.772, -1, 13.8743, 19.4203, 21.7191, 31.8783, -36.0873, -25.1415
1.776, -1, 13.9214, 19.3785, 21.7348, 31.9533, -35.9996, -25.1976
1.78, -1, 13.9684, 19.3368, 21.7505, 32.0281, -35.9119, -25.2536
1.784, -1, 14.0154, 19.2951, 21.7662, 32.1029, -35.8243, -25.3096
1.788, -1, 14.0623, 19.2534, 21.7819, 32.1776, -35.7369, -25.3655
1.792, -1, 14.1092, 19.2118, 21.7975, 32.2522, -35.6495, -25.4214
1.796, -1, 14.156, 19.1703, 21.8132, 32.3268, -35.5622, -25.4772
1.8, -1, 14.2027, 19.1288, 21.8288, 32.4012, -35.4751, -25.5329
1.804, -1, 14.2494, 19.0873, 21.8444, 32.4756, -35.388, -25.5886
1.808, -1, 14.2961, 19.0459, 21.86, 32.5498, -35.301, -25.6442
1.812, -1, 14.3427, 19.0045, 21.8755, 32.624, -35.2142, -25.6997
1.816, -1, 14.3892, 18.9632, 21.8911, 32.6981, -35.1274, -25.7552
1.82, -1, 14.4357, 18.9219, 21.9066, 32.7722, -35.0407, -25.8106
1.824, -1, 14.4822, 18.8807, 21.9221, 32.8461, -34.9541, -25.8659
1.828, -1, 14.5286, 18.8395, 21.9376, 32.92, -34.8676, -25.9212
1.832, -1, 14.5749, 18.7983, 21.9531, 32.9938, -34.7813, -25.9764
1.836, -1, 14.6212, 18.7572, 21.9685, 33.0675, -34.695, -26.0316
1.84, -1, 14.6674, 18.7162, 21.984, 33.1411, -34.6088, -26.0867
1.844, -1, 14.7136, 18.6752, 21.9994, 33.2146, -34.5227, -26.1418
1.848, -1, 14.7598, 18.6342, 22.0148, 33.2881, -34.4367, -26.1967
1.852, -1, 14.8058, 18.5933, 22.0302, 33.3614, -34.3507, -26.2517
1.856, -1, 14.8519, 18.5524, 22.0456, 33.4347, -34.2649, -26.3065
1.86, -1, 14.8979, 18.5116, 22.0609, 33.5079, -34.1792, -26.3613
1.864, -1, 14.9438, 18.4708, 22.0762, 33.5811, -34.0936, -26.4161
1.868, -1, 14.9897, 18.4301, 22.0916, 33.6541, -34.008, -26.4708
1.872, -1, 15.0355, 18.3894, 22.1069, 33.7271, -33.9226, -26.5254
1.876, -1, 15.0813, 18.3487, 22.1222, 33.8, -33.8372, -26.58
1.88, -1, 15.127, 18.3081, 22.1374, 33.8728, -33.7519, -26.6345
1.884, -1, 15.1727, 18.2676, 22.1527, 33.9456, -33.6668, -26.6889
1.888, -1, 15.2184, 18.227, 22.1679, 34.0182, -33.5817, -26.7433
1.892, -1, 15.264, 18.1866, 22.1832, 34.0908, -33.4967, -26.7976
1.896, -1, 15.3095, 18.1461, 22.1984, 34.1633, -33.4118, -26.8519
1.9, -1, 15.355, 18.1057, 22.2136, 34.2358, -33.3269, -26.9062
1.904, -1, 15.4004, 18.0654, 22.2287, 34.3081, -33.2422, -26.9603
1.908, -1, 15.4458, 18.0251, 22.2439, 34.3804, -33.1576, -27.0144
1.912, -1, 15.4912, 17.9848, 22.259, 34.4526, -33.073, -27.0685
1.916, -1, 15.5365, 17.9446, 22.2742, 34.5248, -32.9886, -27.1225
1.92, -1, 15.5818, 17.9044, 22.2893, 34.5968, -32.9042, -27.1764
1.924, -1, 15.627, 17.8643, 22.3044, 34.6688, -32.8199, -27.2303
1.928, -1, 15.6721, 17.8242, 22.3195, 34.7407, -32.7357, -27.2841
1.932, -1, 15.7173, 17.7841, 22.3345, 34.8126, -32.6516, -27.3379
1.936, -1, 15.7623, 17.7441, 22.3496, 34.8843, -32.5676, -27.3916
1.94, -1, 15.8073, 17.7041, 22.3646, 34.956, -32.4836, -27.4453
1.944, -1, 15.8523, 17.6642, 22.3796, 35.0276, -32.3997, -27.4989
1.948, -1, 15.8973, 17.6243, 22.3946, 35.0992, -32.316, -27.5524
1.952, -1, 15.9422, 17.5844, 22.4096, 35.1707, -32.2323, -27.6059
1.956, -1, 15.987, 17.5446, 22.4246, 35.2421, -32.1487, -27.6594
1.96, -1, 16.0318, 17.5048, 22.4396, 35.3134, -32.0652, -27.7128
1.964, -1, 16.0765, 17.4651, 22.4545, 35.3846, -31.9817, -27.7661
1.968, -1, 16.1212, 17.4254, 22.4694, 35.4558, -31.8984, -27.8194
1.972, -1, 16.1659, 17.3858, 22.4844, 35.5269, -31.8151, -27.8726
1.976, -1, 16.2105, 17.3461, 22.4993, 35.598, -31.7319, -27.9258
1.98, -1, 16.2551, 17.3066, 22.5141, 35.6689, -31.6488, -27.9789
1.984, -1, 16.2996, 17.267, 22.529, 35.7398, -31.5658, -28.032
1.988, -1, 16.3441, 17.2275, 22.5439, 35.8107, -31.4829, -28.085
1.992, -1, 16.3886, 17.1881, 22.5587, 35.8814, -31.4, -28.138
1.996, -1, 16.433, 17.1487, 22.5735, 35.9521, -31.3173, -28.1909
1.999, -1, 16.4773, 17.1093, 22.5883, 36.0228, -31.2346, -28.2438
2.004, -1, 16.5216, 17.0699, 22.6031, 36.0933, -31.1519, -28.2966
2.008, -1, 16.5659, 17.0306, 22.6179, 36.1638, -31.0694, -28.3493
2.012, -1, 16.6101, 16.9914, 22.6327, 36.2342, -30.987, -28.4021
2.015, -1, 16.6543, 16.9521, 22.6474, 36.3046, -30.9046, -28.4547
2.019, -1, 16.6984, 16.9129, 22.6622, 36.3748, -30.8223, -28.5073
2.024, -1, 16.7425, 16.8738, 22.6769, 36.445, -30.7401, -28.5599
2.028, -1, 16.7866, 16.8347, 22.6916, 36.5152, -30.658, -28.6124
2.031, -1, 16.8306, 16.7956, 22.7063, 36.5853, -30.5759, -28.6648
2.036, -1, 16.8746, 16.7566, 22.721, 36.6553, -30.4939, -28.7172
2.04, -1, 16.9185, 16.7176, 22.7357, 36.7252, -30.412, -28.7696
2.044, -1, 16.9624, 16.6786, 22.7503, 36.7951, -30.3302, -28.8219
2.048, -1, 17.0062, 16.6397, 22.765, 36.8649, -30.2485, -28.8742
2.051, -1, 17.05, 16.6008, 22.7796, 36.9346, -30.1668, -28.9264
2.055, -1, 17.0938, 16.5619, 22.7942, 37.0043, -30.0852, -28.9785
2.06, -1, 17.1375, 16.5231, 22.8088, 37.0739, -30.0037, -29.0306
2.064, -1, 17.1811, 16.4844, 22.8234, 37.1435, -29.9223, -29.0827
2.068, -1, 17.2244, 16.4458, 22.8379, 37.2129, -29.841, -29.1347
2.071, -1, 17.2671, 16.4077, 22.8523, 37.2823, -29.7597, -29.1866
2.076, -1, 17.3088, 16.3701, 22.8666, 37.3515, -29.6787, -29.2384
2.08, -1, 17.3495, 16.3335, 22.8807, 37.4204, -29.5981, -29.29
2.084, -1, 17.3888, 16.2979, 22.8945, 37.4888, -29.518, -29.3412
2.087, -1, 17.4267, 16.2635, 22.9079, 37.5564, -29.4389, -29.3918
2.092, -1, 17.4632, 16.2306, 22.921, 37.6229, -29.3611, -29.4417
2.096, -1, 17.4983, 16.1992, 22.9337, 37.6879, -29.2851, -29.4903
2.1, -1, 17.5321, 16.1694, 22.9459, 37.7508, -29.2115, -29.5374
2.104, -1, 17.5644, 16.1411, 22.9576, 37.8112, -29.1408, -29.5827
2.107, -1, 17.5951, 16.1145, 22.9686, 37.8686, -29.0737, -29.6257
2.111, -1, 17.624, 16.0896, 22.9791, 37.9226, -29.0106, -29.6661
2.116, -1, 17.6513, 16.0662, 22.9888, 37.9726, -28.9521, -29.7035
2.12, -1, 17.6768, 16.044, 22.9978, 38.0183, -28.8986, -29.7378
2.124, -1, 17.7009, 16.023, 23.0061, 38.0595, -28.8504, -29.7686
2.127, -1, 17.7234, 16.0029, 23.0136, 38.0959, -28.8078, -29.7958
2.132, -1, 17.7446, 15.9838, 23.0205, 38.1275, -28.7707, -29.8195
2.136, -1, 17.7642, 15.9657, 23.0267, 38.1546, -28.739, -29.8397
2.14, -1, 17.7823, 15.9489, 23.0321, 38.1772, -28.7125, -29.8566
2.143, -1, 17.7986, 15.9337, 23.0368, 38.1957, -28.6907, -29.8705
2.148, -1, 17.8131, 15.9202, 23.0409, 38.2106, -28.6732, -29.8816
2.152, -1, 17.8259, 15.9085, 23.0443, 38.2223, -28.6594, -29.8904
2.156, -1, 17.8371, 15.8987, 23.0471, 38.2313, -28.6488, -29.8971
2.16, -1, 17.8467, 15.8905, 23.0494, 38.2381, -28.6409, -29.9021
2.163, -1, 17.855, 15.8838, 23.0513, 38.243, -28.635, -29.9058
2.168, -1, 17.8619, 15.8785, 23.0527, 38.2465, -28.6308, -29.9084
2.172, -1, 17.8674, 15.8744, 23.0538, 38.249, -28.6279, -29.9103
2.176, 2, 17.8716, 15.8714, 23.0546, 38.2507, -28.6258, -29.9115
2.179, 2, 17.8747, 15.8692, 23.0552, 38.2519, -28.6245, -29.9124
2.184, 2, 17.8769, 15.8677, 23.0556, 38.2527, -28.6235, -29.913
2.188, 2, 17.8784, 15.8667, 23.0558, 38.2532, -28.6229, -29.9134
2.192, 2, 17.8794, 15.866, 23.056, 38.2536, -28.6224, -29.9137
2.196, 2, 17.8801, 15.8655, 23.0561, 38.2538, -28.6221, -29.9138
2.199, 2, 17.8806, 15.8652, 23.0562, 38.254, -28.6219, -29.914
2.204, 2, 17.8809, 15.865, 23.0563, 38.2541, -28.6218, -29.9141
2.208, 2, 17.8811, 15.8649, 23.0563, 38.2542, -28.6217, -29.9141
2.212, 2, 17.8813, 15.8648, 23.0563, 38.2543, -28.6217, -29.9141
2.216, 2, 17.8814, 15.8647, 23.0564, 38.2543, -28.6216, -29.9142
2.219, 2, 17.8814, 15.8646, 23.0564, 38.2543, -28.6216, -29.9142
2.224, 2, 17.8815, 15.8646, 23.0564, 38.2543, -28.6216, -29.9142
2.228, 2, 17.8815, 15.8646, 23.0564, 38.2543, -28.6215, -29.9142
2.232, 2, 17.8815, 15.8646, 23.0564, 38.2543, -28.6215, -29.9142
2.235, 2, 17.8815, 15.8646, 23.0564, 38.2544, -28.6215, -29.9142
2.24, 2, 17.8815, 15.8646, 23.0564, 38.2544, -28.6215, -29.9142
2.244, 2, 17.8816, 15.8646, 23.0564, 38.2544, -28.6215, -29.9142
2.248, 2, 17.8816, 15.8646, 23.0564, 38.2544, -28.6215, -29.9142
2.252, 2, 17.8816, 15.8646, 23.0564, 38.2544, -28.6215, -29.9142
2.255, 2, 17.8816, 15.8646, 23.0564, 38.2544, -28.6215, -29.9142
2.259, 2, 17.8816, 15.8646, 23.0564, 38.2544, -28.6215, -29.9142
2.264, 2, 17.8816, 15.8645, 23.0564, 38.2544, -28.6215, -29.9142
2.268, 2, 17.8816, 15.8645, 23.0564, 38.2544, -28.6215, -29.9142
2.272, 2, 17.8816, 15.8645, 23.0564, 38.2544, -28.6215, -29.9142
2.275, 2, 17.8816, 15.8645, 23.0564, 38.2544, -28.6215, -29.9142
2.28, 2, 17.8816, 15.8645, 23.0564, 38.2544, -28.6215, -29.9142
2.284, 2, 17.8816, 15.8645, 23.0564, 38.2544, -28.6215, -29.9142
2.288, 2, 17.8816, 15.8645, 23.0564, 38.2544, -28.6215, -29.9142
2.291, 2, 17.8816, 15.8645, 23.0564, 38.2544, -28.6215, -29.9142
2.296, 2, 17.8816, 15.8645, 23.0564, 38.2544, -28.6215, -29.9142
2.3, 2, 17.8816, 15.8645, 23.0564, 38.2544, -28.6215, -29.9142
2.304, 2, 17.8816, 15.8645, 23.0564, 38.2544, -28.6215, -29.9142
2.308, 2, 17.8816, 15.8645, 23.0564, 38.2544, -28.6215, -29.9142
2.311, 2, 17.8816, 15.8645, 23.0564, 38.2544, -28.6215, -29.9142
2.316, 2, 17.8816, 15.8645, 23.0564, 38.2544, -28.6215, -29.9142
2.32, 2, 17.8816, 15.8645, 23.0564, 38.2544, -28.6215, -29.9142
2.324, 2, 17.8816, 15.8645, 23.0564, 38.2544, -28.6215, -29.9142
2.328, 2, 17.8816, 15.8645, 23.0564, 38.2544, -28.6215, -29.9142
2.331, 2, 17.8816, 15.8645, 23.0564, 38.2544, -28.6215, -29.9142
2.336, 2, 17.8816, 15.8645, 23.0564, 38.2544, -28.6215, -29.9142
2.34, 2, 17.8816, 15.8645, 23.0564, 38.2544, -28.6215, -29.9142
2.344, 2, 17.8816, 15.8645, 23.0564, 38.2544, -28.6215, -29.9142
2.347, 2, 17.8816, 15.8645, 23.0564, 38.2544, -28.6215, -29.9142
2.352, 2, 17.8816, 15.8645, 23.0564, 38.2544, -28.6215, -29.9142
2.356, 2, 17.8816, 15.8645, 23.0564, 38.2544, -28.6215, -29.9142
2.36, 2, 17.8816, 15.8645, 23.0564, 38.2544, -28.6215, -29.9142
2.364, 2, 17.8816, 15.8645, 23.0564, 38.2544, -28.6215, -29.9142
2.367, 2, 17.8816, 15.8645, 23.0564, 38.2544, -28.6215, -29.9142
2.372, 2, 17.8816, 15.8645, 23.0564, 38.2544, -28.6215, -29.9142
2.376, 2, 17.8816, 15.8645, 23.0564, 38.2544, -28.6215, -29.9142
2.38, 2, 17.8816, 15.8645, 23.0564, 38.2544, -28.6215, -29.9142
2.383, 2, 17.8816, 15.8645, 23.0564, 38.2544, -28.6215, -29.9142
2.388, 2, 17.8816, 15.8645, 23.0564, 38.2544, -28.6215, -29.9142
2.392, 2, 17.8816, 15.8645, 23.0564, 38.2544, -28.6215, -29.9142
2.396, 2, 17.8816, 15.8645, 23.0564, 38.2544, -28.6215, -29.9142
2.4, 2, 17.8816, 15.8645, 23.0564, 38.2544, -28.6215, -29.9142
2.403, 2, 17.8816, 15.8645, 23.0564, 38.2544, -28.6215, -29.9142
2.408, 2, 17.8816, 15.8645, 23.0564, 38.2544, -28.6215, -29.9142
2.412, 2, 17.8816, 15.8645, 23.0564, 38.2544, -28.6215, -29.9142
2.416, 2, 17.8816, 15.8645, 23.0564, 38.2544, -28.6215, -29.9142
2.42, 2, 17.8816, 15.8645, 23.0564, 38.2544, -28.6215, -29.9142
2.423, 2, 17.8816, 15.8645, 23.0564, 38.2544, -28.6215, -29.9142
2.428, 2, 17.8816, 15.8645, 23.0564, 38.2544, -28.6215, -29.9142
2.432, 2, 17.8816, 15.8645, 23.0564, 38.2544, -28.6215, -29.9142
2.436, 2, 17.8816, 15.8645, 23.0564, 38.2544, -28.6215, -29.9142
2.439, 2, 17.8816, 15.8645, 23.0564, 38.2544, -28.6215, -29.9142
2.444, 2, 17.8816, 15.8645, 23.0564, 38.2544, -28.6215, -29.9142
2.448, 2, 17.8816, 15.8645, 23.0564, 38.2544, -28.6215, -29.9142
2.452, 2, 17.8816, 15.8645, 23.0564, 38.2544, -28.6215, -29.9142
2.456, 2, 17.8816, 15.8645, 23.0564, 38.2544, -28.6215, -29.9142
2.459, 2, 17.8816, 15.8645, 23.0564, 38.2544, -28.6215, -29.9142
2.464, 2, 17.8816, 15.8645, 23.0564, 38.2544, -28.6215, -29.9142
2.468, 2, 17.8816, 15.8645, 23.0564, 38.2544, -28.6215, -29.9142
2.472, 2, 17.8816, 15.8645, 23.0564, 38.2544, -28.6215, -29.9142
2.476, 2, 17.8816, 15.8645, 23.0564, 38.2544, -28.6215, -29.9142
2.479, 2, 17.8816, 15.8645, 23.0564, 38.2544, -28.6215, -29.9142
2.484, 2, 17.8816, 15.8645, 23.0564, 38.2544, -28.6215, -29.9142
2.488, 2, 17.8816, 15.8645, 23.0564, 38.2544, -28.6215, -29.9142
2.492, 2, 17.8816, 15.8645, 23.0564, 38.2544, -28.6215, -29.9142
2.495, 2, 17.8816, 15.8645, 23.0564, 38.2544, -28.6215, -29.9142
2.5, 2, 17.8816, 15.8645, 23.0564, 38.2544, -28.6215, -29.9142
2.504, 2, 17.8816, 15.8645, 23.0564, 38.2544, -28.6215, -29.9142
2.508, 2, 17.8816, 15.8645, 23.0564, 38.2544, -28.6215, -29.9142
2.512, 2, 17.8816, 15.8645, 23.0564, 38.2544, -28.6215, -29.9142
2.515, 2, 17.8816, 15.8645, 23.0564, 38.2544, -28.6215, -29.9142
2.52, 2, 17.8816, 15.8645, 23.0564, 38.2544, -28.6215, -29.9142
2.524, 2, 17.8816, 15.8645, 23.0564, 38.2544, -28.6215, -29.9142
2.528, 2, 17.8816, 15.8645, 23.0564, 38.2544, -28.6215, -29.9142
2.531, 2, 17.8816, 15.8645, 23.0564, 38.2544, -28.6215, -29.9142
2.536, 2, 17.8816, 15.8645, 23.0564, 38.2544, -28.6215, -29.9142
2.54, 2, 17.8816, 15.8645, 23.0564, 38.2544, -28.6215, -29.9142
2.544, 2, 17.8816, 15.8645, 23.0564, 38.2544, -28.6215, -29.9142
2.548, 2, 17.8816, 15.8645, 23.0564, 38.2544, -28.6215, -29.9142
2.551, 2, 17.8816, 15.8645, 23.0564, 38.2544, -28.6215, -29.9142
2.556, 2, 17.8816, 15.8645, 23.0564, 38.2544, -28.6215, -29.9142
2.56, 2, 17.8816, 15.8645, 23.0564, 38.2544, -28.6215, -29.9142
2.564, 2, 17.8816, 15.8645, 23.0564, 38.2544, -28.6215, -29.9142
2.568, 2, 17.8816, 15.8645, 23.0564, 38.2544, -28.6215, -29.9142
2.571, 2, 17.8816, 15.8645, 23.0564, 38.2544, -28.6215, -29.9142
2.576, 2, 17.8816, 15.8645, 23.0564, 38.2544, -28.6215, -29.9142
2.58, 2, 17.8816, 15.8645, 23.0564, 38.2544, -28.6215, -29.9142
2.584, 2, 17.8816, 15.8645, 23.0564, 38.2544, -28.6215, -29.9142
2.587, 2, 17.8816, 15.8645, 23.0564, 38.2544, -28.6215, -29.9142
2.592, 2, 17.8816, 15.8645, 23.0564, 38.2544, -28.6215, -29.9142
2.596, 2, 17.8816, 15.8645, 23.0564, 38.2544, -28.6215, -29.9142
2.6, 2, 17.8816, 15.8645, 23.0564, 38.2544, -28.6215, -29.9142
2.604, 2, 17.8816, 15.8645, 23.0564, 38.2544, -28.6215, -29.9142
2.607, 2, 17.8816, 15.8645, 23.0564, 38.2544, -28.6215, -29.9142
2.612, 2, 17.8816, 15.8645, 23.0564, 38.2544, -28.6215, -29.9142
2.616, 2, 17.8816, 15.8645, 23.0564, 38.2544, -28.6215, -29.9142
2.62, 2, 17.8816, 15.8645, 23.0564, 38.2544, -28.6215, -29.9142
2.624, 2, 17.8816, 15.8645, 23.0564, 38.2544, -28.6215, -29.9142
2.627, 2, 17.8816, 15.8645, 23.0564, 38.2544, -28.6215, -29.9142
2.632, 2, 17.8816, 15.8645, 23.0564, 38.2544, -28.6215, -29.9142
2.636, 2, 17.8816, 15.8645, 23.0564, 38.2544, -28.6215, -29.9142
2.64, 2, 17.8816, 15.8645, 23.0564, 38.2544, -28.6215, -29.9142
2.643, 2, 17.8816, 15.8645, 23.0564, 38.2544, -28.6215, -29.9142
2.648, 2, 17.8816, 15.8645, 23.0564, 38.2544, -28.6215, -29.9142
2.652, 2, 17.8816, 15.8645, 23.0564, 38.2544, -28.6215, -29.9142
2.656, 2, 17.8816, 15.8645, 23.0564, 38.2544, -28.6215, -29.9142
2.66, 2, 17.8816, 15.8645, 23.0564, 38.2544, -28.6215, -29.9142
2.663, 2, 17.8816, 15.8645, 23.0564, 38.2544, -28.6215, -29.9142
2.668, 2, 17.8816, 15.8645, 23.0564, 38.2544, -28.6215, -29.9142
2.672, 2, 17.8816, 15.8645, 23.0564, 38.2544, -28.6215, -29.9142
2.676, 2, 17.8816, 15.8645, 23.0564, 38.2544, -28.6215, -29.9142
2.679, 2, 17.8816, 15.8645, 23.0564, 38.2544, -28.6215, -29.9142
2.684, 2, 17.8816, 15.8645, 23.0564, 38.2544, -28.6215, -29.9142
2.688, 2, 17.8816, 15.8645, 23.0564, 38.2544, -28.6215, -29.9142
2.692, 2, 17.8816, 15.8645, 23.0564, 38.2544, -28.6215, -29.9142
2.696, 2, 17.8816, 15.8645, 23.0564, 38.2544, -28.6215, -29.9142
2.699, 2, 17.8816, 15.8645, 23.0564, 38.2544, -28.6215, -29.9142
2.704, 2, 17.8816, 15.8645, 23.0564, 38.2544, -28.6215, -29.9142
2.708, 2, 17.8816, 15.8645, 23.0564, 38.2544, -28.6215, -29.9142
2.712, 2, 17.8816, 15.8645, 23.0564, 38.2544, -28.6215, -29.9142
2.716, 2, 17.8816, 15.8645, 23.0564, 38.2544, -28.6215, -29.9142
2.719, 2, 17.8816, 15.8645, 23.0564, 38.2544, -28.6215, -29.9142
2.724, 2, 17.8816, 15.8645, 23.0564, 38.2544, -28.6215, -29.9142
2.728, 2, 17.8816, 15.8645, 23.0564, 38.2544, -28.6215, -29.9142
2.732, 2, 17.8816, 15.8645, 23.0564, 38.2544, -28.6215, -29.9142
2.735, 2, 17.8816, 15.8645, 23.0564, 38.2544, -28.6215, -29.9142
2.74, 2, 17.8816, 15.8645, 23.0564, 38.2544, -28.6215, -29.9142
2.744, 2, 17.8816, 15.8645, 23.0564, 38.2544, -28.6215, -29.9142
2.748, 2, 17.8816, 15.8645, 23.0564, 38.2544, -28.6215, -29.9142
2.752, 2, 17.8816, 15.8645, 23.0564, 38.2544, -28.6215, -29.9142
2.755, 2, 17.8816, 15.8645, 23.0564, 38.2544, -28.6215, -29.9142
2.76, 2, 17.8816, 15.8645, 23.0564, 38.2544, -28.6215, -29.9142
2.764, 2, 17.8816, 15.8645, 23.0564, 38.2544, -28.6215, -29.9142
2.768, 2, 17.8816, 15.8645, 23.0564, 38.2544, -28.6215, -29.9142
2.772, 2, 17.8816, 15.8645, 23.0564, 38.2544, -28.6215, -29.9142
2.775, 2, 17.8816, 15.8645, 23.0564, 38.2544, -28.6215, -29.9142
2.78, 2, 17.8816, 15.8645, 23.0564, 38.2544, -28.6215, -29.9142
2.784, 2, 17.8816, 15.8645, 23.0564, 38.2544, -28.6215, -29.9142
2.788, 2, 17.8816, 15.8645, 23.0564, 38.2544, -28.6215, -29.9142
2.791, 2, 17.8816, 15.8645, 23.0564, 38.2544, -28.6215, -29.9142
2.796, 2, 17.8816, 15.8645, 23.0564, 38.2544, -28.6215, -29.9142
2.8, 2, 17.8816, 15.8645, 23.0564, 38.2544, -28.6215, -29.9142
2.804, 2, 17.8816, 15.8645, 23.0564, 38.2544, -28.6215, -29.9142
2.808, 2, 17.8816, 15.8645, 23.0564, 38.2544, -28.6215, -29.9142
2.811, 2, 17.8816, 15.8645, 23.0564, 38.2544, -28.6215, -29.9142
2.816, 2, 17.8816, 15.8645, 23.0564, 38.2544, -28.6215, -29.9142
2.82, 2, 17.8816, 15.8645, 23.0564, 38.2544, -28.6215, -29.9142
2.824, 2, 17.8816, 15.8645, 23.0564, 38.2544, -28.6215, -29.9142
2.828, 2, 17.8816, 15.8645, 23.0564, 38.2544, -28.6215, -29.9142
2.831, 2, 17.8816, 15.8645, 23.0564, 38.2544, -28.6215, -29.9142
2.836, 2, 17.8816, 15.8645, 23.0564, 38.2544, -28.6215, -29.9142
2.84, 2, 17.8816, 15.8645, 23.0564, 38.2544, -28.6215, -29.9142
2.844, 2, 17.8816, 15.8645, 23.0564, 38.2544, -28.6215, -29.9142
2.847, 2, 17.8816, 15.8645, 23.0564, 38.2544, -28.6215, -29.9142
2.852, 2, 17.8816, 15.8645, 23.0564, 38.2544, -28.6215, -29.9142
2.856, 2, 17.8816, 15.8645, 23.0564, 38.2544, -28.6215, -29.9142
2.86, 2, 17.8816, 15.8645, 23.0564, 38.2544, -28.6215, -29.9142
2.864, 2, 17.8816, 15.8645, 23.0564, 38.2544, -28.6215, -29.9142
2.867, 2, 17.8816, 15.8645, 23.0564, 38.2544, -28.6215, -29.9142
2.872, 2, 17.8816, 15.8645, 23.0564, 38.2544, -28.6215, -29.9142
2.876, 2, 17.8816, 15.8645, 23.0564, 38.2544, -28.6215, -29.9142
2.88, 2, 17.8816, 15.8645, 23.0564, 38.2544, -28.6215, -29.9142
2.883, 2, 17.8816, 15.8645, 23.0564, 38.2544, -28.6215, -29.9142
2.888, 2, 17.8816, 15.8645, 23.0564, 38.2544, -28.6215, -29.9142
2.892, 2, 17.8816, 15.8645, 23.0564, 38.2544, -28.6215, -29.9142
2.896, 2, 17.8816, 15.8645, 23.0564, 38.2544, -28.6215, -29.9142
2.9, 2, 17.8816, 15.8645, 23.0564, 38.2544, -28.6215, -29.9142
2.903, 2, 17.8816, 15.8645, 23.0564, 38.2544, -28.6215, -29.9142
2.908, 2, 17.8816, 15.8645, 23.0564, 38.2544, -28.6215, -29.9142
2.912, 2, 17.8816, 15.8645, 23.0564, 38.2544, -28.6215, -29.9142
2.916, 2, 17.8816, 15.8645, 23.0564, 38.2544, -28.6215, -29.9142
2.92, 2, 17.8816, 15.8645, 23.0564, 38.2544, -28.6215, -29.9142
2.923, 2, 17.8816, 15.8645, 23.0564, 38.2544, -28.6215, -29.9142
2.928, 2, 17.8816, 15.8645, 23.0564, 38.2544, -28.6215, -29.9142
2.932, 2, 17.8816, 15.8645, 23.0564, 38.2544, -28.6215, -29.9142
2.936, 2, 17.8816, 15.8645, 23.0564, 38.2544, -28.6215, -29.9142
2.939, 2, 17.8816, 15.8645, 23.0564, 38.2544, -28.6215, -29.9142
2.944, 2, 17.8816, 15.8645, 23.0564, 38.2544, -28.6215, -29.9142
2.948, 2, 17.8816, 15.8645, 23.0564, 38.2544, -28.6215, -29.9142
2.952, 2, 17.8816, 15.8645, 23.0564, 38.2544, -28.6215, -29.9142
2.956, 2, 17.8816, 15.8645, 23.0564, 38.2544, -28.6215, -29.9142
2.959, 2, 17.8816, 15.8645, 23.0564, 38.2544, -28.6215, -29.9142
2.964, 2, 17.8816, 15.8645, 23.0564, 38.2544, -28.6215, -29.9142
2.968, 2, 17.8816, 15.8645, 23.0564, 38.2544, -28.6215, -29.9142
2.972, 2, 17.8816, 15.8645, 23.0564, 38.2544, -28.6215, -29.9142
2.976, 2, 17.8816, 15.8645, 23.0564, 38.2544, -28.6215, -29.9142
2.98, 2, 17.8816, 15.8645, 23.0564, 38.2544, -28.6215, -29.9142
2.984, 2, 17.8816, 15.8645, 23.0564, 38.2544, -28.6215, -29.9142
2.988, 2, 17.8816, 15.8645, 23.0564, 38.2544, -28.6215, -29.9142
2.992, 2, 17.8816, 15.8645, 23.0564, 38.2544, -28.6215, -29.9142
2.995, 2, 17.8816, 15.8645, 23.0564, 38.2544, -28.6215, -29.9142
3, 2, 17.8816, 15.8645, 23.0564, 38.2544, -28.6215, -29.9142
3.004, 2, 17.8816, 15.8645, 23.0564, 38.2544, -28.6215, -29.9142
3.008, 2, 17.8816, 15.8645, 23.0564, 38.2544, -28.6215, -29.9142
3.012, 2, 17.8816, 15.8645, 23.0564, 38.2544, -28.6215, -29.9142
3.015, 2, 17.8816, 15.8645, 23.0564, 38.2544, -28.6215, -29.9142
3.02, 2, 17.8816, 15.8645, 23.0564, 38.2544, -28.6215, -29.9142
3.024, 2, 17.8816, 15.8645, 23.0564, 38.2544, -28.6215, -29.9142
3.028, 2, 17.8816, 15.8645, 23.0564, 38.2544, -28.6215, -29.9142
3.031, 2, 17.8816, 15.8645, 23.0564, 38.2544, -28.6215, -29.9142
3.036, 2, 17.8816, 15.8645, 23.0564, 38.2544, -28.6215, -29.9142
3.04, 2, 17.8816, 15.8645, 23.0564, 38.2544, -28.6215, -29.9142
3.044, 2, 17.8816, 15.8645, 23.0564, 38.2544, -28.6215, -29.9142
3.048, 2, 17.8816, 15.8645, 23.0564, 38.2544, -28.6215, -29.9142
3.051, 2, 17.8816, 15.8645, 23.0564, 38.2544, -28.6215, -29.9142
3.056, 2, 17.8816, 15.8645, 23.0564, 38.2544, -28.6215, -29.9142
3.06, 2, 17.8816, 15.8645, 23.0564, 38.2544, -28.6215, -29.9142
3.064, 2, 17.8816, 15.8645, 23.0564, 38.2544, -28.6215, -29.9142
3.068, 2, 17.8816, 15.8645, 23.0564, 38.2544, -28.6215, -29.9142
3.071, 2, 17.8816, 15.8645, 23.0564, 38.2544, -28.6215, -29.9142
3.076, 2, 17.8816, 15.8645, 23.0564, 38.2544, -28.6215, -29.9142
3.08, 2, 17.8816, 15.8645, 23.0564, 38.2544, -28.6215, -29.9142
3.084, 2, 17.8816, 15.8645, 23.0564, 38.2544, -28.6215, -29.9142
3.087, 2, 17.8816, 15.8645, 23.0564, 38.2544, -28.6215, -29.9142
3.092, 2, 17.8816, 15.8645, 23.0564, 38.2544, -28.6215, -29.9142
3.096, 2, 17.8816, 15.8645, 23.0564, 38.2544, -28.6215, -29.9142
3.1, 2, 17.8816, 15.8645, 23.0564, 38.2544, -28.6215, -29.9142
3.104, 2, 17.8816, 15.8645, 23.0564, 38.2544, -28.6215, -29.9142
3.107, 2, 17.8816, 15.8645, 23.0564, 38.2544, -28.6215, -29.9142
3.112, 2, 17.8816, 15.8645, 23.0564, 38.2544, -28.6215, -29.9142
3.116, 2, 17.8816, 15.8645, 23.0564, 38.2544, -28.6215, -29.9142
3.12, 2, 17.8816, 15.8645, 23.0564, 38.2544, -28.6215, -29.9142
3.124, 2, 17.8816, 15.8645, 23.0564, 38.2544, -28.6215, -29.9142
3.128, 2, 17.8816, 15.8645, 23.0564, 38.2544, -28.6215, -29.9142
3.132, 2, 17.8816, 15.8645, 23.0564, 38.2544, -28.6215, -29.9142
3.136, 2, 17.8816, 15.8645, 23.0564, 38.2544, -28.6215, -29.9142
3.14, 2, 17.8816, 15.8645, 23.0564, 38.2544, -28.6215, -29.9142
3.143, 2, 17.8816, 15.8645, 23.0564, 38.2544, -28.6215, -29.9142
3.148, 2, 17.8816, 15.8645, 23.0564, 38.2544, -28.6215, -29.9142
3.152, 2, 17.8816, 15.8645, 23.0564, 38.2544, -28.6215, -29.9142
3.156, 2, 17.8816, 15.8645, 23.0564, 38.2544, -28.6215, -29.9142
3.16, 2, 17.8816, 15.8645, 23.0564, 38.2544, -28.6215, -29.9142
3.163, 2, 17.8816, 15.8645, 23.0564, 38.2544, -28.6215, -29.9142
3.168, 2, 17.8816, 15.8645, 23.0564, 38.2544, -28.6215, -29.9142
3.172, 2, 17.8816, 15.8645, 23.0564, 38.2544, -28.6215, -29.9142
3.176, 2, 17.8816, 15.8645, 23.0564, 38.2544, -28.6215, -29.9142
3.179, 2, 17.8816, 15.8645, 23.0564, 38.2544, -28.6215, -29.9142
3.184, 2, 17.8816, 15.8645, 23.0564, 38.2544, -28.6215, -29.9142
3.188, 2, 17.8816, 15.8645, 23.0564, 38.2544, -28.6215, -29.9142
3.192, 2, 17.8816, 15.8645, 23.0564, 38.2544, -28.6215, -29.9142
3.196, 2, 17.8816, 15.8645, 23.0564, 38.2544, -28.6215, -29.9142
3.199, 2, 17.8816, 15.8645, 23.0564, 38.2544, -28.6215, -29.9142
3.204, 2, 17.8816, 15.8645, 23.0564, 38.2544, -28.6215, -29.9142
3.208, 2, 17.8816, 15.8645, 23.0564, 38.2544, -28.6215, -29.9142
3.212, 2, 17.8816, 15.8645, 23.0564, 38.2544, -28.6215, -29.9142
3.216, 2, 17.8816, 15.8645, 23.0564, 38.2544, -28.6215, -29.9142
3.22, 2, 17.8816, 15.8645, 23.0564, 38.2544, -28.6215, -29.9142
3.224, 2, 17.8816, 15.8645, 23.0564, 38.2544, -28.6215, -29.9142
3.228, 2, 17.8816, 15.8645, 23.0564, 38.2544, -28.6215, -29.9142
3.232, 2, 17.8816, 15.8645, 23.0564, 38.2544, -28.6215, -29.9142
3.235, 2, 17.8816, 15.8645, 23.0564, 38.2544, -28.6215, -29.9142
3.24, 2, 17.8816, 15.8645, 23.0564, 38.2544, -28.6215, -29.9142
3.244, 2, 17.8816, 15.8645, 23.0564, 38.2544, -28.6215, -29.9142
3.248, 4, 17.8816, 15.8645, 23.0564, 38.2544, -28.6215, -29.9142
3.252, 4, 17.8816, 15.8645, 23.0564, 38.2544, -28.6215, -29.9142
3.255, 4, 17.8816, 15.8645, 23.0564, 38.2544, -28.6215, -29.9142
3.26, 4, 17.8816, 15.8645, 23.0564, 38.2544, -28.6215, -29.9142
3.264, 4, 17.8816, 15.8645, 23.0564, 38.2544, -28.6215, -29.9142
3.268, 4, 17.8816, 15.8645, 23.0564, 38.2544, -28.6215, -29.9142
3.272, 4, 17.8816, 15.8645, 23.0564, 38.2544, -28.6215, -29.9142
3.276, 4, 17.8816, 15.8645, 23.0564, 38.2544, -28.6215, -29.9142
3.28, 4, 17.8816, 15.8645, 23.0564, 38.2544, -28.6215, -29.9142
3.284, 4, 17.8816, 15.8645, 23.0564, 38.2544, -28.6215, -29.9142
3.288, 4, 17.8816, 15.8645, 23.0564, 38.2544, -28.6215, -29.9142
3.291, 4, 17.8816, 15.8645, 23.0564, 38.2544, -28.6215, -29.9142
3.296, 4, 17.8816, 15.8645, 23.0564, 38.2544, -28.6215, -29.9142
3.3, 4, 17.8816, 15.8645, 23.0564, 38.2544, -28.6215, -29.9142
3.304, 4, 17.8816, 15.8645, 23.0564, 38.2544, -28.6215, -29.9142
3.308, 4, 17.8816, 15.8645, 23.0564, 38.2544, -28.6215, -29.9142
3.312, 4, 17.8816, 15.8645, 23.0564, 38.2544, -28.6215, -29.9142
3.316, 4, 17.8816, 15.8645, 23.0564, 38.2544, -28.6215, -29.9142
3.32, 4, 17.8816, 15.8645, 23.0564, 38.2544, -28.6215, -29.9142
3.324, 4, 17.8816, 15.8645, 23.0564, 38.2544, -28.6215, -29.9142
3.328, 4, 17.8816, 15.8645, 23.0564, 38.2544, -28.6215, -29.9142
3.332, 4, 17.8816, 15.8645, 23.0564, 38.2544, -28.6215, -29.9142
3.336, 4, 17.8816, 15.8645, 23.0564, 38.2544, -28.6215, -29.9142
3.34, 4, 17.8816, 15.8645, 23.0564, 38.2544, -28.6215, -29.9142
3.344, 4, 17.8816, 15.8645, 23.0564, 38.2544, -28.6215, -29.9142
3.347, 4, 17.8816, 15.8645, 23.0564, 38.2544, -28.6215, -29.9142
3.352, 4, 17.8816, 15.8645, 23.0564, 38.2544, -28.6215, -29.9142
3.358, 4, 17.8816, 15.8645, 23.0564, 38.2544, -28.6215, -29.9142
3.362, 4, 17.8816, 15.8645, 23.0564, 38.2544, -28.6215, -29.9142
3.366, 4, 17.8816, 15.8645, 23.0564, 38.2544, -28.6215, -29.9142
3.37, 4, 17.8816, 15.8645, 23.0564, 38.2544, -28.6215, -29.9142
3.374, 4, 17.8816, 15.8645, 23.0564, 38.2544, -28.6215, -29.9142
3.378, 4, 17.8816, 15.8645, 23.0564, 38.2544, -28.6215, -29.9142
3.38, 4, 17.8816, 15.8645, 23.0564, 38.2544, -28.6215, -29.9142
3.383, 4, 17.8816, 15.8645, 23.0564, 38.2544, -28.6215, -29.9142
3.388, 4, 17.8816, 15.8645, 23.0564, 38.2544, -28.6215, -29.9142
3.392, 4, 17.8815, 15.8645, 23.0564, 38.2544, -28.6215, -29.9142
3.396, 4, 17.8812, 15.8645, 23.0564, 38.2543, -28.6215, -29.9142
3.4, 4, 17.8806, 15.8645, 23.0565, 38.2542, -28.6216, -29.9141
3.403, 4, 17.8793, 15.8645, 23.0566, 38.2539, -28.6217, -29.9139
3.408, 4, 17.8773, 15.8644, 23.0569, 38.2532, -28.6219, -29.9133
3.412, 4, 17.8745, 15.8643, 23.0576, 38.2517, -28.6225, -29.912
3.416, 4, 17.8706, 15.864, 23.0586, 38.2489, -28.6235, -29.9095
3.42, 4, 17.8657, 15.8636, 23.0603, 38.2441, -28.6252, -29.9053
3.424, 5, 17.8595, 15.863, 23.063, 38.2364, -28.628, -29.8984
3.428, 5, 17.8518, 15.862, 23.067, 38.2246, -28.6323, -29.8881
3.432, 5, 17.8424, 15.8607, 23.0727, 38.2075, -28.6384, -29.873
3.436, 5, 17.831, 15.8589, 23.0804, 38.1836, -28.647, -29.8519
3.439, 5, 17.817, 15.8565, 23.0909, 38.1512, -28.6587, -29.8232
3.444, 5, 17.8002, 15.8533, 23.1045, 38.1085, -28.6742, -29.7854
3.448, 5, 17.7803, 15.8493, 23.122, 38.0534, -28.6942, -29.7368
3.452, 5, 17.7571, 15.8443, 23.1439, 37.984, -28.7195, -29.6754
3.456, 5, 17.7302, 15.8382, 23.1708, 37.8982, -28.7509, -29.5995
3.46, 5, 17.6995, 15.8308, 23.2033, 37.7942, -28.7892, -29.5075
3.464, 5, 17.6645, 15.8222, 23.242, 37.6701, -28.8351, -29.3978
3.468, 5, 17.6249, 15.8121, 23.2873, 37.5243, -28.8894, -29.2689
3.474, 5, 17.5804, 15.8005, 23.3398, 37.3556, -28.9527, -29.1198
3.476, 5, 17.5307, 15.7874, 23.3998, 37.1628, -29.0257, -28.9496
3.48, 5, 17.4756, 15.7727, 23.4674, 36.9452, -29.1088, -28.7576
3.484, 5, 17.4153, 15.7565, 23.543, 36.7023, -29.2024, -28.5434
3.488, 5, 17.3496, 15.7387, 23.6266, 36.434, -29.307, -28.3069
3.492, 5, 17.2787, 15.7194, 23.718, 36.1405, -29.4226, -28.0485
3.495, 5, 17.2028, 15.6986, 23.8172, 35.8226, -29.5494, -27.7689
3.5, 5, 17.1218, 15.6765, 23.9238, 35.4815, -29.6872, -27.4691
3.504, 5, 17.0361, 15.6533, 24.0375, 35.1187, -29.8356, -27.1507
3.508, 5, 16.9458, 15.629, 24.1577, 34.7362, -29.9943, -26.8154
3.512, 5, 16.8513, 15.6038, 24.2837, 34.3363, -30.1627, -26.4652
3.516, 5, 16.7531, 15.5779, 24.4149, 33.9214, -30.3398, -26.1025
3.52, 5, 16.6521, 15.5516, 24.5503, 33.4945, -30.5248, -25.7297
3.524, 5, 16.5489, 15.525, 24.689, 33.0585, -30.7167, -25.3495
3.528, 5, 16.444, 15.4982, 24.8301, 32.6165, -30.9142, -24.9646
3.531, 5, 16.3379, 15.4717, 24.9726, 32.1717, -31.116, -24.578
3.536, 5, 16.231, 15.4455, 25.1154, 31.7276, -31.3207, -24.1924
3.54, 5, 16.1235, 15.4198, 25.2576, 31.2871, -31.5267, -23.8107
3.544, 5, 16.0158, 15.395, 25.3981, 30.8536, -31.7326, -23.4356
3.548, 5, 15.9082, 15.3711, 25.536, 30.4296, -31.937, -23.0694
3.552, 5, 15.8007, 15.3484, 25.6706, 30.0179, -32.1385, -22.7142
3.556, 5, 15.6937, 15.3271, 25.8011, 29.6202, -32.3359, -22.3718
3.56, 5, 15.5871, 15.3072, 25.9271, 29.2382, -32.5282, -22.0434
3.564, 6, 15.4809, 15.289, 26.0482, 28.8725, -32.7149, -21.7295
3.568, 6, 15.375, 15.2725, 26.1645, 28.5233, -32.8958, -21.4303
3.572, 6, 15.2693, 15.2576, 26.2761, 28.1899, -33.0709, -21.1451
3.576, 6, 15.1637, 15.2442, 26.3834, 27.871, -33.2407, -20.8728
3.58, 6, 15.0582, 15.2321, 26.4869, 27.5647, -33.4063, -20.6117
3.584, 6, 14.953, 15.2213, 26.5874, 27.2686, -33.5687, -20.3598
3.587, 6, 14.8478, 15.2116, 26.6857, 26.9801, -33.7293, -20.1148
3.592, 6, 14.7426, 15.2027, 26.7827, 26.6964, -33.8896, -19.8744
3.596, 6, 14.6372, 15.1946, 26.8793, 26.4147, -34.0511, -19.636
3.6, 6, 14.5316, 15.1869, 26.9764, 26.1322, -34.2156, -19.3975
3.604, 6, 14.4257, 15.1796, 27.0747, 25.8464, -34.3843, -19.1566
3.608, 6, 14.3193, 15.1725, 27.1751, 25.5552, -34.5587, -18.9116
3.612, 6, 14.2122, 15.1655, 27.2781, 25.2568, -34.7398, -18.6612
3.616, 6, 14.1041, 15.1585, 27.3839, 24.9504, -34.9284, -18.4044
3.62, 6, 13.9948, 15.1515, 27.4927, 24.6353, -35.1248, -18.1409
3.624, 6, 13.8839, 15.1446, 27.6046, 24.3118, -35.3291, -17.8709
3.628, 6, 13.7713, 15.1379, 27.7192, 23.9806, -35.5411, -17.595
3.632, 6, 13.657, 15.1314, 27.8364, 23.6427, -35.7601, -17.314
3.636, 6, 13.5412, 15.1253, 27.9556, 23.2995, -35.9855, -17.0293
3.64, 6, 13.4242, 15.1195, 28.0763, 22.9526, -36.2163, -16.7421
3.644, 6, 13.3064, 15.1143, 28.1978, 22.6038, -36.4514, -16.454
3.648, 6, 13.188, 15.1095, 28.3196, 22.255, -36.6895, -16.1664
3.652, 6, 13.0695, 15.1054, 28.4409, 21.9081, -36.9294, -15.8811
3.656, 6, 12.9511, 15.1019, 28.5611, 21.565, -37.1696, -15.5995
3.66, 6, 12.8331, 15.0991, 28.6795, 21.2276, -37.4088, -15.3232
3.664, 6, 12.7159, 15.0971, 28.7954, 20.8979, -37.6454, -15.0538
3.668, 6, 12.5997, 15.096, 28.9082, 20.5774, -37.8781, -14.7924
3.672, 6, 12.4846, 15.096, 29.0175, 20.2676, -38.1056, -14.5404
3.676, 6, 12.3705, 15.0971, 29.1228, 19.9697, -38.3269, -14.2985
3.679, 6, 12.2574, 15.0996, 29.2238, 19.6843, -38.5413, -14.0672
3.684, 7, 12.1449, 15.1034, 29.3206, 19.4117, -38.7484, -13.8468
3.688, 7, 12.033, 15.1086, 29.4131, 19.1515, -38.9482, -13.6368
3.692, 7, 11.9213, 15.1152, 29.5017, 18.9029, -39.1413, -13.4366
3.696, 7, 11.81, 15.123, 29.5868, 18.6645, -39.3286, -13.2451
3.7, 7, 11.699, 15.1319, 29.6689, 18.4346, -39.5113, -13.0608
3.704, 7, 11.5882, 15.1417, 29.7488, 18.2112, -39.6909, -12.8822
3.708, 7, 11.4776, 15.1525, 29.8271, 17.9923, -39.869, -12.7075
3.712, 7, 11.3669, 15.164, 29.9047, 17.7755, -40.0474, -12.535
3.716, 7, 11.256, 15.1763, 29.9822, 17.5587, -40.228, -12.3629
3.72, 7, 11.1448, 15.1892, 30.0604, 17.3399, -40.4123, -12.1896
3.724, 7, 11.0332, 15.2025, 30.1399, 17.1172, -40.6021, -12.0137
3.728, 7, 10.921, 15.2161, 30.2211, 16.8892, -40.7984, -11.8341
3.732, 7, 10.8079, 15.23, 30.3045, 16.6549, -41.0024, -11.65
3.735, 7, 10.6937, 15.2441, 30.3902, 16.4137, -41.2146, -11.4611
3.74, 7, 10.5779, 15.2585, 30.4782, 16.1657, -41.4351, -11.2671
3.744, 7, 10.4604, 15.2735, 30.5684, 15.911, -41.6638, -11.0686
3.748, 7, 10.3411, 15.289, 30.6606, 15.6504, -41.9002, -10.866
3.752, 7, 10.2201, 15.3052, 30.7544, 15.385, -42.1436, -10.6601
3.756, 7, 10.0978, 15.3221, 30.8494, 15.1158, -42.3929, -10.4518
3.76, 7, 9.97449, 15.3398, 30.9451, 14.8442, -42.647, -10.2423
3.764, 7, 9.85065, 15.3581, 31.041, 14.5717, -42.9045, -10.0326
3.768, 7, 9.72658, 15.3771, 31.1366, 14.2997, -43.1642, -9.82395
3.772, 7, 9.60257, 15.3968, 31.2314, 14.0298, -43.4245, -9.61744
3.776, 7, 9.47896, 15.417, 31.3247, 13.7635, -43.6838, -9.41425
3.78, 7, 9.35609, 15.4377, 31.416, 13.5023, -43.9406, -9.21551
3.784, 7, 9.23424, 15.459, 31.5049, 13.2477, -44.1933, -9.02223
3.788, 7, 9.11357, 15.481, 31.591, 13.0008, -44.4406, -8.83533
3.792, 7, 8.9941, 15.5037, 31.6738, 12.7626, -44.6813, -8.65552
3.796, 7, 8.87572, 15.5274, 31.7531, 12.534, -44.9145, -8.48331
3.8, 8, 8.75828, 15.5521, 31.8288, 12.3152, -45.1396, -8.31891
3.804, 8, 8.64153, 15.5778, 31.9008, 12.1062, -45.3566, -8.16225
3.808, 8, 8.52524, 15.6047, 31.9695, 11.9064, -45.5658, -8.01292
3.812, 8, 8.40934, 15.6326, 32.035, 11.7151, -45.7679, -7.87025
3.816, 8, 8.29385, 15.6613, 32.0978, 11.5309, -45.9643, -7.73328
3.82, 8, 8.17879, 15.6909, 32.1585, 11.3524, -46.1563, -7.60092
3.824, 8, 8.06397, 15.7215, 32.2174, 11.178, -46.3458, -7.47192
3.828, 8, 7.94917, 15.7531, 32.2753, 11.0058, -46.5345, -7.34502
3.832, 8, 7.83423, 15.7857, 32.3328, 10.8342, -46.7243, -7.21891
3.836, 8, 7.71908, 15.8192, 32.3903, 10.6615, -46.9172, -7.09236
3.84, 8, 7.60361, 15.8534, 32.4485, 10.4861, -47.1148, -6.96427
3.844, 8, 7.48762, 15.8881, 32.5077, 10.3067, -47.3186, -6.8337
3.848, 8, 7.37088, 15.9231, 32.5682, 10.1224, -47.5298, -6.69996
3.852, 8, 7.25312, 15.9582, 32.6304, 9.9325, -47.7493, -6.56261
3.856, 8, 7.13404, 15.9936, 32.6941, 9.73676, -47.9773, -6.4215
3.86, 8, 7.01331, 16.0294, 32.7593, 9.53532, -48.2139, -6.27673
3.864, 8, 6.89076, 16.0659, 32.826, 9.3286, -48.4587, -6.12864
3.868, 8, 6.76646, 16.1033, 32.8937, 9.11726, -48.7109, -5.97774
3.872, 8, 6.6407, 16.1418, 32.9623, 8.90219, -48.9697, -5.82466
3.876, 8, 6.51385, 16.1814, 33.0314, 8.6844, -49.2339, -5.67014
3.88, 8, 6.38631, 16.222, 33.1005, 8.46501, -49.5021, -5.515
3.884, 8, 6.25842, 16.2635, 33.1694, 8.24522, -49.773, -5.36008
3.888, 8, 6.13049, 16.3057, 33.2375, 8.02628, -50.045, -5.20628
3.892, 8, 6.00283, 16.3486, 33.3046, 7.80946, -50.3164, -5.05445
3.896, 8, 5.87579, 16.3919, 33.3701, 7.596, -50.5857, -4.90546
3.9, 8, 5.74974, 16.4355, 33.4337, 7.38709, -50.8512, -4.76011
3.904, 8, 5.62493, 16.4794, 33.4952, 7.18381, -51.1115, -4.61911
3.908, 8, 5.50144, 16.5236, 33.5541, 6.9871, -51.3651, -4.48309
3.912, 8, 5.37921, 16.5683, 33.6103, 6.79768, -51.6111, -4.3525
3.916, 9, 5.2581, 16.6137, 33.6636, 6.61602, -51.8487, -4.2276
3.92, 9, 5.13788, 16.6598, 33.714, 6.44223, -52.0776, -4.10847
3.924, 9, 5.0183, 16.7066, 33.7615, 6.27611, -52.2978, -3.9949
3.928, 9, 4.89919, 16.7542, 33.8064, 6.11709, -52.5102, -3.88652
3.932, 9, 4.78055, 16.8024, 33.8489, 5.96432, -52.7157, -3.78269
3.936, 9, 4.66243, 16.8514, 33.8895, 5.81668, -52.9157, -3.68268
3.94, 9, 4.54474, 16.9011, 33.9283, 5.67289, -53.1119, -3.58559
3.944, 9, 4.42725, 16.9518, 33.966, 5.53157, -53.3061, -3.49049
3.948, 9, 4.30974, 17.0035, 34.0029, 5.39127, -53.5003, -3.39641
3.952, 9, 4.19212, 17.0561, 34.0394, 5.25059, -53.6964, -3.30243
3.956, 9, 4.07436, 17.1095, 34.0759, 5.10819, -53.8963, -3.20765
3.96, 9, 3.95637, 17.1634, 34.1128, 4.9629, -54.1017, -3.11131
3.964, 9, 3.83799, 17.2177, 34.1503, 4.81377, -54.3139, -3.01281
3.968, 9, 3.71905, 17.2723, 34.1886, 4.66016, -54.5339, -2.91173
3.972, 9, 3.59931, 17.3272, 34.2277, 4.50173, -54.7621, -2.80789
3.976, 9, 3.47849, 17.3824, 34.2677, 4.33849, -54.9988, -2.70128
3.98, 9, 3.35641, 17.4383, 34.3083, 4.17073, -55.2435, -2.59213
3.984, 9, 3.23304, 17.4952, 34.3494, 3.99897, -55.4956, -2.48078
3.988, 9, 3.1086, 17.553, 34.3908, 3.82395, -55.7541, -2.36773
3.992, 9, 2.98341, 17.6118, 34.4322, 3.64653, -56.0176, -2.25354
3.996, 9, 2.85784, 17.6716, 34.4733, 3.46769, -56.2849, -2.13886
3.999, 9, 2.73225, 17.7322, 34.514, 3.2885, -56.5542, -2.02437
4.004, 9, 2.60691, 17.7936, 34.5538, 3.11008, -56.824, -1.91077
4.008, 9, 2.48208, 17.8553, 34.5925, 2.93356, -57.0925, -1.79877
4.012, 9, 2.35811, 17.9172, 34.63, 2.76003, -57.358, -1.68906
4.016, 9, 2.23556, 17.9788, 34.6658, 2.59055, -57.6187, -1.58228
4.02, 9, 2.11516, 18.0399, 34.7, 2.4261, -57.8731, -1.479
4.024, 9, 1.99757, 18.1001, 34.7323, 2.26754, -58.1196, -1.37976
4.028, 9, 1.88335, 18.1593, 34.7625, 2.11565, -58.357, -1.28498
4.032, 9, 1.77279, 18.2174, 34.7905, 1.97109, -58.584, -1.19506
4.036, 9, 1.6659, 18.2746, 34.8161, 1.83437, -58.7997, -1.11026
4.04, 9, 1.56252, 18.3313, 34.8391, 1.70584, -59.0035, -1.03076
4.044, 9, 1.46237, 18.3876, 34.8593, 1.58562, -59.1949, -0.95659
4.048, 10, 1.36518, 18.4439, 34.8766, 1.47361, -59.3739, -0.88765
4.052, 10, 1.27071, 18.5003, 34.8909, 1.36944, -59.5412, -0.823677
4.056, 10, 1.17876, 18.5569, 34.9023, 1.27248, -59.6975, -0.764267
4.06, 10, 1.08923, 18.6139, 34.9107, 1.1819, -59.8441, -0.708887
4.064, 10, 1.00212, 18.6711, 34.9161, 1.09668, -59.9827, -0.65691
4.068, 10, 0.917431, 18.7286, 34.9187, 1.01573, -60.1148, -0.607657
4.072, 10, 0.835063, 18.7865, 34.9184, 0.937896, -60.2424, -0.560431
4.076, 10, 0.754881, 18.8447, 34.9155, 0.862074, -60.3672, -0.514554
4.08, 10, 0.676789, 18.9032, 34.91, 0.787221, -60.4908, -0.469392
4.084, 10, 0.600709, 18.962, 34.9022, 0.712408, -60.6149, -0.424384
4.088, 10, 0.526531, 19.0208, 34.8922, 0.636855, -60.7407, -0.379059
4.092, 10, 0.454166, 19.0796, 34.8803, 0.559964, -60.8691, -0.333059
4.096, 10, 0.383655, 19.1384, 34.8667, 0.48135, -61.0008, -0.286155
4.1, 10, 0.315127, 19.1969, 34.8517, 0.40086, -61.136, -0.238256
4.104, 10, 0.248599, 19.2554, 34.8356, 0.318589, -61.2746, -0.189418
4.108, 10, 0.183831, 19.3138, 34.8184, 0.234871, -61.416, -0.139836
4.112, 10, 0.120338, 19.3726, 34.8004, 0.150244, -61.5594, -0.0898208
4.116, 10, 0.057471, 19.4324, 34.7815, 0.065388, -61.7035, -0.0397664
4.12, 10, -0.00549291, 19.4935, 34.7618, -0.018952, -61.847, 0.0098994
4.124, 10, -0.0691929, 19.5565, 34.7412, -0.10205, -61.9888, 0.0587611
4.128, 10, -0.134004, 19.6214, 34.7196, -0.183278, -62.1278, 0.10646
4.132, 11, -0.199953, 19.6882, 34.6968, -0.26216, -62.2632, 0.152726
4.136, 11, -0.266838, 19.7569, 34.6728, -0.338407, -62.3944, 0.197399
4.14, 11, -0.334448, 19.8272, 34.6475, -0.411926, -62.5214, 0.240427
4.144, 11, -0.402689, 19.8993, 34.6205, -0.482809, -62.6442, 0.281869
4.148, 11, -0.471569, 19.9732, 34.5917, -0.551313, -62.7634, 0.321878
4.152, 11, -0.541151, 20.0493, 34.5607, -0.617844, -62.8796, 0.360693
4.156, 11, -0.611548, 20.1278, 34.5272, -0.682934, -62.9938, 0.398623
4.16, 11, -0.682875, 20.2091, 34.4909, -0.747216, -63.1072, 0.436039
4.164, 11, -0.755133, 20.2931, 34.4514, -0.81141, -63.2209, 0.473356
4.168, 11, -0.828191, 20.3801, 34.4086, -0.876284, -63.3364, 0.511017
4.172, 11, -0.901922, 20.4699, 34.3621, -0.942619, -63.455, 0.549468
4.176, 11, -0.976373, 20.563, 34.3119, -1.01115, -63.5781, 0.589128
4.18, 11, -1.0518, 20.6595, 34.2578, -1.08255, -63.7069, 0.630371
4.184, 11, -1.12857, 20.7601, 34.1995, -1.15735, -63.8423, 0.673504
4.188, 11, -1.20711, 20.8652, 34.137, -1.23596, -63.9853, 0.718759
4.192, 11, -1.28775, 20.9752, 34.0701, -1.31868, -64.1362, 0.76629
4.196, 11, -1.3707, 21.0901, 33.9988, -1.40564, -64.2954, 0.816174
4.2, 11, -1.45599, 21.2099, 33.9231, -1.49687, -64.463, 0.868413
4.204, 11, -1.54354, 21.3342, 33.8432, -1.59224, -64.6389, 0.922938
4.208, 11, -1.63314, 21.4627, 33.7593, -1.69153, -64.8226, 0.97961
4.212, 11, -1.72446, 21.5947, 33.6716, -1.79439, -65.0137, 1.03823
4.216, 11, -1.81719, 21.7298, 33.5803, -1.90036, -65.2113, 1.09853
4.22, 11, -1.91101, 21.8679, 33.4858, -2.0089, -65.4145, 1.16019
4.224, 11, -2.00567, 22.0084, 33.3885, -2.11939, -65.6221, 1.22288
4.228, 11, -2.10089, 22.151, 33.2889, -2.23116, -65.8328, 1.28621
4.232, 11, -2.19635, 22.2951, 33.1874, -2.34352, -66.0454, 1.34979
4.236, 11, -2.29179, 22.4401, 33.0847, -2.45576, -66.2586, 1.41322
4.24, 11, -2.38702, 22.5855, 32.9813, -2.56718, -66.471, 1.47611
4.244, 11, -2.48197, 22.7307, 32.8778, -2.67708, -66.6813, 1.53809
4.248, 11, -2.5765, 22.8754, 32.7747, -2.78483, -66.8882, 1.59879
4.252, 11, -2.67052, 23.019, 32.6724, -2.88986, -67.0905, 1.65789
4.256, 11, -2.76395, 23.1614, 32.5713, -2.99169, -67.2873, 1.71516
4.26, 11, -2.8568, 23.3026, 32.4717, -3.08997, -67.478, 1.77038
4.264, 11, -2.94906, 23.4424, 32.3738, -3.18449, -67.6619, 1.82347
4.268, 12, -3.0407, 23.5807, 32.2777, -3.2752, -67.8389, 1.87439
4.272, 12, -3.13173, 23.7176, 32.1835, -3.3622, -68.0093, 1.92321
4.276, 12, -3.22226, 23.8529, 32.091, -3.44574, -68.1734, 1.97006
4.28, 12, -3.31234, 23.9869, 32.0001, -3.52619, -68.3319, 2.01517
4.284, 12, -3.402, 24.1198, 31.9104, -3.60401, -68.4856, 2.0588
4.288, 12, -3.49125, 24.252, 31.8215, -3.67976, -68.6358, 2.10124
4.292, 12, -3.5802, 24.3838, 31.733, -3.75402, -68.7834, 2.14284
4.296, 12, -3.669, 24.5159, 31.6441, -3.82744, -68.9298, 2.18396
4.3, 12, -3.75773, 24.6486, 31.5543, -3.90064, -69.0762, 2.22494
4.304, 12, -3.84639, 24.7822, 31.463, -3.97426, -69.2238, 2.26615
4.308, 12, -3.93493, 24.9168, 31.3698, -4.0489, -69.374, 2.30791
4.312, 12, -4.02331, 25.0525, 31.2741, -4.12509, -69.5278, 2.35052
4.316, 12, -4.11156, 25.1893, 31.1755, -4.20326, -69.686, 2.39421
4.32, 12, -4.19976, 25.3276, 31.0738, -4.2837, -69.8494, 2.43917
4.324, 12, -4.28807, 25.4676, 30.9687, -4.36659, -70.0182, 2.48549
4.328, 12, -4.37672, 25.6097, 30.86, -4.45194, -70.1926, 2.53317
4.332, 12, -4.46594, 25.7539, 30.7476, -4.53964, -70.3723, 2.58216
4.336, 12, -4.55583, 25.9005, 30.6317, -4.62948, -70.5569, 2.63236
4.34, 12, -4.64627, 26.0493, 30.5124, -4.72115, -70.7459, 2.68359
4.344, 12, -4.737, 26.2, 30.39, -4.81428, -70.9384, 2.73566
4.348, 12, -4.82781, 26.3523, 30.265, -4.90846, -71.1337, 2.78834
4.352, 12, -4.91855, 26.5057, 30.1378, -5.0032, -71.3308, 2.84136
4.356, 12, -5.00919, 26.6601, 30.0091, -5.09804, -71.5287, 2.89447
4.36, 12, -5.09975, 26.8152, 29.8792, -5.19246, -71.7262, 2.94739
4.364, 12, -5.19024, 26.9706, 29.7488, -5.28599, -71.9225, 2.99985
4.368, 12, -5.28053, 27.1257, 29.6186, -5.37817, -72.1165, 3.05161
4.372, 12, -5.37035, 27.28, 29.4889, -5.46858, -72.3073, 3.10244
4.376, 12, -5.45933, 27.4327, 29.3606, -5.55686, -72.4941, 3.15212
4.38, 12, -5.54717, 27.5833, 29.2339, -5.64269, -72.6763, 3.20049
4.384, 12, -5.63378, 27.7317, 29.1093, -5.72582, -72.8531, 3.24739
4.388, 12, -5.71923, 27.8778, 28.9871, -5.80604, -73.0243, 3.29273
4.392, 12, -5.80371, 28.0218, 28.8674, -5.88325, -73.1894, 3.33643
4.396, 13, -5.88743, 28.1638, 28.7503, -5.95743, -73.3484, 3.37849
4.4, 13, -5.97065, 28.3042, 28.6355, -6.02867, -73.5015, 3.41896
4.404, 13, -6.05358, 28.443, 28.523, -6.09718, -73.6491, 3.45795
4.408, 13, -6.13628, 28.5806, 28.4125, -6.16324, -73.7918, 3.49562
4.412, 13, -6.21872, 28.7171, 28.3036, -6.22723, -73.9303, 3.53219
4.416, 13, -6.30088, 28.8528, 28.1957, -6.2896, -74.0656, 3.56791
4.42, 13, -6.38283, 28.9882, 28.0883, -6.35082, -74.1988, 3.60305
4.424, 13, -6.46465, 29.1238, 27.9806, -6.4114, -74.3309, 3.63789
4.428, 13, -6.54638, 29.2599, 27.8719, -6.47184, -74.4631, 3.67273
4.432, 13, -6.62798, 29.397, 27.7616, -6.53265, -74.5964, 3.70786
4.436, 13, -6.70934, 29.535, 27.6489, -6.5943, -74.7319, 3.74355
4.44, 13, -6.79043, 29.674, 27.5333, -6.65721, -74.8705, 3.78005
4.444, 13, -6.87126, 29.8144, 27.4144, -6.72172, -75.013, 3.81757
4.448, 13, -6.95189, 29.9562, 27.2919, -6.78807, -75.16, 3.85623
4.452, 13, -7.03248, 30.0998, 27.1653, -6.85638, -75.3117, 3.89612
4.456, 13, -7.11326, 30.2455, 27.0345, -6.92665, -75.4682, 3.93727
4.46, 13, -7.19448, 30.3936, 26.8994, -6.9988, -75.6292, 3.97962
4.464, 13, -7.2762, 30.5441, 26.7602, -7.07265, -75.7945, 4.02309
4.468, 13, -7.35831, 30.6969, 26.6171, -7.14795, -75.9634, 4.06755
4.472, 13, -7.4406, 30.8515, 26.4705, -7.22442, -76.1354, 4.11283
4.476, 13, -7.52287, 31.0077, 26.321, -7.30171, -76.3097, 4.15875
4.48, 13, -7.60502, 31.1652, 26.169, -7.37946, -76.4855, 4.2051
4.484, 13, -7.68705, 31.3235, 26.0152, -7.45728, -76.6618, 4.25165
4.488, 13, -7.76901, 31.4825, 25.8602, -7.53477, -76.8378, 4.29818
4.492, 13, -7.85092, 31.6417, 25.7047, -7.61155, -77.0127, 4.34445
4.496, 13, -7.93268, 31.8007, 25.5493, -7.68725, -77.1855, 4.39026
4.5, 13, -8.01404, 31.9588, 25.3949, -7.76155, -77.3556, 4.43539
4.504, 13, -8.09467, 32.1152, 25.242, -7.83414, -77.5221, 4.47967
4.508, 13, -8.1743, 32.2696, 25.0913, -7.90476, -77.6845, 4.52292
4.512, 13, -8.25287, 32.4216, 24.9431, -7.97319, -77.8422, 4.56502
4.516, 13, -8.33047, 32.5712, 24.7978, -8.03927, -77.9948, 4.60584
4.52, 13, -8.40728, 32.7187, 24.6556, -8.10289, -78.1421, 4.64533
4.524, 14, -8.48353, 32.8641, 24.5165, -8.16404, -78.2839, 4.68345
4.528, 14, -8.55943, 33.0078, 24.3805, -8.22276, -78.4204, 4.72023
4.532, 14, -8.63518, 33.1499, 24.2473, -8.27921, -78.5519, 4.75576
4.536, 14, -8.71082, 33.2907, 24.1167, -8.33362, -78.679, 4.79018
4.54, 14, -8.7863, 33.4303, 23.9881, -8.38629, -78.8021, 4.82366
4.544, 14, -8.86158, 33.569, 23.8611, -8.43756, -78.9223, 4.85642
4.548, 14, -8.93668, 33.7071, 23.7348, -8.48781, -79.0404, 4.88869
4.552, 14, -9.01164, 33.8453, 23.6085, -8.53744, -79.1573, 4.92074
4.556, 14, -9.08648, 33.984, 23.4812, -8.58687, -79.274, 4.95282
4.56, 14, -9.1611, 34.1233, 23.3522, -8.63649, -79.3914, 4.98519
4.564, 14, -9.23541, 34.2636, 23.2207, -8.68669, -79.5105, 5.01812
4.568, 14, -9.30933, 34.4049, 23.0861, -8.73782, -79.632, 5.05182
4.572, 14, -9.38286, 34.5474, 22.9479, -8.79014, -79.7568, 5.08649
4.576, 14, -9.45607, 34.6915, 22.8054, -8.84385, -79.8852, 5.12228
4.58, 14, -9.52911, 34.8374, 22.6584, -8.89908, -80.0175, 5.15925
4.584, 14, -9.6022, 34.9855, 22.5066, -8.95583, -80.1538, 5.19746
4.588, 14, -9.67556, 35.136, 22.35, -9.01406, -80.294, 5.23688
4.592, 14, -9.74929, 35.2892, 22.1886, -9.07363, -80.4378, 5.27745
4.596, 14, -9.8233, 35.4447, 22.0227, -9.13436, -80.5848, 5.31906
4.6, 14, -9.89739, 35.6022, 21.8527, -9.19604, -80.7344, 5.36158
4.604, 14, -9.97138, 35.7614, 21.6791, -9.2584, -80.8861, 5.40484
4.608, 14, -10.0452, 35.9219, 21.5027, -9.32116, -81.0391, 5.44867
4.612, 14, -10.1188, 36.0832, 21.3241, -9.38402, -81.1928, 5.49286
4.616, 14, -10.1924, 36.2453, 21.1439, -9.44667, -81.3463, 5.53721
4.62, 14, -10.2659, 36.4077, 20.9631, -9.5088, -81.499, 5.58151
4.624, 14, -10.3393, 36.5699, 20.7823, -9.57012, -81.65, 5.62554
4.628, 14, -10.4125, 36.7313, 20.6024, -9.63036, -81.7988, 5.66911
4.632, 14, -10.4851, 36.8913, 20.4241, -9.68927, -81.9446, 5.71203
4.636, 14, -10.5568, 37.0492, 20.2482, -9.74663, -82.0869, 5.75413
4.64, 14, -10.6277, 37.2048, 20.0753, -9.80226, -82.2253, 5.79526
4.644, 14, -10.6978, 37.3581, 19.9056, -9.856, -82.3593, 5.8353
4.648, 14, -10.7672, 37.5091, 19.7397, -9.90776, -82.4886, 5.87415
4.652, 15, -10.8362, 37.658, 19.5774, -9.95748, -82.6132, 5.91176
4.656, 15, -10.905, 37.8051, 19.4188, -10.0052, -82.7329, 5.94814
4.66, 15, -10.9738, 37.9505, 19.2638, -10.051, -82.8482, 5.98335
4.664, 15, -11.0425, 38.0945, 19.112, -10.0951, -82.9593, 6.01749
4.668, 15, -11.1111, 38.2371, 18.963, -10.1376, -83.0668, 6.05073
4.672, 15, -11.1797, 38.3785, 18.816, -10.1789, -83.1715, 6.08326
4.676, 15, -11.2482, 38.5192, 18.6704, -10.2192, -83.2739, 6.11529
4.68, 15, -11.3166, 38.6597, 18.5252, -10.2589, -83.3749, 6.14707
4.684, 15, -11.3849, 38.8003, 18.3794, -10.2983, -83.4753, 6.17885
4.688, 15, -11.4529, 38.9414, 18.2321, -10.3376, -83.5759, 6.21089
4.692, 15, -11.5204, 39.0831, 18.0825, -10.3772, -83.6775, 6.24342
4.696, 15, -11.5871, 39.2254, 17.9298, -10.4173, -83.7809, 6.27669
4.7, 15, -11.6531, 39.3684, 17.7735, -10.4583, -83.8866, 6.31088
4.704, 15, -11.7181, 39.5123, 17.613, -10.5001, -83.995, 6.34613
4.708, 15, -11.7823, 39.6573, 17.448, -10.543, -84.1063, 6.38252
4.712, 15, -11.8459, 39.8036, 17.2783, -10.5869, -84.2206, 6.42007
4.716, 15, -11.909, 39.9516, 17.104, -10.6317, -84.3377, 6.45876
4.72, 15, -11.9718, 40.1013, 16.9251, -10.6773, -84.4572, 6.49848
4.724, 15, -12.0343, 40.2526, 16.7421, -10.7236, -84.5788, 6.53912
4.728, 15, -12.0964, 40.4051, 16.5556, -10.7703, -84.7019, 6.58051
4.732, 15, -12.1581, 40.5586, 16.3663, -10.8173, -84.8259, 6.62247
4.736, 15, -12.2193, 40.7125, 16.1751, -10.8642, -84.9502, 6.66481
4.74, 15, -12.2803, 40.8665, 15.9829, -10.9108, -85.0741, 6.70729
4.744, 15, -12.341, 41.0204, 15.7905, -10.9569, -85.197, 6.74969
4.748, 15, -12.4016, 41.1737, 15.5989, -11.0023, -85.3182, 6.79179
4.752, 15, -12.462, 41.326, 15.4089, -11.0466, -85.437, 6.83337
4.756, 15, -12.522, 41.4765, 15.2215, -11.0898, -85.553, 6.87423
4.76, 15, -12.5812, 41.6247, 15.0375, -11.1315, -85.6656, 6.91419
4.764, 15, -12.6393, 41.7697, 14.8577, -11.1718, -85.7745, 6.95307
4.768, 15, -12.696, 41.9109, 14.6829, -11.2105, -85.8792, 6.99075
4.772, 15, -12.7509, 42.0477, 14.5138, -11.2474, -85.9796, 7.02708
4.776, 15, -12.8039, 42.1795, 14.3509, -11.2825, -86.0753, 7.06197
4.78, 15, -12.8549, 42.3061, 14.1946, -11.3158, -86.1662, 7.09532
4.784, 15, -12.9036, 42.4271, 14.0455, -11.3472, -86.2522, 7.12705
4.788, 15, -12.95, 42.5421, 13.9038, -11.3767, -86.3332, 7.15711
4.792, 15, -12.994, 42.6511, 13.7699, -11.4043, -86.409, 7.18544
4.796, 15, -13.0354, 42.7536, 13.644, -11.43, -86.4798, 7.21201
4.8, 15, -13.0743, 42.8498, 13.5262, -11.4538, -86.5455, 7.23679
4.804, 15, -13.1107, 42.9395, 13.4166, -11.4757, -86.6061, 7.25977
4.808, 15, -13.1447, 43.0228, 13.3152, -11.4957, -86.6617, 7.28096
4.812, 15, -13.1762, 43.0997, 13.222, -11.514, -86.7124, 7.30036
4.816, 15, -13.2053, 43.1704, 13.137, -11.5305, -86.7583, 7.318
4.82, 15, -13.232, 43.235, 13.0598, -11.5453, -86.7996, 7.33393
4.824, 15, -13.2565, 43.2935, 12.9905, -11.5585, -86.8363, 7.34818
4.828, 15, -13.2789, 43.3463, 12.9286, -11.5701, -86.8689, 7.36082
4.832, 15, -13.2991, 43.3937, 12.8738, -11.5803, -86.8973, 7.37192
4.836, 15, -13.3175, 43.436, 12.8258, -11.5891, -86.9219, 7.38156
4.84, 15, -13.3342, 43.4736, 12.784, -11.5967, -86.943, 7.38985
4.844, 15, -13.3492, 43.5067, 12.7482, -11.603, -86.9608, 7.39688
4.848, 15, -13.3627, 43.5356, 12.7176, -11.6083, -86.9756, 7.40277
4.852, 15, -13.3746, 43.5607, 12.692, -11.6127, -86.9878, 7.40764
4.856, 15, -13.3851, 43.5821, 12.6707, -11.6163, -86.9977, 7.4116
4.86, 15, -13.3942, 43.6002, 12.6533, -11.6191, -87.0056, 7.41478
4.864, 15, -13.4021, 43.6155, 12.6393, -11.6213, -87.0118, 7.41729
4.868, 15, -13.409, 43.6283, 12.6282, -11.623, -87.0166, 7.41924
4.872, 15, -13.415, 43.6392, 12.6194, -11.6243, -87.0202, 7.42071
4.876, 15, -13.4202, 43.6482, 12.6126, -11.6253, -87.0229, 7.42181
4.88, 15, -13.4247, 43.6558, 12.6075, -11.626, -87.0248, 7.42261
4.884, 15, -13.4285, 43.6619, 12.6037, -11.6265, -87.0261, 7.42317
4.888, 16, -13.4315, 43.6667, 12.6009, -11.6268, -87.027, 7.42357
4.892, 16, -13.4338, 43.6704, 12.5989, -11.627, -87.0277, 7.42384
4.896, 16, -13.4356, 43.673, 12.5975, -11.6272, -87.0281, 7.42402
4.9, 16, -13.4368, 43.6748, 12.5966, -11.6273, -87.0284, 7.42415
4.904, 16, -13.4376, 43.6761, 12.596, -11.6274, -87.0286, 7.42423
4.908, 16, -13.4381, 43.6769, 12.5955, -11.6274, -87.0287, 7.42429
4.912, 16, -13.4385, 43.6775, 12.5952, -11.6274, -87.0288, 7.42433
4.916, 16, -13.4388, 43.6778, 12.595, -11.6275, -87.0289, 7.42436
4.92, 16, -13.4389, 43.6781, 12.5949, -11.6275, -87.0289, 7.42437
4.924, 16, -13.4391, 43.6783, 12.5948, -11.6275, -87.0289, 7.42439
4.928, 16, -13.4391, 43.6784, 12.5947, -11.6275, -87.0289, 7.42439
4.932, 16, -13.4392, 43.6785, 12.5947, -11.6275, -87.029, 7.4244
4.936, 16, -13.4392, 43.6785, 12.5947, -11.6275, -87.029, 7.4244
4.94, 16, -13.4392, 43.6786, 12.5946, -11.6275, -87.029, 7.42441
4.944, 16, -13.4393, 43.6786, 12.5946, -11.6275, -87.029, 7.42441
4.948, 16, -13.4393, 43.6786, 12.5946, -11.6275, -87.029, 7.42441
4.952, 16, -13.4393, 43.6786, 12.5946, -11.6275, -87.029, 7.42441
4.956, 16, -13.4393, 43.6786, 12.5946, -11.6275, -87.029, 7.42441
4.96, 16, -13.4393, 43.6786, 12.5946, -11.6275, -87.029, 7.42441
4.964, 16, -13.4393, 43.6786, 12.5946, -11.6275, -87.029, 7.42441
4.968, 16, -13.4393, 43.6787, 12.5946, -11.6275, -87.029, 7.42441
4.972, 16, -13.4393, 43.6787, 12.5946, -11.6275, -87.029, 7.42441
4.976, 16, -13.4393, 43.6787, 12.5946, -11.6275, -87.029, 7.42441
4.98, 16, -13.4393, 43.6787, 12.5946, -11.6275, -87.029, 7.42441
4.984, 16, -13.4393, 43.6787, 12.5946, -11.6275, -87.029, 7.42441
4.988, 16, -13.4393, 43.6787, 12.5946, -11.6275, -87.029, 7.42441
4.992, 16, -13.4393, 43.6787, 12.5946, -11.6275, -87.029, 7.42441
4.996, 16, -13.4393, 43.6787, 12.5946, -11.6275, -87.029, 7.42441
5, 16, -13.4393, 43.6787, 12.5946, -11.6275, -87.029, 7.42441
5.004, 16, -13.4393, 43.6787, 12.5946, -11.6275, -87.029, 7.42441
