hehonglu123/ABB_Primitive_Study/execution/movelll_30_car/curve_exe_v500_z10.csv
timestamp, cmd_num, J1, J2, J3, J4, J5, J6
0, -1, -13.4393, 43.6787, 12.5946, -11.6275, -87.029, 7.42441
0.003, -1, -13.4393, 43.6787, 12.5946, -11.6275, -87.029, 7.42441
0.006, -1, -13.4393, 43.6787, 12.5946, -11.6275, -87.029, 7.42441
0.008, -1, -13.4393, 43.6787, 12.5946, -11.6275, -87.029, 7.42441
0.011, -1, -13.4393, 43.6787, 12.5946, -11.6275, -87.029, 7.42441
0.016, -1, -13.4393, 43.6787, 12.5946, -11.6275, -87.029, 7.42441
0.02, -1, -13.4393, 43.6787, 12.5946, -11.6275, -87.029, 7.42441
0.024, -1, -13.4393, 43.6787, 12.5946, -11.6275, -87.029, 7.42441
0.028, -1, -13.4393, 43.6787, 12.5946, -11.6275, -87.029, 7.42441
0.032, -1, -13.4393, 43.6787, 12.5946, -11.6275, -87.029, 7.42441
0.036, -1, -13.4392, 43.6786, 12.5946, -11.6275, -87.029, 7.42441
0.04, -1, -13.439, 43.6785, 12.5946, -11.6275, -87.029, 7.42441
0.044, -1, -13.4384, 43.678, 12.5947, -11.6275, -87.029, 7.42439
0.048, -1, -13.4372, 43.6772, 12.5949, -11.6274, -87.0289, 7.42434
0.052, -1, -13.4355, 43.6758, 12.5951, -11.6273, -87.0287, 7.42422
0.056, -1, -13.433, 43.6738, 12.5955, -11.627, -87.0284, 7.42397
0.06, -1, -13.4296, 43.671, 12.5961, -11.6264, -87.0277, 7.42349
0.064, -1, -13.4254, 43.6675, 12.5969, -11.6253, -87.0264, 7.42266
0.068, -1, -13.4203, 43.6631, 12.598, -11.6236, -87.0244, 7.42132
0.072, -1, -13.4141, 43.6579, 12.5994, -11.6209, -87.0213, 7.41928
0.076, -1, -13.4066, 43.6516, 12.6011, -11.617, -87.0167, 7.4163
0.08, -1, -13.3977, 43.6442, 12.6034, -11.6115, -87.0103, 7.41213
0.084, -1, -13.3869, 43.6352, 12.6062, -11.604, -87.0016, 7.40644
0.088, -1, -13.3743, 43.6247, 12.6097, -11.5941, -86.9899, 7.39892
0.092, -1, -13.3596, 43.6124, 12.6138, -11.5812, -86.9748, 7.38918
0.096, -1, -13.3427, 43.5982, 12.6186, -11.5648, -86.9557, 7.37685
0.1, -1, -13.3235, 43.582, 12.6243, -11.5444, -86.9319, 7.36155
0.104, -1, -13.3019, 43.5636, 12.6308, -11.5196, -86.9029, 7.3429
0.108, -1, -13.2776, 43.5427, 12.6382, -11.4899, -86.868, 7.32054
0.112, -1, -13.2505, 43.5193, 12.6467, -11.4547, -86.8269, 7.29416
0.116, -1, -13.2206, 43.4932, 12.6562, -11.4137, -86.7789, 7.26346
0.12, -1, -13.1877, 43.4644, 12.6669, -11.3667, -86.7238, 7.22818
0.124, -1, -13.1519, 43.4328, 12.6786, -11.3132, -86.6612, 7.18814
0.128, -1, -13.113, 43.3984, 12.6916, -11.2532, -86.591, 7.14319
0.131, -1, -13.071, 43.3611, 12.7056, -11.1865, -86.5129, 7.09326
0.136, -1, -13.026, 43.321, 12.7209, -11.1131, -86.4269, 7.03835
0.139, -1, -12.9779, 43.2779, 12.7373, -11.0331, -86.3333, 6.9785
0.144, -1, -12.9267, 43.232, 12.7548, -10.9467, -86.2321, 6.91384
0.148, -1, -12.8726, 43.1833, 12.7734, -10.854, -86.1236, 6.84454
0.152, -1, -12.8155, 43.132, 12.7932, -10.7555, -86.0082, 6.77084
0.156, -1, -12.7557, 43.0781, 12.8139, -10.6514, -85.8863, 6.69301
0.16, -1, -12.6932, 43.0219, 12.8355, -10.5422, -85.7585, 6.61137
0.164, -1, -12.6282, 42.9633, 12.8581, -10.4284, -85.6253, 6.52627
0.168, -1, -12.5607, 42.9025, 12.8815, -10.3105, -85.4872, 6.43809
0.172, -1, -12.4909, 42.8396, 12.9056, -10.189, -85.3449, 6.34721
0.176, -1, -12.4189, 42.7749, 12.9305, -10.0644, -85.1989, 6.25399
0.18, -1, -12.345, 42.7085, 12.956, -9.93711, -85.0499, 6.15879
0.184, -1, -12.2694, 42.6406, 12.9821, -9.80765, -84.8983, 6.06194
0.188, -1, -12.1925, 42.5714, 13.0086, -9.6764, -84.7446, 5.96375
0.192, -1, -12.1142, 42.5011, 13.0356, -9.54373, -84.5892, 5.86449
0.196, -1, -12.0348, 42.4297, 13.0629, -9.40995, -84.4326, 5.76439
0.2, -1, -11.9542, 42.3573, 13.0906, -9.27534, -84.2749, 5.66366
0.204, -1, -11.8724, 42.2841, 13.1185, -9.14011, -84.1166, 5.56246
0.208, -1, -11.7897, 42.21, 13.1466, -9.00443, -83.9577, 5.46092
0.212, -1, -11.7061, 42.1354, 13.1749, -8.86843, -83.7985, 5.35913
0.216, -1, -11.6218, 42.0602, 13.2033, -8.7322, -83.6389, 5.25717
0.22, -1, -11.5371, 41.9847, 13.2318, -8.5958, -83.4792, 5.15507
0.224, -1, -11.452, 41.909, 13.2603, -8.45928, -83.3194, 5.05288
0.228, -1, -11.3667, 41.8332, 13.2889, -8.32266, -83.1594, 4.95062
0.232, -1, -11.2813, 41.7572, 13.3176, -8.18597, -82.9993, 4.8483
0.236, -1, -11.1957, 41.6811, 13.3462, -8.04922, -82.8392, 4.74595
0.24, -1, -11.11, 41.605, 13.3749, -7.91243, -82.679, 4.64355
0.244, -1, -11.0243, 41.5288, 13.4035, -7.77561, -82.5188, 4.54114
0.248, -1, -10.9386, 41.4526, 13.4322, -7.63876, -82.3586, 4.4387
0.252, -1, -10.8528, 41.3764, 13.4609, -7.50189, -82.1983, 4.33625
0.256, -1, -10.767, 41.3002, 13.4896, -7.36501, -82.0381, 4.2338
0.26, -1, -10.6811, 41.2239, 13.5183, -7.22813, -81.8778, 4.13133
0.264, -1, -10.5953, 41.1477, 13.547, -7.09125, -81.7175, 4.02887
0.268, -1, -10.5094, 41.0714, 13.5757, -6.95436, -81.5572, 3.92641
0.272, -1, -10.4236, 40.9952, 13.6044, -6.81749, -81.397, 3.82396
0.276, -1, -10.3378, 40.9189, 13.6331, -6.68063, -81.2367, 3.72151
0.28, -1, -10.252, 40.8427, 13.6618, -6.54379, -81.0765, 3.61908
0.284, -1, -10.1661, 40.7665, 13.6904, -6.40697, -80.9163, 3.51666
0.288, -1, -10.0803, 40.6903, 13.7191, -6.27017, -80.7561, 3.41427
0.292, -1, -9.99456, 40.6141, 13.7478, -6.13341, -80.596, 3.31189
0.296, -1, -9.9088, 40.538, 13.7764, -5.99668, -80.4359, 3.20955
0.3, -1, -9.82306, 40.4618, 13.8051, -5.85999, -80.2758, 3.10723
0.304, -1, -9.73734, 40.3857, 13.8337, -5.72334, -80.1158, 3.00494
0.308, -1, -9.65166, 40.3096, 13.8624, -5.58674, -79.9558, 2.90269
0.312, -1, -9.566, 40.2336, 13.891, -5.45019, -79.796, 2.80048
0.316, -1, -9.48038, 40.1575, 13.9196, -5.31369, -79.6361, 2.69831
0.32, -1, -9.3948, 40.0815, 13.9482, -5.17726, -79.4764, 2.59618
0.324, -1, -9.30925, 40.0055, 13.9768, -5.04089, -79.3167, 2.4941
0.328, -1, -9.22375, 39.9296, 14.0054, -4.90458, -79.1571, 2.39207
0.332, -1, -9.13829, 39.8537, 14.0339, -4.76835, -78.9976, 2.2901
0.336, -1, -9.05287, 39.7778, 14.0625, -4.63219, -78.8382, 2.18818
0.34, -1, -8.9675, 39.702, 14.091, -4.49612, -78.6788, 2.08632
0.344, -1, -8.88219, 39.6262, 14.1195, -4.36012, -78.5196, 1.98452
0.348, -1, -8.79692, 39.5505, 14.148, -4.22421, -78.3604, 1.88279
0.352, -1, -8.71172, 39.4748, 14.1765, -4.0884, -78.2014, 1.78113
0.356, -1, -8.62657, 39.3992, 14.2049, -3.95267, -78.0425, 1.67953
0.36, -1, -8.54148, 39.3236, 14.2334, -3.81705, -77.8837, 1.57801
0.364, -1, -8.45646, 39.2481, 14.2618, -3.68152, -77.725, 1.47657
0.368, -1, -8.3715, 39.1727, 14.2902, -3.54611, -77.5664, 1.3752
0.372, -1, -8.28661, 39.0973, 14.3185, -3.4108, -77.408, 1.27392
0.376, -1, -8.20179, 39.0219, 14.3469, -3.2756, -77.2497, 1.17272
0.38, -1, -8.11704, 38.9467, 14.3752, -3.14052, -77.0915, 1.07161
0.384, -1, -8.03237, 38.8715, 14.4035, -3.00557, -76.9335, 0.970588
0.388, -1, -7.94777, 38.7963, 14.4318, -2.87073, -76.7756, 0.869659
0.392, -1, -7.86325, 38.7212, 14.46, -2.73602, -76.6179, 0.768825
0.396, -1, -7.77881, 38.6463, 14.4882, -2.60145, -76.4603, 0.668089
0.4, -1, -7.69446, 38.5713, 14.5164, -2.467, -76.3029, 0.567454
0.404, -1, -7.61019, 38.4965, 14.5446, -2.3327, -76.1456, 0.466921
0.408, -1, -7.526, 38.4217, 14.5727, -2.19854, -75.9885, 0.366494
0.412, -1, -7.44191, 38.347, 14.6008, -2.06452, -75.8316, 0.266176
0.416, -1, -7.35791, 38.2724, 14.6288, -1.93064, -75.6748, 0.165968
0.42, -1, -7.274, 38.1979, 14.6569, -1.79692, -75.5183, 0.0658724
0.424, -1, -7.19019, 38.1235, 14.6849, -1.66336, -75.3619, -0.0341072
0.428, -1, -7.10648, 38.0491, 14.7128, -1.52995, -75.2057, -0.133969
0.432, -1, -7.02287, 37.9748, 14.7408, -1.3967, -75.0496, -0.233711
0.436, -1, -6.93935, 37.9007, 14.7687, -1.26362, -74.8938, -0.33333
0.44, -1, -6.85595, 37.8266, 14.7965, -1.1307, -74.7382, -0.432824
0.444, -1, -6.77264, 37.7526, 14.8244, -0.99795, -74.5827, -0.532191
0.448, -1, -6.68945, 37.6787, 14.8522, -0.865375, -74.4275, -0.631429
0.452, -1, -6.60636, 37.6049, 14.8799, -0.732975, -74.2725, -0.730535
0.456, -1, -6.52339, 37.5312, 14.9077, -0.600755, -74.1176, -0.829507
0.46, -1, -6.44053, 37.4576, 14.9353, -0.468716, -73.963, -0.928344
0.464, -1, -6.35778, 37.3842, 14.963, -0.336861, -73.8086, -1.02704
0.468, -1, -6.27515, 37.3108, 14.9906, -0.205193, -73.6545, -1.1256
0.472, -1, -6.19264, 37.2375, 15.0181, -0.0737153, -73.5005, -1.22402
0.476, -1, -6.11024, 37.1643, 15.0457, 0.0575699, -73.3468, -1.32229
0.48, -1, -6.02797, 37.0912, 15.0732, 0.18866, -73.1933, -1.42042
0.484, -1, -5.94582, 37.0183, 15.1006, 0.319552, -73.04, -1.51839
0.488, -1, -5.8638, 36.9454, 15.128, 0.450244, -72.887, -1.61622
0.492, -1, -5.7819, 36.8727, 15.1554, 0.580734, -72.7342, -1.7139
0.496, -1, -5.70012, 36.8001, 15.1827, 0.711018, -72.5817, -1.81142
0.5, -1, -5.61848, 36.7276, 15.2099, 0.841096, -72.4294, -1.90879
0.504, -1, -5.53697, 36.6552, 15.2372, 0.970964, -72.2773, -2.006
0.508, -1, -5.45558, 36.5829, 15.2644, 1.10062, -72.1255, -2.10306
0.512, -1, -5.37433, 36.5108, 15.2915, 1.23006, -71.9739, -2.19995
0.516, -1, -5.29321, 36.4387, 15.3186, 1.35929, -71.8226, -2.29668
0.52, -1, -5.21223, 36.3668, 15.3456, 1.4883, -71.6715, -2.39325
0.524, -1, -5.13138, 36.295, 15.3726, 1.6171, -71.5207, -2.48966
0.528, -1, -5.05067, 36.2233, 15.3996, 1.74567, -71.3702, -2.5859
0.532, -1, -4.97009, 36.1518, 15.4265, 1.87402, -71.2199, -2.68198
0.536, -1, -4.88966, 36.0803, 15.4534, 2.00215, -71.0698, -2.77789
0.54, -1, -4.80936, 36.009, 15.4802, 2.13005, -70.9201, -2.87363
0.544, -1, -4.7292, 35.9378, 15.507, 2.25773, -70.7706, -2.9692
0.548, -1, -4.64919, 35.8668, 15.5337, 2.38518, -70.6213, -3.0646
0.552, -1, -4.56931, 35.7959, 15.5604, 2.51241, -70.4724, -3.15984
0.556, -1, -4.48958, 35.725, 15.587, 2.6394, -70.3237, -3.2549
0.56, -1, -4.41, 35.6544, 15.6136, 2.76617, -70.1752, -3.34979
0.564, -1, -4.33056, 35.5838, 15.6401, 2.8927, -70.0271, -3.44451
0.568, -1, -4.25126, 35.5134, 15.6666, 3.01901, -69.8792, -3.53905
0.572, -1, -4.17211, 35.4431, 15.693, 3.14508, -69.7316, -3.63342
0.576, -1, -4.0931, 35.373, 15.7194, 3.27092, -69.5842, -3.72761
0.58, -1, -4.01424, 35.3029, 15.7458, 3.39652, -69.4372, -3.82163
0.584, -1, -3.93553, 35.233, 15.772, 3.52189, -69.2904, -3.91547
0.588, -1, -3.85696, 35.1633, 15.7983, 3.64702, -69.1438, -4.00914
0.592, -1, -3.77855, 35.0936, 15.8245, 3.77191, -68.9976, -4.10263
0.596, -1, -3.70028, 35.0241, 15.8506, 3.89657, -68.8516, -4.19594
0.6, -1, -3.62216, 34.9548, 15.8767, 4.02099, -68.7059, -4.28908
0.604, -1, -3.54419, 34.8855, 15.9027, 4.14517, -68.5605, -4.38203
0.608, -1, -3.46637, 34.8164, 15.9287, 4.26911, -68.4154, -4.47481
0.612, -1, -3.3887, 34.7474, 15.9547, 4.39281, -68.2706, -4.5674
0.616, -1, -3.31118, 34.6786, 15.9806, 4.51628, -68.126, -4.65982
0.62, -1, -3.23382, 34.6099, 16.0064, 4.63949, -67.9817, -4.75205
0.624, -1, -3.1566, 34.5413, 16.0322, 4.76247, -67.8377, -4.84411
0.628, -1, -3.07954, 34.4729, 16.0579, 4.88521, -67.694, -4.93598
0.632, -1, -3.00262, 34.4046, 16.0836, 5.0077, -67.5506, -5.02767
0.636, -1, -2.92586, 34.3364, 16.1092, 5.12995, -67.4074, -5.11918
0.64, -1, -2.84926, 34.2684, 16.1348, 5.25195, -67.2646, -5.2105
0.644, -1, -2.7728, 34.2005, 16.1604, 5.37371, -67.122, -5.30165
0.648, -1, -2.6965, 34.1328, 16.1858, 5.49523, -66.9797, -5.39261
0.652, -1, -2.62035, 34.0652, 16.2113, 5.6165, -66.8377, -5.48338
0.656, -1, -2.54436, 33.9977, 16.2366, 5.73753, -66.696, -5.57398
0.66, -1, -2.46852, 33.9303, 16.262, 5.85831, -66.5546, -5.66439
0.664, -1, -2.39283, 33.8631, 16.2872, 5.97884, -66.4135, -5.75461
0.668, -1, -2.3173, 33.7961, 16.3125, 6.09913, -66.2726, -5.84465
0.672, -1, -2.24192, 33.7291, 16.3376, 6.21917, -66.1321, -5.93451
0.676, -1, -2.1667, 33.6623, 16.3628, 6.33897, -65.9918, -6.02418
0.68, -1, -2.09163, 33.5957, 16.3878, 6.45851, -65.8518, -6.11367
0.684, -1, -2.01672, 33.5292, 16.4129, 6.57781, -65.7121, -6.20297
0.688, -1, -1.94196, 33.4628, 16.4378, 6.69687, -65.5727, -6.29208
0.692, -1, -1.86736, 33.3965, 16.4627, 6.81567, -65.4336, -6.38101
0.696, -1, -1.79291, 33.3304, 16.4876, 6.93423, -65.2948, -6.46976
0.7, -1, -1.71862, 33.2645, 16.5124, 7.05254, -65.1562, -6.55832
0.704, -1, -1.64448, 33.1986, 16.5372, 7.1706, -65.018, -6.64669
0.708, -1, -1.5705, 33.1329, 16.5619, 7.28841, -64.8801, -6.73488
0.712, -1, -1.49668, 33.0674, 16.5865, 7.40597, -64.7424, -6.82288
0.716, -1, -1.42301, 33.002, 16.6111, 7.52329, -64.605, -6.9107
0.72, -1, -1.34949, 32.9367, 16.6357, 7.64036, -64.468, -6.99833
0.724, -1, -1.27614, 32.8715, 16.6602, 7.75718, -64.3312, -7.08577
0.728, -1, -1.20293, 32.8065, 16.6846, 7.87375, -64.1947, -7.17303
0.732, -1, -1.12989, 32.7417, 16.709, 7.99007, -64.0585, -7.2601
0.736, -1, -1.057, 32.677, 16.7333, 8.10615, -63.9226, -7.34699
0.74, -1, -0.984259, 32.6124, 16.7576, 8.22197, -63.7869, -7.43369
0.744, -1, -0.911678, 32.5479, 16.7819, 8.33755, -63.6516, -7.52021
0.748, -1, -0.839252, 32.4836, 16.8061, 8.45288, -63.5166, -7.60653
0.752, -1, -0.766981, 32.4194, 16.8302, 8.56796, -63.3818, -7.69268
0.756, -1, -0.694864, 32.3554, 16.8543, 8.6828, -63.2474, -7.77864
0.76, -1, -0.622901, 32.2915, 16.8783, 8.79738, -63.1132, -7.86441
0.764, -1, -0.551092, 32.2277, 16.9023, 8.91172, -62.9793, -7.95
0.768, -1, -0.479437, 32.1641, 16.9262, 9.02582, -62.8457, -8.0354
0.772, -1, -0.407935, 32.1006, 16.9501, 9.13966, -62.7124, -8.12062
0.776, -1, -0.336586, 32.0373, 16.9739, 9.25326, -62.5794, -8.20566
0.78, -1, -0.26539, 31.9741, 16.9977, 9.36662, -62.4467, -8.29051
0.784, -1, -0.194346, 31.911, 17.0214, 9.47973, -62.3142, -8.37518
0.788, -1, -0.123455, 31.848, 17.0451, 9.5926, -62.182, -8.45966
0.792, -1, -0.0527154, 31.7852, 17.0687, 9.70522, -62.0502, -8.54397
0.796, -1, 0.0178725, 31.7226, 17.0923, 9.81761, -61.9186, -8.62809
0.8, -1, 0.0883091, 31.66, 17.1158, 9.92975, -61.7873, -8.71204
0.804, -1, 0.158595, 31.5976, 17.1393, 10.0417, -61.6562, -8.7958
0.808, -1, 0.22873, 31.5353, 17.1627, 10.1533, -61.5255, -8.87938
0.812, -1, 0.298716, 31.4732, 17.186, 10.2647, -61.395, -8.96279
0.816, -1, 0.368552, 31.4112, 17.2094, 10.3759, -61.2648, -9.04602
0.82, -1, 0.438239, 31.3493, 17.2326, 10.4869, -61.1349, -9.12907
0.824, -1, 0.507778, 31.2876, 17.2559, 10.5976, -61.0053, -9.21194
0.828, -1, 0.577169, 31.226, 17.279, 10.7081, -60.8759, -9.29464
0.832, -1, 0.646413, 31.1645, 17.3021, 10.8183, -60.7468, -9.37716
0.836, -1, 0.71551, 31.1031, 17.3252, 10.9283, -60.618, -9.45951
0.84, -1, 0.78446, 31.0419, 17.3482, 11.0381, -60.4895, -9.54168
0.844, -1, 0.853266, 30.9808, 17.3712, 11.1476, -60.3612, -9.62368
0.848, -1, 0.921925, 30.9199, 17.3941, 11.2569, -60.2332, -9.7055
0.852, -1, 0.990441, 30.859, 17.417, 11.366, -60.1055, -9.78716
0.856, -1, 1.05881, 30.7983, 17.4398, 11.4749, -59.9781, -9.86864
0.86, -1, 1.12704, 30.7378, 17.4626, 11.5835, -59.8509, -9.94995
0.864, -1, 1.19512, 30.6773, 17.4854, 11.6919, -59.7239, -10.0311
0.868, -1, 1.26307, 30.617, 17.508, 11.8001, -59.5973, -10.1121
0.872, -1, 1.33087, 30.5568, 17.5307, 11.908, -59.4709, -10.1929
0.876, -1, 1.39853, 30.4967, 17.5533, 12.0157, -59.3448, -10.2735
0.88, -1, 1.46604, 30.4368, 17.5758, 12.1232, -59.2189, -10.354
0.884, -1, 1.53342, 30.377, 17.5983, 12.2305, -59.0933, -10.4343
0.888, -1, 1.60066, 30.3173, 17.6208, 12.3375, -58.9679, -10.5144
0.892, -1, 1.66775, 30.2577, 17.6432, 12.4444, -58.8429, -10.5943
0.896, -1, 1.73471, 30.1982, 17.6655, 12.551, -58.718, -10.6741
0.9, -1, 1.80153, 30.1389, 17.6878, 12.6574, -58.5935, -10.7538
0.904, -1, 1.86821, 30.0797, 17.7101, 12.7635, -58.4692, -10.8332
0.908, -1, 1.93476, 30.0206, 17.7323, 12.8695, -58.3451, -10.9125
0.912, -1, 2.00117, 29.9617, 17.7545, 12.9752, -58.2213, -10.9917
0.916, -1, 2.06744, 29.9028, 17.7766, 13.0807, -58.0978, -11.0707
0.92, -1, 2.13357, 29.8441, 17.7987, 13.186, -57.9745, -11.1495
0.924, -1, 2.19957, 29.7855, 17.8207, 13.2911, -57.8514, -11.2281
0.928, -1, 2.26543, 29.727, 17.8427, 13.3959, -57.7287, -11.3066
0.932, -1, 2.33116, 29.6687, 17.8647, 13.5006, -57.6061, -11.385
0.936, -1, 2.39676, 29.6104, 17.8866, 13.605, -57.4838, -11.4631
0.94, -1, 2.46222, 29.5523, 17.9084, 13.7092, -57.3618, -11.5412
0.944, -1, 2.52755, 29.4943, 17.9303, 13.8133, -57.24, -11.619
0.948, -1, 2.59275, 29.4364, 17.952, 13.9171, -57.1185, -11.6967
0.952, -1, 2.65781, 29.3787, 17.9738, 14.0206, -56.9972, -11.7743
0.956, -1, 2.72274, 29.321, 17.9954, 14.124, -56.8761, -11.8516
0.96, -1, 2.78755, 29.2635, 18.0171, 14.2272, -56.7553, -11.9289
0.964, -1, 2.85222, 29.2061, 18.0387, 14.3302, -56.6348, -12.0059
0.968, -1, 2.91676, 29.1488, 18.0602, 14.4329, -56.5144, -12.0829
0.972, -1, 2.98117, 29.0916, 18.0817, 14.5355, -56.3944, -12.1596
0.976, -1, 3.04545, 29.0345, 18.1032, 14.6378, -56.2745, -12.2362
0.98, -1, 3.10961, 28.9775, 18.1246, 14.7399, -56.1549, -12.3127
0.984, -1, 3.17363, 28.9207, 18.146, 14.8419, -56.0356, -12.389
0.988, -1, 3.23753, 28.864, 18.1673, 14.9436, -55.9165, -12.4651
0.992, -1, 3.3013, 28.8074, 18.1886, 15.0451, -55.7976, -12.5411
0.996, -1, 3.36494, 28.7508, 18.2099, 15.1465, -55.6789, -12.617
1, -1, 3.42846, 28.6945, 18.2311, 15.2476, -55.5605, -12.6927
1.004, -1, 3.49185, 28.6382, 18.2523, 15.3485, -55.4423, -12.7682
1.008, -1, 3.55512, 28.582, 18.2734, 15.4492, -55.3244, -12.8436
1.012, -1, 3.61826, 28.5259, 18.2945, 15.5498, -55.2067, -12.9189
1.016, -1, 3.68127, 28.47, 18.3155, 15.6501, -55.0892, -12.994
1.02, -1, 3.74416, 28.4142, 18.3365, 15.7502, -54.972, -13.0689
1.024, -1, 3.80693, 28.3584, 18.3575, 15.8502, -54.855, -13.1437
1.027, -1, 3.86958, 28.3028, 18.3784, 15.9499, -54.7382, -13.2184
1.032, -1, 3.9321, 28.2473, 18.3993, 16.0494, -54.6216, -13.2929
1.036, -1, 3.9945, 28.1919, 18.4201, 16.1488, -54.5053, -13.3673
1.04, -1, 4.05678, 28.1366, 18.4409, 16.2479, -54.3892, -13.4415
1.044, -1, 4.11893, 28.0814, 18.4616, 16.3469, -54.2733, -13.5156
1.048, -1, 4.18097, 28.0263, 18.4824, 16.4457, -54.1577, -13.5895
1.052, -1, 4.24289, 27.9714, 18.503, 16.5442, -54.0422, -13.6633
1.055, -1, 4.30468, 27.9165, 18.5237, 16.6426, -53.927, -13.7369
1.06, -1, 4.36636, 27.8617, 18.5443, 16.7408, -53.8121, -13.8104
1.064, -1, 4.42792, 27.8071, 18.5648, 16.8388, -53.6973, -13.8838
1.068, -1, 4.48936, 27.7525, 18.5853, 16.9366, -53.5828, -13.957
1.072, -1, 4.55068, 27.6981, 18.6058, 17.0343, -53.4685, -14.0301
1.076, -1, 4.61188, 27.6438, 18.6262, 17.1317, -53.3544, -14.103
1.08, -1, 4.67297, 27.5895, 18.6466, 17.229, -53.2405, -14.1758
1.084, -1, 4.73394, 27.5354, 18.667, 17.326, -53.1268, -14.2485
1.088, -1, 4.7948, 27.4814, 18.6873, 17.4229, -53.0134, -14.321
1.091, -1, 4.85554, 27.4274, 18.7076, 17.5196, -52.9002, -14.3934
1.096, -1, 4.91617, 27.3736, 18.7278, 17.6161, -52.7871, -14.4656
1.1, -1, 4.97668, 27.3199, 18.7481, 17.7125, -52.6743, -14.5378
1.104, -1, 5.03708, 27.2663, 18.7682, 17.8086, -52.5618, -14.6097
1.108, -1, 5.09737, 27.2127, 18.7883, 17.9046, -52.4494, -14.6816
1.112, -1, 5.15754, 27.1593, 18.8084, 18.0004, -52.3372, -14.7533
1.116, -1, 5.2176, 27.106, 18.8285, 18.096, -52.2253, -14.8249
1.119, -1, 5.27755, 27.0528, 18.8485, 18.1915, -52.1135, -14.8963
1.124, -1, 5.33739, 26.9996, 18.8685, 18.2867, -52.0019, -14.9676
1.128, -1, 5.39712, 26.9466, 18.8884, 18.3818, -51.8906, -15.0388
1.132, -1, 5.45673, 26.8937, 18.9083, 18.4767, -51.7795, -15.1098
1.136, -1, 5.51624, 26.8408, 18.9282, 18.5715, -51.6685, -15.1807
1.14, -1, 5.57564, 26.7881, 18.948, 18.666, -51.5578, -15.2515
1.144, -1, 5.63493, 26.7355, 18.9678, 18.7604, -51.4473, -15.3222
1.147, -1, 5.69412, 26.6829, 18.9876, 18.8547, -51.337, -15.3927
1.152, -1, 5.75319, 26.6305, 19.0073, 18.9487, -51.2268, -15.4631
1.156, -1, 5.81216, 26.5781, 19.027, 19.0426, -51.1169, -15.5334
1.16, -1, 5.87103, 26.5259, 19.0467, 19.1363, -51.0072, -15.6035
1.164, -1, 5.92979, 26.4737, 19.0663, 19.2298, -50.8976, -15.6736
1.168, -1, 5.98844, 26.4216, 19.0859, 19.3232, -50.7883, -15.7435
1.172, -1, 6.04699, 26.3696, 19.1054, 19.4164, -50.6792, -15.8132
1.175, -1, 6.10543, 26.3177, 19.1249, 19.5095, -50.5702, -15.8829
1.18, -1, 6.16377, 26.266, 19.1444, 19.6024, -50.4614, -15.9524
1.184, -1, 6.22201, 26.2142, 19.1639, 19.6951, -50.3529, -16.0218
1.188, -1, 6.28015, 26.1626, 19.1833, 19.7876, -50.2445, -16.0911
1.192, -1, 6.33818, 26.1111, 19.2027, 19.88, -50.1363, -16.1603
1.196, -1, 6.39611, 26.0597, 19.222, 19.9723, -50.0283, -16.2293
1.2, -1, 6.45394, 26.0083, 19.2413, 20.0643, -49.9205, -16.2982
1.204, -1, 6.51167, 25.9571, 19.2606, 20.1562, -49.8129, -16.367
1.208, -1, 6.5693, 25.9059, 19.2798, 20.248, -49.7055, -16.4357
1.212, -1, 6.62683, 25.8548, 19.299, 20.3396, -49.5982, -16.5042
1.216, -1, 6.68426, 25.8038, 19.3182, 20.431, -49.4912, -16.5727
1.22, -1, 6.74159, 25.7529, 19.3374, 20.5223, -49.3843, -16.641
1.224, -1, 6.79882, 25.7021, 19.3565, 20.6134, -49.2776, -16.7092
1.228, -1, 6.85596, 25.6514, 19.3756, 20.7044, -49.1711, -16.7773
1.232, -1, 6.91299, 25.6008, 19.3946, 20.7952, -49.0648, -16.8453
1.236, -1, 6.96993, 25.5502, 19.4136, 20.8858, -48.9586, -16.9131
1.24, -1, 7.02678, 25.4997, 19.4326, 20.9763, -48.8526, -16.9809
1.244, -1, 7.08352, 25.4494, 19.4515, 21.0667, -48.7469, -17.0485
1.248, -1, 7.14018, 25.3991, 19.4705, 21.1569, -48.6413, -17.116
1.252, -1, 7.19673, 25.3488, 19.4893, 21.2469, -48.5358, -17.1834
1.256, -1, 7.25319, 25.2987, 19.5082, 21.3368, -48.4306, -17.2507
1.26, -1, 7.30956, 25.2487, 19.527, 21.4266, -48.3255, -17.3179
1.264, -1, 7.36583, 25.1987, 19.5458, 21.5161, -48.2206, -17.385
1.267, -1, 7.42201, 25.1488, 19.5646, 21.6056, -48.1158, -17.4519
1.272, -1, 7.4781, 25.099, 19.5833, 21.6949, -48.0113, -17.5188
1.276, -1, 7.53409, 25.0493, 19.602, 21.784, -47.9069, -17.5855
1.28, -1, 7.58999, 24.9997, 19.6207, 21.873, -47.8027, -17.6521
1.284, -1, 7.6458, 24.9501, 19.6393, 21.9619, -47.6986, -17.7186
1.288, -1, 7.70152, 24.9007, 19.6579, 22.0506, -47.5948, -17.785
1.292, -1, 7.75715, 24.8513, 19.6765, 22.1392, -47.4911, -17.8513
1.295, -1, 7.81268, 24.802, 19.695, 22.2276, -47.3875, -17.9175
1.3, -1, 7.86813, 24.7528, 19.7135, 22.3159, -47.2842, -17.9836
1.304, -1, 7.92348, 24.7036, 19.732, 22.404, -47.181, -18.0496
1.308, -1, 7.97875, 24.6545, 19.7505, 22.492, -47.0779, -18.1154
1.312, -1, 8.03393, 24.6055, 19.7689, 22.5798, -46.9751, -18.1812
1.316, -1, 8.08901, 24.5566, 19.7873, 22.6675, -46.8724, -18.2468
1.32, -1, 8.14401, 24.5078, 19.8057, 22.7551, -46.7699, -18.3124
1.324, -1, 8.19893, 24.4591, 19.824, 22.8425, -46.6675, -18.3778
1.328, -1, 8.25375, 24.4104, 19.8423, 22.9298, -46.5653, -18.4432
1.332, -1, 8.30849, 24.3618, 19.8606, 23.017, -46.4632, -18.5084
1.336, -1, 8.36314, 24.3133, 19.8788, 23.104, -46.3614, -18.5735
1.34, -1, 8.4177, 24.2648, 19.8971, 23.1909, -46.2596, -18.6386
1.344, -1, 8.47218, 24.2165, 19.9153, 23.2776, -46.1581, -18.7035
1.348, -1, 8.52657, 24.1682, 19.9334, 23.3642, -46.0567, -18.7683
1.352, -1, 8.58088, 24.1199, 19.9515, 23.4507, -45.9554, -18.833
1.356, -1, 8.6351, 24.0718, 19.9697, 23.537, -45.8543, -18.8976
1.36, -1, 8.68923, 24.0237, 19.9877, 23.6232, -45.7534, -18.9622
1.364, -1, 8.74328, 23.9757, 20.0058, 23.7092, -45.6526, -19.0266
1.368, -1, 8.79725, 23.9278, 20.0238, 23.7952, -45.552, -19.0909
1.372, -1, 8.85114, 23.88, 20.0418, 23.881, -45.4516, -19.1551
1.376, -1, 8.90494, 23.8322, 20.0598, 23.9666, -45.3513, -19.2192
1.38, -1, 8.95866, 23.7845, 20.0777, 24.0521, -45.2511, -19.2833
1.384, -1, 9.01229, 23.7369, 20.0956, 24.1375, -45.1511, -19.3472
1.388, -1, 9.06584, 23.6894, 20.1135, 24.2228, -45.0513, -19.411
1.392, -1, 9.11932, 23.6419, 20.1314, 24.3079, -44.9516, -19.4747
1.396, -1, 9.1727, 23.5945, 20.1492, 24.393, -44.8521, -19.5384
1.4, -1, 9.22601, 23.5472, 20.167, 24.4778, -44.7527, -19.6019
1.404, -1, 9.27924, 23.4999, 20.1848, 24.5626, -44.6535, -19.6653
1.408, -1, 9.33239, 23.4527, 20.2025, 24.6472, -44.5544, -19.7287
1.412, -1, 9.38546, 23.4056, 20.2202, 24.7317, -44.4554, -19.7919
1.416, -1, 9.43844, 23.3585, 20.2379, 24.8161, -44.3567, -19.8551
1.42, -1, 9.49135, 23.3116, 20.2556, 24.9003, -44.258, -19.9181
1.424, -1, 9.54418, 23.2647, 20.2732, 24.9844, -44.1595, -19.9811
1.428, -1, 9.59693, 23.2178, 20.2908, 25.0684, -44.0612, -20.044
1.432, -1, 9.6496, 23.1711, 20.3084, 25.1523, -43.963, -20.1067
1.436, -1, 9.7022, 23.1244, 20.326, 25.236, -43.865, -20.1694
1.44, -1, 9.75472, 23.0777, 20.3435, 25.3196, -43.767, -20.232
1.444, -1, 9.80716, 23.0312, 20.361, 25.4031, -43.6693, -20.2945
1.448, -1, 9.85952, 22.9847, 20.3785, 25.4865, -43.5717, -20.3569
1.452, -1, 9.91181, 22.9383, 20.396, 25.5697, -43.4742, -20.4192
1.456, -1, 9.96403, 22.8919, 20.4134, 25.6528, -43.3769, -20.4814
1.46, -1, 10.0162, 22.8456, 20.4308, 25.7358, -43.2797, -20.5436
1.464, -1, 10.0682, 22.7994, 20.4482, 25.8187, -43.1826, -20.6056
1.468, -1, 10.1202, 22.7533, 20.4656, 25.9015, -43.0857, -20.6676
1.472, -1, 10.1721, 22.7072, 20.4829, 25.9841, -42.989, -20.7294
1.476, -1, 10.224, 22.6612, 20.5002, 26.0666, -42.8923, -20.7912
1.48, -1, 10.2757, 22.6152, 20.5175, 26.149, -42.7958, -20.8529
1.484, -1, 10.3274, 22.5693, 20.5348, 26.2313, -42.6995, -20.9145
1.488, -1, 10.379, 22.5235, 20.552, 26.3135, -42.6033, -20.976
1.492, -1, 10.4306, 22.4777, 20.5692, 26.3956, -42.5072, -21.0374
1.496, -1, 10.482, 22.432, 20.5864, 26.4775, -42.4113, -21.0987
1.5, -1, 10.5334, 22.3864, 20.6035, 26.5593, -42.3154, -21.16
1.504, -1, 10.5848, 22.3408, 20.6207, 26.641, -42.2198, -21.2212
1.508, -1, 10.636, 22.2953, 20.6378, 26.7226, -42.1242, -21.2822
1.512, -1, 10.6872, 22.2499, 20.6549, 26.8041, -42.0288, -21.3432
1.516, -1, 10.7383, 22.2045, 20.6719, 26.8855, -41.9336, -21.4041
1.52, -1, 10.7893, 22.1592, 20.689, 26.9667, -41.8384, -21.4649
1.524, -1, 10.8403, 22.114, 20.706, 27.0479, -41.7434, -21.5257
1.528, -1, 10.8912, 22.0688, 20.723, 27.1289, -41.6485, -21.5863
1.532, -1, 10.942, 22.0237, 20.74, 27.2098, -41.5538, -21.6469
1.536, -1, 10.9928, 21.9786, 20.7569, 27.2906, -41.4592, -21.7074
1.54, -1, 11.0435, 21.9336, 20.7738, 27.3713, -41.3647, -21.7678
1.544, -1, 11.0941, 21.8887, 20.7908, 27.4519, -41.2703, -21.8281
1.548, -1, 11.1446, 21.8438, 20.8076, 27.5324, -41.1761, -21.8884
1.552, -1, 11.1951, 21.799, 20.8245, 27.6127, -41.082, -21.9485
1.556, -1, 11.2455, 21.7542, 20.8413, 27.693, -40.988, -22.0086
1.56, -1, 11.2959, 21.7095, 20.8581, 27.7732, -40.8941, -22.0686
1.564, -1, 11.3462, 21.6649, 20.8749, 27.8532, -40.8004, -22.1285
1.568, -1, 11.3964, 21.6203, 20.8917, 27.9331, -40.7068, -22.1884
1.572, -1, 11.4465, 21.5758, 20.9084, 28.013, -40.6133, -22.2481
1.576, -1, 11.4966, 21.5313, 20.9251, 28.0927, -40.52, -22.3078
1.58, -1, 11.5466, 21.4869, 20.9418, 28.1723, -40.4268, -22.3674
1.584, -1, 11.5965, 21.4426, 20.9585, 28.2518, -40.3336, -22.4269
1.588, -1, 11.6464, 21.3983, 20.9752, 28.3313, -40.2407, -22.4864
1.592, -1, 11.6962, 21.3541, 20.9918, 28.4106, -40.1478, -22.5457
1.596, -1, 11.746, 21.3099, 21.0084, 28.4898, -40.0551, -22.605
1.6, -1, 11.7957, 21.2658, 21.025, 28.5689, -39.9624, -22.6642
1.604, -1, 11.8453, 21.2217, 21.0416, 28.6479, -39.8699, -22.7234
1.608, -1, 11.8948, 21.1778, 21.0581, 28.7268, -39.7776, -22.7824
1.612, -1, 11.9443, 21.1338, 21.0747, 28.8055, -39.6853, -22.8414
1.616, -1, 11.9938, 21.0899, 21.0912, 28.8842, -39.5932, -22.9003
1.62, -1, 12.0431, 21.0461, 21.1076, 28.9628, -39.5011, -22.9591
1.624, -1, 12.0924, 21.0023, 21.1241, 29.0413, -39.4092, -23.0179
1.628, -1, 12.1417, 20.9586, 21.1405, 29.1197, -39.3174, -23.0765
1.632, -1, 12.1908, 20.915, 21.157, 29.198, -39.2258, -23.1352
1.636, -1, 12.2399, 20.8714, 21.1734, 29.2762, -39.1342, -23.1937
1.64, -1, 12.289, 20.8278, 21.1897, 29.3543, -39.0428, -23.2521
1.644, -1, 12.338, 20.7843, 21.2061, 29.4323, -38.9515, -23.3105
1.648, -1, 12.3869, 20.7409, 21.2224, 29.5102, -38.8603, -23.3688
1.652, -1, 12.4358, 20.6975, 21.2388, 29.588, -38.7692, -23.4271
1.656, -1, 12.4846, 20.6542, 21.2551, 29.6657, -38.6782, -23.4852
1.66, -1, 12.5333, 20.6109, 21.2713, 29.7433, -38.5873, -23.5433
1.664, -1, 12.582, 20.5677, 21.2876, 29.8208, -38.4966, -23.6013
1.668, -1, 12.6306, 20.5245, 21.3038, 29.8982, -38.4059, -23.6593
1.672, -1, 12.6792, 20.4814, 21.32, 29.9755, -38.3154, -23.7171
1.676, -1, 12.7277, 20.4384, 21.3362, 30.0527, -38.225, -23.7749
1.68, -1, 12.7761, 20.3953, 21.3524, 30.1298, -38.1347, -23.8327
1.684, -1, 12.8245, 20.3524, 21.3686, 30.2069, -38.0445, -23.8903
1.688, -1, 12.8728, 20.3095, 21.3847, 30.2838, -37.9544, -23.9479
1.692, -1, 12.9211, 20.2666, 21.4008, 30.3606, -37.8644, -24.0054
1.696, -1, 12.9693, 20.2238, 21.4169, 30.4374, -37.7746, -24.0629
1.7, -1, 13.0174, 20.1811, 21.433, 30.514, -37.6848, -24.1203
1.704, -1, 13.0655, 20.1384, 21.449, 30.5906, -37.5951, -24.1776
1.708, -1, 13.1136, 20.0958, 21.4651, 30.6671, -37.5056, -24.2348
1.712, -1, 13.1615, 20.0532, 21.4811, 30.7435, -37.4162, -24.292
1.716, -1, 13.2094, 20.0106, 21.4971, 30.8197, -37.3269, -24.3491
1.72, -1, 13.2573, 19.9681, 21.5131, 30.8959, -37.2376, -24.4061
1.724, -1, 13.3051, 19.9257, 21.529, 30.972, -37.1485, -24.4631
1.728, -1, 13.3528, 19.8833, 21.545, 31.0481, -37.0595, -24.52
1.732, -1, 13.4005, 19.841, 21.5609, 31.124, -36.9706, -24.5768
1.736, -1, 13.4482, 19.7987, 21.5768, 31.1998, -36.8818, -24.6336
1.74, -1, 13.4957, 19.7565, 21.5927, 31.2756, -36.7931, -24.6903
1.744, -1, 13.5433, 19.7143, 21.6086, 31.3512, -36.7045, -24.7469
1.748, -1, 13.5907, 19.6721, 21.6244, 31.4268, -36.6161, -24.8035
1.752, -1, 13.6381, 19.63, 21.6402, 31.5023, -36.5277, -24.86
1.756, -1, 13.6855, 19.588, 21.6561, 31.5776, -36.4394, -24.9164
1.76, -1, 13.7328, 19.546, 21.6719, 31.6529, -36.3512, -24.9728
1.764, -1, 13.78, 19.5041, 21.6876, 31.7282, -36.2632, -25.0291
1.768, -1, 13.8272, 19.4622, 21.7034, 31.8033, -36.1752, -25.0853
1.772, -1, 13.8743, 19.4203, 21.7191, 31.8783, -36.0873, -25.1415
1.776, -1, 13.9214, 19.3785, 21.7348, 31.9533, -35.9996, -25.1976
1.78, -1, 13.9684, 19.3368, 21.7505, 32.0281, -35.9119, -25.2536
1.784, -1, 14.0154, 19.2951, 21.7662, 32.1029, -35.8243, -25.3096
1.788, -1, 14.0623, 19.2534, 21.7819, 32.1776, -35.7369, -25.3655
1.792, -1, 14.1092, 19.2118, 21.7975, 32.2522, -35.6495, -25.4214
1.796, -1, 14.156, 19.1703, 21.8132, 32.3268, -35.5622, -25.4772
1.8, -1, 14.2027, 19.1288, 21.8288, 32.4012, -35.4751, -25.5329
1.804, -1, 14.2494, 19.0873, 21.8444, 32.4756, -35.388, -25.5886
1.808, -1, 14.2961, 19.0459, 21.86, 32.5498, -35.301, -25.6442
1.812, -1, 14.3427, 19.0045, 21.8755, 32.624, -35.2142, -25.6997
1.816, -1, 14.3892, 18.9632, 21.8911, 32.6981, -35.1274, -25.7552
1.82, -1, 14.4357, 18.9219, 21.9066, 32.7722, -35.0407, -25.8106
1.824, -1, 14.4822, 18.8807, 21.9221, 32.8461, -34.9541, -25.8659
1.828, -1, 14.5286, 18.8395, 21.9376, 32.92, -34.8676, -25.9212
1.832, -1, 14.5749, 18.7983, 21.9531, 32.9938, -34.7813, -25.9764
1.836, -1, 14.6212, 18.7572, 21.9685, 33.0675, -34.695, -26.0316
1.84, -1, 14.6674, 18.7162, 21.984, 33.1411, -34.6088, -26.0867
1.844, -1, 14.7136, 18.6752, 21.9994, 33.2146, -34.5227, -26.1418
1.848, -1, 14.7598, 18.6342, 22.0148, 33.2881, -34.4367, -26.1967
1.852, -1, 14.8058, 18.5933, 22.0302, 33.3614, -34.3507, -26.2517
1.856, -1, 14.8519, 18.5524, 22.0456, 33.4347, -34.2649, -26.3065
1.86, -1, 14.8979, 18.5116, 22.0609, 33.5079, -34.1792, -26.3613
1.864, -1, 14.9438, 18.4708, 22.0762, 33.5811, -34.0936, -26.4161
1.868, -1, 14.9897, 18.4301, 22.0916, 33.6541, -34.008, -26.4708
1.872, -1, 15.0355, 18.3894, 22.1069, 33.7271, -33.9226, -26.5254
1.876, -1, 15.0813, 18.3487, 22.1222, 33.8, -33.8372, -26.58
1.88, -1, 15.127, 18.3081, 22.1374, 33.8728, -33.7519, -26.6345
1.884, -1, 15.1727, 18.2676, 22.1527, 33.9456, -33.6668, -26.6889
1.888, -1, 15.2184, 18.227, 22.1679, 34.0182, -33.5817, -26.7433
1.892, -1, 15.264, 18.1866, 22.1832, 34.0908, -33.4967, -26.7976
1.896, -1, 15.3095, 18.1461, 22.1984, 34.1633, -33.4118, -26.8519
1.9, -1, 15.355, 18.1057, 22.2136, 34.2358, -33.3269, -26.9062
1.904, -1, 15.4004, 18.0654, 22.2287, 34.3081, -33.2422, -26.9603
1.908, -1, 15.4458, 18.0251, 22.2439, 34.3804, -33.1576, -27.0144
1.912, -1, 15.4912, 17.9848, 22.259, 34.4526, -33.073, -27.0685
1.916, -1, 15.5365, 17.9446, 22.2742, 34.5248, -32.9886, -27.1225
1.92, -1, 15.5818, 17.9044, 22.2893, 34.5968, -32.9042, -27.1764
1.924, -1, 15.627, 17.8643, 22.3044, 34.6688, -32.8199, -27.2303
1.928, -1, 15.6721, 17.8242, 22.3195, 34.7407, -32.7357, -27.2841
1.932, -1, 15.7173, 17.7841, 22.3345, 34.8126, -32.6516, -27.3379
1.936, -1, 15.7623, 17.7441, 22.3496, 34.8843, -32.5676, -27.3916
1.94, -1, 15.8073, 17.7041, 22.3646, 34.956, -32.4836, -27.4453
1.944, -1, 15.8523, 17.6642, 22.3796, 35.0276, -32.3997, -27.4989
1.948, -1, 15.8973, 17.6243, 22.3946, 35.0992, -32.316, -27.5524
1.952, -1, 15.9422, 17.5844, 22.4096, 35.1707, -32.2323, -27.6059
1.956, -1, 15.987, 17.5446, 22.4246, 35.2421, -32.1487, -27.6594
1.96, -1, 16.0318, 17.5048, 22.4396, 35.3134, -32.0652, -27.7128
1.964, -1, 16.0765, 17.4651, 22.4545, 35.3846, -31.9817, -27.7661
1.968, -1, 16.1212, 17.4254, 22.4694, 35.4558, -31.8984, -27.8194
1.972, -1, 16.1659, 17.3858, 22.4844, 35.5269, -31.8151, -27.8726
1.976, -1, 16.2105, 17.3461, 22.4993, 35.598, -31.7319, -27.9258
1.98, -1, 16.2551, 17.3066, 22.5141, 35.6689, -31.6488, -27.9789
1.984, -1, 16.2996, 17.267, 22.529, 35.7398, -31.5658, -28.032
1.988, -1, 16.3441, 17.2275, 22.5439, 35.8107, -31.4829, -28.085
1.992, -1, 16.3886, 17.1881, 22.5587, 35.8814, -31.4, -28.138
1.996, -1, 16.433, 17.1487, 22.5735, 35.9521, -31.3173, -28.1909
1.999, -1, 16.4773, 17.1093, 22.5883, 36.0228, -31.2346, -28.2438
2.004, -1, 16.5216, 17.0699, 22.6031, 36.0933, -31.1519, -28.2966
2.008, -1, 16.5659, 17.0306, 22.6179, 36.1638, -31.0694, -28.3493
2.012, -1, 16.6101, 16.9914, 22.6327, 36.2342, -30.987, -28.4021
2.015, -1, 16.6543, 16.9521, 22.6474, 36.3046, -30.9046, -28.4547
2.019, -1, 16.6984, 16.9129, 22.6622, 36.3748, -30.8223, -28.5073
2.024, -1, 16.7425, 16.8738, 22.6769, 36.445, -30.7401, -28.5599
2.028, -1, 16.7866, 16.8347, 22.6916, 36.5152, -30.658, -28.6124
2.031, -1, 16.8306, 16.7956, 22.7063, 36.5853, -30.5759, -28.6648
2.036, -1, 16.8746, 16.7566, 22.721, 36.6553, -30.4939, -28.7172
2.04, -1, 16.9185, 16.7176, 22.7357, 36.7252, -30.412, -28.7696
2.044, -1, 16.9624, 16.6786, 22.7503, 36.7951, -30.3302, -28.8219
2.048, -1, 17.0062, 16.6397, 22.765, 36.8649, -30.2485, -28.8742
2.051, -1, 17.05, 16.6008, 22.7796, 36.9346, -30.1668, -28.9264
2.055, -1, 17.0938, 16.5619, 22.7942, 37.0043, -30.0852, -28.9785
2.06, -1, 17.1375, 16.5231, 22.8088, 37.0739, -30.0037, -29.0306
2.064, -1, 17.1811, 16.4844, 22.8234, 37.1435, -29.9223, -29.0827
2.068, -1, 17.2244, 16.4458, 22.8379, 37.2129, -29.841, -29.1347
2.071, -1, 17.2671, 16.4077, 22.8523, 37.2823, -29.7597, -29.1866
2.076, -1, 17.3088, 16.3701, 22.8666, 37.3515, -29.6787, -29.2384
2.08, -1, 17.3495, 16.3335, 22.8807, 37.4204, -29.5981, -29.29
2.084, -1, 17.3888, 16.2979, 22.8945, 37.4888, -29.518, -29.3412
2.087, -1, 17.4267, 16.2635, 22.9079, 37.5564, -29.4389, -29.3918
2.092, -1, 17.4632, 16.2306, 22.921, 37.6229, -29.3611, -29.4417
2.096, -1, 17.4983, 16.1992, 22.9337, 37.6879, -29.2851, -29.4903
2.1, -1, 17.5321, 16.1694, 22.9459, 37.7508, -29.2115, -29.5374
2.104, -1, 17.5644, 16.1411, 22.9576, 37.8112, -29.1408, -29.5827
2.107, -1, 17.5951, 16.1145, 22.9686, 37.8686, -29.0737, -29.6257
2.111, -1, 17.624, 16.0896, 22.9791, 37.9226, -29.0106, -29.6661
2.116, -1, 17.6513, 16.0662, 22.9888, 37.9726, -28.9521, -29.7035
2.12, -1, 17.6768, 16.044, 22.9978, 38.0183, -28.8986, -29.7378
2.124, -1, 17.7009, 16.023, 23.0061, 38.0595, -28.8504, -29.7686
2.127, -1, 17.7234, 16.0029, 23.0136, 38.0959, -28.8078, -29.7958
2.132, -1, 17.7446, 15.9838, 23.0205, 38.1275, -28.7707, -29.8195
2.136, -1, 17.7642, 15.9657, 23.0267, 38.1546, -28.739, -29.8397
2.14, -1, 17.7823, 15.9489, 23.0321, 38.1772, -28.7125, -29.8566
2.143, -1, 17.7986, 15.9337, 23.0368, 38.1957, -28.6907, -29.8705
2.148, -1, 17.8131, 15.9202, 23.0409, 38.2106, -28.6732, -29.8816
2.152, -1, 17.8259, 15.9085, 23.0443, 38.2223, -28.6594, -29.8904
2.156, -1, 17.8371, 15.8987, 23.0471, 38.2313, -28.6488, -29.8971
2.16, -1, 17.8467, 15.8905, 23.0494, 38.2381, -28.6409, -29.9021
2.163, -1, 17.855, 15.8838, 23.0513, 38.243, -28.635, -29.9058
2.168, -1, 17.8619, 15.8785, 23.0527, 38.2465, -28.6308, -29.9084
2.172, -1, 17.8674, 15.8744, 23.0538, 38.249, -28.6279, -29.9103
2.176, 2, 17.8716, 15.8714, 23.0546, 38.2507, -28.6258, -29.9115
2.179, 2, 17.8747, 15.8692, 23.0552, 38.2519, -28.6245, -29.9124
2.184, 2, 17.8769, 15.8677, 23.0556, 38.2527, -28.6235, -29.913
2.188, 2, 17.8784, 15.8667, 23.0558, 38.2532, -28.6229, -29.9134
2.192, 2, 17.8794, 15.866, 23.056, 38.2536, -28.6224, -29.9137
2.196, 2, 17.8801, 15.8655, 23.0561, 38.2538, -28.6221, -29.9138
2.199, 2, 17.8806, 15.8652, 23.0562, 38.254, -28.6219, -29.914
2.204, 2, 17.8809, 15.865, 23.0563, 38.2541, -28.6218, -29.9141
2.208, 2, 17.8811, 15.8649, 23.0563, 38.2542, -28.6217, -29.9141
2.212, 2, 17.8813, 15.8648, 23.0563, 38.2543, -28.6217, -29.9141
2.216, 2, 17.8814, 15.8647, 23.0564, 38.2543, -28.6216, -29.9142
2.219, 2, 17.8814, 15.8646, 23.0564, 38.2543, -28.6216, -29.9142
2.224, 2, 17.8815, 15.8646, 23.0564, 38.2543, -28.6216, -29.9142
2.228, 2, 17.8815, 15.8646, 23.0564, 38.2543, -28.6215, -29.9142
2.232, 2, 17.8815, 15.8646, 23.0564, 38.2543, -28.6215, -29.9142
2.235, 2, 17.8815, 15.8646, 23.0564, 38.2544, -28.6215, -29.9142
2.24, 2, 17.8815, 15.8646, 23.0564, 38.2544, -28.6215, -29.9142
2.244, 2, 17.8816, 15.8646, 23.0564, 38.2544, -28.6215, -29.9142
2.248, 2, 17.8816, 15.8646, 23.0564, 38.2544, -28.6215, -29.9142
2.252, 2, 17.8816, 15.8646, 23.0564, 38.2544, -28.6215, -29.9142
2.255, 2, 17.8816, 15.8646, 23.0564, 38.2544, -28.6215, -29.9142
2.259, 2, 17.8816, 15.8646, 23.0564, 38.2544, -28.6215, -29.9142
2.264, 2, 17.8816, 15.8645, 23.0564, 38.2544, -28.6215, -29.9142
2.268, 2, 17.8816, 15.8645, 23.0564, 38.2544, -28.6215, -29.9142
2.272, 2, 17.8816, 15.8645, 23.0564, 38.2544, -28.6215, -29.9142
2.275, 2, 17.8816, 15.8645, 23.0564, 38.2544, -28.6215, -29.9142
2.28, 2, 17.8816, 15.8645, 23.0564, 38.2544, -28.6215, -29.9142
2.284, 2, 17.8816, 15.8645, 23.0564, 38.2544, -28.6215, -29.9142
2.288, 2, 17.8816, 15.8645, 23.0564, 38.2544, -28.6215, -29.9142
2.291, 2, 17.8816, 15.8645, 23.0564, 38.2544, -28.6215, -29.9142
2.296, 2, 17.8816, 15.8645, 23.0564, 38.2544, -28.6215, -29.9142
2.3, 2, 17.8816, 15.8645, 23.0564, 38.2544, -28.6215, -29.9142
2.304, 2, 17.8816, 15.8645, 23.0564, 38.2544, -28.6215, -29.9142
2.308, 2, 17.8816, 15.8645, 23.0564, 38.2544, -28.6215, -29.9142
2.311, 2, 17.8816, 15.8645, 23.0564, 38.2544, -28.6215, -29.9142
2.316, 2, 17.8816, 15.8645, 23.0564, 38.2544, -28.6215, -29.9142
2.32, 2, 17.8816, 15.8645, 23.0564, 38.2544, -28.6215, -29.9142
2.324, 2, 17.8816, 15.8645, 23.0564, 38.2544, -28.6215, -29.9142
2.328, 2, 17.8816, 15.8645, 23.0564, 38.2544, -28.6215, -29.9142
2.331, 2, 17.8816, 15.8645, 23.0564, 38.2544, -28.6215, -29.9142
2.336, 2, 17.8816, 15.8645, 23.0564, 38.2544, -28.6215, -29.9142
2.34, 2, 17.8816, 15.8645, 23.0564, 38.2544, -28.6215, -29.9142
2.344, 2, 17.8816, 15.8645, 23.0564, 38.2544, -28.6215, -29.9142
2.347, 2, 17.8816, 15.8645, 23.0564, 38.2544, -28.6215, -29.9142
2.352, 2, 17.8816, 15.8645, 23.0564, 38.2544, -28.6215, -29.9142
2.356, 2, 17.8816, 15.8645, 23.0564, 38.2544, -28.6215, -29.9142
2.36, 2, 17.8816, 15.8645, 23.0564, 38.2544, -28.6215, -29.9142
2.364, 2, 17.8816, 15.8645, 23.0564, 38.2544, -28.6215, -29.9142
2.367, 2, 17.8816, 15.8645, 23.0564, 38.2544, -28.6215, -29.9142
2.372, 2, 17.8816, 15.8645, 23.0564, 38.2544, -28.6215, -29.9142
2.376, 2, 17.8816, 15.8645, 23.0564, 38.2544, -28.6215, -29.9142
2.38, 2, 17.8816, 15.8645, 23.0564, 38.2544, -28.6215, -29.9142
2.383, 2, 17.8816, 15.8645, 23.0564, 38.2544, -28.6215, -29.9142
2.388, 2, 17.8816, 15.8645, 23.0564, 38.2544, -28.6215, -29.9142
2.392, 2, 17.8816, 15.8645, 23.0564, 38.2544, -28.6215, -29.9142
2.396, 2, 17.8816, 15.8645, 23.0564, 38.2544, -28.6215, -29.9142
2.4, 2, 17.8816, 15.8645, 23.0564, 38.2544, -28.6215, -29.9142
2.403, 2, 17.8816, 15.8645, 23.0564, 38.2544, -28.6215, -29.9142
2.408, 2, 17.8816, 15.8645, 23.0564, 38.2544, -28.6215, -29.9142
2.412, 2, 17.8816, 15.8645, 23.0564, 38.2544, -28.6215, -29.9142
2.416, 2, 17.8816, 15.8645, 23.0564, 38.2544, -28.6215, -29.9142
2.42, 2, 17.8816, 15.8645, 23.0564, 38.2544, -28.6215, -29.9142
2.423, 2, 17.8816, 15.8645, 23.0564, 38.2544, -28.6215, -29.9142
2.428, 2, 17.8816, 15.8645, 23.0564, 38.2544, -28.6215, -29.9142
2.432, 2, 17.8816, 15.8645, 23.0564, 38.2544, -28.6215, -29.9142
2.436, 2, 17.8816, 15.8645, 23.0564, 38.2544, -28.6215, -29.9142
2.439, 2, 17.8816, 15.8645, 23.0564, 38.2544, -28.6215, -29.9142
2.444, 2, 17.8816, 15.8645, 23.0564, 38.2544, -28.6215, -29.9142
2.448, 2, 17.8816, 15.8645, 23.0564, 38.2544, -28.6215, -29.9142
2.452, 2, 17.8816, 15.8645, 23.0564, 38.2544, -28.6215, -29.9142
2.456, 2, 17.8816, 15.8645, 23.0564, 38.2544, -28.6215, -29.9142
2.459, 2, 17.8816, 15.8645, 23.0564, 38.2544, -28.6215, -29.9142
2.464, 2, 17.8816, 15.8645, 23.0564, 38.2544, -28.6215, -29.9142
2.468, 2, 17.8816, 15.8645, 23.0564, 38.2544, -28.6215, -29.9142
2.472, 2, 17.8816, 15.8645, 23.0564, 38.2544, -28.6215, -29.9142
2.476, 2, 17.8816, 15.8645, 23.0564, 38.2544, -28.6215, -29.9142
2.479, 2, 17.8816, 15.8645, 23.0564, 38.2544, -28.6215, -29.9142
2.484, 2, 17.8816, 15.8645, 23.0564, 38.2544, -28.6215, -29.9142
2.488, 2, 17.8816, 15.8645, 23.0564, 38.2544, -28.6215, -29.9142
2.492, 2, 17.8816, 15.8645, 23.0564, 38.2544, -28.6215, -29.9142
2.495, 2, 17.8816, 15.8645, 23.0564, 38.2544, -28.6215, -29.9142
2.5, 2, 17.8816, 15.8645, 23.0564, 38.2544, -28.6215, -29.9142
2.504, 2, 17.8816, 15.8645, 23.0564, 38.2544, -28.6215, -29.9142
2.508, 2, 17.8816, 15.8645, 23.0564, 38.2544, -28.6215, -29.9142
2.512, 2, 17.8816, 15.8645, 23.0564, 38.2544, -28.6215, -29.9142
2.515, 2, 17.8816, 15.8645, 23.0564, 38.2544, -28.6215, -29.9142
2.52, 2, 17.8816, 15.8645, 23.0564, 38.2544, -28.6215, -29.9142
2.524, 2, 17.8816, 15.8645, 23.0564, 38.2544, -28.6215, -29.9142
2.528, 2, 17.8816, 15.8645, 23.0564, 38.2544, -28.6215, -29.9142
2.531, 2, 17.8816, 15.8645, 23.0564, 38.2544, -28.6215, -29.9142
2.536, 2, 17.8816, 15.8645, 23.0564, 38.2544, -28.6215, -29.9142
2.54, 2, 17.8816, 15.8645, 23.0564, 38.2544, -28.6215, -29.9142
2.544, 2, 17.8816, 15.8645, 23.0564, 38.2544, -28.6215, -29.9142
2.548, 2, 17.8816, 15.8645, 23.0564, 38.2544, -28.6215, -29.9142
2.551, 2, 17.8816, 15.8645, 23.0564, 38.2544, -28.6215, -29.9142
2.556, 2, 17.8816, 15.8645, 23.0564, 38.2544, -28.6215, -29.9142
2.56, 2, 17.8816, 15.8645, 23.0564, 38.2544, -28.6215, -29.9142
2.564, 2, 17.8816, 15.8645, 23.0564, 38.2544, -28.6215, -29.9142
2.568, 2, 17.8816, 15.8645, 23.0564, 38.2544, -28.6215, -29.9142
2.571, 2, 17.8816, 15.8645, 23.0564, 38.2544, -28.6215, -29.9142
2.576, 2, 17.8816, 15.8645, 23.0564, 38.2544, -28.6215, -29.9142
2.58, 2, 17.8816, 15.8645, 23.0564, 38.2544, -28.6215, -29.9142
2.584, 2, 17.8816, 15.8645, 23.0564, 38.2544, -28.6215, -29.9142
2.587, 2, 17.8816, 15.8645, 23.0564, 38.2544, -28.6215, -29.9142
2.592, 2, 17.8816, 15.8645, 23.0564, 38.2544, -28.6215, -29.9142
2.596, 2, 17.8816, 15.8645, 23.0564, 38.2544, -28.6215, -29.9142
2.6, 2, 17.8816, 15.8645, 23.0564, 38.2544, -28.6215, -29.9142
2.604, 2, 17.8816, 15.8645, 23.0564, 38.2544, -28.6215, -29.9142
2.607, 2, 17.8816, 15.8645, 23.0564, 38.2544, -28.6215, -29.9142
2.612, 2, 17.8816, 15.8645, 23.0564, 38.2544, -28.6215, -29.9142
2.616, 2, 17.8816, 15.8645, 23.0564, 38.2544, -28.6215, -29.9142
2.62, 2, 17.8816, 15.8645, 23.0564, 38.2544, -28.6215, -29.9142
2.624, 2, 17.8816, 15.8645, 23.0564, 38.2544, -28.6215, -29.9142
2.627, 2, 17.8816, 15.8645, 23.0564, 38.2544, -28.6215, -29.9142
2.632, 2, 17.8816, 15.8645, 23.0564, 38.2544, -28.6215, -29.9142
2.636, 2, 17.8816, 15.8645, 23.0564, 38.2544, -28.6215, -29.9142
2.64, 2, 17.8816, 15.8645, 23.0564, 38.2544, -28.6215, -29.9142
2.643, 2, 17.8816, 15.8645, 23.0564, 38.2544, -28.6215, -29.9142
2.648, 2, 17.8816, 15.8645, 23.0564, 38.2544, -28.6215, -29.9142
2.652, 2, 17.8816, 15.8645, 23.0564, 38.2544, -28.6215, -29.9142
2.656, 2, 17.8816, 15.8645, 23.0564, 38.2544, -28.6215, -29.9142
2.66, 2, 17.8816, 15.8645, 23.0564, 38.2544, -28.6215, -29.9142
2.663, 2, 17.8816, 15.8645, 23.0564, 38.2544, -28.6215, -29.9142
2.668, 2, 17.8816, 15.8645, 23.0564, 38.2544, -28.6215, -29.9142
2.672, 2, 17.8816, 15.8645, 23.0564, 38.2544, -28.6215, -29.9142
2.676, 2, 17.8816, 15.8645, 23.0564, 38.2544, -28.6215, -29.9142
2.679, 2, 17.8816, 15.8645, 23.0564, 38.2544, -28.6215, -29.9142
2.684, 2, 17.8816, 15.8645, 23.0564, 38.2544, -28.6215, -29.9142
2.688, 2, 17.8816, 15.8645, 23.0564, 38.2544, -28.6215, -29.9142
2.692, 2, 17.8816, 15.8645, 23.0564, 38.2544, -28.6215, -29.9142
2.696, 2, 17.8816, 15.8645, 23.0564, 38.2544, -28.6215, -29.9142
2.699, 2, 17.8816, 15.8645, 23.0564, 38.2544, -28.6215, -29.9142
2.704, 2, 17.8816, 15.8645, 23.0564, 38.2544, -28.6215, -29.9142
2.708, 2, 17.8816, 15.8645, 23.0564, 38.2544, -28.6215, -29.9142
2.712, 2, 17.8816, 15.8645, 23.0564, 38.2544, -28.6215, -29.9142
2.716, 2, 17.8816, 15.8645, 23.0564, 38.2544, -28.6215, -29.9142
2.719, 2, 17.8816, 15.8645, 23.0564, 38.2544, -28.6215, -29.9142
2.724, 2, 17.8816, 15.8645, 23.0564, 38.2544, -28.6215, -29.9142
2.728, 2, 17.8816, 15.8645, 23.0564, 38.2544, -28.6215, -29.9142
2.732, 2, 17.8816, 15.8645, 23.0564, 38.2544, -28.6215, -29.9142
2.735, 2, 17.8816, 15.8645, 23.0564, 38.2544, -28.6215, -29.9142
2.74, 2, 17.8816, 15.8645, 23.0564, 38.2544, -28.6215, -29.9142
2.744, 2, 17.8816, 15.8645, 23.0564, 38.2544, -28.6215, -29.9142
2.748, 2, 17.8816, 15.8645, 23.0564, 38.2544, -28.6215, -29.9142
2.752, 2, 17.8816, 15.8645, 23.0564, 38.2544, -28.6215, -29.9142
2.755, 2, 17.8816, 15.8645, 23.0564, 38.2544, -28.6215, -29.9142
2.76, 2, 17.8816, 15.8645, 23.0564, 38.2544, -28.6215, -29.9142
2.764, 2, 17.8816, 15.8645, 23.0564, 38.2544, -28.6215, -29.9142
2.768, 2, 17.8816, 15.8645, 23.0564, 38.2544, -28.6215, -29.9142
2.772, 2, 17.8816, 15.8645, 23.0564, 38.2544, -28.6215, -29.9142
2.775, 2, 17.8816, 15.8645, 23.0564, 38.2544, -28.6215, -29.9142
2.78, 2, 17.8816, 15.8645, 23.0564, 38.2544, -28.6215, -29.9142
2.784, 2, 17.8816, 15.8645, 23.0564, 38.2544, -28.6215, -29.9142
2.788, 2, 17.8816, 15.8645, 23.0564, 38.2544, -28.6215, -29.9142
2.791, 2, 17.8816, 15.8645, 23.0564, 38.2544, -28.6215, -29.9142
2.796, 2, 17.8816, 15.8645, 23.0564, 38.2544, -28.6215, -29.9142
2.8, 2, 17.8816, 15.8645, 23.0564, 38.2544, -28.6215, -29.9142
2.804, 2, 17.8816, 15.8645, 23.0564, 38.2544, -28.6215, -29.9142
2.808, 2, 17.8816, 15.8645, 23.0564, 38.2544, -28.6215, -29.9142
2.811, 2, 17.8816, 15.8645, 23.0564, 38.2544, -28.6215, -29.9142
2.816, 2, 17.8816, 15.8645, 23.0564, 38.2544, -28.6215, -29.9142
2.82, 2, 17.8816, 15.8645, 23.0564, 38.2544, -28.6215, -29.9142
2.824, 2, 17.8816, 15.8645, 23.0564, 38.2544, -28.6215, -29.9142
2.828, 2, 17.8816, 15.8645, 23.0564, 38.2544, -28.6215, -29.9142
2.831, 2, 17.8816, 15.8645, 23.0564, 38.2544, -28.6215, -29.9142
2.836, 2, 17.8816, 15.8645, 23.0564, 38.2544, -28.6215, -29.9142
2.84, 2, 17.8816, 15.8645, 23.0564, 38.2544, -28.6215, -29.9142
2.844, 2, 17.8816, 15.8645, 23.0564, 38.2544, -28.6215, -29.9142
2.847, 2, 17.8816, 15.8645, 23.0564, 38.2544, -28.6215, -29.9142
2.852, 2, 17.8816, 15.8645, 23.0564, 38.2544, -28.6215, -29.9142
2.856, 2, 17.8816, 15.8645, 23.0564, 38.2544, -28.6215, -29.9142
2.86, 2, 17.8816, 15.8645, 23.0564, 38.2544, -28.6215, -29.9142
2.864, 2, 17.8816, 15.8645, 23.0564, 38.2544, -28.6215, -29.9142
2.867, 2, 17.8816, 15.8645, 23.0564, 38.2544, -28.6215, -29.9142
2.872, 2, 17.8816, 15.8645, 23.0564, 38.2544, -28.6215, -29.9142
2.876, 2, 17.8816, 15.8645, 23.0564, 38.2544, -28.6215, -29.9142
2.88, 2, 17.8816, 15.8645, 23.0564, 38.2544, -28.6215, -29.9142
2.883, 2, 17.8816, 15.8645, 23.0564, 38.2544, -28.6215, -29.9142
2.888, 2, 17.8816, 15.8645, 23.0564, 38.2544, -28.6215, -29.9142
2.892, 2, 17.8816, 15.8645, 23.0564, 38.2544, -28.6215, -29.9142
2.896, 2, 17.8816, 15.8645, 23.0564, 38.2544, -28.6215, -29.9142
2.9, 2, 17.8816, 15.8645, 23.0564, 38.2544, -28.6215, -29.9142
2.903, 2, 17.8816, 15.8645, 23.0564, 38.2544, -28.6215, -29.9142
2.908, 2, 17.8816, 15.8645, 23.0564, 38.2544, -28.6215, -29.9142
2.912, 2, 17.8816, 15.8645, 23.0564, 38.2544, -28.6215, -29.9142
2.916, 2, 17.8816, 15.8645, 23.0564, 38.2544, -28.6215, -29.9142
2.92, 2, 17.8816, 15.8645, 23.0564, 38.2544, -28.6215, -29.9142
2.923, 2, 17.8816, 15.8645, 23.0564, 38.2544, -28.6215, -29.9142
2.928, 2, 17.8816, 15.8645, 23.0564, 38.2544, -28.6215, -29.9142
2.932, 2, 17.8816, 15.8645, 23.0564, 38.2544, -28.6215, -29.9142
2.936, 2, 17.8816, 15.8645, 23.0564, 38.2544, -28.6215, -29.9142
2.939, 2, 17.8816, 15.8645, 23.0564, 38.2544, -28.6215, -29.9142
2.944, 2, 17.8816, 15.8645, 23.0564, 38.2544, -28.6215, -29.9142
2.948, 2, 17.8816, 15.8645, 23.0564, 38.2544, -28.6215, -29.9142
2.952, 2, 17.8816, 15.8645, 23.0564, 38.2544, -28.6215, -29.9142
2.956, 2, 17.8816, 15.8645, 23.0564, 38.2544, -28.6215, -29.9142
2.959, 2, 17.8816, 15.8645, 23.0564, 38.2544, -28.6215, -29.9142
2.964, 2, 17.8816, 15.8645, 23.0564, 38.2544, -28.6215, -29.9142
2.968, 2, 17.8816, 15.8645, 23.0564, 38.2544, -28.6215, -29.9142
2.972, 2, 17.8816, 15.8645, 23.0564, 38.2544, -28.6215, -29.9142
2.976, 2, 17.8816, 15.8645, 23.0564, 38.2544, -28.6215, -29.9142
2.98, 2, 17.8816, 15.8645, 23.0564, 38.2544, -28.6215, -29.9142
2.984, 2, 17.8816, 15.8645, 23.0564, 38.2544, -28.6215, -29.9142
2.988, 2, 17.8816, 15.8645, 23.0564, 38.2544, -28.6215, -29.9142
2.992, 2, 17.8816, 15.8645, 23.0564, 38.2544, -28.6215, -29.9142
2.995, 2, 17.8816, 15.8645, 23.0564, 38.2544, -28.6215, -29.9142
3, 2, 17.8816, 15.8645, 23.0564, 38.2544, -28.6215, -29.9142
3.004, 2, 17.8816, 15.8645, 23.0564, 38.2544, -28.6215, -29.9142
3.008, 2, 17.8816, 15.8645, 23.0564, 38.2544, -28.6215, -29.9142
3.012, 2, 17.8816, 15.8645, 23.0564, 38.2544, -28.6215, -29.9142
3.015, 2, 17.8816, 15.8645, 23.0564, 38.2544, -28.6215, -29.9142
3.02, 2, 17.8816, 15.8645, 23.0564, 38.2544, -28.6215, -29.9142
3.024, 2, 17.8816, 15.8645, 23.0564, 38.2544, -28.6215, -29.9142
3.028, 2, 17.8816, 15.8645, 23.0564, 38.2544, -28.6215, -29.9142
3.031, 2, 17.8816, 15.8645, 23.0564, 38.2544, -28.6215, -29.9142
3.036, 2, 17.8816, 15.8645, 23.0564, 38.2544, -28.6215, -29.9142
3.04, 2, 17.8816, 15.8645, 23.0564, 38.2544, -28.6215, -29.9142
3.044, 2, 17.8816, 15.8645, 23.0564, 38.2544, -28.6215, -29.9142
3.048, 2, 17.8816, 15.8645, 23.0564, 38.2544, -28.6215, -29.9142
3.051, 2, 17.8816, 15.8645, 23.0564, 38.2544, -28.6215, -29.9142
3.056, 2, 17.8816, 15.8645, 23.0564, 38.2544, -28.6215, -29.9142
3.06, 2, 17.8816, 15.8645, 23.0564, 38.2544, -28.6215, -29.9142
3.064, 2, 17.8816, 15.8645, 23.0564, 38.2544, -28.6215, -29.9142
3.068, 2, 17.8816, 15.8645, 23.0564, 38.2544, -28.6215, -29.9142
3.071, 2, 17.8816, 15.8645, 23.0564, 38.2544, -28.6215, -29.9142
3.076, 2, 17.8816, 15.8645, 23.0564, 38.2544, -28.6215, -29.9142
3.08, 2, 17.8816, 15.8645, 23.0564, 38.2544, -28.6215, -29.9142
3.084, 2, 17.8816, 15.8645, 23.0564, 38.2544, -28.6215, -29.9142
3.087, 2, 17.8816, 15.8645, 23.0564, 38.2544, -28.6215, -29.9142
3.092, 2, 17.8816, 15.8645, 23.0564, 38.2544, -28.6215, -29.9142
3.096, 2, 17.8816, 15.8645, 23.0564, 38.2544, -28.6215, -29.9142
3.1, 2, 17.8816, 15.8645, 23.0564, 38.2544, -28.6215, -29.9142
3.104, 2, 17.8816, 15.8645, 23.0564, 38.2544, -28.6215, -29.9142
3.107, 2, 17.8816, 15.8645, 23.0564, 38.2544, -28.6215, -29.9142
3.112, 2, 17.8816, 15.8645, 23.0564, 38.2544, -28.6215, -29.9142
3.116, 2, 17.8816, 15.8645, 23.0564, 38.2544, -28.6215, -29.9142
3.12, 2, 17.8816, 15.8645, 23.0564, 38.2544, -28.6215, -29.9142
3.124, 2, 17.8816, 15.8645, 23.0564, 38.2544, -28.6215, -29.9142
3.128, 2, 17.8816, 15.8645, 23.0564, 38.2544, -28.6215, -29.9142
3.132, 2, 17.8816, 15.8645, 23.0564, 38.2544, -28.6215, -29.9142
3.136, 2, 17.8816, 15.8645, 23.0564, 38.2544, -28.6215, -29.9142
3.14, 2, 17.8816, 15.8645, 23.0564, 38.2544, -28.6215, -29.9142
3.143, 2, 17.8816, 15.8645, 23.0564, 38.2544, -28.6215, -29.9142
3.148, 2, 17.8816, 15.8645, 23.0564, 38.2544, -28.6215, -29.9142
3.152, 2, 17.8816, 15.8645, 23.0564, 38.2544, -28.6215, -29.9142
3.156, 2, 17.8816, 15.8645, 23.0564, 38.2544, -28.6215, -29.9142
3.16, 2, 17.8816, 15.8645, 23.0564, 38.2544, -28.6215, -29.9142
3.163, 2, 17.8816, 15.8645, 23.0564, 38.2544, -28.6215, -29.9142
3.168, 2, 17.8816, 15.8645, 23.0564, 38.2544, -28.6215, -29.9142
3.172, 2, 17.8816, 15.8645, 23.0564, 38.2544, -28.6215, -29.9142
3.176, 2, 17.8816, 15.8645, 23.0564, 38.2544, -28.6215, -29.9142
3.179, 2, 17.8816, 15.8645, 23.0564, 38.2544, -28.6215, -29.9142
3.184, 2, 17.8816, 15.8645, 23.0564, 38.2544, -28.6215, -29.9142
3.188, 2, 17.8816, 15.8645, 23.0564, 38.2544, -28.6215, -29.9142
3.192, 2, 17.8816, 15.8645, 23.0564, 38.2544, -28.6215, -29.9142
3.196, 2, 17.8816, 15.8645, 23.0564, 38.2544, -28.6215, -29.9142
3.199, 2, 17.8816, 15.8645, 23.0564, 38.2544, -28.6215, -29.9142
3.204, 2, 17.8816, 15.8645, 23.0564, 38.2544, -28.6215, -29.9142
3.208, 2, 17.8816, 15.8645, 23.0564, 38.2544, -28.6215, -29.9142
3.212, 2, 17.8816, 15.8645, 23.0564, 38.2544, -28.6215, -29.9142
3.216, 2, 17.8816, 15.8645, 23.0564, 38.2544, -28.6215, -29.9142
3.22, 2, 17.8816, 15.8645, 23.0564, 38.2544, -28.6215, -29.9142
3.224, 2, 17.8816, 15.8645, 23.0564, 38.2544, -28.6215, -29.9142
3.228, 2, 17.8816, 15.8645, 23.0564, 38.2544, -28.6215, -29.9142
3.232, 2, 17.8816, 15.8645, 23.0564, 38.2544, -28.6215, -29.9142
3.235, 2, 17.8816, 15.8645, 23.0564, 38.2544, -28.6215, -29.9142
3.24, 2, 17.8816, 15.8645, 23.0564, 38.2544, -28.6215, -29.9142
3.244, 2, 17.8816, 15.8645, 23.0564, 38.2544, -28.6215, -29.9142
3.248, 4, 17.8816, 15.8645, 23.0564, 38.2544, -28.6215, -29.9142
3.252, 4, 17.8816, 15.8645, 23.0564, 38.2544, -28.6215, -29.9142
3.255, 4, 17.8816, 15.8645, 23.0564, 38.2544, -28.6215, -29.9142
3.26, 4, 17.8816, 15.8645, 23.0564, 38.2544, -28.6215, -29.9142
3.264, 4, 17.8816, 15.8645, 23.0564, 38.2544, -28.6215, -29.9142
3.268, 4, 17.8816, 15.8645, 23.0564, 38.2544, -28.6215, -29.9142
3.272, 4, 17.8816, 15.8645, 23.0564, 38.2544, -28.6215, -29.9142
3.276, 4, 17.8816, 15.8645, 23.0564, 38.2544, -28.6215, -29.9142
3.28, 4, 17.8816, 15.8645, 23.0564, 38.2544, -28.6215, -29.9142
3.284, 4, 17.8816, 15.8645, 23.0564, 38.2544, -28.6215, -29.9142
3.288, 4, 17.8816, 15.8645, 23.0564, 38.2544, -28.6215, -29.9142
3.291, 4, 17.8816, 15.8645, 23.0564, 38.2544, -28.6215, -29.9142
3.296, 4, 17.8816, 15.8645, 23.0564, 38.2544, -28.6215, -29.9142
3.3, 4, 17.8816, 15.8645, 23.0564, 38.2544, -28.6215, -29.9142
3.304, 4, 17.8816, 15.8645, 23.0564, 38.2544, -28.6215, -29.9142
3.308, 4, 17.8816, 15.8645, 23.0564, 38.2544, -28.6215, -29.9142
3.312, 4, 17.8816, 15.8645, 23.0564, 38.2544, -28.6215, -29.9142
3.316, 4, 17.8816, 15.8645, 23.0564, 38.2544, -28.6215, -29.9142
3.32, 4, 17.8816, 15.8645, 23.0564, 38.2544, -28.6215, -29.9142
3.324, 4, 17.8816, 15.8645, 23.0564, 38.2544, -28.6215, -29.9142
3.328, 4, 17.8816, 15.8645, 23.0564, 38.2544, -28.6215, -29.9142
3.332, 4, 17.8816, 15.8645, 23.0564, 38.2544, -28.6215, -29.9142
3.336, 4, 17.8816, 15.8645, 23.0564, 38.2544, -28.6215, -29.9142
3.34, 4, 17.8816, 15.8645, 23.0564, 38.2544, -28.6215, -29.9142
3.344, 4, 17.8816, 15.8645, 23.0564, 38.2544, -28.6215, -29.9142
3.347, 4, 17.8816, 15.8645, 23.0564, 38.2544, -28.6215, -29.9142
3.352, 4, 17.8816, 15.8645, 23.0564, 38.2544, -28.6215, -29.9142
3.358, 4, 17.8816, 15.8645, 23.0564, 38.2544, -28.6215, -29.9142
3.362, 4, 17.8816, 15.8645, 23.0564, 38.2544, -28.6215, -29.9142
3.364, 4, 17.8816, 15.8645, 23.0564, 38.2544, -28.6215, -29.9142
3.368, 4, 17.8816, 15.8645, 23.0564, 38.2544, -28.6215, -29.9142
3.372, 4, 17.8816, 15.8645, 23.0564, 38.2544, -28.6215, -29.9142
3.376, 4, 17.8816, 15.8645, 23.0564, 38.2544, -28.6215, -29.9142
3.38, 4, 17.8816, 15.8645, 23.0564, 38.2544, -28.6215, -29.9142
3.383, 4, 17.8816, 15.8645, 23.0564, 38.2544, -28.6215, -29.9142
3.388, 4, 17.8815, 15.8645, 23.0564, 38.2544, -28.6215, -29.9142
3.392, 4, 17.8812, 15.8645, 23.0564, 38.2543, -28.6215, -29.9142
3.396, 4, 17.8806, 15.8645, 23.0565, 38.2542, -28.6216, -29.9141
3.4, 4, 17.8793, 15.8645, 23.0566, 38.2539, -28.6217, -29.9139
3.403, 4, 17.8773, 15.8644, 23.0569, 38.2532, -28.6219, -29.9133
3.408, 4, 17.8745, 15.8643, 23.0576, 38.2517, -28.6225, -29.912
3.412, 4, 17.8706, 15.864, 23.0586, 38.2489, -28.6235, -29.9095
3.416, 4, 17.8657, 15.8636, 23.0603, 38.2441, -28.6252, -29.9053
3.42, 5, 17.8595, 15.863, 23.063, 38.2364, -28.628, -29.8984
3.424, 5, 17.8519, 15.862, 23.067, 38.2246, -28.6323, -29.8881
3.428, 5, 17.8425, 15.8607, 23.0726, 38.2075, -28.6384, -29.873
3.432, 5, 17.8311, 15.8589, 23.0804, 38.1837, -28.647, -29.8519
3.436, 5, 17.8174, 15.8565, 23.0908, 38.1514, -28.6587, -29.8234
3.439, 5, 17.801, 15.8533, 23.1043, 38.1089, -28.674, -29.7858
3.444, 5, 17.7821, 15.8494, 23.1216, 38.0543, -28.6938, -29.7375
3.448, 5, 17.7607, 15.8444, 23.143, 37.9859, -28.7187, -29.677
3.452, 5, 17.7368, 15.8384, 23.1691, 37.9021, -28.7494, -29.6029
3.456, 5, 17.7105, 15.8313, 23.2001, 37.8018, -28.7862, -29.5141
3.46, 5, 17.6816, 15.823, 23.2364, 37.684, -28.8296, -29.4099
3.464, 5, 17.6502, 15.8134, 23.2781, 37.5487, -28.8797, -29.2902
3.468, 5, 17.6159, 15.8027, 23.325, 37.3959, -28.9366, -29.155
3.472, 5, 17.5788, 15.7909, 23.3771, 37.2262, -29.0002, -29.005
3.476, 5, 17.5389, 15.778, 23.434, 37.0407, -29.0701, -28.8411
3.48, 5, 17.4963, 15.7641, 23.4954, 36.8407, -29.146, -28.6644
3.484, 5, 17.4512, 15.7495, 23.5609, 36.6277, -29.2273, -28.4764
3.488, 5, 17.4039, 15.7341, 23.6299, 36.4036, -29.3135, -28.2787
3.492, 5, 17.3545, 15.7181, 23.7019, 36.1704, -29.404, -28.073
3.495, 5, 17.3028, 15.7018, 23.7763, 35.9299, -29.498, -27.8611
3.5, 5, 17.2491, 15.6851, 23.8525, 35.684, -29.5949, -27.6445
3.504, 5, 17.1932, 15.6683, 23.9302, 35.4344, -29.6942, -27.4249
3.508, 5, 17.1354, 15.6514, 24.0089, 35.1825, -29.7954, -27.2035
3.512, 5, 17.0757, 15.6346, 24.0882, 34.9294, -29.898, -26.9812
3.516, 5, 17.0146, 15.6179, 24.1678, 34.6759, -30.0018, -26.7588
3.52, 5, 16.9524, 15.6013, 24.2477, 34.4226, -30.1065, -26.5367
3.524, 5, 16.8893, 15.585, 24.3276, 34.17, -30.2119, -26.3155
3.528, 5, 16.8256, 15.5688, 24.4074, 33.9183, -30.3181, -26.0952
3.531, 5, 16.7615, 15.5529, 24.487, 33.6677, -30.4249, -25.876
3.536, 5, 16.6971, 15.5372, 24.5665, 33.4183, -30.5323, -25.6582
3.54, 5, 16.6324, 15.5218, 24.6458, 33.1701, -30.6402, -25.4416
3.544, 5, 16.5676, 15.5066, 24.7248, 32.9233, -30.7486, -25.2264
3.548, 5, 16.5025, 15.4917, 24.8036, 32.6779, -30.8574, -25.0126
3.552, 5, 16.4374, 15.4771, 24.8822, 32.4339, -30.9668, -24.8002
3.556, 5, 16.3721, 15.4627, 24.9604, 32.1912, -31.0766, -24.5893
3.56, 5, 16.3067, 15.4486, 25.0384, 31.9499, -31.1869, -24.3797
3.564, 5, 16.2412, 15.4348, 25.1162, 31.7101, -31.2976, -24.1716
3.568, 5, 16.1756, 15.4212, 25.1936, 31.4716, -31.4087, -23.9649
3.572, 5, 16.1099, 15.4079, 25.2708, 31.2345, -31.5203, -23.7596
3.576, 5, 16.0441, 15.3949, 25.3477, 30.9988, -31.6323, -23.5556
3.58, 5, 15.9782, 15.3822, 25.4244, 30.7644, -31.7448, -23.3531
3.584, 5, 15.9122, 15.3697, 25.5007, 30.5315, -31.8576, -23.152
3.587, 5, 15.8462, 15.3575, 25.5768, 30.2998, -31.9709, -22.9522
3.592, 5, 15.78, 15.3455, 25.6526, 30.0696, -32.0846, -22.7538
3.596, 5, 15.7137, 15.3339, 25.7281, 29.8406, -32.1987, -22.5568
3.6, 5, 15.6474, 15.3225, 25.8034, 29.613, -32.3132, -22.3611
3.604, 5, 15.581, 15.3114, 25.8783, 29.3868, -32.4281, -22.1668
3.608, 5, 15.5145, 15.3005, 25.953, 29.1618, -32.5434, -21.9737
3.612, 5, 15.4479, 15.29, 26.0274, 28.9382, -32.6591, -21.7821
3.616, 5, 15.3812, 15.2797, 26.1016, 28.7158, -32.7752, -21.5917
3.62, 5, 15.3144, 15.2696, 26.1754, 28.4947, -32.8916, -21.4026
3.624, 6, 15.2475, 15.2599, 26.249, 28.2749, -33.0085, -21.2149
3.628, 6, 15.1805, 15.2504, 26.3223, 28.0564, -33.1257, -21.0284
3.632, 6, 15.1135, 15.2412, 26.3953, 27.8391, -33.2433, -20.8432
3.636, 6, 15.0464, 15.2323, 26.4681, 27.6231, -33.3613, -20.6592
3.64, 6, 14.9792, 15.2236, 26.5405, 27.4084, -33.4797, -20.4766
3.644, 6, 14.9118, 15.2152, 26.6127, 27.1948, -33.5984, -20.2952
3.648, 6, 14.8445, 15.2071, 26.6846, 26.9825, -33.7174, -20.115
3.652, 6, 14.777, 15.1992, 26.7562, 26.7714, -33.8369, -19.9361
3.656, 6, 14.7094, 15.1917, 26.8276, 26.5615, -33.9566, -19.7584
3.66, 6, 14.6418, 15.1844, 26.8986, 26.3529, -34.0768, -19.5819
3.664, 6, 14.574, 15.1774, 26.9694, 26.1454, -34.1973, -19.4066
3.668, 6, 14.5062, 15.1706, 27.0399, 25.939, -34.3181, -19.2325
3.672, 6, 14.4383, 15.1642, 27.1101, 25.7339, -34.4393, -19.0596
3.676, 6, 14.3703, 15.158, 27.1801, 25.5299, -34.5608, -18.8879
3.679, 6, 14.3023, 15.1521, 27.2497, 25.3271, -34.6826, -18.7174
3.684, 6, 14.2341, 15.1464, 27.3191, 25.1254, -34.8048, -18.548
3.688, 6, 14.1659, 15.1411, 27.3882, 24.9249, -34.9273, -18.3798
3.692, 6, 14.0975, 15.136, 27.457, 24.7255, -35.0502, -18.2128
3.696, 6, 14.0291, 15.1312, 27.5255, 24.5272, -35.1733, -18.0468
3.7, 6, 13.9607, 15.1266, 27.5937, 24.33, -35.2968, -17.8821
3.704, 6, 13.8921, 15.1224, 27.6617, 24.1339, -35.4206, -17.7184
3.708, 6, 13.8234, 15.1184, 27.7294, 23.9389, -35.5447, -17.5558
3.712, 6, 13.7547, 15.1147, 27.7968, 23.745, -35.6692, -17.3944
3.716, 6, 13.6859, 15.1113, 27.8639, 23.5522, -35.7939, -17.2341
3.72, 6, 13.617, 15.1081, 27.9307, 23.3605, -35.919, -17.0748
3.724, 6, 13.548, 15.1053, 27.9972, 23.1698, -36.0443, -16.9166
3.728, 6, 13.479, 15.1027, 28.0635, 22.9801, -36.17, -16.7595
3.732, 6, 13.4098, 15.1004, 28.1294, 22.7915, -36.2959, -16.6035
3.735, 6, 13.3406, 15.0984, 28.1951, 22.604, -36.4222, -16.4485
3.74, 6, 13.2713, 15.0966, 28.2605, 22.4175, -36.5487, -16.2946
3.744, 6, 13.2019, 15.0951, 28.3256, 22.2319, -36.6755, -16.1417
3.748, 6, 13.1325, 15.0939, 28.3904, 22.0475, -36.8026, -15.9898
3.752, 6, 13.063, 15.093, 28.4549, 21.864, -36.93, -15.839
3.756, 6, 12.9933, 15.0924, 28.5192, 21.6815, -37.0577, -15.6891
3.76, 6, 12.9237, 15.092, 28.5831, 21.5, -37.1856, -15.5403
3.764, 6, 12.8539, 15.092, 28.6468, 21.3194, -37.3139, -15.3925
3.768, 6, 12.784, 15.0922, 28.7101, 21.1399, -37.4424, -15.2457
3.772, 6, 12.7141, 15.0927, 28.7732, 20.9613, -37.5711, -15.0998
3.778, 6, 12.6441, 15.0934, 28.836, 20.7837, -37.7002, -14.955
3.78, 6, 12.5741, 15.0945, 28.8985, 20.607, -37.8295, -14.8111
3.784, 6, 12.5039, 15.0958, 28.9607, 20.4313, -37.959, -14.6682
3.788, 6, 12.4337, 15.0974, 29.0227, 20.2565, -38.0889, -14.5262
3.792, 6, 12.3634, 15.0993, 29.0843, 20.0827, -38.2189, -14.3852
3.796, 6, 12.293, 15.1015, 29.1457, 19.9097, -38.3493, -14.2452
3.8, 6, 12.2225, 15.1039, 29.2067, 19.7377, -38.4799, -14.1061
3.804, 6, 12.152, 15.1066, 29.2675, 19.5666, -38.6107, -13.9679
3.808, 6, 12.0814, 15.1097, 29.328, 19.3964, -38.7418, -13.8306
3.812, 6, 12.0107, 15.1129, 29.3881, 19.2271, -38.8732, -13.6943
3.816, 7, 11.94, 15.1165, 29.448, 19.0587, -39.0047, -13.5588
3.82, 7, 11.8692, 15.1204, 29.5076, 18.8912, -39.1366, -13.4243
3.824, 7, 11.7983, 15.1245, 29.567, 18.7245, -39.2686, -13.2906
3.828, 7, 11.7273, 15.1289, 29.626, 18.5588, -39.4009, -13.1579
3.832, 7, 11.6563, 15.1336, 29.6847, 18.3938, -39.5335, -13.026
3.836, 7, 11.5852, 15.1386, 29.7431, 18.2298, -39.6662, -12.895
3.84, 7, 11.514, 15.1438, 29.8013, 18.0665, -39.7992, -12.7649
3.844, 7, 11.4427, 15.1494, 29.8591, 17.9042, -39.9325, -12.6356
3.848, 7, 11.3714, 15.1552, 29.9167, 17.7426, -40.0659, -12.5072
3.852, 7, 11.3, 15.1613, 29.974, 17.5819, -40.1996, -12.3796
3.856, 7, 11.2285, 15.1677, 30.0309, 17.422, -40.3335, -12.2529
3.86, 7, 11.157, 15.1743, 30.0876, 17.2629, -40.4676, -12.127
3.864, 7, 11.0854, 15.1813, 30.144, 17.1047, -40.602, -12.0019
3.868, 7, 11.0137, 15.1885, 30.2001, 16.9472, -40.7365, -11.8777
3.872, 7, 10.942, 15.196, 30.2559, 16.7905, -40.8713, -11.7543
3.876, 7, 10.8701, 15.2038, 30.3114, 16.6346, -41.0063, -11.6317
3.88, 7, 10.7983, 15.2119, 30.3666, 16.4795, -41.1414, -11.5098
3.884, 7, 10.7263, 15.2203, 30.4215, 16.3252, -41.2768, -11.3888
3.888, 7, 10.6543, 15.2289, 30.4761, 16.1716, -41.4124, -11.2686
3.892, 7, 10.5822, 15.2378, 30.5304, 16.0189, -41.5482, -11.1492
3.896, 7, 10.5101, 15.247, 30.5844, 15.8668, -41.6842, -11.0305
3.9, 7, 10.4379, 15.2565, 30.6381, 15.7156, -41.8204, -10.9126
3.904, 7, 10.3656, 15.2663, 30.6916, 15.565, -41.9568, -10.7955
3.908, 7, 10.2932, 15.2763, 30.7447, 15.4152, -42.0934, -10.6792
3.912, 7, 10.2208, 15.2866, 30.7975, 15.2662, -42.2302, -10.5636
3.916, 7, 10.1484, 15.2973, 30.85, 15.1179, -42.3672, -10.4487
3.92, 7, 10.0758, 15.3081, 30.9023, 14.9703, -42.5044, -10.3346
3.924, 7, 10.0032, 15.3193, 30.9542, 14.8234, -42.6417, -10.2212
3.928, 7, 9.93056, 15.3308, 31.0058, 14.6772, -42.7792, -10.1086
3.932, 7, 9.85783, 15.3425, 31.0572, 14.5317, -42.917, -9.99669
3.936, 7, 9.78504, 15.3545, 31.1082, 14.387, -43.0548, -9.88549
3.94, 7, 9.71219, 15.3668, 31.1589, 14.2429, -43.1929, -9.77501
3.944, 7, 9.63928, 15.3794, 31.2094, 14.0995, -43.3312, -9.66525
3.948, 7, 9.56631, 15.3923, 31.2595, 13.9568, -43.4696, -9.55618
3.952, 7, 9.49327, 15.4054, 31.3093, 13.8148, -43.6082, -9.44781
3.956, 7, 9.42018, 15.4189, 31.3589, 13.6734, -43.7469, -9.34014
3.96, 7, 9.34702, 15.4326, 31.4081, 13.5328, -43.8859, -9.23316
3.964, 7, 9.27381, 15.4466, 31.457, 13.3927, -44.025, -9.12686
3.968, 7, 9.20054, 15.4608, 31.5056, 13.2534, -44.1642, -9.02124
3.972, 7, 9.12721, 15.4754, 31.554, 13.1147, -44.3036, -8.91629
3.976, 7, 9.05382, 15.4902, 31.602, 12.9766, -44.4432, -8.81202
3.98, 7, 8.98038, 15.5053, 31.6497, 12.8392, -44.583, -8.7084
3.984, 7, 8.90687, 15.5207, 31.6971, 12.7025, -44.7229, -8.60545
3.988, 7, 8.83331, 15.5364, 31.7442, 12.5663, -44.8629, -8.50316
3.992, 7, 8.75969, 15.5524, 31.791, 12.4308, -45.0031, -8.40151
3.996, 7, 8.68602, 15.5686, 31.8375, 12.296, -45.1435, -8.30051
3.999, 7, 8.61229, 15.5851, 31.8837, 12.1617, -45.284, -8.20015
4.004, 7, 8.53851, 15.6019, 31.9296, 12.0281, -45.4247, -8.10043
4.008, 8, 8.46467, 15.619, 31.9752, 11.895, -45.5655, -8.00133
4.012, 8, 8.39078, 15.6364, 32.0205, 11.7626, -45.7064, -7.90287
4.016, 8, 8.31683, 15.654, 32.0655, 11.6308, -45.8475, -7.80502
4.02, 8, 8.24283, 15.6719, 32.1101, 11.4996, -45.9888, -7.7078
4.024, 8, 8.16878, 15.6901, 32.1545, 11.3689, -46.1301, -7.61118
4.028, 8, 8.09468, 15.7086, 32.1986, 11.2389, -46.2716, -7.51517
4.032, 8, 8.02052, 15.7274, 32.2423, 11.1094, -46.4133, -7.41977
4.036, 8, 7.94631, 15.7464, 32.2858, 10.9806, -46.5551, -7.32496
4.04, 8, 7.87205, 15.7657, 32.3289, 10.8523, -46.697, -7.23075
4.044, 8, 7.79774, 15.7853, 32.3717, 10.7245, -46.8391, -7.13713
4.048, 8, 7.72337, 15.8052, 32.4143, 10.5973, -46.9813, -7.04409
4.052, 8, 7.64896, 15.8254, 32.4565, 10.4707, -47.1236, -6.95163
4.056, 8, 7.5745, 15.8458, 32.4984, 10.3447, -47.266, -6.85975
4.06, 8, 7.49999, 15.8665, 32.54, 10.2192, -47.4086, -6.76844
4.064, 8, 7.42543, 15.8875, 32.5813, 10.0942, -47.5512, -6.67771
4.068, 8, 7.35082, 15.9088, 32.6222, 9.96983, -47.6941, -6.58753
4.072, 8, 7.27616, 15.9304, 32.6629, 9.84597, -47.837, -6.49792
4.076, 8, 7.20146, 15.9522, 32.7033, 9.72264, -47.98, -6.40886
4.08, 8, 7.12671, 15.9743, 32.7433, 9.59984, -48.1232, -6.32035
4.084, 8, 7.05192, 15.9967, 32.7831, 9.47758, -48.2665, -6.23239
4.088, 8, 6.97708, 16.0193, 32.8225, 9.35583, -48.4099, -6.14498
4.092, 8, 6.9022, 16.0423, 32.8616, 9.23461, -48.5534, -6.0581
4.096, 8, 6.82727, 16.0655, 32.9004, 9.1139, -48.697, -5.97176
4.1, 8, 6.7523, 16.089, 32.9389, 8.99371, -48.8407, -5.88595
4.104, 8, 6.67728, 16.1127, 32.9771, 8.87402, -48.9845, -5.80067
4.108, 8, 6.60222, 16.1368, 33.015, 8.75484, -49.1285, -5.71591
4.112, 8, 6.52711, 16.1611, 33.0526, 8.63616, -49.2725, -5.63167
4.116, 8, 6.45197, 16.1857, 33.0898, 8.51798, -49.4166, -5.54795
4.12, 8, 6.37678, 16.2106, 33.1268, 8.40029, -49.5608, -5.46474
4.124, 8, 6.30155, 16.2357, 33.1634, 8.28309, -49.7052, -5.38203
4.128, 8, 6.22628, 16.2611, 33.1997, 8.16638, -49.8496, -5.29984
4.132, 8, 6.15097, 16.2868, 33.2357, 8.05014, -49.9941, -5.21814
4.136, 8, 6.07562, 16.3128, 33.2714, 7.93439, -50.1387, -5.13694
4.14, 8, 6.00023, 16.339, 33.3068, 7.81912, -50.2834, -5.05623
4.144, 8, 5.9248, 16.3655, 33.3419, 7.70431, -50.4282, -4.97602
4.148, 8, 5.84934, 16.3923, 33.3766, 7.58998, -50.5731, -4.89629
4.152, 8, 5.77384, 16.4194, 33.411, 7.47611, -50.7181, -4.81704
4.156, 8, 5.69829, 16.4467, 33.4452, 7.3627, -50.8631, -4.73828
4.16, 8, 5.62272, 16.4743, 33.479, 7.24975, -51.0083, -4.65999
4.164, 8, 5.5471, 16.5022, 33.5124, 7.13726, -51.1535, -4.58217
4.168, 8, 5.47145, 16.5303, 33.5456, 7.02522, -51.2988, -4.50483
4.172, 8, 5.39577, 16.5587, 33.5785, 6.91363, -51.4442, -4.42795
4.176, 8, 5.32005, 16.5874, 33.611, 6.80248, -51.5896, -4.35154
4.18, 8, 5.24429, 16.6164, 33.6432, 6.69178, -51.7352, -4.27558
4.184, 8, 5.1685, 16.6456, 33.6751, 6.58152, -51.8808, -4.20009
4.188, 8, 5.09268, 16.6751, 33.7067, 6.47169, -52.0264, -4.12504
4.192, 8, 5.01683, 16.7049, 33.738, 6.3623, -52.1722, -4.05045
4.196, 9, 4.94094, 16.735, 33.769, 6.25334, -52.318, -3.97631
4.2, 9, 4.86502, 16.7653, 33.7996, 6.14481, -52.4639, -3.90261
4.204, 9, 4.78907, 16.7959, 33.8299, 6.0367, -52.6098, -3.82935
4.208, 9, 4.71309, 16.8267, 33.8599, 5.92901, -52.7559, -3.75653
4.212, 9, 4.63708, 16.8579, 33.8896, 5.82174, -52.902, -3.68415
4.216, 9, 4.56104, 16.8893, 33.9189, 5.71488, -53.0481, -3.6122
4.22, 9, 4.48497, 16.9209, 33.9479, 5.60844, -53.1943, -3.54067
4.224, 9, 4.40887, 16.9529, 33.9766, 5.50241, -53.3406, -3.46957
4.228, 9, 4.33274, 16.9851, 34.005, 5.39678, -53.4869, -3.39889
4.232, 9, 4.25658, 17.0175, 34.0331, 5.29155, -53.6333, -3.32864
4.236, 9, 4.1804, 17.0503, 34.0608, 5.18673, -53.7797, -3.2588
4.24, 9, 4.10419, 17.0833, 34.0882, 5.0823, -53.9262, -3.18937
4.244, 9, 4.02796, 17.1166, 34.1153, 4.97827, -54.0727, -3.12035
4.248, 9, 3.95169, 17.1501, 34.142, 4.87463, -54.2193, -3.05174
4.252, 9, 3.87541, 17.1839, 34.1685, 4.77138, -54.366, -2.98354
4.256, 9, 3.7991, 17.218, 34.1946, 4.66852, -54.5126, -2.91574
4.26, 9, 3.72276, 17.2523, 34.2204, 4.56604, -54.6594, -2.84834
4.264, 9, 3.6464, 17.2869, 34.2459, 4.46394, -54.8061, -2.78133
4.268, 9, 3.57002, 17.3218, 34.271, 4.36222, -54.953, -2.71472
4.272, 9, 3.49362, 17.3569, 34.2958, 4.26088, -55.0998, -2.6485
4.276, 9, 3.41719, 17.3923, 34.3203, 4.15991, -55.2467, -2.58266
4.28, 9, 3.34074, 17.428, 34.3445, 4.05931, -55.3937, -2.51722
4.284, 9, 3.26428, 17.4639, 34.3684, 3.95908, -55.5406, -2.45215
4.288, 9, 3.18779, 17.5001, 34.3919, 3.85922, -55.6876, -2.38747
4.292, 9, 3.11128, 17.5365, 34.4151, 3.75972, -55.8347, -2.32316
4.296, 9, 3.03475, 17.5732, 34.438, 3.66058, -55.9817, -2.25922
4.3, 9, 2.95821, 17.6101, 34.4606, 3.5618, -56.1288, -2.19566
4.304, 9, 2.88164, 17.6473, 34.4828, 3.46338, -56.276, -2.13247
4.308, 9, 2.80506, 17.6848, 34.5048, 3.36531, -56.4231, -2.06965
4.312, 9, 2.72846, 17.7225, 34.5264, 3.26759, -56.5703, -2.00718
4.316, 9, 2.65185, 17.7605, 34.5476, 3.17022, -56.7175, -1.94508
4.32, 9, 2.57521, 17.7987, 34.5686, 3.07319, -56.8647, -1.88334
4.324, 9, 2.49857, 17.8372, 34.5892, 2.97651, -57.012, -1.82196
4.328, 9, 2.42191, 17.8759, 34.6095, 2.88017, -57.1593, -1.76093
4.332, 9, 2.34523, 17.9149, 34.6295, 2.78418, -57.3066, -1.70025
4.336, 9, 2.26854, 17.9542, 34.6491, 2.68852, -57.4539, -1.63992
4.34, 9, 2.19184, 17.9937, 34.6685, 2.59319, -57.6012, -1.57994
4.344, 9, 2.11512, 18.0334, 34.6875, 2.4982, -57.7485, -1.5203
4.348, 9, 2.03839, 18.0734, 34.7062, 2.40354, -57.8959, -1.461
4.352, 9, 1.96165, 18.1138, 34.7245, 2.3092, -58.0432, -1.40204
4.356, 9, 1.8849, 18.1545, 34.7424, 2.21519, -58.1906, -1.34342
4.36, 9, 1.80815, 18.1957, 34.76, 2.12151, -58.338, -1.28514
4.364, 9, 1.73141, 18.2374, 34.777, 2.02814, -58.4854, -1.22719
4.368, 9, 1.65468, 18.2799, 34.7935, 1.9351, -58.6328, -1.16957
4.372, 9, 1.57798, 18.3231, 34.8093, 1.84238, -58.7803, -1.11229
4.376, 9, 1.50135, 18.3671, 34.8242, 1.74999, -58.9277, -1.05534
4.38, 9, 1.42479, 18.4121, 34.8383, 1.65793, -59.0751, -0.998734
4.384, 9, 1.34832, 18.4581, 34.8511, 1.56621, -59.2225, -0.942472
4.388, 10, 1.27196, 18.5054, 34.8627, 1.47486, -59.3697, -0.886563
4.392, 10, 1.19569, 18.5538, 34.8728, 1.3839, -59.5169, -0.831016
4.396, 10, 1.11953, 18.6036, 34.8811, 1.29333, -59.6638, -0.775844
4.4, 10, 1.04346, 18.6546, 34.8876, 1.20319, -59.8106, -0.721058
4.404, 10, 0.9675, 18.707, 34.892, 1.11351, -59.957, -0.666671
4.408, 10, 0.891646, 18.7605, 34.8942, 1.02431, -60.1031, -0.612693
4.412, 10, 0.815914, 18.8151, 34.8942, 0.935609, -60.2489, -0.559134
4.416, 10, 0.740319, 18.8708, 34.8918, 0.847421, -60.3942, -0.506
4.42, 10, 0.66487, 18.9278, 34.8872, 0.759755, -60.5391, -0.453293
4.424, 10, 0.589572, 18.9859, 34.8804, 0.672615, -60.6836, -0.401012
4.428, 10, 0.514427, 19.0454, 34.8713, 0.585996, -60.8277, -0.349154
4.432, 10, 0.439449, 19.1063, 34.8601, 0.499891, -60.9713, -0.297711
4.436, 10, 0.364666, 19.1686, 34.847, 0.41429, -61.1146, -0.246676
4.44, 10, 0.290117, 19.2324, 34.832, 0.329182, -61.2574, -0.196041
4.444, 10, 0.215846, 19.2978, 34.8153, 0.244559, -61.3999, -0.1458
4.448, 10, 0.141895, 19.3646, 34.7969, 0.160418, -61.542, -0.0959483
4.452, 10, 0.0683008, 19.4328, 34.777, 0.0767644, -61.6838, -0.0464878
4.456, 10, -0.00491662, 19.5025, 34.7554, -0.00638441, -61.8251, 0.00257533
4.46, 10, -0.0777472, 19.5736, 34.7323, -0.0890012, -61.966, 0.0512284
4.464, 11, -0.150186, 19.646, 34.7075, -0.171047, -62.1065, 0.0994527
4.468, 11, -0.222231, 19.7198, 34.681, -0.252473, -62.2463, 0.147225
4.472, 11, -0.293879, 19.7948, 34.6528, -0.333223, -62.3856, 0.194516
4.476, 11, -0.365131, 19.8711, 34.6226, -0.413239, -62.5241, 0.241299
4.48, 11, -0.435986, 19.9484, 34.5903, -0.492462, -62.6618, 0.287546
4.484, 11, -0.506445, 20.0269, 34.556, -0.570844, -62.7986, 0.333232
4.488, 11, -0.576505, 20.1063, 34.5195, -0.648347, -62.9345, 0.378343
4.492, 11, -0.64616, 20.1868, 34.4807, -0.72495, -63.0694, 0.422869
4.496, 11, -0.715403, 20.2682, 34.4398, -0.800649, -63.2033, 0.466812
4.5, 11, -0.784228, 20.3507, 34.3967, -0.875458, -63.3362, 0.510182
4.504, 11, -0.85265, 20.4341, 34.3516, -0.949404, -63.4681, 0.552999
4.508, 11, -0.920705, 20.5187, 34.3045, -1.02253, -63.5991, 0.595288
4.512, 11, -0.988443, 20.6042, 34.2556, -1.09489, -63.7293, 0.637082
4.516, 11, -1.0559, 20.6906, 34.2051, -1.16654, -63.8586, 0.678416
4.52, 11, -1.12308, 20.778, 34.1532, -1.23754, -63.9873, 0.719328
4.524, 11, -1.18996, 20.8661, 34.0999, -1.30797, -64.1152, 0.759858
4.528, 11, -1.25652, 20.955, 34.0456, -1.37788, -64.2427, 0.800042
4.532, 11, -1.32272, 21.0446, 33.9904, -1.44734, -64.3696, 0.839914
4.536, 11, -1.38852, 21.1347, 33.9344, -1.51638, -64.4962, 0.879504
4.54, 11, -1.45394, 21.2253, 33.8776, -1.58506, -64.6224, 0.918837
4.544, 11, -1.51901, 21.3162, 33.8203, -1.6534, -64.7483, 0.95793
4.548, 11, -1.58379, 21.4075, 33.7625, -1.72142, -64.874, 0.996798
4.552, 11, -1.64833, 21.4991, 33.7043, -1.78913, -64.9994, 1.03545
4.556, 11, -1.71268, 21.5908, 33.6456, -1.85656, -65.1246, 1.0739
4.56, 11, -1.77687, 21.6827, 33.5865, -1.9237, -65.2496, 1.11214
4.564, 11, -1.84091, 21.7747, 33.5271, -1.99056, -65.3744, 1.15018
4.568, 11, -1.90484, 21.8668, 33.4674, -2.05714, -65.499, 1.18804
4.572, 11, -1.96864, 21.9591, 33.4073, -2.12345, -65.6234, 1.2257
4.576, 11, -2.03234, 22.0515, 33.3468, -2.1895, -65.7476, 1.26317
4.58, 11, -2.09593, 22.144, 33.2861, -2.25527, -65.8716, 1.30046
4.584, 11, -2.15941, 22.2366, 33.225, -2.32078, -65.9955, 1.33757
4.588, 11, -2.22279, 22.3293, 33.1636, -2.38603, -66.1191, 1.3745
4.592, 11, -2.28607, 22.4221, 33.1018, -2.45101, -66.2426, 1.41124
4.596, 11, -2.34926, 22.515, 33.0397, -2.51574, -66.3658, 1.44781
4.6, 11, -2.41234, 22.608, 32.9773, -2.5802, -66.4889, 1.48421
4.604, 11, -2.47532, 22.7011, 32.9146, -2.64441, -66.6117, 1.52043
4.608, 11, -2.53821, 22.7943, 32.8516, -2.70836, -66.7344, 1.55648
4.612, 11, -2.60099, 22.8876, 32.7882, -2.77205, -66.8569, 1.59236
4.616, 11, -2.66367, 22.981, 32.7245, -2.8355, -66.9792, 1.62808
4.62, 11, -2.72626, 23.0745, 32.6605, -2.89868, -67.1013, 1.66363
4.624, 11, -2.78875, 23.168, 32.5962, -2.96162, -67.2232, 1.69901
4.628, 11, -2.85113, 23.2617, 32.5316, -3.02431, -67.3448, 1.73424
4.632, 11, -2.91342, 23.3554, 32.4666, -3.08675, -67.4663, 1.7693
4.636, 11, -2.97561, 23.4493, 32.4013, -3.14894, -67.5876, 1.8042
4.64, 11, -3.0377, 23.5432, 32.3357, -3.21089, -67.7087, 1.83895
4.644, 11, -3.09968, 23.6372, 32.2697, -3.27259, -67.8295, 1.87354
4.648, 11, -3.16157, 23.7313, 32.2035, -3.33405, -67.9502, 1.90798
4.652, 11, -3.22335, 23.8255, 32.1369, -3.39526, -68.0706, 1.94227
4.656, 12, -3.28503, 23.9197, 32.07, -3.45623, -68.1908, 1.97641
4.66, 12, -3.34661, 24.0141, 32.0027, -3.51697, -68.3108, 2.0104
4.664, 12, -3.40809, 24.1085, 31.9352, -3.57746, -68.4306, 2.04424
4.668, 12, -3.46947, 24.203, 31.8673, -3.63771, -68.5501, 2.07794
4.672, 12, -3.53075, 24.2976, 31.7991, -3.69772, -68.6694, 2.1115
4.676, 12, -3.59193, 24.3922, 31.7305, -3.7575, -68.7885, 2.14491
4.68, 12, -3.65301, 24.487, 31.6617, -3.81704, -68.9074, 2.17819
4.684, 12, -3.71399, 24.5818, 31.5925, -3.87635, -69.026, 2.21132
4.688, 12, -3.77486, 24.6767, 31.523, -3.93542, -69.1444, 2.24432
4.692, 12, -3.83564, 24.7717, 31.4532, -3.99426, -69.2625, 2.27718
4.696, 12, -3.89632, 24.8668, 31.383, -4.05287, -69.3804, 2.30992
4.7, 12, -3.95689, 24.9619, 31.3125, -4.11125, -69.4981, 2.34251
4.704, 12, -4.01736, 25.0571, 31.2417, -4.1694, -69.6156, 2.37498
4.708, 12, -4.07773, 25.1524, 31.1706, -4.22732, -69.7328, 2.40732
4.712, 12, -4.138, 25.2478, 31.0991, -4.28502, -69.8498, 2.43954
4.716, 12, -4.19816, 25.3432, 31.0274, -4.34248, -69.9666, 2.47162
4.72, 12, -4.25822, 25.4388, 30.9553, -4.39973, -70.0831, 2.50359
4.724, 12, -4.31818, 25.5344, 30.8828, -4.45675, -70.1994, 2.53543
4.728, 12, -4.37804, 25.63, 30.8101, -4.51354, -70.3155, 2.56715
4.732, 12, -4.43779, 25.7258, 30.7371, -4.57012, -70.4314, 2.59875
4.736, 12, -4.49744, 25.8216, 30.6637, -4.62647, -70.547, 2.63024
4.74, 12, -4.55699, 25.9175, 30.59, -4.6826, -70.6624, 2.66161
4.744, 12, -4.61644, 26.0134, 30.5159, -4.73851, -70.7776, 2.69286
4.748, 12, -4.67578, 26.1095, 30.4416, -4.79421, -70.8925, 2.724
4.752, 12, -4.73502, 26.2056, 30.3669, -4.84968, -71.0073, 2.75502
4.756, 12, -4.79416, 26.3018, 30.292, -4.90494, -71.1218, 2.78594
4.76, 12, -4.8532, 26.398, 30.2167, -4.95999, -71.236, 2.81675
4.764, 12, -4.91213, 26.4943, 30.141, -5.01481, -71.3501, 2.84745
4.768, 12, -4.97096, 26.5907, 30.0651, -5.06943, -71.4639, 2.87804
4.772, 12, -5.02969, 26.6872, 29.9888, -5.12383, -71.5775, 2.90853
4.776, 12, -5.08832, 26.7837, 29.9122, -5.17801, -71.6909, 2.93891
4.78, 12, -5.14685, 26.8803, 29.8353, -5.23199, -71.804, 2.9692
4.784, 12, -5.20527, 26.977, 29.7581, -5.28575, -71.9169, 2.99938
4.788, 12, -5.26359, 27.0737, 29.6805, -5.3393, -72.0296, 3.02946
4.792, 12, -5.3218, 27.1705, 29.6027, -5.39264, -72.142, 3.05944
4.796, 12, -5.37992, 27.2674, 29.5245, -5.44578, -72.2542, 3.08933
4.8, 12, -5.43792, 27.3644, 29.446, -5.4987, -72.3662, 3.11912
4.804, 12, -5.49583, 27.4614, 29.3672, -5.55142, -72.4779, 3.14882
4.808, 12, -5.55363, 27.5584, 29.288, -5.60393, -72.5894, 3.17842
4.812, 12, -5.61133, 27.6556, 29.2085, -5.65623, -72.7007, 3.20794
4.816, 12, -5.66893, 27.7528, 29.1288, -5.70833, -72.8117, 3.23736
4.82, 12, -5.72642, 27.8501, 29.0486, -5.76022, -72.9225, 3.2667
4.824, 12, -5.78382, 27.9474, 28.9682, -5.81191, -73.0331, 3.29594
4.828, 12, -5.84111, 28.0448, 28.8875, -5.8634, -73.1434, 3.32511
4.832, 12, -5.8983, 28.1423, 28.8064, -5.91468, -73.2535, 3.35418
4.836, 12, -5.95538, 28.2398, 28.725, -5.96577, -73.3633, 3.38318
4.84, 12, -6.01236, 28.3374, 28.6433, -6.01665, -73.4729, 3.41209
4.844, 13, -6.06924, 28.4351, 28.5613, -6.06733, -73.5823, 3.44092
4.848, 13, -6.12601, 28.5328, 28.4789, -6.11781, -73.6914, 3.46967
4.852, 13, -6.18268, 28.6306, 28.3962, -6.16809, -73.8003, 3.49834
4.856, 13, -6.23925, 28.7284, 28.3132, -6.21817, -73.909, 3.52694
4.86, 13, -6.29571, 28.8263, 28.2299, -6.26805, -74.0173, 3.55545
4.864, 13, -6.35207, 28.9243, 28.1463, -6.31774, -74.1255, 3.5839
4.868, 13, -6.40832, 29.0223, 28.0623, -6.36723, -74.2334, 3.61227
4.872, 13, -6.46448, 29.1204, 27.9781, -6.41652, -74.3411, 3.64057
4.876, 13, -6.52053, 29.2186, 27.8935, -6.46562, -74.4485, 3.66879
4.88, 13, -6.57647, 29.3168, 27.8086, -6.51452, -74.5557, 3.69695
4.884, 13, -6.63232, 29.415, 27.7233, -6.56323, -74.6626, 3.72504
4.888, 13, -6.68806, 29.5134, 27.6378, -6.61174, -74.7693, 3.75306
4.892, 13, -6.74369, 29.6118, 27.5519, -6.66006, -74.8757, 3.78101
4.896, 13, -6.79922, 29.7102, 27.4657, -6.70819, -74.9819, 3.8089
4.9, 13, -6.85465, 29.8087, 27.3792, -6.75612, -75.0879, 3.83673
4.904, 13, -6.90998, 29.9073, 27.2923, -6.80386, -75.1936, 3.86449
4.908, 13, -6.9652, 30.0059, 27.2052, -6.85142, -75.299, 3.89219
4.912, 13, -7.02031, 30.1046, 27.1177, -6.89878, -75.4042, 3.91983
4.916, 13, -7.07533, 30.2033, 27.0299, -6.94595, -75.5092, 3.94741
4.92, 13, -7.13024, 30.3021, 26.9418, -6.99293, -75.6139, 3.97494
4.924, 13, -7.18505, 30.4009, 26.8533, -7.03972, -75.7183, 4.0024
4.928, 13, -7.23975, 30.4998, 26.7646, -7.08632, -75.8225, 4.02981
4.932, 13, -7.29435, 30.5988, 26.6755, -7.13273, -75.9265, 4.05716
4.936, 13, -7.34885, 30.6978, 26.5861, -7.17896, -76.0302, 4.08446
4.94, 13, -7.40324, 30.7969, 26.4963, -7.225, -76.1336, 4.11171
4.944, 13, -7.45753, 30.896, 26.4063, -7.27085, -76.2368, 4.1389
4.948, 13, -7.51172, 30.9952, 26.3159, -7.31651, -76.3397, 4.16605
4.952, 13, -7.5658, 31.0944, 26.2252, -7.36199, -76.4424, 4.19314
4.956, 13, -7.61979, 31.1937, 26.1342, -7.40729, -76.5449, 4.22019
4.96, 13, -7.67366, 31.2931, 26.0429, -7.45239, -76.647, 4.24719
4.964, 13, -7.72744, 31.3925, 25.9512, -7.49732, -76.749, 4.27414
4.968, 13, -7.78111, 31.4919, 25.8592, -7.54206, -76.8506, 4.30104
4.972, 13, -7.83468, 31.5914, 25.7669, -7.58661, -76.952, 4.3279
4.976, 13, -7.88814, 31.691, 25.6743, -7.63098, -77.0532, 4.35472
4.98, 13, -7.9415, 31.7906, 25.5814, -7.67517, -77.1541, 4.3815
4.984, 13, -7.99476, 31.8903, 25.4881, -7.71918, -77.2548, 4.40823
4.988, 13, -8.04791, 31.99, 25.3945, -7.763, -77.3551, 4.43492
4.992, 13, -8.10096, 32.0898, 25.3006, -7.80664, -77.4553, 4.46158
4.996, 13, -8.1539, 32.1896, 25.2064, -7.8501, -77.5552, 4.48819
5, 13, -8.20675, 32.2895, 25.1118, -7.89338, -77.6548, 4.51477
5.004, 13, -8.25949, 32.3894, 25.017, -7.93648, -77.7541, 4.54131
5.008, 13, -8.31212, 32.4894, 24.9218, -7.97939, -77.8532, 4.56782
5.012, 13, -8.36466, 32.5894, 24.8262, -8.02213, -77.9521, 4.59429
5.016, 13, -8.4171, 32.6895, 24.7304, -8.06469, -78.0507, 4.62073
5.02, 13, -8.46943, 32.7896, 24.6342, -8.10707, -78.149, 4.64714
5.024, 13, -8.52166, 32.8898, 24.5377, -8.14927, -78.2471, 4.67351
5.028, 13, -8.57378, 32.9901, 24.4409, -8.19129, -78.3449, 4.69986
5.032, 13, -8.6258, 33.0904, 24.3438, -8.23313, -78.4424, 4.72617
5.036, 14, -8.67772, 33.1907, 24.2463, -8.2748, -78.5397, 4.75246
5.04, 14, -8.72953, 33.2911, 24.1486, -8.31629, -78.6367, 4.77871
5.044, 14, -8.78125, 33.3916, 24.0505, -8.35759, -78.7335, 4.80495
5.048, 14, -8.83285, 33.4921, 23.952, -8.39873, -78.83, 4.83115
5.052, 14, -8.88436, 33.5926, 23.8533, -8.43968, -78.9262, 4.85733
5.056, 14, -8.93577, 33.6932, 23.7542, -8.48046, -79.0222, 4.88349
5.06, 14, -8.98707, 33.7938, 23.6548, -8.52107, -79.1179, 4.90963
5.064, 14, -9.03827, 33.8946, 23.5551, -8.5615, -79.2133, 4.93574
5.068, 14, -9.08937, 33.9953, 23.455, -8.60175, -79.3085, 4.96183
5.072, 14, -9.14037, 34.0961, 23.3546, -8.64183, -79.4034, 4.9879
5.076, 14, -9.19126, 34.197, 23.2539, -8.68173, -79.498, 5.01395
5.08, 14, -9.24205, 34.2979, 23.1529, -8.72146, -79.5924, 5.03998
5.084, 14, -9.29274, 34.3988, 23.0516, -8.76101, -79.6866, 5.066
5.088, 14, -9.34333, 34.4998, 22.9499, -8.80039, -79.7804, 5.09199
5.092, 14, -9.39381, 34.6009, 22.8479, -8.8396, -79.874, 5.11798
5.096, 14, -9.44419, 34.702, 22.7456, -8.87863, -79.9673, 5.14394
5.1, 14, -9.49447, 34.8031, 22.6429, -8.91749, -80.0604, 5.1699
5.104, 14, -9.54465, 34.9043, 22.5399, -8.95617, -80.1532, 5.19584
5.108, 14, -9.59473, 35.0056, 22.4366, -8.99469, -80.2457, 5.22176
5.112, 14, -9.6447, 35.1069, 22.333, -9.03303, -80.338, 5.24768
5.116, 14, -9.69458, 35.2082, 22.229, -9.0712, -80.4299, 5.27358
5.12, 14, -9.74435, 35.3097, 22.1247, -9.10919, -80.5217, 5.29948
5.124, 14, -9.79402, 35.4111, 22.0201, -9.14702, -80.6131, 5.32536
5.128, 14, -9.84359, 35.5126, 21.9152, -9.18467, -80.7043, 5.35124
5.132, 14, -9.89305, 35.6142, 21.8099, -9.22215, -80.7952, 5.37711
5.136, 14, -9.94242, 35.7158, 21.7043, -9.25946, -80.8859, 5.40297
5.14, 14, -9.99168, 35.8174, 21.5984, -9.2966, -80.9763, 5.42882
5.144, 14, -10.0408, 35.9191, 21.4921, -9.33357, -81.0664, 5.45468
5.148, 14, -10.0899, 36.0209, 21.3856, -9.37037, -81.1562, 5.48052
5.152, 14, -10.1389, 36.1227, 21.2787, -9.407, -81.2458, 5.50636
5.156, 14, -10.1877, 36.2246, 21.1714, -9.44345, -81.3351, 5.5322
5.16, 14, -10.2365, 36.3265, 21.0638, -9.47974, -81.4241, 5.55804
5.164, 14, -10.2852, 36.4284, 20.956, -9.51586, -81.5129, 5.58387
5.168, 14, -10.3337, 36.5304, 20.8477, -9.55181, -81.6014, 5.60971
5.172, 14, -10.3822, 36.6325, 20.7392, -9.58759, -81.6896, 5.63554
5.176, 14, -10.4305, 36.7346, 20.6303, -9.6232, -81.7776, 5.66138
5.18, 14, -10.4788, 36.8368, 20.5211, -9.65864, -81.8653, 5.68722
5.184, 14, -10.5269, 36.939, 20.4115, -9.69391, -81.9527, 5.71306
5.188, 14, -10.575, 37.0413, 20.3016, -9.72902, -82.0398, 5.7389
5.192, 14, -10.6229, 37.1436, 20.1914, -9.76395, -82.1267, 5.76475
5.196, 14, -10.6708, 37.2459, 20.0809, -9.79872, -82.2133, 5.7906
5.2, 14, -10.7185, 37.3484, 19.97, -9.83332, -82.2996, 5.81645
5.204, 14, -10.7662, 37.4508, 19.8588, -9.86775, -82.3857, 5.84232
5.208, 14, -10.8138, 37.5534, 19.7473, -9.90201, -82.4715, 5.86819
5.212, 14, -10.8612, 37.6559, 19.6354, -9.93611, -82.557, 5.89406
5.216, 14, -10.9086, 37.7586, 19.5232, -9.97004, -82.6422, 5.91995
5.22, 14, -10.9558, 37.8612, 19.4107, -10.0038, -82.7271, 5.94585
5.224, 15, -11.003, 37.964, 19.2978, -10.0374, -82.8118, 5.97175
5.228, 15, -11.05, 38.0668, 19.1846, -10.0708, -82.8962, 5.99767
5.232, 15, -11.097, 38.1696, 19.071, -10.1041, -82.9804, 6.02359
5.236, 15, -11.1439, 38.2725, 18.9572, -10.1372, -83.0642, 6.04953
5.24, 15, -11.1906, 38.3754, 18.843, -10.1701, -83.1478, 6.07549
5.244, 15, -11.2373, 38.4784, 18.7284, -10.2029, -83.2311, 6.10145
5.248, 15, -11.2838, 38.5815, 18.6135, -10.2354, -83.3141, 6.12743
5.252, 15, -11.3303, 38.6846, 18.4983, -10.2679, -83.3969, 6.15342
5.256, 15, -11.3767, 38.7878, 18.3827, -10.3001, -83.4794, 6.17943
5.26, 15, -11.4229, 38.891, 18.2668, -10.3322, -83.5616, 6.20546
5.264, 15, -11.4691, 38.9942, 18.1506, -10.3642, -83.6435, 6.2315
5.268, 15, -11.5152, 39.0976, 18.034, -10.3959, -83.7252, 6.25756
5.272, 15, -11.5611, 39.2009, 17.9171, -10.4275, -83.8065, 6.28364
5.276, 15, -11.607, 39.3044, 17.7999, -10.4589, -83.8876, 6.30973
5.28, 15, -11.6528, 39.4078, 17.6823, -10.4902, -83.9684, 6.33585
5.284, 15, -11.6984, 39.5114, 17.5643, -10.5213, -84.049, 6.36199
5.288, 15, -11.744, 39.615, 17.4461, -10.5522, -84.1292, 6.38814
5.292, 15, -11.7895, 39.7186, 17.3274, -10.583, -84.2092, 6.41432
5.296, 15, -11.8349, 39.8223, 17.2085, -10.6136, -84.2889, 6.44052
5.3, 15, -11.8801, 39.9261, 17.0892, -10.644, -84.3683, 6.46675
5.304, 15, -11.9253, 40.0299, 16.9695, -10.6743, -84.4475, 6.493
5.308, 15, -11.9704, 40.1338, 16.8495, -10.7044, -84.5263, 6.51927
5.312, 15, -12.0154, 40.2378, 16.7292, -10.7343, -84.6049, 6.54557
5.316, 15, -12.0603, 40.3417, 16.6085, -10.7641, -84.6832, 6.57189
5.32, 15, -12.1051, 40.4458, 16.4875, -10.7937, -84.7612, 6.59823
5.324, 15, -12.1498, 40.5499, 16.3661, -10.8232, -84.8389, 6.62461
5.328, 15, -12.1944, 40.6541, 16.2444, -10.8524, -84.9164, 6.65101
5.332, 15, -12.2389, 40.7583, 16.1223, -10.8816, -84.9936, 6.67744
5.336, 15, -12.2833, 40.8626, 15.9999, -10.9105, -85.0704, 6.70389
5.34, 15, -12.3276, 40.967, 15.8772, -10.9393, -85.147, 6.73038
5.344, 15, -12.3719, 41.0714, 15.7541, -10.9679, -85.2234, 6.75689
5.348, 15, -12.416, 41.1758, 15.6306, -10.9964, -85.2994, 6.78343
5.352, 15, -12.46, 41.2803, 15.5068, -11.0247, -85.3752, 6.81
5.356, 15, -12.5039, 41.3849, 15.3827, -11.0528, -85.4507, 6.83661
5.36, 15, -12.5475, 41.4892, 15.2582, -11.0808, -85.5259, 6.86324
5.364, 15, -12.5906, 41.5932, 15.1336, -11.1086, -85.6008, 6.88989
5.368, 15, -12.6333, 41.6966, 15.0088, -11.1362, -85.6754, 6.91657
5.372, 15, -12.6752, 41.7993, 14.884, -11.1636, -85.7497, 6.94325
5.376, 15, -12.7164, 41.901, 14.7594, -11.1909, -85.8235, 6.9699
5.38, 15, -12.7568, 42.0016, 14.6351, -11.2179, -85.8969, 6.99648
5.384, 15, -12.7964, 42.1011, 14.5114, -11.2445, -85.9696, 7.02295
5.388, 15, -12.8352, 42.1993, 14.3886, -11.2709, -86.0414, 7.04925
5.392, 15, -12.8733, 42.2961, 14.267, -11.2968, -86.1123, 7.07528
5.396, 15, -12.9104, 42.3911, 14.1471, -11.3222, -86.1819, 7.10098
5.4, 15, -12.9464, 42.484, 14.0293, -11.347, -86.2501, 7.12623
5.404, 15, -12.9813, 42.5744, 13.9141, -11.3711, -86.3165, 7.15095
5.408, 15, -13.0148, 42.6618, 13.802, -11.3945, -86.3809, 7.175
5.412, 15, -13.0471, 42.7462, 13.6935, -11.417, -86.4429, 7.19827
5.416, 15, -13.0781, 42.8273, 13.5891, -11.4384, -86.5024, 7.22065
5.42, 15, -13.1079, 42.9051, 13.4892, -11.4588, -86.5588, 7.242
5.424, 15, -13.1365, 42.9794, 13.3943, -11.478, -86.6122, 7.26223
5.428, 15, -13.164, 43.05, 13.3047, -11.496, -86.6621, 7.28126
5.432, 15, -13.1901, 43.1168, 13.2207, -11.5127, -86.7085, 7.299
5.436, 15, -13.2148, 43.1793, 13.1426, -11.528, -86.7512, 7.31542
5.44, 15, -13.2381, 43.2375, 13.0707, -11.5421, -86.7903, 7.33049
5.444, 15, -13.2597, 43.2912, 13.0049, -11.5548, -86.8258, 7.34421
5.448, 15, -13.2797, 43.3403, 12.9452, -11.5662, -86.8576, 7.35656
5.452, 15, -13.2983, 43.3852, 12.8916, -11.5763, -86.886, 7.36759
5.456, 15, -13.3154, 43.4259, 12.8439, -11.5852, -86.9109, 7.37732
5.46, 15, -13.3312, 43.4626, 12.8018, -11.593, -86.9325, 7.38582
5.464, 15, -13.3457, 43.4954, 12.7649, -11.5996, -86.9512, 7.39315
5.468, 15, -13.3588, 43.5245, 12.7331, -11.6053, -86.967, 7.39941
5.472, 15, -13.3705, 43.5499, 12.706, -11.61, -86.9803, 7.40467
5.476, 15, -13.3809, 43.572, 12.6831, -11.614, -86.9913, 7.40906
5.48, 15, -13.39, 43.5908, 12.664, -11.6172, -87.0003, 7.41265
5.484, 15, -13.398, 43.6068, 12.6483, -11.6198, -87.0075, 7.41555
5.488, 15, -13.4049, 43.6204, 12.6356, -11.6218, -87.0132, 7.41785
5.492, 15, -13.4111, 43.632, 12.6255, -11.6234, -87.0176, 7.41965
5.496, 15, -13.4166, 43.6419, 12.6175, -11.6246, -87.0209, 7.42101
5.5, 15, -13.4214, 43.6503, 12.6112, -11.6255, -87.0234, 7.42202
5.504, 15, -13.4256, 43.6573, 12.6065, -11.6261, -87.0251, 7.42275
5.508, 15, -13.4292, 43.6631, 12.603, -11.6265, -87.0264, 7.42327
5.512, 16, -13.432, 43.6676, 12.6004, -11.6269, -87.0272, 7.42364
5.516, 16, -13.4342, 43.671, 12.5986, -11.6271, -87.0278, 7.42388
5.52, 16, -13.4358, 43.6734, 12.5973, -11.6272, -87.0282, 7.42405
5.524, 16, -13.4369, 43.6751, 12.5964, -11.6273, -87.0284, 7.42417
5.528, 16, -13.4377, 43.6763, 12.5958, -11.6274, -87.0286, 7.42425
5.532, 16, -13.4382, 43.677, 12.5954, -11.6274, -87.0287, 7.4243
5.536, 16, -13.4386, 43.6776, 12.5952, -11.6274, -87.0288, 7.42434
5.54, 16, -13.4388, 43.6779, 12.595, -11.6275, -87.0289, 7.42436
5.544, 16, -13.439, 43.6782, 12.5949, -11.6275, -87.0289, 7.42438
5.548, 16, -13.4391, 43.6783, 12.5948, -11.6275, -87.0289, 7.42439
5.552, 16, -13.4391, 43.6784, 12.5947, -11.6275, -87.0289, 7.42439
5.556, 16, -13.4392, 43.6785, 12.5947, -11.6275, -87.029, 7.4244
5.56, 16, -13.4392, 43.6786, 12.5947, -11.6275, -87.029, 7.4244
5.564, 16, -13.4392, 43.6786, 12.5946, -11.6275, -87.029, 7.42441
5.568, 16, -13.4393, 43.6786, 12.5946, -11.6275, -87.029, 7.42441
5.572, 16, -13.4393, 43.6786, 12.5946, -11.6275, -87.029, 7.42441
5.576, 16, -13.4393, 43.6786, 12.5946, -11.6275, -87.029, 7.42441
5.58, 16, -13.4393, 43.6786, 12.5946, -11.6275, -87.029, 7.42441
5.584, 16, -13.4393, 43.6786, 12.5946, -11.6275, -87.029, 7.42441
5.588, 16, -13.4393, 43.6786, 12.5946, -11.6275, -87.029, 7.42441
5.592, 16, -13.4393, 43.6787, 12.5946, -11.6275, -87.029, 7.42441
5.596, 16, -13.4393, 43.6787, 12.5946, -11.6275, -87.029, 7.42441
5.6, 16, -13.4393, 43.6787, 12.5946, -11.6275, -87.029, 7.42441
5.604, 16, -13.4393, 43.6787, 12.5946, -11.6275, -87.029, 7.42441
5.608, 16, -13.4393, 43.6787, 12.5946, -11.6275, -87.029, 7.42441
5.612, 16, -13.4393, 43.6787, 12.5946, -11.6275, -87.029, 7.42441
5.616, 16, -13.4393, 43.6787, 12.5946, -11.6275, -87.029, 7.42441
5.62, 16, -13.4393, 43.6787, 12.5946, -11.6275, -87.029, 7.42441
5.624, 16, -13.4393, 43.6787, 12.5946, -11.6275, -87.029, 7.42441
5.628, 16, -13.4393, 43.6787, 12.5946, -11.6275, -87.029, 7.42441
