hehonglu123/ABB_Primitive_Study/execution/movel2_30_car/curve_exe_vmax_z10.csv
timestamp, cmd_num, J1, J2, J3, J4, J5, J6
0, -1, 22.0083, 52.6431, -3.5641, 80.5273, -71.7225, 40.1913
0.003, -1, 22.0083, 52.6431, -3.5641, 80.5273, -71.7225, 40.1913
0.006, -1, 22.0083, 52.6431, -3.5641, 80.5273, -71.7225, 40.1913
0.008, -1, 22.0083, 52.6431, -3.5641, 80.5273, -71.7225, 40.1913
0.011, -1, 22.0083, 52.6431, -3.5641, 80.5273, -71.7225, 40.1913
0.016, -1, 22.0083, 52.6431, -3.5641, 80.5273, -71.7225, 40.1913
0.02, -1, 22.0083, 52.6431, -3.5641, 80.5273, -71.7225, 40.1913
0.024, -1, 22.0083, 52.6431, -3.5641, 80.5273, -71.7225, 40.1913
0.028, -1, 22.0083, 52.6431, -3.5641, 80.5273, -71.7225, 40.1913
0.032, -1, 22.0083, 52.6431, -3.5641, 80.5273, -71.7225, 40.1913
0.036, -1, 22.0083, 52.6431, -3.5641, 80.5273, -71.7225, 40.1913
0.04, -1, 22.0086, 52.643, -3.56409, 80.5273, -71.7225, 40.1913
0.044, -1, 22.0092, 52.6428, -3.56406, 80.5273, -71.7225, 40.1913
0.048, -1, 22.0103, 52.6425, -3.56401, 80.5274, -71.7224, 40.1913
0.052, -1, 22.012, 52.642, -3.56396, 80.5275, -71.7223, 40.1913
0.056, -1, 22.0145, 52.6411, -3.56392, 80.5277, -71.722, 40.1914
0.06, -1, 22.0177, 52.6399, -3.56394, 80.5281, -71.7215, 40.1915
0.064, -1, 22.0217, 52.6383, -3.56408, 80.5288, -71.7206, 40.1916
0.068, -1, 22.0265, 52.6362, -3.56441, 80.53, -71.7193, 40.1919
0.072, -1, 22.0322, 52.6334, -3.56504, 80.5317, -71.7172, 40.1923
0.076, -1, 22.0391, 52.6299, -3.56609, 80.5342, -71.7141, 40.1928
0.08, -1, 22.0472, 52.6256, -3.56769, 80.5377, -71.7099, 40.1936
0.084, -1, 22.0567, 52.6206, -3.57002, 80.5425, -71.7042, 40.1947
0.088, -1, 22.0678, 52.615, -3.57327, 80.5488, -71.6966, 40.1962
0.092, -1, 22.0803, 52.6089, -3.57766, 80.557, -71.6868, 40.198
0.096, -1, 22.094, 52.6026, -3.58342, 80.5673, -71.6745, 40.2003
0.1, -1, 22.109, 52.5963, -3.59077, 80.58, -71.6593, 40.2032
0.104, -1, 22.125, 52.5899, -3.59987, 80.5953, -71.641, 40.2067
0.108, -1, 22.1421, 52.5836, -3.61085, 80.6134, -71.6193, 40.2108
0.112, -1, 22.1603, 52.5773, -3.62379, 80.6345, -71.5942, 40.2156
0.116, -1, 22.1797, 52.5709, -3.63871, 80.6584, -71.5656, 40.221
0.12, -1, 22.2004, 52.5646, -3.65561, 80.6854, -71.5335, 40.2272
0.124, -1, 22.2224, 52.5582, -3.67441, 80.7152, -71.4979, 40.2339
0.128, -1, 22.2457, 52.5518, -3.69504, 80.7477, -71.4591, 40.2413
0.131, -1, 22.2701, 52.5455, -3.71736, 80.7828, -71.4173, 40.2493
0.136, -1, 22.2957, 52.539, -3.74121, 80.8202, -71.3726, 40.2578
0.139, -1, 22.3225, 52.5323, -3.76639, 80.8597, -71.3256, 40.2668
0.144, -1, 22.3507, 52.5251, -3.79268, 80.901, -71.2764, 40.2761
0.148, -1, 22.3804, 52.5172, -3.81986, 80.9437, -71.2254, 40.2858
0.152, -1, 22.4114, 52.5086, -3.84775, 80.9877, -71.1729, 40.2958
0.156, -1, 22.4437, 52.4992, -3.87617, 81.0327, -71.1193, 40.306
0.16, -1, 22.4771, 52.4892, -3.90498, 81.0784, -71.0648, 40.3164
0.164, -1, 22.5115, 52.4785, -3.93409, 81.1247, -71.0095, 40.3269
0.168, -1, 22.5468, 52.4674, -3.96339, 81.1714, -70.9538, 40.3375
0.172, -1, 22.5827, 52.4559, -3.99284, 81.2184, -70.8977, 40.3482
0.176, -1, 22.6193, 52.4441, -4.02238, 81.2657, -70.8413, 40.359
0.18, -1, 22.6565, 52.432, -4.05197, 81.3131, -70.7847, 40.3697
0.184, -1, 22.6942, 52.4198, -4.08158, 81.3606, -70.728, 40.3805
0.188, -1, 22.7324, 52.4074, -4.1112, 81.4082, -70.6713, 40.3913
0.192, -1, 22.7709, 52.3949, -4.14081, 81.4557, -70.6145, 40.4021
0.196, -1, 22.8095, 52.3823, -4.17041, 81.5033, -70.5577, 40.4129
0.2, -1, 22.8483, 52.3697, -4.2, 81.5509, -70.5009, 40.4237
0.204, -1, 22.8872, 52.3571, -4.22957, 81.5984, -70.4442, 40.4345
0.208, -1, 22.9262, 52.3445, -4.25912, 81.646, -70.3874, 40.4453
0.212, -1, 22.9651, 52.3318, -4.28865, 81.6935, -70.3307, 40.4561
0.216, -1, 23.0041, 52.3192, -4.31816, 81.741, -70.2741, 40.4669
0.22, -1, 23.043, 52.3065, -4.34764, 81.7884, -70.2175, 40.4776
0.224, -1, 23.082, 52.2939, -4.37711, 81.8358, -70.1609, 40.4884
0.228, -1, 23.1209, 52.2812, -4.40655, 81.8832, -70.1043, 40.4992
0.232, -1, 23.1598, 52.2686, -4.43597, 81.9305, -70.0478, 40.5099
0.236, -1, 23.1986, 52.256, -4.46537, 81.9778, -69.9914, 40.5207
0.24, -1, 23.2375, 52.2434, -4.49475, 82.0251, -69.935, 40.5314
0.244, -1, 23.2763, 52.2308, -4.52411, 82.0723, -69.8786, 40.5421
0.248, -1, 23.3151, 52.2182, -4.55344, 82.1195, -69.8223, 40.5528
0.252, -1, 23.3539, 52.2056, -4.58275, 82.1667, -69.766, 40.5635
0.256, -1, 23.3926, 52.193, -4.61204, 82.2138, -69.7097, 40.5742
0.26, -1, 23.4313, 52.1805, -4.64131, 82.2609, -69.6535, 40.5849
0.264, -1, 23.47, 52.1679, -4.67056, 82.308, -69.5974, 40.5956
0.268, -1, 23.5086, 52.1553, -4.69978, 82.355, -69.5412, 40.6063
0.272, -1, 23.5473, 52.1428, -4.72898, 82.402, -69.4852, 40.617
0.276, -1, 23.5859, 52.1303, -4.75816, 82.449, -69.4291, 40.6276
0.28, -1, 23.6244, 52.1178, -4.78732, 82.4959, -69.3731, 40.6383
0.284, -1, 23.663, 52.1052, -4.81646, 82.5428, -69.3172, 40.6489
0.288, -1, 23.7015, 52.0927, -4.84557, 82.5896, -69.2613, 40.6596
0.292, -1, 23.7399, 52.0802, -4.87467, 82.6364, -69.2054, 40.6702
0.296, -1, 23.7784, 52.0678, -4.90374, 82.6832, -69.1496, 40.6808
0.3, -1, 23.8168, 52.0553, -4.93279, 82.7299, -69.0938, 40.6914
0.304, -1, 23.8552, 52.0428, -4.96182, 82.7766, -69.038, 40.702
0.308, -1, 23.8936, 52.0304, -4.99083, 82.8233, -68.9823, 40.7126
0.312, -1, 23.9319, 52.0179, -5.01981, 82.87, -68.9267, 40.7232
0.316, -1, 23.9702, 52.0055, -5.04878, 82.9166, -68.871, 40.7338
0.32, -1, 24.0085, 51.9931, -5.07773, 82.9631, -68.8154, 40.7444
0.324, -1, 24.0468, 51.9806, -5.10665, 83.0097, -68.7599, 40.755
0.328, -1, 24.085, 51.9682, -5.13555, 83.0562, -68.7044, 40.7655
0.332, -1, 24.1232, 51.9558, -5.16443, 83.1027, -68.6489, 40.7761
0.336, -1, 24.1613, 51.9434, -5.19329, 83.1491, -68.5935, 40.7866
0.34, -1, 24.1995, 51.931, -5.22213, 83.1955, -68.5381, 40.7972
0.344, -1, 24.2376, 51.9187, -5.25095, 83.2419, -68.4828, 40.8077
0.348, -1, 24.2757, 51.9063, -5.27975, 83.2882, -68.4275, 40.8182
0.352, -1, 24.3138, 51.894, -5.30853, 83.3345, -68.3722, 40.8287
0.356, -1, 24.3518, 51.8816, -5.33728, 83.3808, -68.317, 40.8392
0.36, -1, 24.3898, 51.8693, -5.36602, 83.427, -68.2618, 40.8497
0.364, -1, 24.4278, 51.8569, -5.39474, 83.4732, -68.2067, 40.8602
0.368, -1, 24.4657, 51.8446, -5.42343, 83.5194, -68.1516, 40.8707
0.372, -1, 24.5036, 51.8323, -5.4521, 83.5655, -68.0965, 40.8812
0.376, -1, 24.5415, 51.82, -5.48076, 83.6116, -68.0415, 40.8916
0.38, -1, 24.5794, 51.8077, -5.50939, 83.6577, -67.9865, 40.9021
0.384, -1, 24.6172, 51.7954, -5.538, 83.7038, -67.9315, 40.9126
0.388, -1, 24.6551, 51.7831, -5.5666, 83.7498, -67.8766, 40.923
0.392, -1, 24.6928, 51.7709, -5.59517, 83.7957, -67.8218, 40.9334
0.396, -1, 24.7306, 51.7586, -5.62372, 83.8417, -67.7669, 40.9439
0.4, -1, 24.7683, 51.7464, -5.65225, 83.8876, -67.7121, 40.9543
0.404, -1, 24.806, 51.7341, -5.68076, 83.9335, -67.6574, 40.9647
0.408, -1, 24.8437, 51.7219, -5.70925, 83.9793, -67.6027, 40.9751
0.412, -1, 24.8814, 51.7097, -5.73772, 84.0251, -67.548, 40.9855
0.416, -1, 24.919, 51.6975, -5.76618, 84.0709, -67.4934, 40.9959
0.42, -1, 24.9566, 51.6852, -5.79461, 84.1166, -67.4388, 41.0063
0.424, -1, 24.9942, 51.673, -5.82302, 84.1624, -67.3842, 41.0167
0.428, -1, 25.0317, 51.6609, -5.85141, 84.208, -67.3297, 41.0271
0.432, -1, 25.0693, 51.6487, -5.87978, 84.2537, -67.2752, 41.0374
0.436, -1, 25.1068, 51.6365, -5.90813, 84.2993, -67.2208, 41.0478
0.44, -1, 25.1442, 51.6243, -5.93646, 84.3449, -67.1664, 41.0581
0.444, -1, 25.1817, 51.6122, -5.96478, 84.3905, -67.112, 41.0685
0.448, -1, 25.2191, 51.6, -5.99307, 84.436, -67.0576, 41.0788
0.452, -1, 25.2565, 51.5879, -6.02134, 84.4815, -67.0034, 41.0892
0.456, -1, 25.2938, 51.5758, -6.04959, 84.5269, -66.9491, 41.0995
0.46, -1, 25.3312, 51.5636, -6.07783, 84.5724, -66.8949, 41.1098
0.464, -1, 25.3685, 51.5515, -6.10604, 84.6178, -66.8407, 41.1201
0.468, -1, 25.4058, 51.5394, -6.13424, 84.6631, -66.7866, 41.1304
0.472, -1, 25.4431, 51.5273, -6.16241, 84.7085, -66.7325, 41.1407
0.476, -1, 25.4803, 51.5152, -6.19057, 84.7538, -66.6784, 41.151
0.48, -1, 25.5175, 51.5031, -6.2187, 84.799, -66.6244, 41.1613
0.484, -1, 25.5547, 51.4911, -6.24682, 84.8443, -66.5704, 41.1715
0.488, -1, 25.5918, 51.479, -6.27492, 84.8895, -66.5164, 41.1818
0.492, -1, 25.629, 51.4669, -6.303, 84.9347, -66.4625, 41.1921
0.496, -1, 25.6661, 51.4549, -6.33106, 84.9798, -66.4086, 41.2023
0.5, -1, 25.7032, 51.4429, -6.3591, 85.0249, -66.3547, 41.2126
0.504, -1, 25.7402, 51.4308, -6.38712, 85.07, -66.3009, 41.2228
0.508, -1, 25.7773, 51.4188, -6.41512, 85.1151, -66.2472, 41.233
0.512, -1, 25.8143, 51.4068, -6.4431, 85.1601, -66.1934, 41.2433
0.516, -1, 25.8513, 51.3948, -6.47107, 85.2051, -66.1397, 41.2535
0.52, -1, 25.8882, 51.3828, -6.49901, 85.2501, -66.0861, 41.2637
0.524, -1, 25.9251, 51.3708, -6.52694, 85.295, -66.0324, 41.2739
0.528, -1, 25.9621, 51.3588, -6.55484, 85.3399, -65.9788, 41.2841
0.532, -1, 25.9989, 51.3468, -6.58273, 85.3848, -65.9253, 41.2943
0.536, -1, 26.0358, 51.3349, -6.6106, 85.4296, -65.8718, 41.3045
0.54, -1, 26.0726, 51.3229, -6.63845, 85.4745, -65.8183, 41.3146
0.544, -1, 26.1094, 51.311, -6.66629, 85.5192, -65.7648, 41.3248
0.548, -1, 26.1462, 51.299, -6.6941, 85.564, -65.7114, 41.335
0.552, -1, 26.183, 51.2871, -6.72189, 85.6087, -65.658, 41.3451
0.556, -1, 26.2197, 51.2752, -6.74967, 85.6534, -65.6047, 41.3553
0.56, -1, 26.2564, 51.2632, -6.77743, 85.6981, -65.5514, 41.3654
0.564, -1, 26.2931, 51.2513, -6.80517, 85.7427, -65.4981, 41.3755
0.568, -1, 26.3298, 51.2394, -6.83289, 85.7873, -65.4449, 41.3857
0.572, -1, 26.3664, 51.2275, -6.86059, 85.8319, -65.3917, 41.3958
0.576, -1, 26.403, 51.2156, -6.88827, 85.8764, -65.3385, 41.4059
0.58, -1, 26.4396, 51.2038, -6.91594, 85.9209, -65.2854, 41.416
0.584, -1, 26.4762, 51.1919, -6.94359, 85.9654, -65.2323, 41.4261
0.588, -1, 26.5127, 51.18, -6.97122, 86.0099, -65.1792, 41.4362
0.592, -1, 26.5492, 51.1682, -6.99883, 86.0543, -65.1262, 41.4463
0.596, -1, 26.5857, 51.1563, -7.02642, 86.0987, -65.0732, 41.4564
0.6, -1, 26.6222, 51.1445, -7.05399, 86.1431, -65.0203, 41.4665
0.604, -1, 26.6586, 51.1327, -7.08155, 86.1874, -64.9674, 41.4765
0.608, -1, 26.6951, 51.1208, -7.10909, 86.2317, -64.9145, 41.4866
0.612, -1, 26.7315, 51.109, -7.13661, 86.276, -64.8616, 41.4966
0.616, -1, 26.7678, 51.0972, -7.16411, 86.3203, -64.8088, 41.5067
0.62, -1, 26.8042, 51.0854, -7.1916, 86.3645, -64.756, 41.5167
0.624, -1, 26.8405, 51.0736, -7.21906, 86.4087, -64.7033, 41.5268
0.628, -1, 26.8768, 51.0618, -7.24651, 86.4529, -64.6506, 41.5368
0.632, -1, 26.9131, 51.05, -7.27394, 86.497, -64.5979, 41.5468
0.636, -1, 26.9493, 51.0383, -7.30135, 86.5411, -64.5453, 41.5568
0.64, -1, 26.9856, 51.0265, -7.32875, 86.5852, -64.4927, 41.5668
0.644, -1, 27.0218, 51.0148, -7.35613, 86.6292, -64.4401, 41.5768
0.648, -1, 27.058, 51.003, -7.38349, 86.6732, -64.3875, 41.5868
0.652, -1, 27.0941, 50.9913, -7.41083, 86.7172, -64.335, 41.5968
0.656, -1, 27.1303, 50.9795, -7.43815, 86.7612, -64.2826, 41.6068
0.66, -1, 27.1664, 50.9678, -7.46546, 86.8051, -64.2301, 41.6168
0.664, -1, 27.2025, 50.9561, -7.49275, 86.8491, -64.1777, 41.6268
0.668, -1, 27.2385, 50.9444, -7.52002, 86.8929, -64.1254, 41.6367
0.672, -1, 27.2746, 50.9327, -7.54727, 86.9368, -64.073, 41.6467
0.676, -1, 27.3106, 50.921, -7.57451, 86.9806, -64.0207, 41.6566
0.68, -1, 27.3466, 50.9093, -7.60173, 87.0244, -63.9684, 41.6666
0.684, -1, 27.3826, 50.8976, -7.62893, 87.0682, -63.9162, 41.6765
0.688, -1, 27.4185, 50.8859, -7.65611, 87.1119, -63.864, 41.6865
0.692, -1, 27.4545, 50.8743, -7.68328, 87.1556, -63.8118, 41.6964
0.696, -1, 27.4904, 50.8626, -7.71043, 87.1993, -63.7597, 41.7063
0.7, -1, 27.5262, 50.851, -7.73756, 87.243, -63.7076, 41.7162
0.704, -1, 27.5621, 50.8393, -7.76468, 87.2866, -63.6555, 41.7261
0.708, -1, 27.5979, 50.8277, -7.79178, 87.3302, -63.6035, 41.736
0.712, -1, 27.6338, 50.8161, -7.81886, 87.3738, -63.5515, 41.7459
0.716, -1, 27.6696, 50.8044, -7.84592, 87.4173, -63.4995, 41.7558
0.72, -1, 27.7053, 50.7928, -7.87297, 87.4609, -63.4476, 41.7657
0.724, -1, 27.7411, 50.7812, -7.9, 87.5043, -63.3956, 41.7756
0.728, -1, 27.7768, 50.7696, -7.92701, 87.5478, -63.3438, 41.7854
0.732, -1, 27.8125, 50.758, -7.95401, 87.5913, -63.2919, 41.7953
0.736, -1, 27.8482, 50.7464, -7.98099, 87.6347, -63.2401, 41.8052
0.74, -1, 27.8838, 50.7349, -8.00795, 87.6781, -63.1883, 41.815
0.744, -1, 27.9195, 50.7233, -8.0349, 87.7214, -63.1366, 41.8249
0.748, -1, 27.9551, 50.7117, -8.06183, 87.7647, -63.0849, 41.8347
0.752, -1, 27.9907, 50.7002, -8.08874, 87.808, -63.0332, 41.8445
0.756, -1, 28.0263, 50.6886, -8.11564, 87.8513, -62.9815, 41.8544
0.76, -1, 28.0618, 50.6771, -8.14252, 87.8946, -62.9299, 41.8642
0.764, -1, 28.0973, 50.6656, -8.16938, 87.9378, -62.8783, 41.874
0.768, -1, 28.1328, 50.654, -8.19622, 87.981, -62.8268, 41.8838
0.772, -1, 28.1683, 50.6425, -8.22305, 88.0242, -62.7753, 41.8936
0.776, -1, 28.2038, 50.631, -8.24987, 88.0673, -62.7238, 41.9034
0.78, -1, 28.2392, 50.6195, -8.27666, 88.1104, -62.6723, 41.9132
0.784, -1, 28.2746, 50.608, -8.30344, 88.1535, -62.6209, 41.923
0.788, -1, 28.31, 50.5965, -8.33021, 88.1966, -62.5695, 41.9327
0.792, -1, 28.3454, 50.585, -8.35696, 88.2396, -62.5181, 41.9425
0.796, -1, 28.3808, 50.5735, -8.38369, 88.2826, -62.4668, 41.9523
0.8, -1, 28.4161, 50.5621, -8.4104, 88.3256, -62.4155, 41.962
0.804, -1, 28.4514, 50.5506, -8.4371, 88.3686, -62.3642, 41.9718
0.808, -1, 28.4867, 50.5391, -8.46378, 88.4115, -62.313, 41.9816
0.812, -1, 28.522, 50.5277, -8.49045, 88.4544, -62.2618, 41.9913
0.816, -1, 28.5572, 50.5163, -8.5171, 88.4973, -62.2106, 42.001
0.82, -1, 28.5924, 50.5048, -8.54374, 88.5402, -62.1594, 42.0108
0.824, -1, 28.6276, 50.4934, -8.57035, 88.583, -62.1083, 42.0205
0.828, -1, 28.6628, 50.482, -8.59696, 88.6258, -62.0572, 42.0302
0.832, -1, 28.698, 50.4706, -8.62354, 88.6686, -62.0062, 42.0399
0.836, -1, 28.7331, 50.4591, -8.65011, 88.7113, -61.9552, 42.0496
0.84, -1, 28.7682, 50.4477, -8.67667, 88.7541, -61.9042, 42.0593
0.844, -1, 28.8033, 50.4363, -8.7032, 88.7968, -61.8532, 42.069
0.848, -1, 28.8384, 50.425, -8.72973, 88.8394, -61.8023, 42.0787
0.852, -1, 28.8735, 50.4136, -8.75623, 88.8821, -61.7514, 42.0884
0.856, -1, 28.9085, 50.4022, -8.78272, 88.9247, -61.7005, 42.0981
0.86, -1, 28.9435, 50.3908, -8.8092, 88.9673, -61.6496, 42.1078
0.864, -1, 28.9785, 50.3795, -8.83566, 89.0099, -61.5988, 42.1174
0.868, -1, 29.0135, 50.3681, -8.8621, 89.0524, -61.548, 42.1271
0.872, -1, 29.0484, 50.3568, -8.88853, 89.095, -61.4973, 42.1367
0.876, -1, 29.0834, 50.3454, -8.91494, 89.1375, -61.4466, 42.1464
0.88, -1, 29.1183, 50.3341, -8.94134, 89.1799, -61.3959, 42.156
0.884, -1, 29.1532, 50.3228, -8.96772, 89.2224, -61.3452, 42.1657
0.888, -1, 29.188, 50.3114, -8.99409, 89.2648, -61.2946, 42.1753
0.892, -1, 29.2229, 50.3001, -9.02044, 89.3072, -61.244, 42.1849
0.896, -1, 29.2577, 50.2888, -9.04677, 89.3496, -61.1934, 42.1946
0.9, -1, 29.2925, 50.2775, -9.07309, 89.3919, -61.1429, 42.2042
0.904, -1, 29.3273, 50.2662, -9.0994, 89.4343, -61.0924, 42.2138
0.908, -1, 29.3621, 50.2549, -9.12568, 89.4766, -61.0419, 42.2234
0.912, -1, 29.3968, 50.2437, -9.15196, 89.5188, -60.9914, 42.233
0.916, -1, 29.4316, 50.2324, -9.17822, 89.5611, -60.941, 42.2426
0.92, -1, 29.4663, 50.2211, -9.20446, 89.6033, -60.8906, 42.2522
0.924, -1, 29.501, 50.2099, -9.23069, 89.6455, -60.8402, 42.2618
0.928, -1, 29.5356, 50.1986, -9.2569, 89.6877, -60.7899, 42.2713
0.932, -1, 29.5703, 50.1873, -9.2831, 89.7298, -60.7396, 42.2809
0.936, -1, 29.6049, 50.1761, -9.30928, 89.772, -60.6893, 42.2905
0.94, -1, 29.6395, 50.1649, -9.33544, 89.8141, -60.6391, 42.3
0.944, -1, 29.6741, 50.1536, -9.3616, 89.8562, -60.5888, 42.3096
0.948, -1, 29.7087, 50.1424, -9.38773, 89.8982, -60.5387, 42.3191
0.952, -1, 29.7432, 50.1312, -9.41386, 89.9402, -60.4885, 42.3287
0.956, -1, 29.7777, 50.12, -9.43996, 89.9822, -60.4384, 42.3382
0.96, -1, 29.8122, 50.1088, -9.46605, 90.0242, -60.3882, 42.3478
0.964, -1, 29.8467, 50.0976, -9.49213, 90.0662, -60.3382, 42.3573
0.968, -1, 29.8812, 50.0864, -9.51819, 90.1081, -60.2881, 42.3668
0.972, -1, 29.9156, 50.0752, -9.54424, 90.15, -60.2381, 42.3763
0.976, -1, 29.9501, 50.064, -9.57027, 90.1919, -60.1881, 42.3858
0.98, -1, 29.9845, 50.0529, -9.59629, 90.2338, -60.1381, 42.3953
0.984, -1, 30.0189, 50.0417, -9.62229, 90.2756, -60.0882, 42.4048
0.988, -1, 30.0532, 50.0305, -9.64828, 90.3175, -60.0383, 42.4143
0.992, -1, 30.0876, 50.0194, -9.67425, 90.3592, -59.9884, 42.4238
0.996, -1, 30.1219, 50.0082, -9.70021, 90.401, -59.9386, 42.4333
1, -1, 30.1562, 49.9971, -9.72616, 90.4427, -59.8888, 42.4428
1.004, -1, 30.1905, 49.986, -9.75208, 90.4845, -59.839, 42.4523
1.008, -1, 30.2248, 49.9748, -9.778, 90.5262, -59.7892, 42.4617
1.012, -1, 30.259, 49.9637, -9.8039, 90.5678, -59.7395, 42.4712
1.016, -1, 30.2933, 49.9526, -9.82979, 90.6095, -59.6897, 42.4806
1.02, -1, 30.3275, 49.9415, -9.85566, 90.6511, -59.6401, 42.4901
1.024, -1, 30.3617, 49.9304, -9.88151, 90.6927, -59.5904, 42.4995
1.027, -1, 30.3959, 49.9193, -9.90735, 90.7343, -59.5408, 42.509
1.032, -1, 30.43, 49.9082, -9.93318, 90.7759, -59.4912, 42.5184
1.036, -1, 30.4642, 49.8971, -9.95899, 90.8174, -59.4416, 42.5279
1.04, -1, 30.4983, 49.8861, -9.98479, 90.8589, -59.3921, 42.5373
1.044, -1, 30.5324, 49.875, -10.0106, 90.9004, -59.3426, 42.5467
1.048, -1, 30.5665, 49.8639, -10.0363, 90.9419, -59.2931, 42.5561
1.052, -1, 30.6005, 49.8529, -10.0621, 90.9833, -59.2436, 42.5655
1.055, -1, 30.6346, 49.8418, -10.0878, 91.0247, -59.1942, 42.5749
1.06, -1, 30.6686, 49.8308, -10.1136, 91.0661, -59.1448, 42.5843
1.064, -1, 30.7026, 49.8197, -10.1393, 91.1075, -59.0954, 42.5937
1.068, -1, 30.7366, 49.8087, -10.165, 91.1489, -59.046, 42.6031
1.072, -1, 30.7706, 49.7976, -10.1907, 91.1902, -58.9967, 42.6125
1.076, -1, 30.8045, 49.7866, -10.2163, 91.2315, -58.9474, 42.6219
1.08, -1, 30.8384, 49.7756, -10.242, 91.2728, -58.8981, 42.6313
1.084, -1, 30.8723, 49.7646, -10.2676, 91.314, -58.8489, 42.6406
1.088, -1, 30.9062, 49.7536, -10.2933, 91.3553, -58.7997, 42.65
1.091, -1, 30.9401, 49.7426, -10.3189, 91.3965, -58.7505, 42.6593
1.096, -1, 30.974, 49.7316, -10.3445, 91.4377, -58.7013, 42.6687
1.1, -1, 31.0078, 49.7206, -10.3701, 91.4789, -58.6522, 42.6781
1.104, -1, 31.0416, 49.7096, -10.3956, 91.52, -58.6031, 42.6874
1.108, -1, 31.0754, 49.6987, -10.4212, 91.5611, -58.554, 42.6967
1.112, -1, 31.1092, 49.6877, -10.4467, 91.6022, -58.5049, 42.7061
1.116, -1, 31.143, 49.6767, -10.4723, 91.6433, -58.4559, 42.7154
1.119, -1, 31.1767, 49.6658, -10.4978, 91.6844, -58.4069, 42.7247
1.124, -1, 31.2105, 49.6548, -10.5233, 91.7254, -58.3579, 42.734
1.128, -1, 31.2442, 49.6439, -10.5488, 91.7664, -58.309, 42.7433
1.132, -1, 31.2779, 49.6329, -10.5743, 91.8074, -58.2601, 42.7527
1.136, -1, 31.3115, 49.622, -10.5997, 91.8484, -58.2112, 42.762
1.14, -1, 31.3452, 49.6111, -10.6252, 91.8893, -58.1623, 42.7713
1.144, -1, 31.3788, 49.6002, -10.6506, 91.9303, -58.1135, 42.7806
1.147, -1, 31.4125, 49.5892, -10.676, 91.9712, -58.0646, 42.7898
1.152, -1, 31.4461, 49.5783, -10.7014, 92.0121, -58.0158, 42.7991
1.156, -1, 31.4796, 49.5674, -10.7268, 92.0529, -57.9671, 42.8084
1.16, -1, 31.5132, 49.5565, -10.7522, 92.0938, -57.9183, 42.8177
1.164, -1, 31.5468, 49.5456, -10.7776, 92.1346, -57.8696, 42.8269
1.168, -1, 31.5803, 49.5348, -10.8029, 92.1754, -57.8209, 42.8362
1.172, -1, 31.6138, 49.5239, -10.8283, 92.2161, -57.7723, 42.8455
1.175, -1, 31.6473, 49.513, -10.8536, 92.2569, -57.7236, 42.8547
1.18, -1, 31.6808, 49.5021, -10.8789, 92.2976, -57.675, 42.864
1.184, -1, 31.7142, 49.4913, -10.9042, 92.3383, -57.6264, 42.8732
1.188, -1, 31.7477, 49.4804, -10.9295, 92.379, -57.5779, 42.8825
1.192, -1, 31.7811, 49.4696, -10.9548, 92.4197, -57.5293, 42.8917
1.196, -1, 31.8145, 49.4587, -10.98, 92.4603, -57.4808, 42.9009
1.2, -1, 31.8479, 49.4479, -11.0053, 92.501, -57.4323, 42.9101
1.204, -1, 31.8813, 49.437, -11.0305, 92.5416, -57.3839, 42.9194
1.208, -1, 31.9146, 49.4262, -11.0557, 92.5821, -57.3355, 42.9286
1.212, -1, 31.948, 49.4154, -11.0809, 92.6227, -57.2871, 42.9378
1.216, -1, 31.9813, 49.4046, -11.1061, 92.6632, -57.2387, 42.947
1.22, -1, 32.0146, 49.3938, -11.1313, 92.7038, -57.1903, 42.9562
1.224, -1, 32.0479, 49.3829, -11.1565, 92.7443, -57.142, 42.9654
1.228, -1, 32.0811, 49.3721, -11.1816, 92.7847, -57.0937, 42.9746
1.232, -1, 32.1144, 49.3614, -11.2068, 92.8252, -57.0454, 42.9838
1.236, -1, 32.1476, 49.3506, -11.2319, 92.8656, -56.9971, 42.9929
1.24, -1, 32.1808, 49.3398, -11.257, 92.906, -56.9489, 43.0021
1.244, -1, 32.214, 49.329, -11.2821, 92.9464, -56.9007, 43.0113
1.248, -1, 32.2472, 49.3182, -11.3072, 92.9868, -56.8525, 43.0205
1.252, -1, 32.2804, 49.3075, -11.3323, 93.0271, -56.8044, 43.0296
1.256, -1, 32.3135, 49.2967, -11.3574, 93.0675, -56.7562, 43.0388
1.26, -1, 32.3466, 49.2859, -11.3824, 93.1078, -56.7081, 43.0479
1.264, -1, 32.3798, 49.2752, -11.4074, 93.1481, -56.66, 43.0571
1.267, -1, 32.4129, 49.2644, -11.4325, 93.1883, -56.612, 43.0662
1.272, -1, 32.4459, 49.2537, -11.4575, 93.2286, -56.564, 43.0754
1.276, -1, 32.479, 49.243, -11.4825, 93.2688, -56.516, 43.0845
1.28, -1, 32.512, 49.2322, -11.5075, 93.309, -56.468, 43.0936
1.284, -1, 32.5451, 49.2215, -11.5324, 93.3492, -56.42, 43.1027
1.288, -1, 32.5781, 49.2108, -11.5574, 93.3894, -56.3721, 43.1119
1.292, -1, 32.6111, 49.2001, -11.5824, 93.4295, -56.3242, 43.121
1.295, -1, 32.644, 49.1894, -11.6073, 93.4696, -56.2763, 43.1301
1.3, -1, 32.677, 49.1787, -11.6322, 93.5097, -56.2284, 43.1392
1.304, -1, 32.71, 49.168, -11.6571, 93.5498, -56.1806, 43.1483
1.308, -1, 32.7429, 49.1573, -11.682, 93.5899, -56.1328, 43.1574
1.312, -1, 32.7758, 49.1466, -11.7069, 93.6299, -56.085, 43.1665
1.316, -1, 32.8087, 49.1359, -11.7318, 93.6699, -56.0372, 43.1756
1.32, -1, 32.8416, 49.1253, -11.7566, 93.7099, -55.9895, 43.1847
1.324, -1, 32.8744, 49.1146, -11.7815, 93.7499, -55.9418, 43.1937
1.328, -1, 32.9073, 49.1039, -11.8063, 93.7899, -55.8941, 43.2028
1.332, -1, 32.9401, 49.0933, -11.8311, 93.8298, -55.8464, 43.2119
1.336, -1, 32.9729, 49.0826, -11.8559, 93.8697, -55.7988, 43.2209
1.34, -1, 33.0057, 49.072, -11.8807, 93.9096, -55.7511, 43.23
1.344, -1, 33.0385, 49.0613, -11.9055, 93.9495, -55.7036, 43.2391
1.348, -1, 33.0712, 49.0507, -11.9303, 93.9894, -55.656, 43.2481
1.352, -1, 33.104, 49.0401, -11.9551, 94.0292, -55.6084, 43.2572
1.356, -1, 33.1367, 49.0294, -11.9798, 94.069, -55.5609, 43.2662
1.36, -1, 33.1694, 49.0188, -12.0045, 94.1088, -55.5134, 43.2752
1.364, -1, 33.2021, 49.0082, -12.0293, 94.1486, -55.4659, 43.2843
1.368, -1, 33.2348, 48.9976, -12.054, 94.1884, -55.4185, 43.2933
1.372, -1, 33.2675, 48.987, -12.0787, 94.2281, -55.371, 43.3023
1.376, -1, 33.3001, 48.9764, -12.1034, 94.2678, -55.3236, 43.3113
1.38, -1, 33.3327, 48.9658, -12.128, 94.3075, -55.2763, 43.3204
1.384, -1, 33.3654, 48.9552, -12.1527, 94.3472, -55.2289, 43.3294
1.388, -1, 33.398, 48.9446, -12.1773, 94.3869, -55.1816, 43.3384
1.392, -1, 33.4306, 48.934, -12.202, 94.4265, -55.1342, 43.3474
1.396, -1, 33.4631, 48.9235, -12.2266, 94.4661, -55.087, 43.3564
1.4, -1, 33.4957, 48.9129, -12.2512, 94.5058, -55.0397, 43.3654
1.404, -1, 33.5282, 48.9023, -12.2758, 94.5453, -54.9924, 43.3744
1.408, -1, 33.5607, 48.8918, -12.3004, 94.5849, -54.9452, 43.3833
1.412, -1, 33.5932, 48.8812, -12.325, 94.6245, -54.898, 43.3923
1.416, -1, 33.6257, 48.8707, -12.3496, 94.664, -54.8508, 43.4013
1.42, -1, 33.6582, 48.8601, -12.3741, 94.7035, -54.8037, 43.4103
1.424, -1, 33.6907, 48.8496, -12.3987, 94.743, -54.7566, 43.4192
1.428, -1, 33.7231, 48.839, -12.4232, 94.7825, -54.7094, 43.4282
1.432, -1, 33.7555, 48.8285, -12.4477, 94.8219, -54.6624, 43.4372
1.436, -1, 33.7879, 48.818, -12.4722, 94.8613, -54.6153, 43.4461
1.44, -1, 33.8203, 48.8075, -12.4967, 94.9008, -54.5683, 43.4551
1.444, -1, 33.8527, 48.797, -12.5212, 94.9402, -54.5212, 43.464
1.448, -1, 33.8851, 48.7865, -12.5457, 94.9795, -54.4742, 43.4729
1.452, -1, 33.9174, 48.7759, -12.5701, 95.0189, -54.4273, 43.4819
1.456, -1, 33.9498, 48.7655, -12.5946, 95.0582, -54.3803, 43.4908
1.46, -1, 33.9821, 48.755, -12.619, 95.0976, -54.3334, 43.4997
1.464, -1, 34.0144, 48.7445, -12.6434, 95.1369, -54.2865, 43.5087
1.468, -1, 34.0467, 48.734, -12.6679, 95.1761, -54.2396, 43.5176
1.472, -1, 34.0789, 48.7235, -12.6923, 95.2154, -54.1927, 43.5265
1.476, -1, 34.1112, 48.713, -12.7166, 95.2546, -54.1459, 43.5354
1.48, -1, 34.1434, 48.7026, -12.741, 95.2939, -54.0991, 43.5443
1.484, -1, 34.1757, 48.6921, -12.7654, 95.3331, -54.0523, 43.5532
1.488, -1, 34.2079, 48.6816, -12.7897, 95.3723, -54.0055, 43.5621
1.492, -1, 34.2401, 48.6712, -12.8141, 95.4114, -53.9588, 43.571
1.496, -1, 34.2723, 48.6607, -12.8384, 95.4506, -53.912, 43.5799
1.5, -1, 34.3044, 48.6503, -12.8627, 95.4897, -53.8653, 43.5888
1.504, -1, 34.3366, 48.6399, -12.8871, 95.5289, -53.8186, 43.5977
1.508, -1, 34.3687, 48.6294, -12.9114, 95.568, -53.772, 43.6066
1.512, -1, 34.4008, 48.619, -12.9356, 95.607, -53.7253, 43.6154
1.516, -1, 34.4329, 48.6086, -12.9599, 95.6461, -53.6787, 43.6243
1.52, -1, 34.465, 48.5982, -12.9842, 95.6852, -53.6321, 43.6332
1.524, -1, 34.4971, 48.5877, -13.0084, 95.7242, -53.5855, 43.642
1.528, -1, 34.5292, 48.5773, -13.0327, 95.7632, -53.539, 43.6509
1.532, -1, 34.5612, 48.5669, -13.0569, 95.8022, -53.4924, 43.6597
1.536, -1, 34.5933, 48.5565, -13.0811, 95.8411, -53.4459, 43.6686
1.54, -1, 34.6253, 48.5461, -13.1054, 95.8801, -53.3994, 43.6774
1.544, -1, 34.6573, 48.5357, -13.1296, 95.919, -53.353, 43.6863
1.548, -1, 34.6893, 48.5254, -13.1537, 95.958, -53.3065, 43.6951
1.552, -1, 34.7212, 48.515, -13.1779, 95.9969, -53.2601, 43.704
1.556, -1, 34.7532, 48.5046, -13.2021, 96.0358, -53.2137, 43.7128
1.56, -1, 34.7852, 48.4942, -13.2262, 96.0746, -53.1673, 43.7216
1.564, -1, 34.8171, 48.4839, -13.2504, 96.1135, -53.1209, 43.7304
1.568, -1, 34.849, 48.4735, -13.2745, 96.1523, -53.0746, 43.7392
1.572, -1, 34.8809, 48.4631, -13.2986, 96.1911, -53.0283, 43.7481
1.576, -1, 34.9128, 48.4528, -13.3227, 96.2299, -52.982, 43.7569
1.58, -1, 34.9447, 48.4424, -13.3468, 96.2687, -52.9357, 43.7657
1.584, -1, 34.9765, 48.4321, -13.3709, 96.3075, -52.8894, 43.7745
1.588, -1, 35.0084, 48.4217, -13.395, 96.3462, -52.8432, 43.7833
1.592, -1, 35.0402, 48.4114, -13.4191, 96.3849, -52.797, 43.7921
1.596, -1, 35.072, 48.4011, -13.4431, 96.4236, -52.7508, 43.8009
1.6, -1, 35.1038, 48.3908, -13.4672, 96.4623, -52.7046, 43.8096
1.604, -1, 35.1356, 48.3804, -13.4912, 96.501, -52.6584, 43.8184
1.608, -1, 35.1674, 48.3701, -13.5152, 96.5397, -52.6123, 43.8272
1.612, -1, 35.1991, 48.3598, -13.5393, 96.5783, -52.5662, 43.836
1.616, -1, 35.2309, 48.3495, -13.5633, 96.6169, -52.5201, 43.8447
1.62, -1, 35.2625, 48.3392, -13.5873, 96.6555, -52.474, 43.8535
1.624, -1, 35.294, 48.329, -13.6113, 96.6941, -52.428, 43.8623
1.628, -1, 35.3252, 48.3189, -13.6353, 96.7327, -52.3819, 43.871
1.632, -1, 35.356, 48.3088, -13.6593, 96.7712, -52.336, 43.8798
1.636, -1, 35.3865, 48.299, -13.6833, 96.8096, -52.2901, 43.8885
1.64, -1, 35.4165, 48.2893, -13.7072, 96.848, -52.2443, 43.8972
1.644, -1, 35.446, 48.2798, -13.7312, 96.8862, -52.1987, 43.9059
1.648, -1, 35.4749, 48.2706, -13.7551, 96.9243, -52.1534, 43.9145
1.652, -1, 35.5033, 48.2617, -13.7788, 96.962, -52.1083, 43.9231
1.656, -1, 35.5309, 48.2532, -13.8025, 96.9994, -52.0638, 43.9316
1.66, -1, 35.5575, 48.2451, -13.8259, 97.0363, -52.0198, 43.94
1.664, -1, 35.5832, 48.2375, -13.849, 97.0725, -51.9766, 43.9482
1.668, -1, 35.6077, 48.2303, -13.8717, 97.1079, -51.9345, 43.9563
1.672, -1, 35.6312, 48.2236, -13.8937, 97.1423, -51.8935, 43.9641
1.676, -1, 35.6537, 48.2172, -13.9151, 97.1754, -51.8541, 43.9716
1.68, -1, 35.6753, 48.211, -13.9354, 97.2071, -51.8164, 43.9788
1.684, -1, 35.6959, 48.2051, -13.9547, 97.2371, -51.7806, 43.9857
1.688, -1, 35.7155, 48.1994, -13.9728, 97.2653, -51.7471, 43.9921
1.692, -1, 35.734, 48.194, -13.9895, 97.2914, -51.716, 43.998
1.696, -1, 35.7515, 48.1887, -14.0047, 97.3153, -51.6874, 44.0034
1.7, -1, 35.7681, 48.1836, -14.0184, 97.337, -51.6616, 44.0084
1.704, -1, 35.7838, 48.1786, -14.0305, 97.3564, -51.6385, 44.0128
1.708, -1, 35.7987, 48.1736, -14.0409, 97.3734, -51.6181, 44.0166
1.712, -1, 35.8129, 48.1686, -14.0498, 97.3882, -51.6004, 44.02
1.716, -1, 35.8263, 48.1636, -14.0571, 97.4008, -51.5854, 44.0228
1.72, -1, 35.8388, 48.1588, -14.063, 97.4113, -51.5728, 44.0252
1.724, -1, 35.8502, 48.1543, -14.0678, 97.42, -51.5623, 44.0272
1.728, -1, 35.8604, 48.1502, -14.0714, 97.427, -51.5539, 44.0288
1.732, -1, 35.8696, 48.1464, -14.0742, 97.4325, -51.5472, 44.03
1.736, -1, 35.8778, 48.1429, -14.0762, 97.4368, -51.5419, 44.031
1.74, -1, 35.8851, 48.1398, -14.0776, 97.4401, -51.5379, 44.0317
1.744, -1, 35.8916, 48.1371, -14.0786, 97.4425, -51.535, 44.0322
1.748, -1, 35.8971, 48.1348, -14.0792, 97.4443, -51.5328, 44.0326
1.752, 2, 35.9018, 48.1329, -14.0795, 97.4455, -51.5313, 44.0329
1.756, 2, 35.9056, 48.1314, -14.0797, 97.4464, -51.5302, 44.0331
1.76, 2, 35.9085, 48.1303, -14.0798, 97.447, -51.5294, 44.0332
1.764, 2, 35.9106, 48.1295, -14.0799, 97.4474, -51.5289, 44.0333
1.768, 2, 35.9121, 48.1289, -14.0799, 97.4477, -51.5286, 44.0334
1.772, 2, 35.9131, 48.1286, -14.08, 97.4479, -51.5283, 44.0334
1.776, 2, 35.9137, 48.1283, -14.08, 97.448, -51.5282, 44.0335
1.78, 2, 35.9142, 48.1281, -14.08, 97.4481, -51.5281, 44.0335
1.784, 2, 35.9145, 48.128, -14.08, 97.4482, -51.528, 44.0335
1.788, 2, 35.9147, 48.1279, -14.08, 97.4482, -51.5279, 44.0335
1.792, 2, 35.9148, 48.1279, -14.08, 97.4482, -51.5279, 44.0335
1.796, 2, 35.9149, 48.1279, -14.08, 97.4482, -51.5279, 44.0335
1.8, 2, 35.915, 48.1278, -14.08, 97.4483, -51.5279, 44.0335
1.804, 2, 35.915, 48.1278, -14.08, 97.4483, -51.5279, 44.0335
1.808, 2, 35.9151, 48.1278, -14.08, 97.4483, -51.5279, 44.0335
1.812, 2, 35.9151, 48.1278, -14.08, 97.4483, -51.5279, 44.0335
1.816, 2, 35.9151, 48.1278, -14.08, 97.4483, -51.5278, 44.0335
1.82, 2, 35.9151, 48.1278, -14.08, 97.4483, -51.5278, 44.0335
1.824, 2, 35.9151, 48.1278, -14.08, 97.4483, -51.5278, 44.0335
1.828, 2, 35.9151, 48.1278, -14.08, 97.4483, -51.5278, 44.0335
1.832, 2, 35.9151, 48.1278, -14.08, 97.4483, -51.5278, 44.0335
1.836, 2, 35.9151, 48.1278, -14.08, 97.4483, -51.5278, 44.0335
1.84, 2, 35.9151, 48.1278, -14.08, 97.4483, -51.5278, 44.0335
1.844, 2, 35.9151, 48.1278, -14.08, 97.4483, -51.5278, 44.0335
1.848, 2, 35.9151, 48.1278, -14.08, 97.4483, -51.5278, 44.0335
1.852, 2, 35.9151, 48.1278, -14.08, 97.4483, -51.5278, 44.0335
1.856, 2, 35.9151, 48.1278, -14.08, 97.4483, -51.5278, 44.0335
1.86, 2, 35.9151, 48.1278, -14.08, 97.4483, -51.5278, 44.0335
1.864, 2, 35.9151, 48.1278, -14.08, 97.4483, -51.5278, 44.0335
1.868, 2, 35.9151, 48.1278, -14.08, 97.4483, -51.5278, 44.0335
1.872, 2, 35.9151, 48.1278, -14.08, 97.4483, -51.5278, 44.0335
1.876, 2, 35.9151, 48.1278, -14.08, 97.4483, -51.5278, 44.0335
1.88, 2, 35.9151, 48.1278, -14.08, 97.4483, -51.5278, 44.0335
1.884, 2, 35.9151, 48.1278, -14.08, 97.4483, -51.5278, 44.0335
1.888, 2, 35.9151, 48.1278, -14.08, 97.4483, -51.5278, 44.0335
1.892, 2, 35.9151, 48.1278, -14.08, 97.4483, -51.5278, 44.0335
1.896, 2, 35.9151, 48.1278, -14.08, 97.4483, -51.5278, 44.0335
1.9, 2, 35.9151, 48.1278, -14.08, 97.4483, -51.5278, 44.0335
1.904, 2, 35.9151, 48.1278, -14.08, 97.4483, -51.5278, 44.0335
1.908, 2, 35.9151, 48.1278, -14.08, 97.4483, -51.5278, 44.0335
1.912, 2, 35.9151, 48.1278, -14.08, 97.4483, -51.5278, 44.0335
1.916, 2, 35.9151, 48.1278, -14.08, 97.4483, -51.5278, 44.0335
1.92, 2, 35.9151, 48.1278, -14.08, 97.4483, -51.5278, 44.0335
1.924, 2, 35.9151, 48.1278, -14.08, 97.4483, -51.5278, 44.0335
1.928, 2, 35.9151, 48.1278, -14.08, 97.4483, -51.5278, 44.0335
1.932, 2, 35.9151, 48.1278, -14.08, 97.4483, -51.5278, 44.0335
1.936, 2, 35.9151, 48.1278, -14.08, 97.4483, -51.5278, 44.0335
1.94, 2, 35.9151, 48.1278, -14.08, 97.4483, -51.5278, 44.0335
1.944, 2, 35.9151, 48.1278, -14.08, 97.4483, -51.5278, 44.0335
1.948, 2, 35.9151, 48.1278, -14.08, 97.4483, -51.5278, 44.0335
1.952, 2, 35.9151, 48.1278, -14.08, 97.4483, -51.5278, 44.0335
1.956, 2, 35.9151, 48.1278, -14.08, 97.4483, -51.5278, 44.0335
1.96, 2, 35.9151, 48.1278, -14.08, 97.4483, -51.5278, 44.0335
1.964, 2, 35.9151, 48.1278, -14.08, 97.4483, -51.5278, 44.0335
1.968, 2, 35.9151, 48.1278, -14.08, 97.4483, -51.5278, 44.0335
1.972, 2, 35.9151, 48.1278, -14.08, 97.4483, -51.5278, 44.0335
1.976, 2, 35.9151, 48.1278, -14.08, 97.4483, -51.5278, 44.0335
1.98, 2, 35.9151, 48.1278, -14.08, 97.4483, -51.5278, 44.0335
1.984, 2, 35.9151, 48.1278, -14.08, 97.4483, -51.5278, 44.0335
1.988, 2, 35.9151, 48.1278, -14.08, 97.4483, -51.5278, 44.0335
1.992, 2, 35.9151, 48.1278, -14.08, 97.4483, -51.5278, 44.0335
1.996, 2, 35.9151, 48.1278, -14.08, 97.4483, -51.5278, 44.0335
1.999, 2, 35.9151, 48.1278, -14.08, 97.4483, -51.5278, 44.0335
2.004, 2, 35.9151, 48.1278, -14.08, 97.4483, -51.5278, 44.0335
2.008, 2, 35.9151, 48.1278, -14.08, 97.4483, -51.5278, 44.0335
2.012, 2, 35.9151, 48.1278, -14.08, 97.4483, -51.5278, 44.0335
2.015, 2, 35.9151, 48.1278, -14.08, 97.4483, -51.5278, 44.0335
2.019, 2, 35.9151, 48.1278, -14.08, 97.4483, -51.5278, 44.0335
2.024, 2, 35.9151, 48.1278, -14.08, 97.4483, -51.5278, 44.0335
2.028, 2, 35.9151, 48.1278, -14.08, 97.4483, -51.5278, 44.0335
2.031, 2, 35.9151, 48.1278, -14.08, 97.4483, -51.5278, 44.0335
2.036, 2, 35.9151, 48.1278, -14.08, 97.4483, -51.5278, 44.0335
2.04, 2, 35.9151, 48.1278, -14.08, 97.4483, -51.5278, 44.0335
2.044, 2, 35.9151, 48.1278, -14.08, 97.4483, -51.5278, 44.0335
2.048, 2, 35.9151, 48.1278, -14.08, 97.4483, -51.5278, 44.0335
2.051, 2, 35.9151, 48.1278, -14.08, 97.4483, -51.5278, 44.0335
2.055, 2, 35.9151, 48.1278, -14.08, 97.4483, -51.5278, 44.0335
2.06, 2, 35.9151, 48.1278, -14.08, 97.4483, -51.5278, 44.0335
2.064, 2, 35.9151, 48.1278, -14.08, 97.4483, -51.5278, 44.0335
2.068, 2, 35.9151, 48.1278, -14.08, 97.4483, -51.5278, 44.0335
2.071, 2, 35.9151, 48.1278, -14.08, 97.4483, -51.5278, 44.0335
2.076, 2, 35.9151, 48.1278, -14.08, 97.4483, -51.5278, 44.0335
2.08, 2, 35.9151, 48.1278, -14.08, 97.4483, -51.5278, 44.0335
2.084, 2, 35.9151, 48.1278, -14.08, 97.4483, -51.5278, 44.0335
2.087, 2, 35.9151, 48.1278, -14.08, 97.4483, -51.5278, 44.0335
2.092, 2, 35.9151, 48.1278, -14.08, 97.4483, -51.5278, 44.0335
2.096, 2, 35.9151, 48.1278, -14.08, 97.4483, -51.5278, 44.0335
2.1, 2, 35.9151, 48.1278, -14.08, 97.4483, -51.5278, 44.0335
2.104, 2, 35.9151, 48.1278, -14.08, 97.4483, -51.5278, 44.0335
2.107, 2, 35.9151, 48.1278, -14.08, 97.4483, -51.5278, 44.0335
2.111, 2, 35.9151, 48.1278, -14.08, 97.4483, -51.5278, 44.0335
2.116, 2, 35.9151, 48.1278, -14.08, 97.4483, -51.5278, 44.0335
2.12, 2, 35.9151, 48.1278, -14.08, 97.4483, -51.5278, 44.0335
2.124, 2, 35.9151, 48.1278, -14.08, 97.4483, -51.5278, 44.0335
2.127, 2, 35.9151, 48.1278, -14.08, 97.4483, -51.5278, 44.0335
2.132, 2, 35.9151, 48.1278, -14.08, 97.4483, -51.5278, 44.0335
2.136, 2, 35.9151, 48.1278, -14.08, 97.4483, -51.5278, 44.0335
2.14, 2, 35.9151, 48.1278, -14.08, 97.4483, -51.5278, 44.0335
2.143, 2, 35.9151, 48.1278, -14.08, 97.4483, -51.5278, 44.0335
2.148, 2, 35.9151, 48.1278, -14.08, 97.4483, -51.5278, 44.0335
2.152, 2, 35.9151, 48.1278, -14.08, 97.4483, -51.5278, 44.0335
2.156, 2, 35.9151, 48.1278, -14.08, 97.4483, -51.5278, 44.0335
2.16, 2, 35.9151, 48.1278, -14.08, 97.4483, -51.5278, 44.0335
2.163, 2, 35.9151, 48.1278, -14.08, 97.4483, -51.5278, 44.0335
2.168, 2, 35.9151, 48.1278, -14.08, 97.4483, -51.5278, 44.0335
2.172, 2, 35.9151, 48.1278, -14.08, 97.4483, -51.5278, 44.0335
2.176, 2, 35.9151, 48.1278, -14.08, 97.4483, -51.5278, 44.0335
2.179, 2, 35.9151, 48.1278, -14.08, 97.4483, -51.5278, 44.0335
2.184, 2, 35.9151, 48.1278, -14.08, 97.4483, -51.5278, 44.0335
2.188, 2, 35.9151, 48.1278, -14.08, 97.4483, -51.5278, 44.0335
2.192, 2, 35.9151, 48.1278, -14.08, 97.4483, -51.5278, 44.0335
2.196, 2, 35.9151, 48.1278, -14.08, 97.4483, -51.5278, 44.0335
2.199, 2, 35.9151, 48.1278, -14.08, 97.4483, -51.5278, 44.0335
2.204, 2, 35.9151, 48.1278, -14.08, 97.4483, -51.5278, 44.0335
2.208, 2, 35.9151, 48.1278, -14.08, 97.4483, -51.5278, 44.0335
2.212, 2, 35.9151, 48.1278, -14.08, 97.4483, -51.5278, 44.0335
2.216, 2, 35.9151, 48.1278, -14.08, 97.4483, -51.5278, 44.0335
2.219, 2, 35.9151, 48.1278, -14.08, 97.4483, -51.5278, 44.0335
2.224, 2, 35.9151, 48.1278, -14.08, 97.4483, -51.5278, 44.0335
2.228, 2, 35.9151, 48.1278, -14.08, 97.4483, -51.5278, 44.0335
2.232, 2, 35.9151, 48.1278, -14.08, 97.4483, -51.5278, 44.0335
2.235, 2, 35.9151, 48.1278, -14.08, 97.4483, -51.5278, 44.0335
2.24, 2, 35.9151, 48.1278, -14.08, 97.4483, -51.5278, 44.0335
2.244, 2, 35.9151, 48.1278, -14.08, 97.4483, -51.5278, 44.0335
2.248, 2, 35.9151, 48.1278, -14.08, 97.4483, -51.5278, 44.0335
2.252, 2, 35.9151, 48.1278, -14.08, 97.4483, -51.5278, 44.0335
2.255, 2, 35.9151, 48.1278, -14.08, 97.4483, -51.5278, 44.0335
2.259, 2, 35.9151, 48.1278, -14.08, 97.4483, -51.5278, 44.0335
2.264, 2, 35.9151, 48.1278, -14.08, 97.4483, -51.5278, 44.0335
2.268, 2, 35.9151, 48.1278, -14.08, 97.4483, -51.5278, 44.0335
2.272, 2, 35.9151, 48.1278, -14.08, 97.4483, -51.5278, 44.0335
2.275, 2, 35.9151, 48.1278, -14.08, 97.4483, -51.5278, 44.0335
2.28, 2, 35.9151, 48.1278, -14.08, 97.4483, -51.5278, 44.0335
2.284, 2, 35.9151, 48.1278, -14.08, 97.4483, -51.5278, 44.0335
2.288, 2, 35.9151, 48.1278, -14.08, 97.4483, -51.5278, 44.0335
2.291, 2, 35.9151, 48.1278, -14.08, 97.4483, -51.5278, 44.0335
2.296, 2, 35.9151, 48.1278, -14.08, 97.4483, -51.5278, 44.0335
2.3, 2, 35.9151, 48.1278, -14.08, 97.4483, -51.5278, 44.0335
2.304, 2, 35.9151, 48.1278, -14.08, 97.4483, -51.5278, 44.0335
2.308, 2, 35.9151, 48.1278, -14.08, 97.4483, -51.5278, 44.0335
2.311, 2, 35.9151, 48.1278, -14.08, 97.4483, -51.5278, 44.0335
2.316, 2, 35.9151, 48.1278, -14.08, 97.4483, -51.5278, 44.0335
2.32, 2, 35.9151, 48.1278, -14.08, 97.4483, -51.5278, 44.0335
2.324, 2, 35.9151, 48.1278, -14.08, 97.4483, -51.5278, 44.0335
2.328, 2, 35.9151, 48.1278, -14.08, 97.4483, -51.5278, 44.0335
2.331, 2, 35.9151, 48.1278, -14.08, 97.4483, -51.5278, 44.0335
2.336, 2, 35.9151, 48.1278, -14.08, 97.4483, -51.5278, 44.0335
2.34, 2, 35.9151, 48.1278, -14.08, 97.4483, -51.5278, 44.0335
2.344, 2, 35.9151, 48.1278, -14.08, 97.4483, -51.5278, 44.0335
2.347, 2, 35.9151, 48.1278, -14.08, 97.4483, -51.5278, 44.0335
2.352, 2, 35.9151, 48.1278, -14.08, 97.4483, -51.5278, 44.0335
2.356, 2, 35.9151, 48.1278, -14.08, 97.4483, -51.5278, 44.0335
2.36, 2, 35.9151, 48.1278, -14.08, 97.4483, -51.5278, 44.0335
2.364, 2, 35.9151, 48.1278, -14.08, 97.4483, -51.5278, 44.0335
2.367, 2, 35.9151, 48.1278, -14.08, 97.4483, -51.5278, 44.0335
2.372, 2, 35.9151, 48.1278, -14.08, 97.4483, -51.5278, 44.0335
2.376, 2, 35.9151, 48.1278, -14.08, 97.4483, -51.5278, 44.0335
2.38, 2, 35.9151, 48.1278, -14.08, 97.4483, -51.5278, 44.0335
2.383, 2, 35.9151, 48.1278, -14.08, 97.4483, -51.5278, 44.0335
2.388, 2, 35.9151, 48.1278, -14.08, 97.4483, -51.5278, 44.0335
2.392, 2, 35.9151, 48.1278, -14.08, 97.4483, -51.5278, 44.0335
2.396, 2, 35.9151, 48.1278, -14.08, 97.4483, -51.5278, 44.0335
2.4, 2, 35.9151, 48.1278, -14.08, 97.4483, -51.5278, 44.0335
2.403, 2, 35.9151, 48.1278, -14.08, 97.4483, -51.5278, 44.0335
2.408, 2, 35.9151, 48.1278, -14.08, 97.4483, -51.5278, 44.0335
2.412, 2, 35.9151, 48.1278, -14.08, 97.4483, -51.5278, 44.0335
2.416, 2, 35.9151, 48.1278, -14.08, 97.4483, -51.5278, 44.0335
2.42, 2, 35.9151, 48.1278, -14.08, 97.4483, -51.5278, 44.0335
2.423, 2, 35.9151, 48.1278, -14.08, 97.4483, -51.5278, 44.0335
2.428, 2, 35.9151, 48.1278, -14.08, 97.4483, -51.5278, 44.0335
2.432, 2, 35.9151, 48.1278, -14.08, 97.4483, -51.5278, 44.0335
2.436, 2, 35.9151, 48.1278, -14.08, 97.4483, -51.5278, 44.0335
2.439, 2, 35.9151, 48.1278, -14.08, 97.4483, -51.5278, 44.0335
2.444, 2, 35.9151, 48.1278, -14.08, 97.4483, -51.5278, 44.0335
2.448, 2, 35.9151, 48.1278, -14.08, 97.4483, -51.5278, 44.0335
2.452, 2, 35.9151, 48.1278, -14.08, 97.4483, -51.5278, 44.0335
2.456, 2, 35.9151, 48.1278, -14.08, 97.4483, -51.5278, 44.0335
2.459, 2, 35.9151, 48.1278, -14.08, 97.4483, -51.5278, 44.0335
2.464, 2, 35.9151, 48.1278, -14.08, 97.4483, -51.5278, 44.0335
2.468, 2, 35.9151, 48.1278, -14.08, 97.4483, -51.5278, 44.0335
2.472, 2, 35.9151, 48.1278, -14.08, 97.4483, -51.5278, 44.0335
2.476, 2, 35.9151, 48.1278, -14.08, 97.4483, -51.5278, 44.0335
2.479, 2, 35.9151, 48.1278, -14.08, 97.4483, -51.5278, 44.0335
2.484, 2, 35.9151, 48.1278, -14.08, 97.4483, -51.5278, 44.0335
2.488, 2, 35.9151, 48.1278, -14.08, 97.4483, -51.5278, 44.0335
2.492, 2, 35.9151, 48.1278, -14.08, 97.4483, -51.5278, 44.0335
2.495, 2, 35.9151, 48.1278, -14.08, 97.4483, -51.5278, 44.0335
2.5, 2, 35.9151, 48.1278, -14.08, 97.4483, -51.5278, 44.0335
2.504, 2, 35.9151, 48.1278, -14.08, 97.4483, -51.5278, 44.0335
2.508, 2, 35.9151, 48.1278, -14.08, 97.4483, -51.5278, 44.0335
2.512, 2, 35.9151, 48.1278, -14.08, 97.4483, -51.5278, 44.0335
2.515, 2, 35.9151, 48.1278, -14.08, 97.4483, -51.5278, 44.0335
2.52, 2, 35.9151, 48.1278, -14.08, 97.4483, -51.5278, 44.0335
2.524, 2, 35.9151, 48.1278, -14.08, 97.4483, -51.5278, 44.0335
2.528, 2, 35.9151, 48.1278, -14.08, 97.4483, -51.5278, 44.0335
2.531, 2, 35.9151, 48.1278, -14.08, 97.4483, -51.5278, 44.0335
2.536, 2, 35.9151, 48.1278, -14.08, 97.4483, -51.5278, 44.0335
2.54, 2, 35.9151, 48.1278, -14.08, 97.4483, -51.5278, 44.0335
2.544, 2, 35.9151, 48.1278, -14.08, 97.4483, -51.5278, 44.0335
2.548, 2, 35.9151, 48.1278, -14.08, 97.4483, -51.5278, 44.0335
2.551, 2, 35.9151, 48.1278, -14.08, 97.4483, -51.5278, 44.0335
2.556, 2, 35.9151, 48.1278, -14.08, 97.4483, -51.5278, 44.0335
2.56, 2, 35.9151, 48.1278, -14.08, 97.4483, -51.5278, 44.0335
2.564, 2, 35.9151, 48.1278, -14.08, 97.4483, -51.5278, 44.0335
2.568, 2, 35.9151, 48.1278, -14.08, 97.4483, -51.5278, 44.0335
2.571, 2, 35.9151, 48.1278, -14.08, 97.4483, -51.5278, 44.0335
2.576, 2, 35.9151, 48.1278, -14.08, 97.4483, -51.5278, 44.0335
2.58, 2, 35.9151, 48.1278, -14.08, 97.4483, -51.5278, 44.0335
2.584, 2, 35.9151, 48.1278, -14.08, 97.4483, -51.5278, 44.0335
2.587, 2, 35.9151, 48.1278, -14.08, 97.4483, -51.5278, 44.0335
2.592, 2, 35.9151, 48.1278, -14.08, 97.4483, -51.5278, 44.0335
2.596, 2, 35.9151, 48.1278, -14.08, 97.4483, -51.5278, 44.0335
2.6, 2, 35.9151, 48.1278, -14.08, 97.4483, -51.5278, 44.0335
2.604, 2, 35.9151, 48.1278, -14.08, 97.4483, -51.5278, 44.0335
2.607, 2, 35.9151, 48.1278, -14.08, 97.4483, -51.5278, 44.0335
2.612, 2, 35.9151, 48.1278, -14.08, 97.4483, -51.5278, 44.0335
2.616, 2, 35.9151, 48.1278, -14.08, 97.4483, -51.5278, 44.0335
2.62, 2, 35.9151, 48.1278, -14.08, 97.4483, -51.5278, 44.0335
2.624, 2, 35.9151, 48.1278, -14.08, 97.4483, -51.5278, 44.0335
2.627, 2, 35.9151, 48.1278, -14.08, 97.4483, -51.5278, 44.0335
2.632, 2, 35.9151, 48.1278, -14.08, 97.4483, -51.5278, 44.0335
2.636, 2, 35.9151, 48.1278, -14.08, 97.4483, -51.5278, 44.0335
2.64, 2, 35.9151, 48.1278, -14.08, 97.4483, -51.5278, 44.0335
2.643, 2, 35.9151, 48.1278, -14.08, 97.4483, -51.5278, 44.0335
2.648, 2, 35.9151, 48.1278, -14.08, 97.4483, -51.5278, 44.0335
2.652, 2, 35.9151, 48.1278, -14.08, 97.4483, -51.5278, 44.0335
2.656, 2, 35.9151, 48.1278, -14.08, 97.4483, -51.5278, 44.0335
2.66, 2, 35.9151, 48.1278, -14.08, 97.4483, -51.5278, 44.0335
2.663, 2, 35.9151, 48.1278, -14.08, 97.4483, -51.5278, 44.0335
2.668, 2, 35.9151, 48.1278, -14.08, 97.4483, -51.5278, 44.0335
2.672, 2, 35.9151, 48.1278, -14.08, 97.4483, -51.5278, 44.0335
2.676, 2, 35.9151, 48.1278, -14.08, 97.4483, -51.5278, 44.0335
2.679, 2, 35.9151, 48.1278, -14.08, 97.4483, -51.5278, 44.0335
2.684, 2, 35.9151, 48.1278, -14.08, 97.4483, -51.5278, 44.0335
2.688, 2, 35.9151, 48.1278, -14.08, 97.4483, -51.5278, 44.0335
2.692, 2, 35.9151, 48.1278, -14.08, 97.4483, -51.5278, 44.0335
2.696, 2, 35.9151, 48.1278, -14.08, 97.4483, -51.5278, 44.0335
2.699, 2, 35.9151, 48.1278, -14.08, 97.4483, -51.5278, 44.0335
2.704, 2, 35.9151, 48.1278, -14.08, 97.4483, -51.5278, 44.0335
2.708, 2, 35.9151, 48.1278, -14.08, 97.4483, -51.5278, 44.0335
2.712, 2, 35.9151, 48.1278, -14.08, 97.4483, -51.5278, 44.0335
2.716, 2, 35.9151, 48.1278, -14.08, 97.4483, -51.5278, 44.0335
2.719, 2, 35.9151, 48.1278, -14.08, 97.4483, -51.5278, 44.0335
2.724, 2, 35.9151, 48.1278, -14.08, 97.4483, -51.5278, 44.0335
2.728, 2, 35.9151, 48.1278, -14.08, 97.4483, -51.5278, 44.0335
2.732, 2, 35.9151, 48.1278, -14.08, 97.4483, -51.5278, 44.0335
2.735, 2, 35.9151, 48.1278, -14.08, 97.4483, -51.5278, 44.0335
2.74, 2, 35.9151, 48.1278, -14.08, 97.4483, -51.5278, 44.0335
2.744, 2, 35.9151, 48.1278, -14.08, 97.4483, -51.5278, 44.0335
2.748, 2, 35.9151, 48.1278, -14.08, 97.4483, -51.5278, 44.0335
2.752, 2, 35.9151, 48.1278, -14.08, 97.4483, -51.5278, 44.0335
2.755, 2, 35.9151, 48.1278, -14.08, 97.4483, -51.5278, 44.0335
2.76, 2, 35.9151, 48.1278, -14.08, 97.4483, -51.5278, 44.0335
2.764, 2, 35.9151, 48.1278, -14.08, 97.4483, -51.5278, 44.0335
2.768, 2, 35.9151, 48.1278, -14.08, 97.4483, -51.5278, 44.0335
2.772, 2, 35.9151, 48.1278, -14.08, 97.4483, -51.5278, 44.0335
2.775, 2, 35.9151, 48.1278, -14.08, 97.4483, -51.5278, 44.0335
2.78, 2, 35.9151, 48.1278, -14.08, 97.4483, -51.5278, 44.0335
2.784, 2, 35.9151, 48.1278, -14.08, 97.4483, -51.5278, 44.0335
2.788, 2, 35.9151, 48.1278, -14.08, 97.4483, -51.5278, 44.0335
2.791, 2, 35.9151, 48.1278, -14.08, 97.4483, -51.5278, 44.0335
2.796, 2, 35.9151, 48.1278, -14.08, 97.4483, -51.5278, 44.0335
2.8, 2, 35.9151, 48.1278, -14.08, 97.4483, -51.5278, 44.0335
2.804, 2, 35.9151, 48.1278, -14.08, 97.4483, -51.5278, 44.0335
2.808, 4, 35.9151, 48.1278, -14.08, 97.4483, -51.5278, 44.0335
2.811, 4, 35.9151, 48.1278, -14.08, 97.4483, -51.5278, 44.0335
2.816, 4, 35.9151, 48.1278, -14.08, 97.4483, -51.5278, 44.0335
2.82, 4, 35.9151, 48.1278, -14.08, 97.4483, -51.5278, 44.0335
2.824, 4, 35.9151, 48.1278, -14.08, 97.4483, -51.5278, 44.0335
2.828, 4, 35.9151, 48.1278, -14.08, 97.4483, -51.5278, 44.0335
2.831, 4, 35.9151, 48.1278, -14.08, 97.4483, -51.5278, 44.0335
2.836, 4, 35.9151, 48.1278, -14.08, 97.4483, -51.5278, 44.0335
2.84, 4, 35.9151, 48.1278, -14.08, 97.4483, -51.5278, 44.0335
2.844, 4, 35.9151, 48.1278, -14.08, 97.4483, -51.5278, 44.0335
2.847, 4, 35.9151, 48.1278, -14.08, 97.4483, -51.5278, 44.0335
2.852, 4, 35.9151, 48.1278, -14.08, 97.4483, -51.5278, 44.0335
2.856, 4, 35.9151, 48.1278, -14.08, 97.4483, -51.5278, 44.0335
2.86, 4, 35.9151, 48.1278, -14.08, 97.4483, -51.5278, 44.0335
2.864, 4, 35.9151, 48.1278, -14.08, 97.4483, -51.5278, 44.0335
2.867, 4, 35.9151, 48.1278, -14.08, 97.4483, -51.5278, 44.0335
2.872, 4, 35.9151, 48.1278, -14.08, 97.4483, -51.5278, 44.0335
2.876, 4, 35.9151, 48.1278, -14.08, 97.4483, -51.5278, 44.0335
2.88, 4, 35.9151, 48.1278, -14.08, 97.4483, -51.5278, 44.0335
2.883, 4, 35.9151, 48.1278, -14.08, 97.4483, -51.5278, 44.0335
2.888, 4, 35.9151, 48.1278, -14.08, 97.4483, -51.5278, 44.0335
2.892, 4, 35.9151, 48.1278, -14.08, 97.4483, -51.5278, 44.0335
2.896, 4, 35.9151, 48.1278, -14.08, 97.4483, -51.5278, 44.0335
2.9, 4, 35.9151, 48.1278, -14.08, 97.4483, -51.5278, 44.0335
2.903, 4, 35.9151, 48.1278, -14.08, 97.4483, -51.5278, 44.0335
2.908, 4, 35.9151, 48.1278, -14.08, 97.4483, -51.5278, 44.0335
2.912, 4, 35.9151, 48.1278, -14.08, 97.4483, -51.5278, 44.0335
2.918, 4, 35.9151, 48.1278, -14.08, 97.4483, -51.5278, 44.0335
2.92, 4, 35.9151, 48.1278, -14.08, 97.4483, -51.5278, 44.0335
2.923, 4, 35.9151, 48.1278, -14.08, 97.4483, -51.5278, 44.0335
2.928, 4, 35.9151, 48.1278, -14.08, 97.4483, -51.5278, 44.0335
2.932, 4, 35.9151, 48.1278, -14.08, 97.4483, -51.5278, 44.0335
2.936, 4, 35.9151, 48.1278, -14.08, 97.4483, -51.5278, 44.0335
2.939, 4, 35.9151, 48.1278, -14.08, 97.4483, -51.5278, 44.0335
2.944, 4, 35.9151, 48.1278, -14.08, 97.4483, -51.5278, 44.0335
2.948, 4, 35.9151, 48.1278, -14.08, 97.4483, -51.5278, 44.0335
2.952, 4, 35.9148, 48.1277, -14.08, 97.4483, -51.5279, 44.0335
2.956, 4, 35.9142, 48.1276, -14.0799, 97.4482, -51.5279, 44.0335
2.959, 4, 35.9132, 48.1273, -14.0797, 97.4482, -51.528, 44.0336
2.964, 4, 35.9115, 48.1268, -14.0792, 97.448, -51.5283, 44.0336
2.968, 4, 35.9092, 48.1259, -14.0783, 97.4476, -51.5288, 44.0337
2.972, 4, 35.9062, 48.1245, -14.0767, 97.4468, -51.5297, 44.0339
2.976, 4, 35.9025, 48.1226, -14.0741, 97.4456, -51.5311, 44.0342
2.98, 5, 35.898, 48.1198, -14.07, 97.4435, -51.5334, 44.0348
2.984, 5, 35.8927, 48.1162, -14.0639, 97.4404, -51.5368, 44.0356
2.988, 5, 35.8864, 48.1114, -14.0553, 97.436, -51.5418, 44.0368
2.992, 5, 35.8789, 48.1054, -14.0433, 97.4296, -51.5486, 44.0385
2.995, 5, 35.8701, 48.0978, -14.0272, 97.4211, -51.5578, 44.0408
3, 5, 35.8598, 48.0885, -14.0062, 97.4098, -51.5699, 44.0439
3.004, 5, 35.8479, 48.0772, -13.9792, 97.3952, -51.5855, 44.0478
3.008, 5, 35.8344, 48.0636, -13.9453, 97.3767, -51.6052, 44.0528
3.012, 5, 35.8193, 48.0474, -13.9035, 97.3538, -51.6294, 44.0589
3.015, 5, 35.8024, 48.0284, -13.853, 97.326, -51.6588, 44.0664
3.02, 5, 35.7836, 48.0063, -13.7929, 97.2928, -51.6939, 44.0752
3.024, 5, 35.7627, 47.9808, -13.7224, 97.2537, -51.7351, 44.0857
3.028, 5, 35.7395, 47.9516, -13.6408, 97.2084, -51.783, 44.0978
3.031, 5, 35.714, 47.9187, -13.5477, 97.1565, -51.8378, 44.1115
3.036, 5, 35.6859, 47.8819, -13.4424, 97.0978, -51.8999, 44.1271
3.04, 5, 35.6553, 47.8411, -13.3248, 97.0321, -51.9695, 44.1444
3.044, 5, 35.6218, 47.7963, -13.1945, 96.9591, -52.047, 44.1636
3.048, 5, 35.5854, 47.7475, -13.0515, 96.8789, -52.1323, 44.1846
3.051, 5, 35.546, 47.6947, -12.8957, 96.7914, -52.2256, 44.2074
3.056, 5, 35.5033, 47.6381, -12.7271, 96.6966, -52.327, 44.2319
3.06, 5, 35.4572, 47.5776, -12.5459, 96.5946, -52.4365, 44.2582
3.064, 5, 35.4077, 47.5136, -12.3522, 96.4853, -52.5542, 44.2862
3.068, 5, 35.3547, 47.4459, -12.1461, 96.369, -52.68, 44.3158
3.071, 5, 35.2982, 47.3749, -11.9279, 96.2455, -52.8139, 44.347
3.076, 5, 35.2382, 47.3007, -11.6977, 96.1152, -52.956, 44.3797
3.08, 5, 35.1747, 47.2232, -11.4559, 95.978, -53.1061, 44.4139
3.084, 5, 35.1078, 47.1428, -11.2029, 95.8341, -53.2642, 44.4495
3.087, 5, 35.0375, 47.0594, -10.9388, 95.6837, -53.4303, 44.4865
3.092, 5, 34.9641, 46.9733, -10.6642, 95.5268, -53.6043, 44.5247
3.096, 5, 34.8878, 46.8847, -10.3796, 95.3639, -53.7859, 44.5641
3.1, 5, 34.8086, 46.7939, -10.0854, 95.195, -53.9749, 44.6046
3.104, 5, 34.7268, 46.7011, -9.78247, 95.0206, -54.1711, 44.6462
3.107, 5, 34.6424, 46.6066, -9.47143, 94.841, -54.3741, 44.6886
3.112, 5, 34.5556, 46.511, -9.15317, 94.6567, -54.5834, 44.7317
3.116, 5, 34.4664, 46.4144, -8.82864, 94.4683, -54.7984, 44.7755
3.12, 5, 34.3752, 46.3173, -8.49887, 94.2762, -55.0187, 44.8198
3.124, 5, 34.2823, 46.2201, -8.16495, 94.0812, -55.2435, 44.8645
3.128, 5, 34.1881, 46.1231, -7.82803, 93.8838, -55.4722, 44.9093
3.132, 5, 34.0928, 46.0267, -7.4893, 93.6847, -55.7039, 44.9542
3.136, 5, 33.9967, 45.9313, -7.14993, 93.4846, -55.938, 44.999
3.14, 5, 33.8997, 45.8373, -6.81113, 93.2841, -56.1736, 45.0436
3.143, 5, 33.8019, 45.745, -6.47401, 93.084, -56.41, 45.0878
3.148, 5, 33.7031, 45.6547, -6.13966, 92.8849, -56.6463, 45.1315
3.152, 5, 33.6034, 45.5667, -5.80905, 92.6873, -56.8819, 45.1745
3.156, 5, 33.5029, 45.4813, -5.48307, 92.4919, -57.116, 45.2169
3.16, 5, 33.4018, 45.3987, -5.1625, 92.299, -57.3481, 45.2585
3.163, 5, 33.3007, 45.3189, -4.848, 92.1091, -57.5777, 45.2992
3.168, 5, 33.1999, 45.2422, -4.54014, 91.9226, -57.8042, 45.339
3.172, 5, 33.0995, 45.1685, -4.23937, 91.7397, -58.0272, 45.3778
3.176, 5, 33, 45.0981, -3.9461, 91.5607, -58.2463, 45.4156
3.179, 5, 32.9014, 45.0308, -3.66061, 91.3859, -58.4612, 45.4524
3.184, 5, 32.804, 44.9666, -3.38314, 91.2153, -58.6717, 45.4882
3.188, 5, 32.7081, 44.9056, -3.11385, 91.0491, -58.8774, 45.5229
3.192, 5, 32.6138, 44.8475, -2.85285, 90.8875, -59.0783, 45.5566
3.196, 5, 32.5214, 44.7924, -2.60021, 90.7305, -59.2741, 45.5892
3.199, 5, 32.431, 44.7401, -2.35597, 90.5781, -59.4647, 45.6207
3.204, 5, 32.3428, 44.6905, -2.12018, 90.4305, -59.65, 45.6512
3.208, 5, 32.2569, 44.6435, -1.89286, 90.2877, -59.8298, 45.6806
3.212, 5, 32.1735, 44.599, -1.67402, 90.1497, -60.004, 45.709
3.216, 5, 32.0927, 44.5569, -1.4637, 90.0166, -60.1725, 45.7363
3.22, 5, 32.0147, 44.517, -1.26195, 89.8885, -60.335, 45.7626
3.224, 5, 31.9395, 44.4794, -1.06882, 89.7654, -60.4916, 45.7878
3.228, 5, 31.8673, 44.444, -0.884376, 89.6475, -60.6419, 45.8118
3.232, 5, 31.7979, 44.4109, -0.708717, 89.5349, -60.7858, 45.8348
3.235, 5, 31.7314, 44.3802, -0.541948, 89.4277, -60.9231, 45.8567
3.24, 5, 31.6675, 44.352, -0.38419, 89.3258, -61.0538, 45.8774
3.244, 5, 31.606, 44.3266, -0.235556, 89.2295, -61.1776, 45.897
3.248, 5, 31.5466, 44.3043, -0.0961491, 89.1388, -61.2945, 45.9153
3.252, 5, 31.4888, 44.2851, 0.0339568, 89.0535, -61.4045, 45.9324
3.255, 5, 31.4325, 44.2694, 0.154726, 88.9736, -61.5077, 45.948
3.26, 5, 31.3774, 44.257, 0.266162, 88.899, -61.6044, 45.9622
3.264, 5, 31.3232, 44.2481, 0.368312, 88.8293, -61.6946, 45.9747
3.268, 5, 31.2696, 44.2425, 0.461258, 88.7643, -61.779, 45.9853
3.272, 6, 31.2164, 44.2401, 0.545125, 88.7036, -61.8579, 45.9939
3.276, 6, 31.1633, 44.2409, 0.620073, 88.6467, -61.9318, 46
3.28, 6, 31.1101, 44.245, 0.6863, 88.5932, -62.0014, 46.0036
3.284, 6, 31.0569, 44.2525, 0.744046, 88.5425, -62.0674, 46.0043
3.288, 6, 31.0035, 44.2634, 0.793609, 88.4941, -62.1304, 46.0018
3.291, 6, 30.9501, 44.2778, 0.835336, 88.4474, -62.1912, 45.996
3.296, 6, 30.8968, 44.2956, 0.869618, 88.4018, -62.2506, 45.9866
3.3, 6, 30.8432, 44.3168, 0.896878, 88.3566, -62.3093, 45.9735
3.304, 6, 30.7892, 44.3415, 0.917562, 88.3114, -62.3679, 45.9565
3.308, 6, 30.7343, 44.3698, 0.932132, 88.2656, -62.4272, 45.9357
3.312, 6, 30.6781, 44.4016, 0.94106, 88.2188, -62.4878, 45.911
3.316, 6, 30.6199, 44.4372, 0.94482, 88.1705, -62.5501, 45.8825
3.32, 6, 30.5594, 44.4766, 0.943875, 88.1204, -62.6147, 45.8502
3.324, 6, 30.4961, 44.5199, 0.938675, 88.0681, -62.6819, 45.8143
3.328, 6, 30.4298, 44.5672, 0.929655, 88.0133, -62.7523, 45.7749
3.332, 6, 30.3601, 44.6185, 0.917219, 87.9557, -62.826, 45.7321
3.336, 6, 30.287, 44.6738, 0.90173, 87.8951, -62.9035, 45.6861
3.34, 6, 30.2102, 44.7331, 0.883497, 87.8313, -62.9848, 45.6371
3.344, 6, 30.1296, 44.7963, 0.862771, 87.7642, -63.0702, 45.585
3.347, 6, 30.0451, 44.8636, 0.83975, 87.6936, -63.1597, 45.5301
3.352, 6, 29.9566, 44.9347, 0.814572, 87.6196, -63.2536, 45.4723
3.356, 6, 29.864, 45.0097, 0.787318, 87.5419, -63.3518, 45.4117
3.36, 6, 29.7674, 45.0887, 0.758022, 87.4607, -63.4544, 45.3484
3.364, 6, 29.6665, 45.1716, 0.72668, 87.3758, -63.5614, 45.2823
3.368, 6, 29.5616, 45.2584, 0.693267, 87.2873, -63.6727, 45.2136
3.372, 6, 29.4525, 45.3491, 0.657737, 87.1951, -63.7885, 45.1422
3.376, 6, 29.3392, 45.4439, 0.620037, 87.0992, -63.9086, 45.0681
3.38, 6, 29.2218, 45.5427, 0.5801, 86.9997, -64.0331, 44.9914
3.383, 6, 29.1003, 45.6456, 0.537853, 86.8964, -64.162, 44.9122
3.388, 6, 28.9748, 45.7526, 0.493217, 86.7895, -64.2952, 44.8303
3.392, 6, 28.8451, 45.8637, 0.446111, 86.6788, -64.4327, 44.7458
3.396, 6, 28.7115, 45.9789, 0.396461, 86.5645, -64.5745, 44.6588
3.4, 6, 28.5741, 46.0982, 0.344209, 86.4465, -64.7205, 44.5693
3.403, 6, 28.4331, 46.2215, 0.289311, 86.3248, -64.8707, 44.4772
3.408, 6, 28.2888, 46.3486, 0.231734, 86.1995, -65.0251, 44.3827
3.412, 6, 28.1413, 46.4794, 0.171448, 86.0706, -65.1834, 44.2858
3.416, 6, 27.991, 46.6137, 0.108434, 85.9382, -65.3457, 44.1865
3.42, 6, 27.8382, 46.7514, 0.042689, 85.8025, -65.5118, 44.0849
3.424, 6, 27.6832, 46.8923, -0.0257675, 85.6636, -65.6814, 43.9812
3.428, 6, 27.5263, 47.036, -0.0968901, 85.5217, -65.8542, 43.8756
3.432, 6, 27.368, 47.1824, -0.170608, 85.3771, -66.03, 43.7681
3.436, 6, 27.209, 47.3309, -0.246819, 85.23, -66.2083, 43.659
3.439, 6, 27.0495, 47.4812, -0.325399, 85.0809, -66.3887, 43.5486
3.444, 6, 26.8901, 47.6329, -0.40621, 84.9301, -66.5708, 43.4372
3.448, 6, 26.7308, 47.7857, -0.489115, 84.7781, -66.754, 43.325
3.452, 6, 26.5715, 47.9396, -0.573973, 84.6254, -66.9377, 43.2125
3.456, 6, 26.4123, 48.0943, -0.660609, 84.4724, -67.1213, 43.0998
3.46, 6, 26.253, 48.2497, -0.748811, 84.3196, -67.3042, 42.9875
3.464, 6, 26.0939, 48.4057, -0.838339, 84.1675, -67.486, 42.8758
3.468, 6, 25.9353, 48.5619, -0.928941, 84.0165, -67.666, 42.765
3.472, 6, 25.7773, 48.718, -1.02036, 83.8672, -67.8437, 42.6554
3.476, 6, 25.6205, 48.8738, -1.11236, 83.7198, -68.0188, 42.5474
3.48, 6, 25.4652, 49.0287, -1.20467, 83.5748, -68.1907, 42.441
3.484, 6, 25.3117, 49.1825, -1.29705, 83.4323, -68.3592, 42.3366
3.488, 6, 25.1603, 49.3348, -1.38928, 83.2927, -68.524, 42.2344
3.492, 6, 25.0113, 49.4852, -1.4811, 83.1562, -68.6849, 42.1343
3.495, 6, 24.8649, 49.6334, -1.5723, 83.0229, -68.8417, 42.0367
3.5, 6, 24.7217, 49.779, -1.66265, 82.893, -68.9943, 41.9414
3.504, 6, 24.5819, 49.9218, -1.75195, 82.7664, -69.1426, 41.8486
3.508, 6, 24.4457, 50.0614, -1.84002, 82.6434, -69.2865, 41.7584
3.512, 6, 24.3133, 50.1978, -1.92672, 82.5239, -69.4261, 41.6706
3.516, 6, 24.1848, 50.3307, -2.0119, 82.408, -69.5613, 41.5855
3.52, 6, 24.0603, 50.4601, -2.09545, 82.2956, -69.6921, 41.5029
3.524, 6, 23.9398, 50.5858, -2.17725, 82.1869, -69.8185, 41.4229
3.528, 6, 23.8232, 50.7078, -2.25721, 82.0817, -69.9405, 41.3456
3.531, 6, 23.7108, 50.826, -2.33522, 81.9803, -70.0581, 41.2708
3.536, 6, 23.6024, 50.9404, -2.4112, 81.8824, -70.1714, 41.1986
3.54, 6, 23.4981, 51.0509, -2.48507, 81.7881, -70.2804, 41.129
3.544, 6, 23.3978, 51.1574, -2.55673, 81.6975, -70.385, 41.0621
3.548, 6, 23.3017, 51.26, -2.62613, 81.6105, -70.4853, 40.9978
3.552, 6, 23.2096, 51.3585, -2.69317, 81.5272, -70.5813, 40.9361
3.556, 6, 23.1216, 51.453, -2.7578, 81.4474, -70.673, 40.877
3.56, 6, 23.0376, 51.5433, -2.81995, 81.3713, -70.7605, 40.8205
3.564, 6, 22.9577, 51.6296, -2.87955, 81.2988, -70.8437, 40.7667
3.568, 6, 22.8818, 51.7117, -2.93656, 81.2299, -70.9227, 40.7155
3.572, 6, 22.8099, 51.7897, -2.99092, 81.1646, -70.9975, 40.667
3.576, 6, 22.7421, 51.8635, -3.04257, 81.1029, -71.0681, 40.6211
3.58, 6, 22.6782, 51.9332, -3.09147, 81.0449, -71.1345, 40.5778
3.584, 6, 22.6181, 51.9987, -3.13762, 80.9904, -71.1968, 40.5372
3.587, 6, 22.5618, 52.0602, -3.18099, 80.9395, -71.2548, 40.4993
3.592, 6, 22.509, 52.1178, -3.2216, 80.8922, -71.3088, 40.464
3.596, 6, 22.4597, 52.1716, -3.25947, 80.8485, -71.3587, 40.4313
3.6, 6, 22.4137, 52.2216, -3.29461, 80.8082, -71.4045, 40.4012
3.604, 6, 22.3709, 52.2679, -3.32706, 80.7713, -71.4465, 40.3737
3.608, 6, 22.3314, 52.3106, -3.35685, 80.7378, -71.4846, 40.3486
3.612, 6, 22.295, 52.3498, -3.38402, 80.7075, -71.519, 40.3259
3.616, 6, 22.2617, 52.3855, -3.40864, 80.6803, -71.5499, 40.3056
3.62, 6, 22.2313, 52.4178, -3.43081, 80.6561, -71.5774, 40.2874
3.624, 6, 22.2037, 52.4471, -3.45065, 80.6347, -71.6017, 40.2714
3.628, 6, 22.1786, 52.4734, -3.4683, 80.6159, -71.6229, 40.2574
3.632, 6, 22.1558, 52.4971, -3.4839, 80.5997, -71.6412, 40.2453
3.636, 6, 22.1353, 52.5183, -3.49756, 80.5858, -71.657, 40.2348
3.64, 6, 22.1169, 52.5372, -3.50943, 80.574, -71.6703, 40.226
3.644, 6, 22.1006, 52.5539, -3.51964, 80.564, -71.6815, 40.2186
3.648, 6, 22.0863, 52.5686, -3.52831, 80.5558, -71.6907, 40.2125
3.652, 6, 22.0738, 52.5815, -3.53559, 80.5491, -71.6983, 40.2074
3.656, 6, 22.063, 52.5928, -3.54164, 80.5437, -71.7043, 40.2034
3.66, 6, 22.0536, 52.6027, -3.54663, 80.5394, -71.7091, 40.2002
3.664, 6, 22.0453, 52.6112, -3.5507, 80.5361, -71.7128, 40.1978
3.668, 6, 22.038, 52.6185, -3.554, 80.5336, -71.7156, 40.1959
3.672, 6, 22.0316, 52.6245, -3.55662, 80.5317, -71.7177, 40.1945
3.676, 6, 22.026, 52.6295, -3.55868, 80.5304, -71.7191, 40.1935
3.679, 7, 22.0214, 52.6333, -3.56025, 80.5294, -71.7202, 40.1928
3.684, 7, 22.0176, 52.6363, -3.56142, 80.5287, -71.7209, 40.1923
3.688, 7, 22.0148, 52.6384, -3.56226, 80.5283, -71.7214, 40.192
3.692, 7, 22.0127, 52.6399, -3.56285, 80.528, -71.7218, 40.1918
3.696, 7, 22.0113, 52.6409, -3.56325, 80.5278, -71.722, 40.1916
3.7, 7, 22.0103, 52.6416, -3.56353, 80.5276, -71.7221, 40.1915
3.704, 7, 22.0096, 52.6421, -3.56371, 80.5275, -71.7223, 40.1914
3.708, 7, 22.0092, 52.6424, -3.56384, 80.5275, -71.7223, 40.1914
3.712, 7, 22.0089, 52.6426, -3.56392, 80.5274, -71.7224, 40.1914
3.716, 7, 22.0087, 52.6428, -3.56398, 80.5274, -71.7224, 40.1913
3.72, 7, 22.0085, 52.6429, -3.56402, 80.5274, -71.7224, 40.1913
3.724, 7, 22.0084, 52.6429, -3.56404, 80.5274, -71.7224, 40.1913
3.728, 7, 22.0084, 52.643, -3.56406, 80.5273, -71.7225, 40.1913
3.732, 7, 22.0083, 52.643, -3.56407, 80.5273, -71.7225, 40.1913
3.735, 7, 22.0083, 52.643, -3.56408, 80.5273, -71.7225, 40.1913
3.74, 7, 22.0083, 52.643, -3.56409, 80.5273, -71.7225, 40.1913
3.744, 7, 22.0083, 52.6431, -3.56409, 80.5273, -71.7225, 40.1913
3.748, 7, 22.0083, 52.6431, -3.56409, 80.5273, -71.7225, 40.1913
3.752, 7, 22.0083, 52.6431, -3.5641, 80.5273, -71.7225, 40.1913
3.756, 7, 22.0083, 52.6431, -3.5641, 80.5273, -71.7225, 40.1913
3.76, 7, 22.0083, 52.6431, -3.5641, 80.5273, -71.7225, 40.1913
3.764, 7, 22.0083, 52.6431, -3.5641, 80.5273, -71.7225, 40.1913
3.768, 7, 22.0083, 52.6431, -3.5641, 80.5273, -71.7225, 40.1913
3.772, 7, 22.0083, 52.6431, -3.5641, 80.5273, -71.7225, 40.1913
3.776, 7, 22.0083, 52.6431, -3.5641, 80.5273, -71.7225, 40.1913
3.78, 7, 22.0083, 52.6431, -3.5641, 80.5273, -71.7225, 40.1913
3.784, 7, 22.0083, 52.6431, -3.5641, 80.5273, -71.7225, 40.1913
3.788, 7, 22.0083, 52.6431, -3.5641, 80.5273, -71.7225, 40.1913
3.792, 7, 22.0083, 52.6431, -3.5641, 80.5273, -71.7225, 40.1913
3.796, 7, 22.0083, 52.6431, -3.5641, 80.5273, -71.7225, 40.1913
