hehonglu123/ABB_Primitive_Study/execution/movel2_30_car/curve_exe_v50_z1.csv
timestamp, cmd_num, J1, J2, J3, J4, J5, J6
0, -1, 22.0083, 52.6431, -3.5641, 80.5273, -71.7225, 40.1913
0.002, -1, 22.0083, 52.6431, -3.5641, 80.5273, -71.7225, 40.1913
0.006, -1, 22.0083, 52.6431, -3.5641, 80.5273, -71.7225, 40.1913
0.008, -1, 22.0083, 52.6431, -3.5641, 80.5273, -71.7225, 40.1913
0.011, -1, 22.0083, 52.6431, -3.5641, 80.5273, -71.7225, 40.1913
0.016, -1, 22.0083, 52.6431, -3.5641, 80.5273, -71.7225, 40.1913
0.02, -1, 22.0083, 52.6431, -3.5641, 80.5273, -71.7225, 40.1913
0.024, -1, 22.0083, 52.6431, -3.5641, 80.5273, -71.7225, 40.1913
0.028, -1, 22.0083, 52.6431, -3.5641, 80.5273, -71.7225, 40.1913
0.032, -1, 22.0083, 52.6431, -3.5641, 80.5273, -71.7225, 40.1913
0.036, -1, 22.0083, 52.6431, -3.5641, 80.5273, -71.7225, 40.1913
0.04, -1, 22.0086, 52.643, -3.56409, 80.5273, -71.7225, 40.1913
0.044, -1, 22.0092, 52.6428, -3.56406, 80.5273, -71.7225, 40.1913
0.048, -1, 22.0103, 52.6425, -3.56401, 80.5274, -71.7224, 40.1913
0.052, -1, 22.012, 52.642, -3.56396, 80.5275, -71.7223, 40.1913
0.056, -1, 22.0145, 52.6411, -3.56392, 80.5277, -71.722, 40.1914
0.06, -1, 22.0177, 52.6399, -3.56394, 80.5281, -71.7215, 40.1915
0.064, -1, 22.0217, 52.6383, -3.56408, 80.5288, -71.7206, 40.1916
0.068, -1, 22.0265, 52.6362, -3.56441, 80.53, -71.7193, 40.1919
0.072, -1, 22.0322, 52.6334, -3.56504, 80.5317, -71.7172, 40.1923
0.076, -1, 22.0391, 52.6299, -3.56609, 80.5342, -71.7141, 40.1928
0.08, -1, 22.0472, 52.6256, -3.56769, 80.5377, -71.7099, 40.1936
0.084, -1, 22.0567, 52.6206, -3.57002, 80.5425, -71.7042, 40.1947
0.088, -1, 22.0678, 52.615, -3.57327, 80.5488, -71.6966, 40.1962
0.092, -1, 22.0803, 52.6089, -3.57766, 80.557, -71.6868, 40.198
0.096, -1, 22.094, 52.6026, -3.58342, 80.5673, -71.6745, 40.2003
0.1, -1, 22.109, 52.5963, -3.59077, 80.58, -71.6593, 40.2032
0.104, -1, 22.125, 52.5899, -3.59987, 80.5953, -71.641, 40.2067
0.108, -1, 22.1421, 52.5836, -3.61085, 80.6134, -71.6193, 40.2108
0.112, -1, 22.1603, 52.5773, -3.62379, 80.6345, -71.5942, 40.2156
0.116, -1, 22.1797, 52.5709, -3.63871, 80.6584, -71.5656, 40.221
0.12, -1, 22.2004, 52.5646, -3.65561, 80.6854, -71.5335, 40.2272
0.124, -1, 22.2224, 52.5582, -3.67441, 80.7152, -71.4979, 40.2339
0.128, -1, 22.2457, 52.5518, -3.69504, 80.7477, -71.4591, 40.2413
0.131, -1, 22.2701, 52.5455, -3.71736, 80.7828, -71.4173, 40.2493
0.136, -1, 22.2957, 52.539, -3.74121, 80.8202, -71.3726, 40.2578
0.139, -1, 22.3225, 52.5323, -3.76639, 80.8597, -71.3256, 40.2668
0.144, -1, 22.3507, 52.5251, -3.79268, 80.901, -71.2764, 40.2761
0.148, -1, 22.3804, 52.5172, -3.81986, 80.9437, -71.2254, 40.2858
0.152, -1, 22.4114, 52.5086, -3.84775, 80.9877, -71.1729, 40.2958
0.156, -1, 22.4437, 52.4992, -3.87617, 81.0327, -71.1193, 40.306
0.16, -1, 22.4771, 52.4892, -3.90498, 81.0784, -71.0648, 40.3164
0.164, -1, 22.5115, 52.4785, -3.93409, 81.1247, -71.0095, 40.3269
0.168, -1, 22.5468, 52.4674, -3.96339, 81.1714, -70.9538, 40.3375
0.172, -1, 22.5827, 52.4559, -3.99284, 81.2184, -70.8977, 40.3482
0.176, -1, 22.6193, 52.4441, -4.02238, 81.2657, -70.8413, 40.359
0.18, -1, 22.6565, 52.432, -4.05197, 81.3131, -70.7847, 40.3697
0.184, -1, 22.6942, 52.4198, -4.08158, 81.3606, -70.728, 40.3805
0.188, -1, 22.7324, 52.4074, -4.1112, 81.4082, -70.6713, 40.3913
0.192, -1, 22.7709, 52.3949, -4.14081, 81.4557, -70.6145, 40.4021
0.196, -1, 22.8095, 52.3823, -4.17041, 81.5033, -70.5577, 40.4129
0.2, -1, 22.8483, 52.3697, -4.2, 81.5509, -70.5009, 40.4237
0.204, -1, 22.8872, 52.3571, -4.22957, 81.5984, -70.4442, 40.4345
0.208, -1, 22.9262, 52.3445, -4.25912, 81.646, -70.3874, 40.4453
0.212, -1, 22.9651, 52.3318, -4.28865, 81.6935, -70.3307, 40.4561
0.216, -1, 23.0041, 52.3192, -4.31816, 81.741, -70.2741, 40.4669
0.22, -1, 23.043, 52.3065, -4.34764, 81.7884, -70.2175, 40.4776
0.224, -1, 23.082, 52.2939, -4.37711, 81.8358, -70.1609, 40.4884
0.228, -1, 23.1209, 52.2812, -4.40655, 81.8832, -70.1043, 40.4992
0.232, -1, 23.1598, 52.2686, -4.43597, 81.9305, -70.0478, 40.5099
0.236, -1, 23.1986, 52.256, -4.46537, 81.9778, -69.9914, 40.5207
0.24, -1, 23.2375, 52.2434, -4.49475, 82.0251, -69.935, 40.5314
0.244, -1, 23.2763, 52.2308, -4.52411, 82.0723, -69.8786, 40.5421
0.248, -1, 23.3151, 52.2182, -4.55344, 82.1195, -69.8223, 40.5528
0.252, -1, 23.3539, 52.2056, -4.58275, 82.1667, -69.766, 40.5635
0.256, -1, 23.3926, 52.193, -4.61204, 82.2138, -69.7097, 40.5742
0.26, -1, 23.4313, 52.1805, -4.64131, 82.2609, -69.6535, 40.5849
0.264, -1, 23.47, 52.1679, -4.67056, 82.308, -69.5974, 40.5956
0.268, -1, 23.5086, 52.1553, -4.69978, 82.355, -69.5412, 40.6063
0.272, -1, 23.5473, 52.1428, -4.72898, 82.402, -69.4852, 40.617
0.276, -1, 23.5859, 52.1303, -4.75816, 82.449, -69.4291, 40.6276
0.28, -1, 23.6244, 52.1178, -4.78732, 82.4959, -69.3731, 40.6383
0.284, -1, 23.663, 52.1052, -4.81646, 82.5428, -69.3172, 40.6489
0.288, -1, 23.7015, 52.0927, -4.84557, 82.5896, -69.2613, 40.6596
0.292, -1, 23.7399, 52.0802, -4.87467, 82.6364, -69.2054, 40.6702
0.296, -1, 23.7784, 52.0678, -4.90374, 82.6832, -69.1496, 40.6808
0.3, -1, 23.8168, 52.0553, -4.93279, 82.7299, -69.0938, 40.6914
0.304, -1, 23.8552, 52.0428, -4.96182, 82.7766, -69.038, 40.702
0.308, -1, 23.8936, 52.0304, -4.99083, 82.8233, -68.9823, 40.7126
0.312, -1, 23.9319, 52.0179, -5.01981, 82.87, -68.9267, 40.7232
0.316, -1, 23.9702, 52.0055, -5.04878, 82.9166, -68.871, 40.7338
0.32, -1, 24.0085, 51.9931, -5.07773, 82.9631, -68.8154, 40.7444
0.324, -1, 24.0468, 51.9806, -5.10665, 83.0097, -68.7599, 40.755
0.328, -1, 24.085, 51.9682, -5.13555, 83.0562, -68.7044, 40.7655
0.332, -1, 24.1232, 51.9558, -5.16443, 83.1027, -68.6489, 40.7761
0.336, -1, 24.1613, 51.9434, -5.19329, 83.1491, -68.5935, 40.7866
0.34, -1, 24.1995, 51.931, -5.22213, 83.1955, -68.5381, 40.7972
0.344, -1, 24.2376, 51.9187, -5.25095, 83.2419, -68.4828, 40.8077
0.348, -1, 24.2757, 51.9063, -5.27975, 83.2882, -68.4275, 40.8182
0.352, -1, 24.3138, 51.894, -5.30853, 83.3345, -68.3722, 40.8287
0.356, -1, 24.3518, 51.8816, -5.33728, 83.3808, -68.317, 40.8392
0.36, -1, 24.3898, 51.8693, -5.36602, 83.427, -68.2618, 40.8497
0.364, -1, 24.4278, 51.8569, -5.39474, 83.4732, -68.2067, 40.8602
0.368, -1, 24.4657, 51.8446, -5.42343, 83.5194, -68.1516, 40.8707
0.372, -1, 24.5036, 51.8323, -5.4521, 83.5655, -68.0965, 40.8812
0.376, -1, 24.5415, 51.82, -5.48076, 83.6116, -68.0415, 40.8916
0.38, -1, 24.5794, 51.8077, -5.50939, 83.6577, -67.9865, 40.9021
0.384, -1, 24.6172, 51.7954, -5.538, 83.7038, -67.9315, 40.9126
0.388, -1, 24.6551, 51.7831, -5.5666, 83.7498, -67.8766, 40.923
0.392, -1, 24.6928, 51.7709, -5.59517, 83.7957, -67.8218, 40.9334
0.396, -1, 24.7306, 51.7586, -5.62372, 83.8417, -67.7669, 40.9439
0.4, -1, 24.7683, 51.7464, -5.65225, 83.8876, -67.7121, 40.9543
0.404, -1, 24.806, 51.7341, -5.68076, 83.9335, -67.6574, 40.9647
0.408, -1, 24.8437, 51.7219, -5.70925, 83.9793, -67.6027, 40.9751
0.412, -1, 24.8814, 51.7097, -5.73772, 84.0251, -67.548, 40.9855
0.416, -1, 24.919, 51.6975, -5.76618, 84.0709, -67.4934, 40.9959
0.42, -1, 24.9566, 51.6852, -5.79461, 84.1166, -67.4388, 41.0063
0.424, -1, 24.9942, 51.673, -5.82302, 84.1624, -67.3842, 41.0167
0.428, -1, 25.0317, 51.6609, -5.85141, 84.208, -67.3297, 41.0271
0.432, -1, 25.0693, 51.6487, -5.87978, 84.2537, -67.2752, 41.0374
0.436, -1, 25.1068, 51.6365, -5.90813, 84.2993, -67.2208, 41.0478
0.44, -1, 25.1442, 51.6243, -5.93646, 84.3449, -67.1664, 41.0581
0.444, -1, 25.1817, 51.6122, -5.96478, 84.3905, -67.112, 41.0685
0.448, -1, 25.2191, 51.6, -5.99307, 84.436, -67.0576, 41.0788
0.452, -1, 25.2565, 51.5879, -6.02134, 84.4815, -67.0034, 41.0892
0.456, -1, 25.2938, 51.5758, -6.04959, 84.5269, -66.9491, 41.0995
0.46, -1, 25.3312, 51.5636, -6.07783, 84.5724, -66.8949, 41.1098
0.464, -1, 25.3685, 51.5515, -6.10604, 84.6178, -66.8407, 41.1201
0.468, -1, 25.4058, 51.5394, -6.13424, 84.6631, -66.7866, 41.1304
0.472, -1, 25.4431, 51.5273, -6.16241, 84.7085, -66.7325, 41.1407
0.476, -1, 25.4803, 51.5152, -6.19057, 84.7538, -66.6784, 41.151
0.48, -1, 25.5175, 51.5031, -6.2187, 84.799, -66.6244, 41.1613
0.484, -1, 25.5547, 51.4911, -6.24682, 84.8443, -66.5704, 41.1715
0.488, -1, 25.5918, 51.479, -6.27492, 84.8895, -66.5164, 41.1818
0.492, -1, 25.629, 51.4669, -6.303, 84.9347, -66.4625, 41.1921
0.496, -1, 25.6661, 51.4549, -6.33106, 84.9798, -66.4086, 41.2023
0.5, -1, 25.7032, 51.4429, -6.3591, 85.0249, -66.3547, 41.2126
0.504, -1, 25.7402, 51.4308, -6.38712, 85.07, -66.3009, 41.2228
0.508, -1, 25.7773, 51.4188, -6.41512, 85.1151, -66.2472, 41.233
0.512, -1, 25.8143, 51.4068, -6.4431, 85.1601, -66.1934, 41.2433
0.516, -1, 25.8513, 51.3948, -6.47107, 85.2051, -66.1397, 41.2535
0.52, -1, 25.8882, 51.3828, -6.49901, 85.2501, -66.0861, 41.2637
0.524, -1, 25.9251, 51.3708, -6.52694, 85.295, -66.0324, 41.2739
0.528, -1, 25.9621, 51.3588, -6.55484, 85.3399, -65.9788, 41.2841
0.532, -1, 25.9989, 51.3468, -6.58273, 85.3848, -65.9253, 41.2943
0.536, -1, 26.0358, 51.3349, -6.6106, 85.4296, -65.8718, 41.3045
0.54, -1, 26.0726, 51.3229, -6.63845, 85.4745, -65.8183, 41.3146
0.544, -1, 26.1094, 51.311, -6.66629, 85.5192, -65.7648, 41.3248
0.548, -1, 26.1462, 51.299, -6.6941, 85.564, -65.7114, 41.335
0.552, -1, 26.183, 51.2871, -6.72189, 85.6087, -65.658, 41.3451
0.556, -1, 26.2197, 51.2752, -6.74967, 85.6534, -65.6047, 41.3553
0.56, -1, 26.2564, 51.2632, -6.77743, 85.6981, -65.5514, 41.3654
0.564, -1, 26.2931, 51.2513, -6.80517, 85.7427, -65.4981, 41.3755
0.568, -1, 26.3298, 51.2394, -6.83289, 85.7873, -65.4449, 41.3857
0.572, -1, 26.3664, 51.2275, -6.86059, 85.8319, -65.3917, 41.3958
0.576, -1, 26.403, 51.2156, -6.88827, 85.8764, -65.3385, 41.4059
0.58, -1, 26.4396, 51.2038, -6.91594, 85.9209, -65.2854, 41.416
0.584, -1, 26.4762, 51.1919, -6.94359, 85.9654, -65.2323, 41.4261
0.588, -1, 26.5127, 51.18, -6.97122, 86.0099, -65.1792, 41.4362
0.592, -1, 26.5492, 51.1682, -6.99883, 86.0543, -65.1262, 41.4463
0.596, -1, 26.5857, 51.1563, -7.02642, 86.0987, -65.0732, 41.4564
0.6, -1, 26.6222, 51.1445, -7.05399, 86.1431, -65.0203, 41.4665
0.604, -1, 26.6586, 51.1327, -7.08155, 86.1874, -64.9674, 41.4765
0.608, -1, 26.6951, 51.1208, -7.10909, 86.2317, -64.9145, 41.4866
0.612, -1, 26.7315, 51.109, -7.13661, 86.276, -64.8616, 41.4966
0.616, -1, 26.7678, 51.0972, -7.16411, 86.3203, -64.8088, 41.5067
0.62, -1, 26.8042, 51.0854, -7.1916, 86.3645, -64.756, 41.5167
0.624, -1, 26.8405, 51.0736, -7.21906, 86.4087, -64.7033, 41.5268
0.628, -1, 26.8768, 51.0618, -7.24651, 86.4529, -64.6506, 41.5368
0.632, -1, 26.9131, 51.05, -7.27394, 86.497, -64.5979, 41.5468
0.636, -1, 26.9493, 51.0383, -7.30135, 86.5411, -64.5453, 41.5568
0.64, -1, 26.9856, 51.0265, -7.32875, 86.5852, -64.4927, 41.5668
0.644, -1, 27.0218, 51.0148, -7.35613, 86.6292, -64.4401, 41.5768
0.648, -1, 27.058, 51.003, -7.38349, 86.6732, -64.3875, 41.5868
0.652, -1, 27.0941, 50.9913, -7.41083, 86.7172, -64.335, 41.5968
0.656, -1, 27.1303, 50.9795, -7.43815, 86.7612, -64.2826, 41.6068
0.66, -1, 27.1664, 50.9678, -7.46546, 86.8051, -64.2301, 41.6168
0.664, -1, 27.2025, 50.9561, -7.49275, 86.8491, -64.1777, 41.6268
0.668, -1, 27.2385, 50.9444, -7.52002, 86.8929, -64.1254, 41.6367
0.672, -1, 27.2746, 50.9327, -7.54727, 86.9368, -64.073, 41.6467
0.676, -1, 27.3106, 50.921, -7.57451, 86.9806, -64.0207, 41.6566
0.68, -1, 27.3466, 50.9093, -7.60173, 87.0244, -63.9684, 41.6666
0.684, -1, 27.3826, 50.8976, -7.62893, 87.0682, -63.9162, 41.6765
0.688, -1, 27.4185, 50.8859, -7.65611, 87.1119, -63.864, 41.6865
0.692, -1, 27.4545, 50.8743, -7.68328, 87.1556, -63.8118, 41.6964
0.696, -1, 27.4904, 50.8626, -7.71043, 87.1993, -63.7597, 41.7063
0.7, -1, 27.5262, 50.851, -7.73756, 87.243, -63.7076, 41.7162
0.704, -1, 27.5621, 50.8393, -7.76468, 87.2866, -63.6555, 41.7261
0.708, -1, 27.5979, 50.8277, -7.79178, 87.3302, -63.6035, 41.736
0.712, -1, 27.6338, 50.8161, -7.81886, 87.3738, -63.5515, 41.7459
0.716, -1, 27.6696, 50.8044, -7.84592, 87.4173, -63.4995, 41.7558
0.72, -1, 27.7053, 50.7928, -7.87297, 87.4609, -63.4476, 41.7657
0.724, -1, 27.7411, 50.7812, -7.9, 87.5043, -63.3956, 41.7756
0.728, -1, 27.7768, 50.7696, -7.92701, 87.5478, -63.3438, 41.7854
0.732, -1, 27.8125, 50.758, -7.95401, 87.5913, -63.2919, 41.7953
0.736, -1, 27.8482, 50.7464, -7.98099, 87.6347, -63.2401, 41.8052
0.74, -1, 27.8838, 50.7349, -8.00795, 87.6781, -63.1883, 41.815
0.744, -1, 27.9195, 50.7233, -8.0349, 87.7214, -63.1366, 41.8249
0.748, -1, 27.9551, 50.7117, -8.06183, 87.7647, -63.0849, 41.8347
0.752, -1, 27.9907, 50.7002, -8.08874, 87.808, -63.0332, 41.8445
0.756, -1, 28.0263, 50.6886, -8.11564, 87.8513, -62.9815, 41.8544
0.76, -1, 28.0618, 50.6771, -8.14252, 87.8946, -62.9299, 41.8642
0.764, -1, 28.0973, 50.6656, -8.16938, 87.9378, -62.8783, 41.874
0.768, -1, 28.1328, 50.654, -8.19622, 87.981, -62.8268, 41.8838
0.772, -1, 28.1683, 50.6425, -8.22305, 88.0242, -62.7753, 41.8936
0.776, -1, 28.2038, 50.631, -8.24987, 88.0673, -62.7238, 41.9034
0.78, -1, 28.2392, 50.6195, -8.27666, 88.1104, -62.6723, 41.9132
0.784, -1, 28.2746, 50.608, -8.30344, 88.1535, -62.6209, 41.923
0.788, -1, 28.31, 50.5965, -8.33021, 88.1966, -62.5695, 41.9327
0.792, -1, 28.3454, 50.585, -8.35696, 88.2396, -62.5181, 41.9425
0.796, -1, 28.3808, 50.5735, -8.38369, 88.2826, -62.4668, 41.9523
0.8, -1, 28.4161, 50.5621, -8.4104, 88.3256, -62.4155, 41.962
0.804, -1, 28.4514, 50.5506, -8.4371, 88.3686, -62.3642, 41.9718
0.808, -1, 28.4867, 50.5391, -8.46378, 88.4115, -62.313, 41.9816
0.812, -1, 28.522, 50.5277, -8.49045, 88.4544, -62.2618, 41.9913
0.816, -1, 28.5572, 50.5163, -8.5171, 88.4973, -62.2106, 42.001
0.82, -1, 28.5924, 50.5048, -8.54374, 88.5402, -62.1594, 42.0108
0.824, -1, 28.6276, 50.4934, -8.57035, 88.583, -62.1083, 42.0205
0.828, -1, 28.6628, 50.482, -8.59696, 88.6258, -62.0572, 42.0302
0.832, -1, 28.698, 50.4706, -8.62354, 88.6686, -62.0062, 42.0399
0.836, -1, 28.7331, 50.4591, -8.65011, 88.7113, -61.9552, 42.0496
0.84, -1, 28.7682, 50.4477, -8.67667, 88.7541, -61.9042, 42.0593
0.844, -1, 28.8033, 50.4363, -8.7032, 88.7968, -61.8532, 42.069
0.848, -1, 28.8384, 50.425, -8.72973, 88.8394, -61.8023, 42.0787
0.852, -1, 28.8735, 50.4136, -8.75623, 88.8821, -61.7514, 42.0884
0.856, -1, 28.9085, 50.4022, -8.78272, 88.9247, -61.7005, 42.0981
0.86, -1, 28.9435, 50.3908, -8.8092, 88.9673, -61.6496, 42.1078
0.864, -1, 28.9785, 50.3795, -8.83566, 89.0099, -61.5988, 42.1174
0.868, -1, 29.0135, 50.3681, -8.8621, 89.0524, -61.548, 42.1271
0.872, -1, 29.0484, 50.3568, -8.88853, 89.095, -61.4973, 42.1367
0.876, -1, 29.0834, 50.3454, -8.91494, 89.1375, -61.4466, 42.1464
0.88, -1, 29.1183, 50.3341, -8.94134, 89.1799, -61.3959, 42.156
0.884, -1, 29.1532, 50.3228, -8.96772, 89.2224, -61.3452, 42.1657
0.888, -1, 29.188, 50.3114, -8.99409, 89.2648, -61.2946, 42.1753
0.892, -1, 29.2229, 50.3001, -9.02044, 89.3072, -61.244, 42.1849
0.896, -1, 29.2577, 50.2888, -9.04677, 89.3496, -61.1934, 42.1946
0.9, -1, 29.2925, 50.2775, -9.07309, 89.3919, -61.1429, 42.2042
0.904, -1, 29.3273, 50.2662, -9.0994, 89.4343, -61.0924, 42.2138
0.908, -1, 29.3621, 50.2549, -9.12568, 89.4766, -61.0419, 42.2234
0.912, -1, 29.3968, 50.2437, -9.15196, 89.5188, -60.9914, 42.233
0.916, -1, 29.4316, 50.2324, -9.17822, 89.5611, -60.941, 42.2426
0.92, -1, 29.4663, 50.2211, -9.20446, 89.6033, -60.8906, 42.2522
0.924, -1, 29.501, 50.2099, -9.23069, 89.6455, -60.8402, 42.2618
0.928, -1, 29.5356, 50.1986, -9.2569, 89.6877, -60.7899, 42.2713
0.932, -1, 29.5703, 50.1873, -9.2831, 89.7298, -60.7396, 42.2809
0.936, -1, 29.6049, 50.1761, -9.30928, 89.772, -60.6893, 42.2905
0.94, -1, 29.6395, 50.1649, -9.33544, 89.8141, -60.6391, 42.3
0.944, -1, 29.6741, 50.1536, -9.3616, 89.8562, -60.5888, 42.3096
0.948, -1, 29.7087, 50.1424, -9.38773, 89.8982, -60.5387, 42.3191
0.952, -1, 29.7432, 50.1312, -9.41386, 89.9402, -60.4885, 42.3287
0.956, -1, 29.7777, 50.12, -9.43996, 89.9822, -60.4384, 42.3382
0.96, -1, 29.8122, 50.1088, -9.46605, 90.0242, -60.3882, 42.3478
0.964, -1, 29.8467, 50.0976, -9.49213, 90.0662, -60.3382, 42.3573
0.968, -1, 29.8812, 50.0864, -9.51819, 90.1081, -60.2881, 42.3668
0.972, -1, 29.9156, 50.0752, -9.54424, 90.15, -60.2381, 42.3763
0.976, -1, 29.9501, 50.064, -9.57027, 90.1919, -60.1881, 42.3858
0.98, -1, 29.9845, 50.0529, -9.59629, 90.2338, -60.1381, 42.3953
0.984, -1, 30.0189, 50.0417, -9.62229, 90.2756, -60.0882, 42.4048
0.988, -1, 30.0532, 50.0305, -9.64828, 90.3175, -60.0383, 42.4143
0.992, -1, 30.0876, 50.0194, -9.67425, 90.3592, -59.9884, 42.4238
0.996, -1, 30.1219, 50.0082, -9.70021, 90.401, -59.9386, 42.4333
1, -1, 30.1562, 49.9971, -9.72616, 90.4427, -59.8888, 42.4428
1.004, -1, 30.1905, 49.986, -9.75208, 90.4845, -59.839, 42.4523
1.008, -1, 30.2248, 49.9748, -9.778, 90.5262, -59.7892, 42.4617
1.012, -1, 30.259, 49.9637, -9.8039, 90.5678, -59.7395, 42.4712
1.016, -1, 30.2933, 49.9526, -9.82979, 90.6095, -59.6897, 42.4806
1.02, -1, 30.3275, 49.9415, -9.85566, 90.6511, -59.6401, 42.4901
1.024, -1, 30.3617, 49.9304, -9.88151, 90.6927, -59.5904, 42.4995
1.027, -1, 30.3959, 49.9193, -9.90735, 90.7343, -59.5408, 42.509
1.032, -1, 30.43, 49.9082, -9.93318, 90.7759, -59.4912, 42.5184
1.036, -1, 30.4642, 49.8971, -9.95899, 90.8174, -59.4416, 42.5279
1.04, -1, 30.4983, 49.8861, -9.98479, 90.8589, -59.3921, 42.5373
1.044, -1, 30.5324, 49.875, -10.0106, 90.9004, -59.3426, 42.5467
1.048, -1, 30.5665, 49.8639, -10.0363, 90.9419, -59.2931, 42.5561
1.052, -1, 30.6005, 49.8529, -10.0621, 90.9833, -59.2436, 42.5655
1.055, -1, 30.6346, 49.8418, -10.0878, 91.0247, -59.1942, 42.5749
1.06, -1, 30.6686, 49.8308, -10.1136, 91.0661, -59.1448, 42.5843
1.064, -1, 30.7026, 49.8197, -10.1393, 91.1075, -59.0954, 42.5937
1.068, -1, 30.7366, 49.8087, -10.165, 91.1489, -59.046, 42.6031
1.072, -1, 30.7706, 49.7976, -10.1907, 91.1902, -58.9967, 42.6125
1.076, -1, 30.8045, 49.7866, -10.2163, 91.2315, -58.9474, 42.6219
1.08, -1, 30.8384, 49.7756, -10.242, 91.2728, -58.8981, 42.6313
1.084, -1, 30.8723, 49.7646, -10.2676, 91.314, -58.8489, 42.6406
1.088, -1, 30.9062, 49.7536, -10.2933, 91.3553, -58.7997, 42.65
1.091, -1, 30.9401, 49.7426, -10.3189, 91.3965, -58.7505, 42.6593
1.096, -1, 30.974, 49.7316, -10.3445, 91.4377, -58.7013, 42.6687
1.1, -1, 31.0078, 49.7206, -10.3701, 91.4789, -58.6522, 42.6781
1.104, -1, 31.0416, 49.7096, -10.3956, 91.52, -58.6031, 42.6874
1.108, -1, 31.0754, 49.6987, -10.4212, 91.5611, -58.554, 42.6967
1.112, -1, 31.1092, 49.6877, -10.4467, 91.6022, -58.5049, 42.7061
1.116, -1, 31.143, 49.6767, -10.4723, 91.6433, -58.4559, 42.7154
1.119, -1, 31.1767, 49.6658, -10.4978, 91.6844, -58.4069, 42.7247
1.124, -1, 31.2105, 49.6548, -10.5233, 91.7254, -58.3579, 42.734
1.128, -1, 31.2442, 49.6439, -10.5488, 91.7664, -58.309, 42.7433
1.132, -1, 31.2779, 49.6329, -10.5743, 91.8074, -58.2601, 42.7527
1.136, -1, 31.3115, 49.622, -10.5997, 91.8484, -58.2112, 42.762
1.14, -1, 31.3452, 49.6111, -10.6252, 91.8893, -58.1623, 42.7713
1.144, -1, 31.3788, 49.6002, -10.6506, 91.9303, -58.1135, 42.7806
1.147, -1, 31.4125, 49.5892, -10.676, 91.9712, -58.0646, 42.7898
1.152, -1, 31.4461, 49.5783, -10.7014, 92.0121, -58.0158, 42.7991
1.156, -1, 31.4796, 49.5674, -10.7268, 92.0529, -57.9671, 42.8084
1.16, -1, 31.5132, 49.5565, -10.7522, 92.0938, -57.9183, 42.8177
1.164, -1, 31.5468, 49.5456, -10.7776, 92.1346, -57.8696, 42.8269
1.168, -1, 31.5803, 49.5348, -10.8029, 92.1754, -57.8209, 42.8362
1.172, -1, 31.6138, 49.5239, -10.8283, 92.2161, -57.7723, 42.8455
1.175, -1, 31.6473, 49.513, -10.8536, 92.2569, -57.7236, 42.8547
1.18, -1, 31.6808, 49.5021, -10.8789, 92.2976, -57.675, 42.864
1.184, -1, 31.7142, 49.4913, -10.9042, 92.3383, -57.6264, 42.8732
1.188, -1, 31.7477, 49.4804, -10.9295, 92.379, -57.5779, 42.8825
1.192, -1, 31.7811, 49.4696, -10.9548, 92.4197, -57.5293, 42.8917
1.196, -1, 31.8145, 49.4587, -10.98, 92.4603, -57.4808, 42.9009
1.2, -1, 31.8479, 49.4479, -11.0053, 92.501, -57.4323, 42.9101
1.204, -1, 31.8813, 49.437, -11.0305, 92.5416, -57.3839, 42.9194
1.208, -1, 31.9146, 49.4262, -11.0557, 92.5821, -57.3355, 42.9286
1.212, -1, 31.948, 49.4154, -11.0809, 92.6227, -57.2871, 42.9378
1.216, -1, 31.9813, 49.4046, -11.1061, 92.6632, -57.2387, 42.947
1.22, -1, 32.0146, 49.3938, -11.1313, 92.7038, -57.1903, 42.9562
1.224, -1, 32.0479, 49.3829, -11.1565, 92.7443, -57.142, 42.9654
1.228, -1, 32.0811, 49.3721, -11.1816, 92.7847, -57.0937, 42.9746
1.232, -1, 32.1144, 49.3614, -11.2068, 92.8252, -57.0454, 42.9838
1.236, -1, 32.1476, 49.3506, -11.2319, 92.8656, -56.9971, 42.9929
1.24, -1, 32.1808, 49.3398, -11.257, 92.906, -56.9489, 43.0021
1.244, -1, 32.214, 49.329, -11.2821, 92.9464, -56.9007, 43.0113
1.248, -1, 32.2472, 49.3182, -11.3072, 92.9868, -56.8525, 43.0205
1.252, -1, 32.2804, 49.3075, -11.3323, 93.0271, -56.8044, 43.0296
1.256, -1, 32.3135, 49.2967, -11.3574, 93.0675, -56.7562, 43.0388
1.26, -1, 32.3466, 49.2859, -11.3824, 93.1078, -56.7081, 43.0479
1.264, -1, 32.3798, 49.2752, -11.4074, 93.1481, -56.66, 43.0571
1.267, -1, 32.4129, 49.2644, -11.4325, 93.1883, -56.612, 43.0662
1.272, -1, 32.4459, 49.2537, -11.4575, 93.2286, -56.564, 43.0754
1.276, -1, 32.479, 49.243, -11.4825, 93.2688, -56.516, 43.0845
1.28, -1, 32.512, 49.2322, -11.5075, 93.309, -56.468, 43.0936
1.284, -1, 32.5451, 49.2215, -11.5324, 93.3492, -56.42, 43.1027
1.288, -1, 32.5781, 49.2108, -11.5574, 93.3894, -56.3721, 43.1119
1.292, -1, 32.6111, 49.2001, -11.5824, 93.4295, -56.3242, 43.121
1.295, -1, 32.644, 49.1894, -11.6073, 93.4696, -56.2763, 43.1301
1.3, -1, 32.677, 49.1787, -11.6322, 93.5097, -56.2284, 43.1392
1.304, -1, 32.71, 49.168, -11.6571, 93.5498, -56.1806, 43.1483
1.308, -1, 32.7429, 49.1573, -11.682, 93.5899, -56.1328, 43.1574
1.312, -1, 32.7758, 49.1466, -11.7069, 93.6299, -56.085, 43.1665
1.316, -1, 32.8087, 49.1359, -11.7318, 93.6699, -56.0372, 43.1756
1.32, -1, 32.8416, 49.1253, -11.7566, 93.7099, -55.9895, 43.1847
1.324, -1, 32.8744, 49.1146, -11.7815, 93.7499, -55.9418, 43.1937
1.328, -1, 32.9073, 49.1039, -11.8063, 93.7899, -55.8941, 43.2028
1.332, -1, 32.9401, 49.0933, -11.8311, 93.8298, -55.8464, 43.2119
1.336, -1, 32.9729, 49.0826, -11.8559, 93.8697, -55.7988, 43.2209
1.34, -1, 33.0057, 49.072, -11.8807, 93.9096, -55.7511, 43.23
1.344, -1, 33.0385, 49.0613, -11.9055, 93.9495, -55.7036, 43.2391
1.348, -1, 33.0712, 49.0507, -11.9303, 93.9894, -55.656, 43.2481
1.352, -1, 33.104, 49.0401, -11.9551, 94.0292, -55.6084, 43.2572
1.356, -1, 33.1367, 49.0294, -11.9798, 94.069, -55.5609, 43.2662
1.36, -1, 33.1694, 49.0188, -12.0045, 94.1088, -55.5134, 43.2752
1.364, -1, 33.2021, 49.0082, -12.0293, 94.1486, -55.4659, 43.2843
1.368, -1, 33.2348, 48.9976, -12.054, 94.1884, -55.4185, 43.2933
1.372, -1, 33.2675, 48.987, -12.0787, 94.2281, -55.371, 43.3023
1.376, -1, 33.3001, 48.9764, -12.1034, 94.2678, -55.3236, 43.3113
1.38, -1, 33.3327, 48.9658, -12.128, 94.3075, -55.2763, 43.3204
1.384, -1, 33.3654, 48.9552, -12.1527, 94.3472, -55.2289, 43.3294
1.388, -1, 33.398, 48.9446, -12.1773, 94.3869, -55.1816, 43.3384
1.392, -1, 33.4306, 48.934, -12.202, 94.4265, -55.1342, 43.3474
1.396, -1, 33.4631, 48.9235, -12.2266, 94.4661, -55.087, 43.3564
1.4, -1, 33.4957, 48.9129, -12.2512, 94.5058, -55.0397, 43.3654
1.404, -1, 33.5282, 48.9023, -12.2758, 94.5453, -54.9924, 43.3744
1.408, -1, 33.5607, 48.8918, -12.3004, 94.5849, -54.9452, 43.3833
1.412, -1, 33.5932, 48.8812, -12.325, 94.6245, -54.898, 43.3923
1.416, -1, 33.6257, 48.8707, -12.3496, 94.664, -54.8508, 43.4013
1.42, -1, 33.6582, 48.8601, -12.3741, 94.7035, -54.8037, 43.4103
1.424, -1, 33.6907, 48.8496, -12.3987, 94.743, -54.7566, 43.4192
1.428, -1, 33.7231, 48.839, -12.4232, 94.7825, -54.7094, 43.4282
1.432, -1, 33.7555, 48.8285, -12.4477, 94.8219, -54.6624, 43.4372
1.436, -1, 33.7879, 48.818, -12.4722, 94.8613, -54.6153, 43.4461
1.44, -1, 33.8203, 48.8075, -12.4967, 94.9008, -54.5683, 43.4551
1.444, -1, 33.8527, 48.797, -12.5212, 94.9402, -54.5212, 43.464
1.448, -1, 33.8851, 48.7865, -12.5457, 94.9795, -54.4742, 43.4729
1.452, -1, 33.9174, 48.7759, -12.5701, 95.0189, -54.4273, 43.4819
1.456, -1, 33.9498, 48.7655, -12.5946, 95.0582, -54.3803, 43.4908
1.46, -1, 33.9821, 48.755, -12.619, 95.0976, -54.3334, 43.4997
1.464, -1, 34.0144, 48.7445, -12.6434, 95.1369, -54.2865, 43.5087
1.468, -1, 34.0467, 48.734, -12.6679, 95.1761, -54.2396, 43.5176
1.472, -1, 34.0789, 48.7235, -12.6923, 95.2154, -54.1927, 43.5265
1.476, -1, 34.1112, 48.713, -12.7166, 95.2546, -54.1459, 43.5354
1.48, -1, 34.1434, 48.7026, -12.741, 95.2939, -54.0991, 43.5443
1.484, -1, 34.1757, 48.6921, -12.7654, 95.3331, -54.0523, 43.5532
1.488, -1, 34.2079, 48.6816, -12.7897, 95.3723, -54.0055, 43.5621
1.492, -1, 34.2401, 48.6712, -12.8141, 95.4114, -53.9588, 43.571
1.496, -1, 34.2723, 48.6607, -12.8384, 95.4506, -53.912, 43.5799
1.5, -1, 34.3044, 48.6503, -12.8627, 95.4897, -53.8653, 43.5888
1.504, -1, 34.3366, 48.6399, -12.8871, 95.5289, -53.8186, 43.5977
1.508, -1, 34.3687, 48.6294, -12.9114, 95.568, -53.772, 43.6066
1.512, -1, 34.4008, 48.619, -12.9356, 95.607, -53.7253, 43.6154
1.516, -1, 34.4329, 48.6086, -12.9599, 95.6461, -53.6787, 43.6243
1.52, -1, 34.465, 48.5982, -12.9842, 95.6852, -53.6321, 43.6332
1.524, -1, 34.4971, 48.5877, -13.0084, 95.7242, -53.5855, 43.642
1.528, -1, 34.5292, 48.5773, -13.0327, 95.7632, -53.539, 43.6509
1.532, -1, 34.5612, 48.5669, -13.0569, 95.8022, -53.4924, 43.6597
1.536, -1, 34.5933, 48.5565, -13.0811, 95.8411, -53.4459, 43.6686
1.54, -1, 34.6253, 48.5461, -13.1054, 95.8801, -53.3994, 43.6774
1.544, -1, 34.6573, 48.5357, -13.1296, 95.919, -53.353, 43.6863
1.548, -1, 34.6893, 48.5254, -13.1537, 95.958, -53.3065, 43.6951
1.552, -1, 34.7212, 48.515, -13.1779, 95.9969, -53.2601, 43.704
1.556, -1, 34.7532, 48.5046, -13.2021, 96.0358, -53.2137, 43.7128
1.56, -1, 34.7852, 48.4942, -13.2262, 96.0746, -53.1673, 43.7216
1.564, -1, 34.8171, 48.4839, -13.2504, 96.1135, -53.1209, 43.7304
1.568, -1, 34.849, 48.4735, -13.2745, 96.1523, -53.0746, 43.7392
1.572, -1, 34.8809, 48.4631, -13.2986, 96.1911, -53.0283, 43.7481
1.576, -1, 34.9128, 48.4528, -13.3227, 96.2299, -52.982, 43.7569
1.58, -1, 34.9447, 48.4424, -13.3468, 96.2687, -52.9357, 43.7657
1.584, -1, 34.9765, 48.4321, -13.3709, 96.3075, -52.8894, 43.7745
1.588, -1, 35.0084, 48.4217, -13.395, 96.3462, -52.8432, 43.7833
1.592, -1, 35.0402, 48.4114, -13.4191, 96.3849, -52.797, 43.7921
1.596, -1, 35.072, 48.4011, -13.4431, 96.4236, -52.7508, 43.8009
1.6, -1, 35.1038, 48.3908, -13.4672, 96.4623, -52.7046, 43.8096
1.604, -1, 35.1356, 48.3804, -13.4912, 96.501, -52.6584, 43.8184
1.608, -1, 35.1674, 48.3701, -13.5152, 96.5397, -52.6123, 43.8272
1.612, -1, 35.1991, 48.3598, -13.5393, 96.5783, -52.5662, 43.836
1.616, -1, 35.2309, 48.3495, -13.5633, 96.6169, -52.5201, 43.8447
1.62, -1, 35.2625, 48.3392, -13.5873, 96.6555, -52.474, 43.8535
1.624, -1, 35.294, 48.329, -13.6113, 96.6941, -52.428, 43.8623
1.628, -1, 35.3252, 48.3189, -13.6353, 96.7327, -52.3819, 43.871
1.632, -1, 35.356, 48.3088, -13.6593, 96.7712, -52.336, 43.8798
1.636, -1, 35.3865, 48.299, -13.6833, 96.8096, -52.2901, 43.8885
1.64, -1, 35.4165, 48.2893, -13.7072, 96.848, -52.2443, 43.8972
1.644, -1, 35.446, 48.2798, -13.7312, 96.8862, -52.1987, 43.9059
1.648, -1, 35.4749, 48.2706, -13.7551, 96.9243, -52.1534, 43.9145
1.652, -1, 35.5033, 48.2617, -13.7788, 96.962, -52.1083, 43.9231
1.656, -1, 35.5309, 48.2532, -13.8025, 96.9994, -52.0638, 43.9316
1.66, -1, 35.5575, 48.2451, -13.8259, 97.0363, -52.0198, 43.94
1.664, -1, 35.5832, 48.2375, -13.849, 97.0725, -51.9766, 43.9482
1.668, -1, 35.6077, 48.2303, -13.8717, 97.1079, -51.9345, 43.9563
1.672, -1, 35.6312, 48.2236, -13.8937, 97.1423, -51.8935, 43.9641
1.676, -1, 35.6537, 48.2172, -13.9151, 97.1754, -51.8541, 43.9716
1.68, -1, 35.6753, 48.211, -13.9354, 97.2071, -51.8164, 43.9788
1.684, -1, 35.6959, 48.2051, -13.9547, 97.2371, -51.7806, 43.9857
1.688, -1, 35.7155, 48.1994, -13.9728, 97.2653, -51.7471, 43.9921
1.692, -1, 35.734, 48.194, -13.9895, 97.2914, -51.716, 43.998
1.696, -1, 35.7515, 48.1887, -14.0047, 97.3153, -51.6874, 44.0034
1.7, -1, 35.7681, 48.1836, -14.0184, 97.337, -51.6616, 44.0084
1.704, -1, 35.7838, 48.1786, -14.0305, 97.3564, -51.6385, 44.0128
1.708, -1, 35.7987, 48.1736, -14.0409, 97.3734, -51.6181, 44.0166
1.712, -1, 35.8129, 48.1686, -14.0498, 97.3882, -51.6004, 44.02
1.716, -1, 35.8263, 48.1636, -14.0571, 97.4008, -51.5854, 44.0228
1.72, -1, 35.8388, 48.1588, -14.063, 97.4113, -51.5728, 44.0252
1.724, -1, 35.8502, 48.1543, -14.0678, 97.42, -51.5623, 44.0272
1.728, -1, 35.8604, 48.1502, -14.0714, 97.427, -51.5539, 44.0288
1.732, -1, 35.8696, 48.1464, -14.0742, 97.4325, -51.5472, 44.03
1.736, -1, 35.8778, 48.1429, -14.0762, 97.4368, -51.5419, 44.031
1.74, -1, 35.8851, 48.1398, -14.0776, 97.4401, -51.5379, 44.0317
1.744, -1, 35.8916, 48.1371, -14.0786, 97.4425, -51.535, 44.0322
1.748, -1, 35.8971, 48.1348, -14.0792, 97.4443, -51.5328, 44.0326
1.752, 2, 35.9018, 48.1329, -14.0795, 97.4455, -51.5313, 44.0329
1.756, 2, 35.9056, 48.1314, -14.0797, 97.4464, -51.5302, 44.0331
1.76, 2, 35.9085, 48.1303, -14.0798, 97.447, -51.5294, 44.0332
1.764, 2, 35.9106, 48.1295, -14.0799, 97.4474, -51.5289, 44.0333
1.768, 2, 35.9121, 48.1289, -14.0799, 97.4477, -51.5286, 44.0334
1.772, 2, 35.9131, 48.1286, -14.08, 97.4479, -51.5283, 44.0334
1.776, 2, 35.9137, 48.1283, -14.08, 97.448, -51.5282, 44.0335
1.78, 2, 35.9142, 48.1281, -14.08, 97.4481, -51.5281, 44.0335
1.784, 2, 35.9145, 48.128, -14.08, 97.4482, -51.528, 44.0335
1.788, 2, 35.9147, 48.1279, -14.08, 97.4482, -51.5279, 44.0335
1.792, 2, 35.9148, 48.1279, -14.08, 97.4482, -51.5279, 44.0335
1.796, 2, 35.9149, 48.1279, -14.08, 97.4482, -51.5279, 44.0335
1.8, 2, 35.915, 48.1278, -14.08, 97.4483, -51.5279, 44.0335
1.804, 2, 35.915, 48.1278, -14.08, 97.4483, -51.5279, 44.0335
1.808, 2, 35.9151, 48.1278, -14.08, 97.4483, -51.5279, 44.0335
1.812, 2, 35.9151, 48.1278, -14.08, 97.4483, -51.5279, 44.0335
1.816, 2, 35.9151, 48.1278, -14.08, 97.4483, -51.5278, 44.0335
1.82, 2, 35.9151, 48.1278, -14.08, 97.4483, -51.5278, 44.0335
1.824, 2, 35.9151, 48.1278, -14.08, 97.4483, -51.5278, 44.0335
1.828, 2, 35.9151, 48.1278, -14.08, 97.4483, -51.5278, 44.0335
1.832, 2, 35.9151, 48.1278, -14.08, 97.4483, -51.5278, 44.0335
1.836, 2, 35.9151, 48.1278, -14.08, 97.4483, -51.5278, 44.0335
1.84, 2, 35.9151, 48.1278, -14.08, 97.4483, -51.5278, 44.0335
1.844, 2, 35.9151, 48.1278, -14.08, 97.4483, -51.5278, 44.0335
1.848, 2, 35.9151, 48.1278, -14.08, 97.4483, -51.5278, 44.0335
1.852, 2, 35.9151, 48.1278, -14.08, 97.4483, -51.5278, 44.0335
1.856, 2, 35.9151, 48.1278, -14.08, 97.4483, -51.5278, 44.0335
1.86, 2, 35.9151, 48.1278, -14.08, 97.4483, -51.5278, 44.0335
1.864, 2, 35.9151, 48.1278, -14.08, 97.4483, -51.5278, 44.0335
1.868, 2, 35.9151, 48.1278, -14.08, 97.4483, -51.5278, 44.0335
1.872, 2, 35.9151, 48.1278, -14.08, 97.4483, -51.5278, 44.0335
1.876, 2, 35.9151, 48.1278, -14.08, 97.4483, -51.5278, 44.0335
1.88, 2, 35.9151, 48.1278, -14.08, 97.4483, -51.5278, 44.0335
1.884, 2, 35.9151, 48.1278, -14.08, 97.4483, -51.5278, 44.0335
1.888, 2, 35.9151, 48.1278, -14.08, 97.4483, -51.5278, 44.0335
1.892, 2, 35.9151, 48.1278, -14.08, 97.4483, -51.5278, 44.0335
1.896, 2, 35.9151, 48.1278, -14.08, 97.4483, -51.5278, 44.0335
1.9, 2, 35.9151, 48.1278, -14.08, 97.4483, -51.5278, 44.0335
1.904, 2, 35.9151, 48.1278, -14.08, 97.4483, -51.5278, 44.0335
1.908, 2, 35.9151, 48.1278, -14.08, 97.4483, -51.5278, 44.0335
1.912, 2, 35.9151, 48.1278, -14.08, 97.4483, -51.5278, 44.0335
1.916, 2, 35.9151, 48.1278, -14.08, 97.4483, -51.5278, 44.0335
1.92, 2, 35.9151, 48.1278, -14.08, 97.4483, -51.5278, 44.0335
1.924, 2, 35.9151, 48.1278, -14.08, 97.4483, -51.5278, 44.0335
1.928, 2, 35.9151, 48.1278, -14.08, 97.4483, -51.5278, 44.0335
1.932, 2, 35.9151, 48.1278, -14.08, 97.4483, -51.5278, 44.0335
1.936, 2, 35.9151, 48.1278, -14.08, 97.4483, -51.5278, 44.0335
1.94, 2, 35.9151, 48.1278, -14.08, 97.4483, -51.5278, 44.0335
1.944, 2, 35.9151, 48.1278, -14.08, 97.4483, -51.5278, 44.0335
1.948, 2, 35.9151, 48.1278, -14.08, 97.4483, -51.5278, 44.0335
1.952, 2, 35.9151, 48.1278, -14.08, 97.4483, -51.5278, 44.0335
1.956, 2, 35.9151, 48.1278, -14.08, 97.4483, -51.5278, 44.0335
1.96, 2, 35.9151, 48.1278, -14.08, 97.4483, -51.5278, 44.0335
1.964, 2, 35.9151, 48.1278, -14.08, 97.4483, -51.5278, 44.0335
1.968, 2, 35.9151, 48.1278, -14.08, 97.4483, -51.5278, 44.0335
1.972, 2, 35.9151, 48.1278, -14.08, 97.4483, -51.5278, 44.0335
1.976, 2, 35.9151, 48.1278, -14.08, 97.4483, -51.5278, 44.0335
1.98, 2, 35.9151, 48.1278, -14.08, 97.4483, -51.5278, 44.0335
1.984, 2, 35.9151, 48.1278, -14.08, 97.4483, -51.5278, 44.0335
1.988, 2, 35.9151, 48.1278, -14.08, 97.4483, -51.5278, 44.0335
1.992, 2, 35.9151, 48.1278, -14.08, 97.4483, -51.5278, 44.0335
1.996, 2, 35.9151, 48.1278, -14.08, 97.4483, -51.5278, 44.0335
1.999, 2, 35.9151, 48.1278, -14.08, 97.4483, -51.5278, 44.0335
2.004, 2, 35.9151, 48.1278, -14.08, 97.4483, -51.5278, 44.0335
2.008, 2, 35.9151, 48.1278, -14.08, 97.4483, -51.5278, 44.0335
2.012, 2, 35.9151, 48.1278, -14.08, 97.4483, -51.5278, 44.0335
2.015, 2, 35.9151, 48.1278, -14.08, 97.4483, -51.5278, 44.0335
2.019, 2, 35.9151, 48.1278, -14.08, 97.4483, -51.5278, 44.0335
2.024, 2, 35.9151, 48.1278, -14.08, 97.4483, -51.5278, 44.0335
2.028, 2, 35.9151, 48.1278, -14.08, 97.4483, -51.5278, 44.0335
2.031, 2, 35.9151, 48.1278, -14.08, 97.4483, -51.5278, 44.0335
2.036, 2, 35.9151, 48.1278, -14.08, 97.4483, -51.5278, 44.0335
2.04, 2, 35.9151, 48.1278, -14.08, 97.4483, -51.5278, 44.0335
2.044, 2, 35.9151, 48.1278, -14.08, 97.4483, -51.5278, 44.0335
2.048, 2, 35.9151, 48.1278, -14.08, 97.4483, -51.5278, 44.0335
2.051, 2, 35.9151, 48.1278, -14.08, 97.4483, -51.5278, 44.0335
2.055, 2, 35.9151, 48.1278, -14.08, 97.4483, -51.5278, 44.0335
2.06, 2, 35.9151, 48.1278, -14.08, 97.4483, -51.5278, 44.0335
2.064, 2, 35.9151, 48.1278, -14.08, 97.4483, -51.5278, 44.0335
2.068, 2, 35.9151, 48.1278, -14.08, 97.4483, -51.5278, 44.0335
2.071, 2, 35.9151, 48.1278, -14.08, 97.4483, -51.5278, 44.0335
2.076, 2, 35.9151, 48.1278, -14.08, 97.4483, -51.5278, 44.0335
2.08, 2, 35.9151, 48.1278, -14.08, 97.4483, -51.5278, 44.0335
2.084, 2, 35.9151, 48.1278, -14.08, 97.4483, -51.5278, 44.0335
2.087, 2, 35.9151, 48.1278, -14.08, 97.4483, -51.5278, 44.0335
2.092, 2, 35.9151, 48.1278, -14.08, 97.4483, -51.5278, 44.0335
2.096, 2, 35.9151, 48.1278, -14.08, 97.4483, -51.5278, 44.0335
2.1, 2, 35.9151, 48.1278, -14.08, 97.4483, -51.5278, 44.0335
2.104, 2, 35.9151, 48.1278, -14.08, 97.4483, -51.5278, 44.0335
2.107, 2, 35.9151, 48.1278, -14.08, 97.4483, -51.5278, 44.0335
2.111, 2, 35.9151, 48.1278, -14.08, 97.4483, -51.5278, 44.0335
2.116, 2, 35.9151, 48.1278, -14.08, 97.4483, -51.5278, 44.0335
2.12, 2, 35.9151, 48.1278, -14.08, 97.4483, -51.5278, 44.0335
2.124, 2, 35.9151, 48.1278, -14.08, 97.4483, -51.5278, 44.0335
2.127, 2, 35.9151, 48.1278, -14.08, 97.4483, -51.5278, 44.0335
2.132, 2, 35.9151, 48.1278, -14.08, 97.4483, -51.5278, 44.0335
2.136, 2, 35.9151, 48.1278, -14.08, 97.4483, -51.5278, 44.0335
2.14, 2, 35.9151, 48.1278, -14.08, 97.4483, -51.5278, 44.0335
2.143, 2, 35.9151, 48.1278, -14.08, 97.4483, -51.5278, 44.0335
2.148, 2, 35.9151, 48.1278, -14.08, 97.4483, -51.5278, 44.0335
2.152, 2, 35.9151, 48.1278, -14.08, 97.4483, -51.5278, 44.0335
2.156, 2, 35.9151, 48.1278, -14.08, 97.4483, -51.5278, 44.0335
2.16, 2, 35.9151, 48.1278, -14.08, 97.4483, -51.5278, 44.0335
2.163, 2, 35.9151, 48.1278, -14.08, 97.4483, -51.5278, 44.0335
2.168, 2, 35.9151, 48.1278, -14.08, 97.4483, -51.5278, 44.0335
2.172, 2, 35.9151, 48.1278, -14.08, 97.4483, -51.5278, 44.0335
2.176, 2, 35.9151, 48.1278, -14.08, 97.4483, -51.5278, 44.0335
2.179, 2, 35.9151, 48.1278, -14.08, 97.4483, -51.5278, 44.0335
2.184, 2, 35.9151, 48.1278, -14.08, 97.4483, -51.5278, 44.0335
2.188, 2, 35.9151, 48.1278, -14.08, 97.4483, -51.5278, 44.0335
2.192, 2, 35.9151, 48.1278, -14.08, 97.4483, -51.5278, 44.0335
2.196, 2, 35.9151, 48.1278, -14.08, 97.4483, -51.5278, 44.0335
2.199, 2, 35.9151, 48.1278, -14.08, 97.4483, -51.5278, 44.0335
2.204, 2, 35.9151, 48.1278, -14.08, 97.4483, -51.5278, 44.0335
2.208, 2, 35.9151, 48.1278, -14.08, 97.4483, -51.5278, 44.0335
2.212, 2, 35.9151, 48.1278, -14.08, 97.4483, -51.5278, 44.0335
2.216, 2, 35.9151, 48.1278, -14.08, 97.4483, -51.5278, 44.0335
2.219, 2, 35.9151, 48.1278, -14.08, 97.4483, -51.5278, 44.0335
2.224, 2, 35.9151, 48.1278, -14.08, 97.4483, -51.5278, 44.0335
2.228, 2, 35.9151, 48.1278, -14.08, 97.4483, -51.5278, 44.0335
2.232, 2, 35.9151, 48.1278, -14.08, 97.4483, -51.5278, 44.0335
2.235, 2, 35.9151, 48.1278, -14.08, 97.4483, -51.5278, 44.0335
2.24, 2, 35.9151, 48.1278, -14.08, 97.4483, -51.5278, 44.0335
2.244, 2, 35.9151, 48.1278, -14.08, 97.4483, -51.5278, 44.0335
2.248, 2, 35.9151, 48.1278, -14.08, 97.4483, -51.5278, 44.0335
2.252, 2, 35.9151, 48.1278, -14.08, 97.4483, -51.5278, 44.0335
2.255, 2, 35.9151, 48.1278, -14.08, 97.4483, -51.5278, 44.0335
2.259, 2, 35.9151, 48.1278, -14.08, 97.4483, -51.5278, 44.0335
2.264, 2, 35.9151, 48.1278, -14.08, 97.4483, -51.5278, 44.0335
2.268, 2, 35.9151, 48.1278, -14.08, 97.4483, -51.5278, 44.0335
2.272, 2, 35.9151, 48.1278, -14.08, 97.4483, -51.5278, 44.0335
2.275, 2, 35.9151, 48.1278, -14.08, 97.4483, -51.5278, 44.0335
2.28, 2, 35.9151, 48.1278, -14.08, 97.4483, -51.5278, 44.0335
2.284, 2, 35.9151, 48.1278, -14.08, 97.4483, -51.5278, 44.0335
2.288, 2, 35.9151, 48.1278, -14.08, 97.4483, -51.5278, 44.0335
2.291, 2, 35.9151, 48.1278, -14.08, 97.4483, -51.5278, 44.0335
2.296, 2, 35.9151, 48.1278, -14.08, 97.4483, -51.5278, 44.0335
2.3, 2, 35.9151, 48.1278, -14.08, 97.4483, -51.5278, 44.0335
2.304, 2, 35.9151, 48.1278, -14.08, 97.4483, -51.5278, 44.0335
2.308, 2, 35.9151, 48.1278, -14.08, 97.4483, -51.5278, 44.0335
2.311, 2, 35.9151, 48.1278, -14.08, 97.4483, -51.5278, 44.0335
2.316, 2, 35.9151, 48.1278, -14.08, 97.4483, -51.5278, 44.0335
2.32, 2, 35.9151, 48.1278, -14.08, 97.4483, -51.5278, 44.0335
2.324, 2, 35.9151, 48.1278, -14.08, 97.4483, -51.5278, 44.0335
2.328, 2, 35.9151, 48.1278, -14.08, 97.4483, -51.5278, 44.0335
2.331, 2, 35.9151, 48.1278, -14.08, 97.4483, -51.5278, 44.0335
2.336, 2, 35.9151, 48.1278, -14.08, 97.4483, -51.5278, 44.0335
2.34, 2, 35.9151, 48.1278, -14.08, 97.4483, -51.5278, 44.0335
2.344, 2, 35.9151, 48.1278, -14.08, 97.4483, -51.5278, 44.0335
2.347, 2, 35.9151, 48.1278, -14.08, 97.4483, -51.5278, 44.0335
2.352, 2, 35.9151, 48.1278, -14.08, 97.4483, -51.5278, 44.0335
2.356, 2, 35.9151, 48.1278, -14.08, 97.4483, -51.5278, 44.0335
2.36, 2, 35.9151, 48.1278, -14.08, 97.4483, -51.5278, 44.0335
2.364, 2, 35.9151, 48.1278, -14.08, 97.4483, -51.5278, 44.0335
2.367, 2, 35.9151, 48.1278, -14.08, 97.4483, -51.5278, 44.0335
2.372, 2, 35.9151, 48.1278, -14.08, 97.4483, -51.5278, 44.0335
2.376, 2, 35.9151, 48.1278, -14.08, 97.4483, -51.5278, 44.0335
2.38, 2, 35.9151, 48.1278, -14.08, 97.4483, -51.5278, 44.0335
2.383, 2, 35.9151, 48.1278, -14.08, 97.4483, -51.5278, 44.0335
2.388, 2, 35.9151, 48.1278, -14.08, 97.4483, -51.5278, 44.0335
2.392, 2, 35.9151, 48.1278, -14.08, 97.4483, -51.5278, 44.0335
2.396, 2, 35.9151, 48.1278, -14.08, 97.4483, -51.5278, 44.0335
2.4, 2, 35.9151, 48.1278, -14.08, 97.4483, -51.5278, 44.0335
2.403, 2, 35.9151, 48.1278, -14.08, 97.4483, -51.5278, 44.0335
2.408, 2, 35.9151, 48.1278, -14.08, 97.4483, -51.5278, 44.0335
2.412, 2, 35.9151, 48.1278, -14.08, 97.4483, -51.5278, 44.0335
2.416, 2, 35.9151, 48.1278, -14.08, 97.4483, -51.5278, 44.0335
2.42, 2, 35.9151, 48.1278, -14.08, 97.4483, -51.5278, 44.0335
2.423, 2, 35.9151, 48.1278, -14.08, 97.4483, -51.5278, 44.0335
2.428, 2, 35.9151, 48.1278, -14.08, 97.4483, -51.5278, 44.0335
2.432, 2, 35.9151, 48.1278, -14.08, 97.4483, -51.5278, 44.0335
2.436, 2, 35.9151, 48.1278, -14.08, 97.4483, -51.5278, 44.0335
2.439, 2, 35.9151, 48.1278, -14.08, 97.4483, -51.5278, 44.0335
2.444, 2, 35.9151, 48.1278, -14.08, 97.4483, -51.5278, 44.0335
2.448, 2, 35.9151, 48.1278, -14.08, 97.4483, -51.5278, 44.0335
2.452, 2, 35.9151, 48.1278, -14.08, 97.4483, -51.5278, 44.0335
2.456, 2, 35.9151, 48.1278, -14.08, 97.4483, -51.5278, 44.0335
2.459, 2, 35.9151, 48.1278, -14.08, 97.4483, -51.5278, 44.0335
2.464, 2, 35.9151, 48.1278, -14.08, 97.4483, -51.5278, 44.0335
2.468, 2, 35.9151, 48.1278, -14.08, 97.4483, -51.5278, 44.0335
2.472, 2, 35.9151, 48.1278, -14.08, 97.4483, -51.5278, 44.0335
2.476, 2, 35.9151, 48.1278, -14.08, 97.4483, -51.5278, 44.0335
2.479, 2, 35.9151, 48.1278, -14.08, 97.4483, -51.5278, 44.0335
2.484, 2, 35.9151, 48.1278, -14.08, 97.4483, -51.5278, 44.0335
2.488, 2, 35.9151, 48.1278, -14.08, 97.4483, -51.5278, 44.0335
2.492, 2, 35.9151, 48.1278, -14.08, 97.4483, -51.5278, 44.0335
2.495, 2, 35.9151, 48.1278, -14.08, 97.4483, -51.5278, 44.0335
2.5, 2, 35.9151, 48.1278, -14.08, 97.4483, -51.5278, 44.0335
2.504, 2, 35.9151, 48.1278, -14.08, 97.4483, -51.5278, 44.0335
2.508, 2, 35.9151, 48.1278, -14.08, 97.4483, -51.5278, 44.0335
2.512, 2, 35.9151, 48.1278, -14.08, 97.4483, -51.5278, 44.0335
2.515, 2, 35.9151, 48.1278, -14.08, 97.4483, -51.5278, 44.0335
2.52, 2, 35.9151, 48.1278, -14.08, 97.4483, -51.5278, 44.0335
2.524, 2, 35.9151, 48.1278, -14.08, 97.4483, -51.5278, 44.0335
2.528, 2, 35.9151, 48.1278, -14.08, 97.4483, -51.5278, 44.0335
2.531, 2, 35.9151, 48.1278, -14.08, 97.4483, -51.5278, 44.0335
2.536, 2, 35.9151, 48.1278, -14.08, 97.4483, -51.5278, 44.0335
2.54, 2, 35.9151, 48.1278, -14.08, 97.4483, -51.5278, 44.0335
2.544, 2, 35.9151, 48.1278, -14.08, 97.4483, -51.5278, 44.0335
2.548, 2, 35.9151, 48.1278, -14.08, 97.4483, -51.5278, 44.0335
2.551, 2, 35.9151, 48.1278, -14.08, 97.4483, -51.5278, 44.0335
2.556, 2, 35.9151, 48.1278, -14.08, 97.4483, -51.5278, 44.0335
2.56, 2, 35.9151, 48.1278, -14.08, 97.4483, -51.5278, 44.0335
2.564, 2, 35.9151, 48.1278, -14.08, 97.4483, -51.5278, 44.0335
2.568, 2, 35.9151, 48.1278, -14.08, 97.4483, -51.5278, 44.0335
2.571, 2, 35.9151, 48.1278, -14.08, 97.4483, -51.5278, 44.0335
2.576, 2, 35.9151, 48.1278, -14.08, 97.4483, -51.5278, 44.0335
2.58, 2, 35.9151, 48.1278, -14.08, 97.4483, -51.5278, 44.0335
2.584, 2, 35.9151, 48.1278, -14.08, 97.4483, -51.5278, 44.0335
2.587, 2, 35.9151, 48.1278, -14.08, 97.4483, -51.5278, 44.0335
2.592, 2, 35.9151, 48.1278, -14.08, 97.4483, -51.5278, 44.0335
2.596, 2, 35.9151, 48.1278, -14.08, 97.4483, -51.5278, 44.0335
2.6, 2, 35.9151, 48.1278, -14.08, 97.4483, -51.5278, 44.0335
2.604, 2, 35.9151, 48.1278, -14.08, 97.4483, -51.5278, 44.0335
2.607, 2, 35.9151, 48.1278, -14.08, 97.4483, -51.5278, 44.0335
2.612, 2, 35.9151, 48.1278, -14.08, 97.4483, -51.5278, 44.0335
2.616, 2, 35.9151, 48.1278, -14.08, 97.4483, -51.5278, 44.0335
2.62, 2, 35.9151, 48.1278, -14.08, 97.4483, -51.5278, 44.0335
2.624, 2, 35.9151, 48.1278, -14.08, 97.4483, -51.5278, 44.0335
2.627, 2, 35.9151, 48.1278, -14.08, 97.4483, -51.5278, 44.0335
2.632, 2, 35.9151, 48.1278, -14.08, 97.4483, -51.5278, 44.0335
2.636, 2, 35.9151, 48.1278, -14.08, 97.4483, -51.5278, 44.0335
2.64, 2, 35.9151, 48.1278, -14.08, 97.4483, -51.5278, 44.0335
2.643, 2, 35.9151, 48.1278, -14.08, 97.4483, -51.5278, 44.0335
2.648, 2, 35.9151, 48.1278, -14.08, 97.4483, -51.5278, 44.0335
2.652, 2, 35.9151, 48.1278, -14.08, 97.4483, -51.5278, 44.0335
2.656, 2, 35.9151, 48.1278, -14.08, 97.4483, -51.5278, 44.0335
2.66, 2, 35.9151, 48.1278, -14.08, 97.4483, -51.5278, 44.0335
2.663, 2, 35.9151, 48.1278, -14.08, 97.4483, -51.5278, 44.0335
2.668, 2, 35.9151, 48.1278, -14.08, 97.4483, -51.5278, 44.0335
2.672, 2, 35.9151, 48.1278, -14.08, 97.4483, -51.5278, 44.0335
2.676, 2, 35.9151, 48.1278, -14.08, 97.4483, -51.5278, 44.0335
2.679, 2, 35.9151, 48.1278, -14.08, 97.4483, -51.5278, 44.0335
2.684, 2, 35.9151, 48.1278, -14.08, 97.4483, -51.5278, 44.0335
2.688, 2, 35.9151, 48.1278, -14.08, 97.4483, -51.5278, 44.0335
2.692, 2, 35.9151, 48.1278, -14.08, 97.4483, -51.5278, 44.0335
2.696, 2, 35.9151, 48.1278, -14.08, 97.4483, -51.5278, 44.0335
2.699, 2, 35.9151, 48.1278, -14.08, 97.4483, -51.5278, 44.0335
2.704, 2, 35.9151, 48.1278, -14.08, 97.4483, -51.5278, 44.0335
2.708, 2, 35.9151, 48.1278, -14.08, 97.4483, -51.5278, 44.0335
2.712, 2, 35.9151, 48.1278, -14.08, 97.4483, -51.5278, 44.0335
2.716, 2, 35.9151, 48.1278, -14.08, 97.4483, -51.5278, 44.0335
2.719, 2, 35.9151, 48.1278, -14.08, 97.4483, -51.5278, 44.0335
2.724, 2, 35.9151, 48.1278, -14.08, 97.4483, -51.5278, 44.0335
2.728, 2, 35.9151, 48.1278, -14.08, 97.4483, -51.5278, 44.0335
2.732, 2, 35.9151, 48.1278, -14.08, 97.4483, -51.5278, 44.0335
2.735, 2, 35.9151, 48.1278, -14.08, 97.4483, -51.5278, 44.0335
2.74, 2, 35.9151, 48.1278, -14.08, 97.4483, -51.5278, 44.0335
2.744, 2, 35.9151, 48.1278, -14.08, 97.4483, -51.5278, 44.0335
2.748, 2, 35.9151, 48.1278, -14.08, 97.4483, -51.5278, 44.0335
2.752, 2, 35.9151, 48.1278, -14.08, 97.4483, -51.5278, 44.0335
2.755, 2, 35.9151, 48.1278, -14.08, 97.4483, -51.5278, 44.0335
2.76, 2, 35.9151, 48.1278, -14.08, 97.4483, -51.5278, 44.0335
2.764, 2, 35.9151, 48.1278, -14.08, 97.4483, -51.5278, 44.0335
2.768, 2, 35.9151, 48.1278, -14.08, 97.4483, -51.5278, 44.0335
2.772, 2, 35.9151, 48.1278, -14.08, 97.4483, -51.5278, 44.0335
2.775, 2, 35.9151, 48.1278, -14.08, 97.4483, -51.5278, 44.0335
2.78, 2, 35.9151, 48.1278, -14.08, 97.4483, -51.5278, 44.0335
2.784, 2, 35.9151, 48.1278, -14.08, 97.4483, -51.5278, 44.0335
2.788, 2, 35.9151, 48.1278, -14.08, 97.4483, -51.5278, 44.0335
2.791, 2, 35.9151, 48.1278, -14.08, 97.4483, -51.5278, 44.0335
2.796, 2, 35.9151, 48.1278, -14.08, 97.4483, -51.5278, 44.0335
2.8, 2, 35.9151, 48.1278, -14.08, 97.4483, -51.5278, 44.0335
2.804, 2, 35.9151, 48.1278, -14.08, 97.4483, -51.5278, 44.0335
2.808, 4, 35.9151, 48.1278, -14.08, 97.4483, -51.5278, 44.0335
2.811, 4, 35.9151, 48.1278, -14.08, 97.4483, -51.5278, 44.0335
2.816, 4, 35.9151, 48.1278, -14.08, 97.4483, -51.5278, 44.0335
2.82, 4, 35.9151, 48.1278, -14.08, 97.4483, -51.5278, 44.0335
2.824, 4, 35.9151, 48.1278, -14.08, 97.4483, -51.5278, 44.0335
2.828, 4, 35.9151, 48.1278, -14.08, 97.4483, -51.5278, 44.0335
2.831, 4, 35.9151, 48.1278, -14.08, 97.4483, -51.5278, 44.0335
2.836, 4, 35.9151, 48.1278, -14.08, 97.4483, -51.5278, 44.0335
2.84, 4, 35.9151, 48.1278, -14.08, 97.4483, -51.5278, 44.0335
2.844, 4, 35.9151, 48.1278, -14.08, 97.4483, -51.5278, 44.0335
2.847, 4, 35.9151, 48.1278, -14.08, 97.4483, -51.5278, 44.0335
2.852, 4, 35.9151, 48.1278, -14.08, 97.4483, -51.5278, 44.0335
2.856, 4, 35.9151, 48.1278, -14.08, 97.4483, -51.5278, 44.0335
2.86, 4, 35.9151, 48.1278, -14.08, 97.4483, -51.5278, 44.0335
2.864, 4, 35.9151, 48.1278, -14.08, 97.4483, -51.5278, 44.0335
2.867, 4, 35.9151, 48.1278, -14.08, 97.4483, -51.5278, 44.0335
2.872, 4, 35.9151, 48.1278, -14.08, 97.4483, -51.5278, 44.0335
2.876, 4, 35.9151, 48.1278, -14.08, 97.4483, -51.5278, 44.0335
2.88, 4, 35.9151, 48.1278, -14.08, 97.4483, -51.5278, 44.0335
2.883, 4, 35.9151, 48.1278, -14.08, 97.4483, -51.5278, 44.0335
2.888, 4, 35.9151, 48.1278, -14.08, 97.4483, -51.5278, 44.0335
2.892, 4, 35.9151, 48.1278, -14.08, 97.4483, -51.5278, 44.0335
2.896, 4, 35.9151, 48.1278, -14.08, 97.4483, -51.5278, 44.0335
2.9, 4, 35.9151, 48.1278, -14.08, 97.4483, -51.5278, 44.0335
2.903, 4, 35.9151, 48.1278, -14.08, 97.4483, -51.5278, 44.0335
2.908, 4, 35.9151, 48.1278, -14.08, 97.4483, -51.5278, 44.0335
2.912, 4, 35.9151, 48.1278, -14.08, 97.4483, -51.5278, 44.0335
2.916, 4, 35.9151, 48.1278, -14.08, 97.4483, -51.5278, 44.0335
2.92, 4, 35.9151, 48.1278, -14.08, 97.4483, -51.5278, 44.0335
2.923, 4, 35.9151, 48.1278, -14.08, 97.4483, -51.5278, 44.0335
2.928, 4, 35.9151, 48.1278, -14.08, 97.4483, -51.5278, 44.0335
2.932, 4, 35.9151, 48.1278, -14.08, 97.4483, -51.5278, 44.0335
2.936, 4, 35.9151, 48.1278, -14.08, 97.4483, -51.5278, 44.0335
2.939, 4, 35.9151, 48.1278, -14.08, 97.4483, -51.5278, 44.0335
2.944, 4, 35.9151, 48.1278, -14.08, 97.4483, -51.5278, 44.0335
2.948, 4, 35.9151, 48.1278, -14.08, 97.4483, -51.5278, 44.0335
2.952, 4, 35.9151, 48.1278, -14.08, 97.4483, -51.5278, 44.0335
2.956, 4, 35.9151, 48.1278, -14.08, 97.4483, -51.5278, 44.0335
2.959, 4, 35.9148, 48.1277, -14.08, 97.4483, -51.5279, 44.0335
2.964, 4, 35.9144, 48.1276, -14.0799, 97.4483, -51.5279, 44.0335
2.968, 4, 35.9137, 48.1275, -14.0798, 97.4482, -51.528, 44.0335
2.972, 4, 35.9127, 48.1272, -14.0795, 97.4481, -51.5281, 44.0336
2.976, 4, 35.9115, 48.1269, -14.079, 97.4479, -51.5284, 44.0336
2.98, 4, 35.9102, 48.1264, -14.0783, 97.4475, -51.5288, 44.0337
2.984, 4, 35.9088, 48.1259, -14.0771, 97.4469, -51.5294, 44.0339
2.988, 4, 35.9076, 48.1252, -14.0756, 97.446, -51.5303, 44.0341
2.992, 4, 35.9064, 48.1243, -14.0735, 97.4449, -51.5315, 44.0344
2.995, 4, 35.9053, 48.1233, -14.0708, 97.4435, -51.5331, 44.0348
3, 5, 35.9042, 48.122, -14.0676, 97.4416, -51.535, 44.0353
3.004, 5, 35.9031, 48.1206, -14.0637, 97.4395, -51.5372, 44.0359
3.008, 5, 35.9021, 48.1189, -14.0591, 97.4369, -51.5399, 44.0366
3.012, 5, 35.9011, 48.1171, -14.0539, 97.434, -51.5429, 44.0374
3.015, 5, 35.9003, 48.1151, -14.048, 97.4307, -51.5463, 44.0383
3.02, 5, 35.8996, 48.1129, -14.0416, 97.4271, -51.55, 44.0393
3.024, 5, 35.899, 48.1106, -14.0347, 97.4232, -51.554, 44.0403
3.028, 5, 35.8984, 48.1081, -14.0274, 97.4191, -51.5583, 44.0415
3.031, 5, 35.8977, 48.1055, -14.0197, 97.4147, -51.5627, 44.0426
3.036, 5, 35.8967, 48.1028, -14.0117, 97.4103, -51.5674, 44.0439
3.04, 5, 35.8955, 48.0999, -14.0035, 97.4057, -51.5721, 44.0451
3.044, 5, 35.894, 48.097, -13.9952, 97.401, -51.5769, 44.0464
3.048, 5, 35.8924, 48.094, -13.9868, 97.3963, -51.5818, 44.0477
3.051, 5, 35.8906, 48.091, -13.9783, 97.3916, -51.5867, 44.0489
3.056, 5, 35.8887, 48.0879, -13.9698, 97.3868, -51.5917, 44.0502
3.06, 5, 35.8868, 48.0849, -13.9612, 97.382, -51.5967, 44.0515
3.064, 5, 35.8848, 48.0818, -13.9526, 97.3773, -51.6016, 44.0528
3.068, 5, 35.8829, 48.0787, -13.944, 97.3725, -51.6066, 44.0541
3.071, 5, 35.8809, 48.0756, -13.9354, 97.3677, -51.6116, 44.0554
3.076, 5, 35.8788, 48.0725, -13.9268, 97.3629, -51.6166, 44.0567
3.08, 5, 35.8768, 48.0694, -13.9182, 97.3581, -51.6216, 44.058
3.084, 5, 35.8748, 48.0663, -13.9096, 97.3532, -51.6266, 44.0593
3.087, 5, 35.8727, 48.0632, -13.901, 97.3484, -51.6316, 44.0606
3.092, 5, 35.8707, 48.0601, -13.8923, 97.3436, -51.6366, 44.0619
3.096, 5, 35.8687, 48.057, -13.8837, 97.3388, -51.6416, 44.0632
3.1, 5, 35.8666, 48.0539, -13.8751, 97.334, -51.6466, 44.0645
3.104, 5, 35.8646, 48.0508, -13.8665, 97.3292, -51.6516, 44.0658
3.107, 5, 35.8625, 48.0477, -13.8579, 97.3244, -51.6566, 44.0671
3.112, 5, 35.8605, 48.0446, -13.8493, 97.3196, -51.6616, 44.0684
3.116, 5, 35.8584, 48.0415, -13.8407, 97.3148, -51.6666, 44.0697
3.12, 5, 35.8564, 48.0384, -13.8321, 97.31, -51.6716, 44.071
3.124, 5, 35.8543, 48.0353, -13.8235, 97.3052, -51.6767, 44.0723
3.128, 5, 35.8523, 48.0322, -13.8149, 97.3004, -51.6817, 44.0736
3.132, 5, 35.8502, 48.0292, -13.8063, 97.2956, -51.6867, 44.0749
3.136, 5, 35.8482, 48.0261, -13.7977, 97.2908, -51.6917, 44.0762
3.14, 5, 35.8461, 48.023, -13.7891, 97.286, -51.6967, 44.0775
3.143, 5, 35.8441, 48.0199, -13.7805, 97.2812, -51.7017, 44.0788
3.148, 5, 35.842, 48.0168, -13.7719, 97.2764, -51.7067, 44.0801
3.152, 5, 35.84, 48.0137, -13.7633, 97.2716, -51.7117, 44.0814
3.156, 5, 35.8379, 48.0106, -13.7547, 97.2668, -51.7167, 44.0827
3.16, 5, 35.8359, 48.0076, -13.7461, 97.262, -51.7217, 44.084
3.163, 5, 35.8338, 48.0045, -13.7375, 97.2572, -51.7267, 44.0853
3.168, 5, 35.8318, 48.0014, -13.7289, 97.2524, -51.7318, 44.0866
3.172, 5, 35.8297, 47.9983, -13.7203, 97.2476, -51.7368, 44.0879
3.176, 5, 35.8277, 47.9953, -13.7117, 97.2428, -51.7418, 44.0892
3.179, 5, 35.8256, 47.9922, -13.7031, 97.238, -51.7468, 44.0904
3.184, 5, 35.8236, 47.9891, -13.6945, 97.2333, -51.7518, 44.0917
3.188, 5, 35.8215, 47.986, -13.686, 97.2285, -51.7568, 44.093
3.192, 5, 35.8195, 47.983, -13.6774, 97.2237, -51.7618, 44.0943
3.196, 5, 35.8174, 47.9799, -13.6688, 97.2189, -51.7668, 44.0956
3.199, 5, 35.8154, 47.9768, -13.6602, 97.2141, -51.7718, 44.0969
3.204, 5, 35.8133, 47.9738, -13.6516, 97.2093, -51.7769, 44.0982
3.208, 5, 35.8112, 47.9707, -13.6431, 97.2045, -51.7819, 44.0995
3.212, 5, 35.8092, 47.9676, -13.6345, 97.1997, -51.7869, 44.1007
3.216, 5, 35.8071, 47.9646, -13.6259, 97.1949, -51.7919, 44.102
3.22, 5, 35.8051, 47.9615, -13.6173, 97.1901, -51.7969, 44.1033
3.224, 5, 35.803, 47.9584, -13.6088, 97.1853, -51.8019, 44.1046
3.228, 5, 35.801, 47.9554, -13.6002, 97.1806, -51.8069, 44.1059
3.232, 5, 35.7989, 47.9523, -13.5916, 97.1758, -51.812, 44.1072
3.235, 5, 35.7969, 47.9493, -13.5831, 97.171, -51.817, 44.1084
3.24, 5, 35.7948, 47.9462, -13.5745, 97.1662, -51.822, 44.1097
3.244, 5, 35.7927, 47.9431, -13.5659, 97.1614, -51.827, 44.111
3.248, 5, 35.7907, 47.9401, -13.5574, 97.1566, -51.832, 44.1123
3.252, 5, 35.7886, 47.937, -13.5488, 97.1518, -51.837, 44.1136
3.255, 5, 35.7866, 47.934, -13.5403, 97.1471, -51.8421, 44.1149
3.26, 5, 35.7845, 47.9309, -13.5317, 97.1423, -51.8471, 44.1161
3.264, 5, 35.7824, 47.9279, -13.5231, 97.1375, -51.8521, 44.1174
3.268, 5, 35.7804, 47.9248, -13.5146, 97.1327, -51.8571, 44.1187
3.272, 5, 35.7783, 47.9218, -13.506, 97.1279, -51.8621, 44.12
3.276, 5, 35.7763, 47.9188, -13.4975, 97.1232, -51.8671, 44.1212
3.28, 5, 35.7742, 47.9157, -13.4889, 97.1184, -51.8722, 44.1225
3.284, 5, 35.7721, 47.9127, -13.4804, 97.1136, -51.8772, 44.1238
3.288, 5, 35.7701, 47.9096, -13.4718, 97.1088, -51.8822, 44.1251
3.291, 5, 35.768, 47.9066, -13.4633, 97.104, -51.8872, 44.1263
3.296, 5, 35.766, 47.9035, -13.4547, 97.0993, -51.8922, 44.1276
3.3, 5, 35.7639, 47.9005, -13.4462, 97.0945, -51.8973, 44.1289
3.304, 5, 35.7618, 47.8975, -13.4376, 97.0897, -51.9023, 44.1302
3.308, 5, 35.7598, 47.8944, -13.4291, 97.0849, -51.9073, 44.1314
3.312, 5, 35.7577, 47.8914, -13.4206, 97.0802, -51.9123, 44.1327
3.316, 5, 35.7556, 47.8884, -13.412, 97.0754, -51.9173, 44.134
3.32, 5, 35.7536, 47.8853, -13.4035, 97.0706, -51.9224, 44.1353
3.324, 5, 35.7515, 47.8823, -13.3949, 97.0658, -51.9274, 44.1365
3.328, 5, 35.7494, 47.8793, -13.3864, 97.0611, -51.9324, 44.1378
3.332, 5, 35.7474, 47.8762, -13.3779, 97.0563, -51.9374, 44.1391
3.336, 5, 35.7453, 47.8732, -13.3693, 97.0515, -51.9424, 44.1403
3.34, 5, 35.7433, 47.8702, -13.3608, 97.0467, -51.9475, 44.1416
3.344, 5, 35.7412, 47.8672, -13.3523, 97.042, -51.9525, 44.1429
3.347, 5, 35.7391, 47.8641, -13.3438, 97.0372, -51.9575, 44.1441
3.352, 5, 35.7371, 47.8611, -13.3352, 97.0324, -51.9625, 44.1454
3.356, 5, 35.735, 47.8581, -13.3267, 97.0277, -51.9676, 44.1467
3.36, 5, 35.7329, 47.8551, -13.3182, 97.0229, -51.9726, 44.1479
3.364, 5, 35.7309, 47.8521, -13.3097, 97.0181, -51.9776, 44.1492
3.368, 5, 35.7288, 47.849, -13.3011, 97.0134, -51.9826, 44.1505
3.372, 5, 35.7267, 47.846, -13.2926, 97.0086, -51.9877, 44.1517
3.376, 5, 35.7246, 47.843, -13.2841, 97.0038, -51.9927, 44.153
3.38, 5, 35.7226, 47.84, -13.2756, 96.9991, -51.9977, 44.1543
3.383, 5, 35.7205, 47.837, -13.2671, 96.9943, -52.0027, 44.1555
3.388, 5, 35.7184, 47.834, -13.2585, 96.9895, -52.0078, 44.1568
3.392, 5, 35.7164, 47.831, -13.25, 96.9848, -52.0128, 44.1581
3.396, 5, 35.7143, 47.828, -13.2415, 96.98, -52.0178, 44.1593
3.4, 5, 35.7122, 47.8249, -13.233, 96.9752, -52.0228, 44.1606
3.403, 5, 35.7102, 47.8219, -13.2245, 96.9705, -52.0279, 44.1618
3.408, 5, 35.7081, 47.8189, -13.216, 96.9657, -52.0329, 44.1631
3.412, 5, 35.706, 47.8159, -13.2075, 96.961, -52.0379, 44.1644
3.416, 5, 35.7039, 47.8129, -13.199, 96.9562, -52.0429, 44.1656
3.42, 5, 35.7019, 47.8099, -13.1905, 96.9514, -52.048, 44.1669
3.424, 5, 35.6998, 47.8069, -13.182, 96.9467, -52.053, 44.1681
3.428, 5, 35.6977, 47.8039, -13.1735, 96.9419, -52.058, 44.1694
3.432, 5, 35.6956, 47.8009, -13.165, 96.9371, -52.0631, 44.1707
3.436, 5, 35.6936, 47.7979, -13.1565, 96.9324, -52.0681, 44.1719
3.439, 5, 35.6915, 47.7949, -13.148, 96.9276, -52.0731, 44.1732
3.444, 5, 35.6894, 47.7919, -13.1395, 96.9229, -52.0782, 44.1744
3.448, 5, 35.6873, 47.7889, -13.131, 96.9181, -52.0832, 44.1757
3.452, 5, 35.6853, 47.7859, -13.1225, 96.9134, -52.0882, 44.1769
3.456, 5, 35.6832, 47.783, -13.114, 96.9086, -52.0932, 44.1782
3.46, 5, 35.6811, 47.78, -13.1055, 96.9038, -52.0983, 44.1795
3.464, 5, 35.679, 47.777, -13.097, 96.8991, -52.1033, 44.1807
3.468, 5, 35.677, 47.774, -13.0885, 96.8943, -52.1083, 44.182
3.472, 5, 35.6749, 47.771, -13.0801, 96.8896, -52.1134, 44.1832
3.476, 5, 35.6728, 47.768, -13.0716, 96.8848, -52.1184, 44.1845
3.48, 5, 35.6707, 47.765, -13.0631, 96.8801, -52.1234, 44.1857
3.484, 5, 35.6687, 47.7621, -13.0546, 96.8753, -52.1285, 44.187
3.488, 5, 35.6666, 47.7591, -13.0461, 96.8706, -52.1335, 44.1882
3.492, 5, 35.6645, 47.7561, -13.0377, 96.8658, -52.1385, 44.1895
3.495, 5, 35.6624, 47.7531, -13.0292, 96.8611, -52.1436, 44.1907
3.5, 5, 35.6603, 47.7501, -13.0207, 96.8563, -52.1486, 44.192
3.504, 5, 35.6583, 47.7472, -13.0122, 96.8516, -52.1536, 44.1932
3.508, 5, 35.6562, 47.7442, -13.0037, 96.8468, -52.1587, 44.1945
3.512, 5, 35.6541, 47.7412, -12.9953, 96.8421, -52.1637, 44.1957
3.516, 5, 35.652, 47.7382, -12.9868, 96.8373, -52.1687, 44.197
3.52, 5, 35.6499, 47.7353, -12.9783, 96.8326, -52.1738, 44.1982
3.524, 5, 35.6479, 47.7323, -12.9699, 96.8278, -52.1788, 44.1995
3.528, 5, 35.6458, 47.7293, -12.9614, 96.8231, -52.1838, 44.2007
3.531, 5, 35.6437, 47.7264, -12.9529, 96.8183, -52.1889, 44.2019
3.536, 5, 35.6416, 47.7234, -12.9445, 96.8136, -52.1939, 44.2032
3.54, 5, 35.6395, 47.7204, -12.936, 96.8088, -52.199, 44.2044
3.544, 5, 35.6375, 47.7175, -12.9275, 96.8041, -52.204, 44.2057
3.548, 5, 35.6354, 47.7145, -12.9191, 96.7994, -52.209, 44.2069
3.552, 5, 35.6333, 47.7115, -12.9106, 96.7946, -52.2141, 44.2082
3.556, 5, 35.6312, 47.7086, -12.9022, 96.7899, -52.2191, 44.2094
3.56, 5, 35.6291, 47.7056, -12.8937, 96.7851, -52.2241, 44.2106
3.564, 5, 35.627, 47.7027, -12.8853, 96.7804, -52.2292, 44.2119
3.568, 5, 35.625, 47.6997, -12.8768, 96.7757, -52.2342, 44.2131
3.572, 5, 35.6229, 47.6967, -12.8684, 96.7709, -52.2393, 44.2144
3.576, 5, 35.6208, 47.6938, -12.8599, 96.7662, -52.2443, 44.2156
3.58, 5, 35.6187, 47.6908, -12.8515, 96.7614, -52.2493, 44.2168
3.584, 5, 35.6166, 47.6879, -12.843, 96.7567, -52.2544, 44.2181
3.587, 5, 35.6145, 47.6849, -12.8346, 96.752, -52.2594, 44.2193
3.592, 5, 35.6124, 47.682, -12.8261, 96.7472, -52.2645, 44.2206
3.596, 5, 35.6103, 47.679, -12.8177, 96.7425, -52.2695, 44.2218
3.6, 5, 35.6083, 47.6761, -12.8092, 96.7377, -52.2745, 44.223
3.604, 5, 35.6062, 47.6731, -12.8008, 96.733, -52.2796, 44.2243
3.608, 5, 35.6041, 47.6702, -12.7924, 96.7283, -52.2846, 44.2255
3.612, 5, 35.602, 47.6673, -12.7839, 96.7235, -52.2897, 44.2267
3.616, 5, 35.5999, 47.6643, -12.7755, 96.7188, -52.2947, 44.228
3.62, 5, 35.5978, 47.6614, -12.767, 96.7141, -52.2997, 44.2292
3.624, 5, 35.5957, 47.6584, -12.7586, 96.7093, -52.3048, 44.2304
3.628, 5, 35.5936, 47.6555, -12.7502, 96.7046, -52.3098, 44.2317
3.632, 5, 35.5915, 47.6525, -12.7417, 96.6999, -52.3149, 44.2329
3.636, 5, 35.5895, 47.6496, -12.7333, 96.6951, -52.3199, 44.2341
3.64, 5, 35.5874, 47.6467, -12.7249, 96.6904, -52.325, 44.2354
3.644, 5, 35.5853, 47.6437, -12.7165, 96.6857, -52.33, 44.2366
3.648, 5, 35.5832, 47.6408, -12.708, 96.6809, -52.3351, 44.2378
3.652, 5, 35.5811, 47.6379, -12.6996, 96.6762, -52.3401, 44.2391
3.656, 5, 35.579, 47.6349, -12.6912, 96.6715, -52.3451, 44.2403
3.66, 5, 35.5769, 47.632, -12.6828, 96.6668, -52.3502, 44.2415
3.664, 5, 35.5748, 47.6291, -12.6743, 96.662, -52.3552, 44.2428
3.668, 5, 35.5727, 47.6262, -12.6659, 96.6573, -52.3603, 44.244
3.672, 5, 35.5706, 47.6232, -12.6575, 96.6526, -52.3653, 44.2452
3.676, 5, 35.5685, 47.6203, -12.6491, 96.6479, -52.3704, 44.2464
3.679, 5, 35.5664, 47.6174, -12.6407, 96.6431, -52.3754, 44.2477
3.684, 5, 35.5643, 47.6145, -12.6323, 96.6384, -52.3805, 44.2489
3.688, 5, 35.5622, 47.6115, -12.6238, 96.6337, -52.3855, 44.2501
3.692, 5, 35.5602, 47.6086, -12.6154, 96.6289, -52.3906, 44.2514
3.696, 5, 35.5581, 47.6057, -12.607, 96.6242, -52.3956, 44.2526
3.7, 5, 35.556, 47.6028, -12.5986, 96.6195, -52.4007, 44.2538
3.704, 5, 35.5539, 47.5999, -12.5902, 96.6148, -52.4057, 44.255
3.708, 5, 35.5518, 47.597, -12.5818, 96.61, -52.4108, 44.2562
3.712, 5, 35.5497, 47.594, -12.5734, 96.6053, -52.4158, 44.2575
3.716, 5, 35.5476, 47.5911, -12.565, 96.6006, -52.4208, 44.2587
3.72, 5, 35.5455, 47.5882, -12.5566, 96.5959, -52.4259, 44.2599
3.724, 5, 35.5434, 47.5853, -12.5482, 96.5912, -52.4309, 44.2611
3.728, 5, 35.5413, 47.5824, -12.5398, 96.5864, -52.436, 44.2624
3.732, 5, 35.5392, 47.5795, -12.5314, 96.5817, -52.441, 44.2636
3.735, 5, 35.5371, 47.5766, -12.523, 96.577, -52.4461, 44.2648
3.74, 5, 35.535, 47.5737, -12.5146, 96.5723, -52.4511, 44.266
3.744, 5, 35.5329, 47.5708, -12.5062, 96.5676, -52.4562, 44.2672
3.748, 5, 35.5308, 47.5679, -12.4978, 96.5628, -52.4613, 44.2685
3.752, 5, 35.5287, 47.565, -12.4894, 96.5581, -52.4663, 44.2697
3.756, 5, 35.5266, 47.5621, -12.481, 96.5534, -52.4714, 44.2709
3.76, 5, 35.5245, 47.5592, -12.4727, 96.5487, -52.4764, 44.2721
3.764, 5, 35.5224, 47.5563, -12.4643, 96.544, -52.4815, 44.2733
3.768, 5, 35.5203, 47.5534, -12.4559, 96.5393, -52.4865, 44.2746
3.772, 5, 35.5182, 47.5505, -12.4475, 96.5345, -52.4916, 44.2758
3.776, 5, 35.5161, 47.5476, -12.4391, 96.5298, -52.4966, 44.277
3.78, 5, 35.514, 47.5447, -12.4307, 96.5251, -52.5017, 44.2782
3.784, 5, 35.5119, 47.5418, -12.4224, 96.5204, -52.5067, 44.2794
3.788, 5, 35.5098, 47.5389, -12.414, 96.5157, -52.5118, 44.2806
3.792, 5, 35.5077, 47.536, -12.4056, 96.511, -52.5168, 44.2818
3.796, 5, 35.5056, 47.5331, -12.3972, 96.5063, -52.5219, 44.2831
3.8, 5, 35.5035, 47.5302, -12.3888, 96.5016, -52.5269, 44.2843
3.804, 5, 35.5014, 47.5274, -12.3805, 96.4969, -52.532, 44.2855
3.808, 5, 35.4992, 47.5245, -12.3721, 96.4921, -52.5371, 44.2867
3.812, 5, 35.4971, 47.5216, -12.3637, 96.4874, -52.5421, 44.2879
3.816, 5, 35.495, 47.5187, -12.3554, 96.4827, -52.5472, 44.2891
3.82, 5, 35.4929, 47.5158, -12.347, 96.478, -52.5522, 44.2903
3.824, 5, 35.4908, 47.513, -12.3386, 96.4733, -52.5573, 44.2915
3.828, 5, 35.4887, 47.5101, -12.3303, 96.4686, -52.5623, 44.2928
3.832, 5, 35.4866, 47.5072, -12.3219, 96.4639, -52.5674, 44.294
3.836, 5, 35.4845, 47.5043, -12.3135, 96.4592, -52.5724, 44.2952
3.84, 5, 35.4824, 47.5014, -12.3052, 96.4545, -52.5775, 44.2964
3.844, 5, 35.4803, 47.4986, -12.2968, 96.4498, -52.5826, 44.2976
3.848, 5, 35.4782, 47.4957, -12.2885, 96.4451, -52.5876, 44.2988
3.852, 5, 35.4761, 47.4928, -12.2801, 96.4404, -52.5927, 44.3
3.856, 5, 35.474, 47.49, -12.2717, 96.4357, -52.5977, 44.3012
3.86, 5, 35.4718, 47.4871, -12.2634, 96.431, -52.6028, 44.3024
3.864, 5, 35.4697, 47.4842, -12.255, 96.4263, -52.6079, 44.3036
3.868, 5, 35.4676, 47.4813, -12.2467, 96.4215, -52.6129, 44.3048
3.872, 5, 35.4655, 47.4785, -12.2383, 96.4168, -52.618, 44.306
3.876, 5, 35.4634, 47.4756, -12.23, 96.4121, -52.623, 44.3072
3.88, 5, 35.4613, 47.4728, -12.2216, 96.4074, -52.6281, 44.3084
3.884, 5, 35.4592, 47.4699, -12.2133, 96.4027, -52.6332, 44.3096
3.888, 5, 35.4571, 47.467, -12.2049, 96.398, -52.6382, 44.3108
3.892, 5, 35.455, 47.4642, -12.1966, 96.3934, -52.6433, 44.312
3.896, 5, 35.4528, 47.4613, -12.1883, 96.3886, -52.6483, 44.3133
3.9, 5, 35.4507, 47.4585, -12.1799, 96.3839, -52.6534, 44.3145
3.904, 5, 35.4486, 47.4556, -12.1716, 96.3792, -52.6585, 44.3157
3.908, 5, 35.4465, 47.4527, -12.1632, 96.3746, -52.6635, 44.3169
3.912, 5, 35.4444, 47.4499, -12.1549, 96.3699, -52.6686, 44.3181
3.916, 5, 35.4423, 47.447, -12.1466, 96.3652, -52.6736, 44.3193
3.92, 5, 35.4402, 47.4442, -12.1382, 96.3605, -52.6787, 44.3205
3.924, 5, 35.438, 47.4413, -12.1299, 96.3558, -52.6838, 44.3217
3.928, 5, 35.4359, 47.4385, -12.1216, 96.3511, -52.6888, 44.3229
3.932, 5, 35.4338, 47.4356, -12.1132, 96.3464, -52.6939, 44.3241
3.936, 5, 35.4317, 47.4328, -12.1049, 96.3417, -52.699, 44.3252
3.94, 5, 35.4296, 47.43, -12.0966, 96.337, -52.704, 44.3264
3.944, 5, 35.4275, 47.4271, -12.0882, 96.3323, -52.7091, 44.3276
3.948, 5, 35.4253, 47.4243, -12.0799, 96.3276, -52.7142, 44.3288
3.952, 5, 35.4232, 47.4214, -12.0716, 96.3229, -52.7192, 44.33
3.956, 5, 35.4211, 47.4186, -12.0633, 96.3182, -52.7243, 44.3312
3.96, 5, 35.419, 47.4157, -12.055, 96.3135, -52.7294, 44.3324
3.964, 5, 35.4169, 47.4129, -12.0466, 96.3089, -52.7344, 44.3336
3.968, 5, 35.4148, 47.4101, -12.0383, 96.3042, -52.7395, 44.3348
3.972, 5, 35.4126, 47.4072, -12.03, 96.2995, -52.7446, 44.336
3.976, 5, 35.4105, 47.4044, -12.0217, 96.2948, -52.7496, 44.3372
3.98, 5, 35.4084, 47.4016, -12.0134, 96.2901, -52.7547, 44.3384
3.984, 5, 35.4063, 47.3987, -12.0051, 96.2854, -52.7598, 44.3396
3.988, 5, 35.4042, 47.3959, -11.9967, 96.2807, -52.7648, 44.3408
3.992, 5, 35.402, 47.3931, -11.9884, 96.276, -52.7699, 44.342
3.996, 5, 35.3999, 47.3902, -11.9801, 96.2713, -52.775, 44.3432
3.999, 5, 35.3978, 47.3874, -11.9718, 96.2667, -52.78, 44.3444
4.004, 5, 35.3957, 47.3846, -11.9635, 96.262, -52.7851, 44.3455
4.008, 5, 35.3936, 47.3818, -11.9552, 96.2573, -52.7902, 44.3467
4.012, 5, 35.3914, 47.3789, -11.9469, 96.2526, -52.7952, 44.3479
4.016, 5, 35.3893, 47.3761, -11.9386, 96.2479, -52.8003, 44.3491
4.02, 5, 35.3872, 47.3733, -11.9303, 96.2432, -52.8054, 44.3503
4.024, 5, 35.3851, 47.3705, -11.922, 96.2385, -52.8105, 44.3515
4.028, 5, 35.3829, 47.3677, -11.9137, 96.2339, -52.8155, 44.3527
4.032, 5, 35.3808, 47.3648, -11.9054, 96.2292, -52.8206, 44.3539
4.036, 5, 35.3787, 47.362, -11.8971, 96.2245, -52.8257, 44.355
4.04, 5, 35.3766, 47.3592, -11.8888, 96.2198, -52.8307, 44.3562
4.044, 5, 35.3744, 47.3564, -11.8805, 96.2151, -52.8358, 44.3574
4.048, 5, 35.3723, 47.3536, -11.8722, 96.2105, -52.8409, 44.3586
4.052, 5, 35.3702, 47.3508, -11.8639, 96.2058, -52.846, 44.3598
4.056, 5, 35.3681, 47.348, -11.8556, 96.2011, -52.851, 44.361
4.06, 5, 35.3659, 47.3452, -11.8474, 96.1964, -52.8561, 44.3622
4.064, 5, 35.3638, 47.3424, -11.8391, 96.1917, -52.8612, 44.3633
4.068, 5, 35.3617, 47.3395, -11.8308, 96.1871, -52.8662, 44.3645
4.072, 5, 35.3595, 47.3367, -11.8225, 96.1824, -52.8713, 44.3657
4.076, 5, 35.3574, 47.3339, -11.8142, 96.1777, -52.8764, 44.3669
4.08, 5, 35.3553, 47.3311, -11.8059, 96.173, -52.8815, 44.3681
4.084, 5, 35.3532, 47.3283, -11.7976, 96.1684, -52.8865, 44.3693
4.088, 5, 35.351, 47.3255, -11.7894, 96.1637, -52.8916, 44.3704
4.092, 5, 35.3489, 47.3227, -11.7811, 96.159, -52.8967, 44.3716
4.096, 5, 35.3468, 47.3199, -11.7728, 96.1543, -52.9018, 44.3728
4.1, 5, 35.3446, 47.3171, -11.7645, 96.1497, -52.9068, 44.374
4.104, 5, 35.3425, 47.3143, -11.7563, 96.145, -52.9119, 44.3752
4.108, 5, 35.3404, 47.3115, -11.748, 96.1403, -52.917, 44.3763
4.112, 5, 35.3382, 47.3088, -11.7397, 96.1357, -52.9221, 44.3775
4.116, 5, 35.3361, 47.306, -11.7315, 96.131, -52.9271, 44.3787
4.12, 5, 35.334, 47.3032, -11.7232, 96.1263, -52.9322, 44.3799
4.124, 5, 35.3318, 47.3004, -11.7149, 96.1216, -52.9373, 44.381
4.128, 5, 35.3297, 47.2976, -11.7067, 96.117, -52.9424, 44.3822
4.132, 5, 35.3276, 47.2948, -11.6984, 96.1123, -52.9475, 44.3834
4.136, 5, 35.3255, 47.292, -11.6901, 96.1076, -52.9525, 44.3846
4.14, 5, 35.3233, 47.2892, -11.6819, 96.103, -52.9576, 44.3857
4.144, 5, 35.3212, 47.2864, -11.6736, 96.0983, -52.9627, 44.3869
4.148, 5, 35.319, 47.2837, -11.6653, 96.0936, -52.9678, 44.3881
4.152, 5, 35.3169, 47.2809, -11.6571, 96.089, -52.9728, 44.3893
4.156, 5, 35.3148, 47.2781, -11.6488, 96.0843, -52.9779, 44.3904
4.16, 5, 35.3126, 47.2753, -11.6406, 96.0796, -52.983, 44.3916
4.164, 5, 35.3105, 47.2725, -11.6323, 96.075, -52.9881, 44.3928
4.168, 5, 35.3084, 47.2698, -11.6241, 96.0703, -52.9932, 44.394
4.172, 5, 35.3062, 47.267, -11.6158, 96.0656, -52.9982, 44.3951
4.176, 5, 35.3041, 47.2642, -11.6076, 96.061, -53.0033, 44.3963
4.18, 5, 35.302, 47.2614, -11.5993, 96.0563, -53.0084, 44.3975
4.184, 5, 35.2998, 47.2587, -11.5911, 96.0516, -53.0135, 44.3986
4.188, 5, 35.2977, 47.2559, -11.5828, 96.047, -53.0186, 44.3998
4.192, 5, 35.2955, 47.2531, -11.5746, 96.0423, -53.0237, 44.401
4.196, 5, 35.2934, 47.2504, -11.5663, 96.0376, -53.0287, 44.4022
4.2, 5, 35.2913, 47.2476, -11.5581, 96.033, -53.0338, 44.4033
4.204, 5, 35.2891, 47.2448, -11.5499, 96.0283, -53.0389, 44.4045
4.208, 5, 35.287, 47.2421, -11.5416, 96.0237, -53.044, 44.4057
4.212, 5, 35.2848, 47.2393, -11.5334, 96.019, -53.0491, 44.4068
4.216, 5, 35.2827, 47.2365, -11.5251, 96.0143, -53.0541, 44.408
4.22, 5, 35.2806, 47.2338, -11.5169, 96.0097, -53.0592, 44.4092
4.224, 5, 35.2784, 47.231, -11.5087, 96.005, -53.0643, 44.4103
4.228, 5, 35.2763, 47.2283, -11.5004, 96.0004, -53.0694, 44.4115
4.232, 5, 35.2741, 47.2255, -11.4922, 95.9957, -53.0745, 44.4127
4.236, 5, 35.272, 47.2227, -11.484, 95.991, -53.0796, 44.4138
4.24, 5, 35.2699, 47.22, -11.4758, 95.9864, -53.0847, 44.415
4.244, 5, 35.2677, 47.2172, -11.4675, 95.9817, -53.0897, 44.4162
4.248, 5, 35.2656, 47.2145, -11.4593, 95.9771, -53.0948, 44.4173
4.252, 5, 35.2634, 47.2117, -11.4511, 95.9724, -53.0999, 44.4185
4.256, 5, 35.2613, 47.209, -11.4428, 95.9678, -53.105, 44.4196
4.26, 5, 35.2591, 47.2062, -11.4346, 95.9631, -53.1101, 44.4208
4.264, 5, 35.257, 47.2035, -11.4264, 95.9585, -53.1152, 44.422
4.268, 5, 35.2549, 47.2007, -11.4182, 95.9538, -53.1203, 44.4231
4.272, 5, 35.2527, 47.198, -11.41, 95.9491, -53.1253, 44.4243
4.276, 5, 35.2506, 47.1952, -11.4017, 95.9445, -53.1304, 44.4255
4.28, 5, 35.2484, 47.1925, -11.3935, 95.9398, -53.1355, 44.4266
4.284, 5, 35.2463, 47.1898, -11.3853, 95.9352, -53.1406, 44.4278
4.288, 5, 35.2441, 47.187, -11.3771, 95.9305, -53.1457, 44.4289
4.292, 5, 35.242, 47.1843, -11.3689, 95.9259, -53.1508, 44.4301
4.296, 5, 35.2398, 47.1815, -11.3607, 95.9212, -53.1559, 44.4313
4.3, 5, 35.2377, 47.1788, -11.3525, 95.9166, -53.161, 44.4324
4.304, 5, 35.2355, 47.1761, -11.3443, 95.9119, -53.166, 44.4336
4.308, 5, 35.2334, 47.1733, -11.3361, 95.9073, -53.1711, 44.4347
4.312, 5, 35.2312, 47.1706, -11.3279, 95.9026, -53.1762, 44.4359
4.316, 5, 35.2291, 47.1679, -11.3196, 95.898, -53.1813, 44.437
4.32, 5, 35.2269, 47.1651, -11.3114, 95.8933, -53.1864, 44.4382
4.324, 5, 35.2248, 47.1624, -11.3032, 95.8887, -53.1915, 44.4394
4.328, 5, 35.2226, 47.1597, -11.295, 95.884, -53.1966, 44.4405
4.332, 5, 35.2205, 47.1569, -11.2868, 95.8794, -53.2017, 44.4417
4.336, 5, 35.2183, 47.1542, -11.2786, 95.8747, -53.2068, 44.4428
4.34, 5, 35.2162, 47.1515, -11.2704, 95.8701, -53.2119, 44.444
4.344, 5, 35.214, 47.1488, -11.2623, 95.8655, -53.2169, 44.4451
4.348, 5, 35.2119, 47.146, -11.2541, 95.8608, -53.222, 44.4463
4.352, 5, 35.2097, 47.1433, -11.2459, 95.8562, -53.2271, 44.4474
4.356, 5, 35.2076, 47.1406, -11.2377, 95.8515, -53.2322, 44.4486
4.36, 5, 35.2054, 47.1379, -11.2295, 95.8469, -53.2373, 44.4497
4.364, 5, 35.2033, 47.1352, -11.2213, 95.8422, -53.2424, 44.4509
4.368, 5, 35.2011, 47.1325, -11.2131, 95.8376, -53.2475, 44.452
4.372, 5, 35.199, 47.1297, -11.2049, 95.833, -53.2526, 44.4532
4.376, 5, 35.1968, 47.127, -11.1967, 95.8283, -53.2577, 44.4543
4.38, 5, 35.1946, 47.1243, -11.1885, 95.8237, -53.2628, 44.4555
4.384, 5, 35.1925, 47.1216, -11.1804, 95.819, -53.2679, 44.4566
4.388, 5, 35.1903, 47.1189, -11.1722, 95.8144, -53.273, 44.4578
4.392, 5, 35.1882, 47.1162, -11.164, 95.8098, -53.2781, 44.4589
4.396, 5, 35.186, 47.1135, -11.1558, 95.8051, -53.2832, 44.4601
4.4, 5, 35.1839, 47.1108, -11.1476, 95.8005, -53.2883, 44.4612
4.404, 5, 35.1817, 47.1081, -11.1395, 95.7958, -53.2934, 44.4624
4.408, 5, 35.1796, 47.1053, -11.1313, 95.7912, -53.2985, 44.4635
4.412, 5, 35.1774, 47.1026, -11.1231, 95.7866, -53.3035, 44.4647
4.416, 5, 35.1752, 47.0999, -11.115, 95.7819, -53.3086, 44.4658
4.42, 5, 35.1731, 47.0972, -11.1068, 95.7773, -53.3137, 44.467
4.424, 5, 35.1709, 47.0945, -11.0986, 95.7727, -53.3188, 44.4681
4.428, 5, 35.1688, 47.0918, -11.0904, 95.768, -53.3239, 44.4693
4.432, 5, 35.1666, 47.0891, -11.0823, 95.7634, -53.329, 44.4704
4.436, 5, 35.1644, 47.0864, -11.0741, 95.7587, -53.3341, 44.4716
4.44, 5, 35.1623, 47.0837, -11.0659, 95.7541, -53.3392, 44.4727
4.444, 5, 35.1601, 47.0811, -11.0578, 95.7495, -53.3443, 44.4738
4.448, 5, 35.158, 47.0784, -11.0496, 95.7449, -53.3494, 44.475
4.452, 5, 35.1558, 47.0757, -11.0415, 95.7402, -53.3545, 44.4761
4.456, 5, 35.1536, 47.073, -11.0333, 95.7356, -53.3596, 44.4773
4.46, 5, 35.1515, 47.0703, -11.0251, 95.7309, -53.3647, 44.4784
4.464, 5, 35.1493, 47.0676, -11.017, 95.7263, -53.3698, 44.4796
4.468, 5, 35.1472, 47.0649, -11.0088, 95.7217, -53.3749, 44.4807
4.472, 5, 35.145, 47.0622, -11.0007, 95.7171, -53.38, 44.4818
4.476, 5, 35.1428, 47.0595, -10.9925, 95.7124, -53.3851, 44.483
4.48, 5, 35.1407, 47.0569, -10.9844, 95.7078, -53.3902, 44.4841
4.484, 5, 35.1385, 47.0542, -10.9762, 95.7032, -53.3953, 44.4853
4.488, 5, 35.1363, 47.0515, -10.9681, 95.6985, -53.4004, 44.4864
4.492, 5, 35.1342, 47.0488, -10.9599, 95.6939, -53.4055, 44.4875
4.496, 5, 35.132, 47.0461, -10.9518, 95.6893, -53.4106, 44.4887
4.5, 5, 35.1298, 47.0434, -10.9436, 95.6847, -53.4157, 44.4898
4.504, 5, 35.1277, 47.0408, -10.9355, 95.68, -53.4208, 44.491
4.508, 5, 35.1255, 47.0381, -10.9273, 95.6754, -53.4259, 44.4921
4.512, 5, 35.1233, 47.0354, -10.9192, 95.6708, -53.431, 44.4932
4.516, 5, 35.1212, 47.0327, -10.9111, 95.6662, -53.4361, 44.4944
4.52, 5, 35.119, 47.0301, -10.9029, 95.6615, -53.4412, 44.4955
4.524, 5, 35.1168, 47.0274, -10.8948, 95.6569, -53.4463, 44.4966
4.528, 5, 35.1147, 47.0247, -10.8866, 95.6523, -53.4515, 44.4978
4.532, 5, 35.1125, 47.0221, -10.8785, 95.6477, -53.4566, 44.4989
4.536, 5, 35.1103, 47.0194, -10.8704, 95.643, -53.4617, 44.5001
4.54, 5, 35.1082, 47.0167, -10.8622, 95.6384, -53.4668, 44.5012
4.544, 5, 35.106, 47.0141, -10.8541, 95.6338, -53.4719, 44.5023
4.548, 5, 35.1038, 47.0114, -10.846, 95.6292, -53.477, 44.5035
4.552, 5, 35.1017, 47.0087, -10.8379, 95.6245, -53.4821, 44.5046
4.556, 5, 35.0995, 47.0061, -10.8297, 95.6199, -53.4872, 44.5057
4.56, 5, 35.0973, 47.0034, -10.8216, 95.6153, -53.4923, 44.5069
4.564, 5, 35.0951, 47.0008, -10.8135, 95.6107, -53.4974, 44.508
4.568, 5, 35.093, 46.9981, -10.8054, 95.6061, -53.5025, 44.5091
4.572, 5, 35.0908, 46.9954, -10.7972, 95.6014, -53.5076, 44.5103
4.576, 5, 35.0886, 46.9928, -10.7891, 95.5968, -53.5127, 44.5114
4.58, 5, 35.0865, 46.9901, -10.781, 95.5922, -53.5178, 44.5125
4.584, 5, 35.0843, 46.9875, -10.7729, 95.5876, -53.5229, 44.5136
4.588, 5, 35.0821, 46.9848, -10.7648, 95.583, -53.528, 44.5148
4.592, 5, 35.0799, 46.9822, -10.7566, 95.5783, -53.5331, 44.5159
4.596, 5, 35.0778, 46.9795, -10.7485, 95.5737, -53.5383, 44.517
4.6, 5, 35.0756, 46.9769, -10.7404, 95.5691, -53.5434, 44.5182
4.604, 5, 35.0734, 46.9742, -10.7323, 95.5645, -53.5485, 44.5193
4.608, 5, 35.0712, 46.9716, -10.7242, 95.5599, -53.5536, 44.5204
4.612, 5, 35.0691, 46.9689, -10.7161, 95.5553, -53.5587, 44.5215
4.616, 5, 35.0669, 46.9663, -10.708, 95.5506, -53.5638, 44.5227
4.62, 5, 35.0647, 46.9636, -10.6999, 95.546, -53.5689, 44.5238
4.624, 5, 35.0625, 46.961, -10.6918, 95.5414, -53.574, 44.5249
4.628, 5, 35.0604, 46.9584, -10.6836, 95.5368, -53.5791, 44.5261
4.632, 5, 35.0582, 46.9557, -10.6755, 95.5322, -53.5842, 44.5272
4.636, 5, 35.056, 46.9531, -10.6674, 95.5276, -53.5894, 44.5283
4.64, 5, 35.0538, 46.9504, -10.6593, 95.523, -53.5945, 44.5294
4.644, 5, 35.0517, 46.9478, -10.6512, 95.5184, -53.5996, 44.5306
4.648, 5, 35.0495, 46.9452, -10.6431, 95.5137, -53.6047, 44.5317
4.652, 5, 35.0473, 46.9425, -10.635, 95.5091, -53.6098, 44.5328
4.656, 5, 35.0451, 46.9399, -10.6269, 95.5045, -53.6149, 44.5339
4.66, 5, 35.0429, 46.9373, -10.6189, 95.4999, -53.62, 44.535
4.664, 5, 35.0408, 46.9347, -10.6108, 95.4953, -53.6251, 44.5362
4.668, 5, 35.0386, 46.932, -10.6027, 95.4907, -53.6302, 44.5373
4.672, 5, 35.0364, 46.9294, -10.5946, 95.4861, -53.6354, 44.5384
4.676, 5, 35.0342, 46.9268, -10.5865, 95.4815, -53.6405, 44.5395
4.68, 5, 35.032, 46.9241, -10.5784, 95.4769, -53.6456, 44.5407
4.684, 5, 35.0299, 46.9215, -10.5703, 95.4723, -53.6507, 44.5418
4.688, 5, 35.0277, 46.9189, -10.5622, 95.4677, -53.6558, 44.5429
4.692, 5, 35.0255, 46.9163, -10.5541, 95.4631, -53.6609, 44.544
4.696, 5, 35.0233, 46.9137, -10.5461, 95.4584, -53.666, 44.5451
4.7, 5, 35.0211, 46.911, -10.538, 95.4538, -53.6712, 44.5463
4.704, 5, 35.0189, 46.9084, -10.5299, 95.4492, -53.6763, 44.5474
4.708, 5, 35.0168, 46.9058, -10.5218, 95.4446, -53.6814, 44.5485
4.712, 5, 35.0146, 46.9032, -10.5137, 95.44, -53.6865, 44.5496
4.716, 5, 35.0124, 46.9006, -10.5057, 95.4354, -53.6916, 44.5507
4.72, 5, 35.0102, 46.8979, -10.4976, 95.4308, -53.6967, 44.5519
4.724, 5, 35.008, 46.8953, -10.4895, 95.4262, -53.7019, 44.553
4.728, 5, 35.0058, 46.8927, -10.4814, 95.4216, -53.707, 44.5541
4.732, 5, 35.0037, 46.8901, -10.4734, 95.417, -53.7121, 44.5552
4.736, 5, 35.0015, 46.8875, -10.4653, 95.4124, -53.7172, 44.5563
4.74, 5, 34.9993, 46.8849, -10.4572, 95.4078, -53.7223, 44.5574
4.744, 5, 34.9971, 46.8823, -10.4492, 95.4032, -53.7274, 44.5585
4.748, 5, 34.9949, 46.8797, -10.4411, 95.3986, -53.7326, 44.5597
4.752, 5, 34.9927, 46.8771, -10.433, 95.394, -53.7377, 44.5608
4.756, 5, 34.9905, 46.8745, -10.425, 95.3894, -53.7428, 44.5619
4.76, 5, 34.9883, 46.8719, -10.4169, 95.3848, -53.7479, 44.563
4.764, 5, 34.9862, 46.8693, -10.4088, 95.3802, -53.753, 44.5641
4.768, 5, 34.984, 46.8667, -10.4008, 95.3756, -53.7582, 44.5652
4.772, 5, 34.9818, 46.8641, -10.3927, 95.371, -53.7633, 44.5663
4.776, 5, 34.9796, 46.8615, -10.3847, 95.3664, -53.7684, 44.5675
4.78, 5, 34.9774, 46.8589, -10.3766, 95.3618, -53.7735, 44.5686
4.784, 5, 34.9752, 46.8563, -10.3685, 95.3572, -53.7786, 44.5697
4.788, 5, 34.973, 46.8537, -10.3605, 95.3526, -53.7838, 44.5708
4.792, 5, 34.9708, 46.8511, -10.3524, 95.348, -53.7889, 44.5719
4.796, 5, 34.9686, 46.8485, -10.3444, 95.3434, -53.794, 44.573
4.8, 5, 34.9664, 46.8459, -10.3363, 95.3388, -53.7991, 44.5741
4.804, 5, 34.9642, 46.8433, -10.3283, 95.3342, -53.8042, 44.5752
4.808, 5, 34.9621, 46.8407, -10.3202, 95.3297, -53.8094, 44.5763
4.812, 5, 34.9599, 46.8382, -10.3122, 95.3251, -53.8145, 44.5775
4.816, 5, 34.9577, 46.8356, -10.3041, 95.3205, -53.8196, 44.5786
4.82, 5, 34.9555, 46.833, -10.2961, 95.3159, -53.8247, 44.5797
4.824, 5, 34.9533, 46.8304, -10.2881, 95.3113, -53.8299, 44.5808
4.828, 5, 34.9511, 46.8278, -10.28, 95.3067, -53.835, 44.5819
4.832, 5, 34.9489, 46.8252, -10.272, 95.3021, -53.8401, 44.583
4.836, 5, 34.9467, 46.8227, -10.2639, 95.2975, -53.8452, 44.5841
4.84, 5, 34.9445, 46.8201, -10.2559, 95.2929, -53.8503, 44.5852
4.844, 5, 34.9423, 46.8175, -10.2479, 95.2883, -53.8555, 44.5863
4.848, 5, 34.9401, 46.8149, -10.2398, 95.2837, -53.8606, 44.5874
4.852, 5, 34.9379, 46.8124, -10.2318, 95.2791, -53.8657, 44.5885
4.856, 5, 34.9357, 46.8098, -10.2238, 95.2746, -53.8708, 44.5896
4.86, 5, 34.9335, 46.8072, -10.2157, 95.27, -53.876, 44.5907
4.864, 5, 34.9313, 46.8046, -10.2077, 95.2654, -53.8811, 44.5918
4.868, 5, 34.9291, 46.8021, -10.1997, 95.2608, -53.8862, 44.5929
4.872, 5, 34.9269, 46.7995, -10.1916, 95.2562, -53.8913, 44.594
4.876, 5, 34.9247, 46.7969, -10.1836, 95.2516, -53.8965, 44.5951
4.88, 5, 34.9225, 46.7944, -10.1756, 95.247, -53.9016, 44.5963
4.884, 5, 34.9203, 46.7918, -10.1676, 95.2424, -53.9067, 44.5974
4.888, 5, 34.9181, 46.7892, -10.1595, 95.2378, -53.9119, 44.5985
4.892, 5, 34.9159, 46.7867, -10.1515, 95.2333, -53.917, 44.5996
4.896, 5, 34.9137, 46.7841, -10.1435, 95.2287, -53.9221, 44.6007
4.9, 5, 34.9115, 46.7815, -10.1355, 95.2241, -53.9272, 44.6018
4.904, 5, 34.9093, 46.779, -10.1274, 95.2195, -53.9324, 44.6029
4.908, 5, 34.9071, 46.7764, -10.1194, 95.2149, -53.9375, 44.604
4.912, 5, 34.9049, 46.7739, -10.1114, 95.2104, -53.9426, 44.6051
4.916, 5, 34.9027, 46.7713, -10.1034, 95.2058, -53.9478, 44.6062
4.92, 5, 34.9005, 46.7688, -10.0954, 95.2012, -53.9529, 44.6073
4.924, 5, 34.8983, 46.7662, -10.0874, 95.1966, -53.958, 44.6084
4.928, 5, 34.8961, 46.7636, -10.0794, 95.192, -53.9631, 44.6095
4.932, 5, 34.8939, 46.7611, -10.0714, 95.1874, -53.9683, 44.6106
4.936, 5, 34.8917, 46.7585, -10.0633, 95.1829, -53.9734, 44.6117
4.94, 5, 34.8895, 46.756, -10.0553, 95.1783, -53.9785, 44.6128
4.944, 5, 34.8873, 46.7534, -10.0473, 95.1737, -53.9837, 44.6138
4.948, 5, 34.8851, 46.7509, -10.0393, 95.1691, -53.9888, 44.615
4.952, 5, 34.8829, 46.7484, -10.0313, 95.1645, -53.9939, 44.616
4.956, 5, 34.8807, 46.7458, -10.0233, 95.16, -53.9991, 44.6171
4.96, 5, 34.8785, 46.7433, -10.0153, 95.1554, -54.0042, 44.6182
4.964, 5, 34.8763, 46.7407, -10.0073, 95.1508, -54.0093, 44.6193
4.968, 5, 34.8741, 46.7382, -9.99932, 95.1462, -54.0145, 44.6204
4.972, 5, 34.8718, 46.7356, -9.99132, 95.1416, -54.0196, 44.6215
4.976, 5, 34.8696, 46.7331, -9.98333, 95.1371, -54.0247, 44.6226
4.98, 5, 34.8674, 46.7306, -9.97533, 95.1325, -54.0299, 44.6237
4.984, 5, 34.8652, 46.728, -9.96734, 95.1279, -54.035, 44.6248
4.988, 5, 34.863, 46.7255, -9.95935, 95.1233, -54.0401, 44.6259
4.992, 5, 34.8608, 46.723, -9.95136, 95.1188, -54.0452, 44.627
4.996, 5, 34.8586, 46.7204, -9.94337, 95.1142, -54.0504, 44.6281
5, 5, 34.8564, 46.7179, -9.93538, 95.1096, -54.0555, 44.6292
5.004, 5, 34.8542, 46.7154, -9.92739, 95.105, -54.0607, 44.6303
5.008, 5, 34.852, 46.7128, -9.9194, 95.1005, -54.0658, 44.6314
5.012, 5, 34.8498, 46.7103, -9.91142, 95.0959, -54.0709, 44.6325
5.016, 5, 34.8475, 46.7078, -9.90343, 95.0913, -54.0761, 44.6335
5.02, 5, 34.8453, 46.7052, -9.89545, 95.0867, -54.0812, 44.6346
5.024, 5, 34.8431, 46.7027, -9.88747, 95.0822, -54.0863, 44.6357
5.028, 5, 34.8409, 46.7002, -9.87949, 95.0776, -54.0915, 44.6368
5.032, 5, 34.8387, 46.6977, -9.87151, 95.073, -54.0966, 44.6379
5.036, 5, 34.8365, 46.6952, -9.86353, 95.0685, -54.1017, 44.639
5.04, 5, 34.8343, 46.6926, -9.85556, 95.0639, -54.1069, 44.6401
5.044, 5, 34.8321, 46.6901, -9.84758, 95.0593, -54.112, 44.6412
5.048, 5, 34.8298, 46.6876, -9.83961, 95.0547, -54.1172, 44.6423
5.052, 5, 34.8276, 46.6851, -9.83164, 95.0502, -54.1223, 44.6433
5.056, 5, 34.8254, 46.6826, -9.82366, 95.0456, -54.1274, 44.6444
5.06, 5, 34.8232, 46.68, -9.81569, 95.041, -54.1326, 44.6455
5.064, 5, 34.821, 46.6775, -9.80773, 95.0365, -54.1377, 44.6466
5.068, 5, 34.8188, 46.675, -9.79976, 95.0319, -54.1428, 44.6477
5.072, 5, 34.8165, 46.6725, -9.79179, 95.0273, -54.148, 44.6488
5.076, 5, 34.8143, 46.67, -9.78383, 95.0228, -54.1531, 44.6499
5.08, 5, 34.8121, 46.6675, -9.77586, 95.0182, -54.1583, 44.651
5.084, 5, 34.8099, 46.665, -9.7679, 95.0136, -54.1634, 44.652
5.088, 5, 34.8077, 46.6625, -9.75994, 95.0091, -54.1685, 44.6531
5.092, 5, 34.8055, 46.66, -9.75198, 95.0045, -54.1737, 44.6542
5.096, 5, 34.8032, 46.6575, -9.74402, 94.9999, -54.1788, 44.6553
5.1, 5, 34.801, 46.655, -9.73606, 94.9954, -54.184, 44.6564
5.104, 5, 34.7988, 46.6525, -9.7281, 94.9908, -54.1891, 44.6575
5.108, 5, 34.7966, 46.65, -9.72015, 94.9863, -54.1942, 44.6585
5.112, 5, 34.7944, 46.6475, -9.71219, 94.9817, -54.1994, 44.6596
5.116, 5, 34.7921, 46.645, -9.70424, 94.9771, -54.2045, 44.6607
5.12, 5, 34.7899, 46.6425, -9.69629, 94.9726, -54.2097, 44.6618
5.124, 5, 34.7877, 46.64, -9.68834, 94.968, -54.2148, 44.6629
5.128, 5, 34.7855, 46.6375, -9.68039, 94.9634, -54.22, 44.664
5.132, 5, 34.7833, 46.635, -9.67244, 94.9589, -54.2251, 44.665
5.136, 5, 34.781, 46.6325, -9.66449, 94.9543, -54.2302, 44.6661
5.14, 5, 34.7788, 46.63, -9.65655, 94.9498, -54.2354, 44.6672
5.144, 5, 34.7766, 46.6275, -9.6486, 94.9452, -54.2405, 44.6683
5.148, 5, 34.7744, 46.625, -9.64066, 94.9406, -54.2457, 44.6694
5.152, 5, 34.7721, 46.6225, -9.63272, 94.9361, -54.2508, 44.6704
5.156, 5, 34.7699, 46.62, -9.62478, 94.9315, -54.256, 44.6715
5.16, 5, 34.7677, 46.6176, -9.61684, 94.927, -54.2611, 44.6726
5.164, 5, 34.7655, 46.6151, -9.6089, 94.9224, -54.2662, 44.6737
5.168, 5, 34.7632, 46.6126, -9.60096, 94.9179, -54.2714, 44.6748
5.172, 5, 34.761, 46.6101, -9.59303, 94.9133, -54.2765, 44.6758
5.176, 5, 34.7588, 46.6076, -9.58509, 94.9087, -54.2817, 44.6769
5.18, 5, 34.7566, 46.6051, -9.57716, 94.9042, -54.2868, 44.678
5.184, 5, 34.7543, 46.6027, -9.56923, 94.8996, -54.292, 44.6791
5.188, 5, 34.7521, 46.6002, -9.56129, 94.8951, -54.2971, 44.6801
5.192, 5, 34.7499, 46.5977, -9.55336, 94.8905, -54.3023, 44.6812
5.196, 5, 34.7477, 46.5952, -9.54544, 94.886, -54.3074, 44.6823
5.2, 5, 34.7454, 46.5928, -9.53751, 94.8814, -54.3126, 44.6834
5.204, 5, 34.7432, 46.5903, -9.52958, 94.8768, -54.3177, 44.6844
5.208, 5, 34.741, 46.5878, -9.52166, 94.8723, -54.3229, 44.6855
5.212, 5, 34.7387, 46.5854, -9.51373, 94.8677, -54.328, 44.6866
5.216, 5, 34.7365, 46.5829, -9.50581, 94.8632, -54.3332, 44.6877
5.22, 5, 34.7343, 46.5804, -9.49789, 94.8586, -54.3383, 44.6887
5.224, 5, 34.7321, 46.5779, -9.48997, 94.8541, -54.3434, 44.6898
5.228, 5, 34.7298, 46.5755, -9.48205, 94.8495, -54.3486, 44.6909
5.232, 5, 34.7276, 46.573, -9.47413, 94.845, -54.3537, 44.692
5.236, 5, 34.7254, 46.5706, -9.46622, 94.8404, -54.3589, 44.693
5.24, 5, 34.7231, 46.5681, -9.4583, 94.8359, -54.364, 44.6941
5.244, 5, 34.7209, 46.5656, -9.45039, 94.8313, -54.3692, 44.6952
5.248, 5, 34.7187, 46.5632, -9.44248, 94.8268, -54.3744, 44.6963
5.252, 5, 34.7164, 46.5607, -9.43456, 94.8222, -54.3795, 44.6973
5.256, 5, 34.7142, 46.5583, -9.42665, 94.8177, -54.3846, 44.6984
5.26, 5, 34.712, 46.5558, -9.41874, 94.8131, -54.3898, 44.6995
5.264, 5, 34.7097, 46.5533, -9.41084, 94.8086, -54.395, 44.7005
5.268, 5, 34.7075, 46.5509, -9.40293, 94.804, -54.4001, 44.7016
5.272, 5, 34.7053, 46.5484, -9.39502, 94.7995, -54.4053, 44.7027
5.276, 5, 34.703, 46.546, -9.38712, 94.7949, -54.4104, 44.7037
5.28, 5, 34.7008, 46.5435, -9.37922, 94.7904, -54.4156, 44.7048
5.284, 5, 34.6986, 46.5411, -9.37132, 94.7858, -54.4207, 44.7059
5.288, 5, 34.6963, 46.5386, -9.36341, 94.7813, -54.4259, 44.707
5.292, 5, 34.6941, 46.5362, -9.35551, 94.7768, -54.431, 44.708
5.296, 5, 34.6918, 46.5337, -9.34762, 94.7722, -54.4362, 44.7091
5.3, 5, 34.6896, 46.5313, -9.33972, 94.7677, -54.4413, 44.7102
5.304, 5, 34.6874, 46.5288, -9.33182, 94.7631, -54.4465, 44.7112
5.308, 5, 34.6851, 46.5264, -9.32393, 94.7586, -54.4516, 44.7123
5.312, 5, 34.6829, 46.524, -9.31604, 94.754, -54.4568, 44.7134
5.316, 5, 34.6807, 46.5215, -9.30814, 94.7495, -54.4619, 44.7144
5.32, 5, 34.6784, 46.5191, -9.30025, 94.7449, -54.4671, 44.7155
5.324, 5, 34.6762, 46.5166, -9.29236, 94.7404, -54.4722, 44.7166
5.328, 5, 34.6739, 46.5142, -9.28447, 94.7359, -54.4774, 44.7176
5.332, 5, 34.6717, 46.5118, -9.27659, 94.7313, -54.4826, 44.7187
5.336, 5, 34.6695, 46.5093, -9.2687, 94.7268, -54.4877, 44.7197
5.34, 5, 34.6672, 46.5069, -9.26082, 94.7222, -54.4929, 44.7208
5.344, 5, 34.665, 46.5045, -9.25293, 94.7177, -54.498, 44.7219
5.348, 5, 34.6627, 46.502, -9.24505, 94.7132, -54.5032, 44.7229
5.352, 5, 34.6605, 46.4996, -9.23717, 94.7086, -54.5083, 44.724
5.356, 5, 34.6583, 46.4972, -9.22929, 94.7041, -54.5135, 44.7251
5.36, 5, 34.656, 46.4948, -9.22141, 94.6995, -54.5187, 44.7261
5.364, 5, 34.6538, 46.4923, -9.21353, 94.695, -54.5238, 44.7272
5.368, 5, 34.6515, 46.4899, -9.20566, 94.6905, -54.529, 44.7283
5.372, 5, 34.6493, 46.4875, -9.19778, 94.6859, -54.5341, 44.7293
5.376, 5, 34.647, 46.4851, -9.18991, 94.6814, -54.5393, 44.7304
5.38, 5, 34.6448, 46.4826, -9.18203, 94.6768, -54.5444, 44.7314
5.384, 5, 34.6425, 46.4802, -9.17416, 94.6723, -54.5496, 44.7325
5.388, 5, 34.6403, 46.4778, -9.16629, 94.6678, -54.5548, 44.7336
5.392, 5, 34.6381, 46.4754, -9.15842, 94.6632, -54.5599, 44.7346
5.396, 5, 34.6358, 46.473, -9.15055, 94.6587, -54.5651, 44.7357
5.4, 5, 34.6336, 46.4705, -9.14269, 94.6542, -54.5702, 44.7367
5.404, 5, 34.6313, 46.4681, -9.13482, 94.6496, -54.5754, 44.7378
5.408, 5, 34.6291, 46.4657, -9.12696, 94.6451, -54.5806, 44.7389
5.412, 5, 34.6268, 46.4633, -9.11909, 94.6406, -54.5857, 44.7399
5.416, 5, 34.6246, 46.4609, -9.11123, 94.636, -54.5909, 44.741
5.42, 5, 34.6223, 46.4585, -9.10337, 94.6315, -54.596, 44.742
5.424, 5, 34.6201, 46.4561, -9.09551, 94.627, -54.6012, 44.7431
5.428, 5, 34.6178, 46.4537, -9.08765, 94.6224, -54.6064, 44.7441
5.432, 5, 34.6156, 46.4512, -9.0798, 94.6179, -54.6115, 44.7452
5.436, 5, 34.6133, 46.4488, -9.07194, 94.6134, -54.6167, 44.7463
5.44, 5, 34.6111, 46.4464, -9.06409, 94.6088, -54.6219, 44.7473
5.444, 5, 34.6088, 46.444, -9.05623, 94.6043, -54.627, 44.7484
5.448, 5, 34.6066, 46.4416, -9.04838, 94.5998, -54.6322, 44.7494
5.452, 5, 34.6043, 46.4392, -9.04053, 94.5952, -54.6373, 44.7505
5.456, 5, 34.6021, 46.4368, -9.03268, 94.5907, -54.6425, 44.7515
5.46, 5, 34.5998, 46.4344, -9.02483, 94.5862, -54.6477, 44.7526
5.464, 5, 34.5976, 46.432, -9.01698, 94.5817, -54.6528, 44.7537
5.468, 5, 34.5953, 46.4296, -9.00914, 94.5771, -54.658, 44.7547
5.472, 5, 34.5931, 46.4272, -9.00129, 94.5726, -54.6632, 44.7558
5.476, 5, 34.5908, 46.4248, -8.99345, 94.5681, -54.6683, 44.7568
5.48, 5, 34.5886, 46.4225, -8.9856, 94.5635, -54.6735, 44.7579
5.484, 5, 34.5863, 46.4201, -8.97776, 94.559, -54.6787, 44.7589
5.488, 5, 34.584, 46.4177, -8.96992, 94.5545, -54.6838, 44.76
5.492, 5, 34.5818, 46.4153, -8.96208, 94.55, -54.689, 44.761
5.496, 5, 34.5795, 46.4129, -8.95425, 94.5454, -54.6942, 44.7621
5.5, 5, 34.5773, 46.4105, -8.94641, 94.5409, -54.6993, 44.7631
5.504, 5, 34.575, 46.4081, -8.93857, 94.5364, -54.7045, 44.7642
5.508, 5, 34.5728, 46.4057, -8.93074, 94.5318, -54.7097, 44.7652
5.512, 5, 34.5705, 46.4033, -8.92291, 94.5273, -54.7148, 44.7663
5.516, 5, 34.5683, 46.401, -8.91507, 94.5228, -54.72, 44.7673
5.52, 5, 34.566, 46.3986, -8.90724, 94.5183, -54.7252, 44.7684
5.524, 5, 34.5637, 46.3962, -8.89941, 94.5138, -54.7303, 44.7694
5.528, 5, 34.5615, 46.3938, -8.89158, 94.5092, -54.7355, 44.7705
5.532, 5, 34.5592, 46.3914, -8.88376, 94.5047, -54.7407, 44.7715
5.536, 5, 34.557, 46.3891, -8.87593, 94.5002, -54.7458, 44.7726
5.54, 5, 34.5547, 46.3867, -8.86811, 94.4957, -54.751, 44.7736
5.544, 5, 34.5524, 46.3843, -8.86028, 94.4911, -54.7562, 44.7747
5.548, 5, 34.5502, 46.3819, -8.85246, 94.4866, -54.7613, 44.7757
5.552, 5, 34.5479, 46.3796, -8.84464, 94.4821, -54.7665, 44.7768
5.556, 5, 34.5457, 46.3772, -8.83682, 94.4776, -54.7717, 44.7778
5.56, 5, 34.5434, 46.3748, -8.829, 94.4731, -54.7768, 44.7789
5.564, 5, 34.5411, 46.3725, -8.82118, 94.4685, -54.782, 44.7799
5.568, 5, 34.5389, 46.3701, -8.81337, 94.464, -54.7872, 44.781
5.572, 5, 34.5366, 46.3677, -8.80555, 94.4595, -54.7924, 44.782
5.576, 5, 34.5344, 46.3654, -8.79774, 94.455, -54.7975, 44.7831
5.58, 5, 34.5321, 46.363, -8.78992, 94.4505, -54.8027, 44.7841
5.584, 5, 34.5298, 46.3606, -8.78211, 94.4459, -54.8079, 44.7851
5.588, 5, 34.5276, 46.3583, -8.7743, 94.4414, -54.813, 44.7862
5.592, 5, 34.5253, 46.3559, -8.76649, 94.4369, -54.8182, 44.7872
5.596, 5, 34.523, 46.3535, -8.75869, 94.4324, -54.8234, 44.7883
5.6, 5, 34.5208, 46.3512, -8.75088, 94.4279, -54.8286, 44.7893
5.604, 5, 34.5185, 46.3488, -8.74307, 94.4234, -54.8337, 44.7904
5.608, 5, 34.5162, 46.3465, -8.73527, 94.4188, -54.8389, 44.7914
5.612, 5, 34.514, 46.3441, -8.72747, 94.4143, -54.8441, 44.7925
5.616, 5, 34.5117, 46.3418, -8.71966, 94.4098, -54.8492, 44.7935
5.62, 5, 34.5094, 46.3394, -8.71186, 94.4053, -54.8544, 44.7945
5.624, 5, 34.5072, 46.3371, -8.70406, 94.4008, -54.8596, 44.7956
5.628, 5, 34.5049, 46.3347, -8.69626, 94.3963, -54.8648, 44.7966
5.632, 5, 34.5026, 46.3324, -8.68847, 94.3917, -54.8699, 44.7977
5.636, 5, 34.5004, 46.33, -8.68067, 94.3872, -54.8751, 44.7987
5.64, 5, 34.4981, 46.3277, -8.67288, 94.3827, -54.8803, 44.7998
5.644, 5, 34.4958, 46.3253, -8.66508, 94.3782, -54.8855, 44.8008
5.648, 5, 34.4936, 46.323, -8.65729, 94.3737, -54.8906, 44.8018
5.652, 5, 34.4913, 46.3206, -8.6495, 94.3692, -54.8958, 44.8029
5.656, 5, 34.489, 46.3183, -8.64171, 94.3647, -54.901, 44.8039
5.66, 5, 34.4868, 46.3159, -8.63392, 94.3602, -54.9062, 44.805
5.664, 5, 34.4845, 46.3136, -8.62613, 94.3557, -54.9113, 44.806
5.668, 5, 34.4822, 46.3113, -8.61834, 94.3511, -54.9165, 44.807
5.672, 5, 34.4799, 46.3089, -8.61056, 94.3466, -54.9217, 44.8081
5.676, 5, 34.4777, 46.3066, -8.60277, 94.3421, -54.9269, 44.8091
5.68, 5, 34.4754, 46.3042, -8.59499, 94.3376, -54.9321, 44.8102
5.684, 5, 34.4731, 46.3019, -8.58721, 94.3331, -54.9372, 44.8112
5.688, 5, 34.4709, 46.2996, -8.57943, 94.3286, -54.9424, 44.8122
5.692, 5, 34.4686, 46.2972, -8.57165, 94.3241, -54.9476, 44.8133
5.696, 5, 34.4663, 46.2949, -8.56387, 94.3196, -54.9528, 44.8143
5.7, 5, 34.464, 46.2926, -8.55609, 94.3151, -54.9579, 44.8153
5.704, 5, 34.4618, 46.2903, -8.54832, 94.3106, -54.9631, 44.8164
5.708, 5, 34.4595, 46.2879, -8.54054, 94.306, -54.9683, 44.8174
5.712, 5, 34.4572, 46.2856, -8.53277, 94.3015, -54.9735, 44.8184
5.716, 5, 34.4549, 46.2833, -8.52499, 94.297, -54.9787, 44.8195
5.72, 5, 34.4527, 46.281, -8.51722, 94.2925, -54.9838, 44.8205
5.724, 5, 34.4504, 46.2786, -8.50945, 94.288, -54.989, 44.8216
5.728, 5, 34.4481, 46.2763, -8.50169, 94.2835, -54.9942, 44.8226
5.732, 5, 34.4458, 46.274, -8.49392, 94.279, -54.9994, 44.8236
5.736, 5, 34.4435, 46.2717, -8.48615, 94.2745, -55.0046, 44.8247
5.74, 5, 34.4413, 46.2693, -8.47839, 94.27, -55.0097, 44.8257
5.744, 5, 34.439, 46.267, -8.47062, 94.2655, -55.0149, 44.8267
5.748, 5, 34.4367, 46.2647, -8.46286, 94.261, -55.0201, 44.8278
5.752, 5, 34.4344, 46.2624, -8.4551, 94.2565, -55.0253, 44.8288
5.756, 5, 34.4322, 46.2601, -8.44734, 94.252, -55.0305, 44.8298
5.76, 5, 34.4299, 46.2578, -8.43958, 94.2475, -55.0357, 44.8309
5.764, 5, 34.4276, 46.2555, -8.43182, 94.243, -55.0408, 44.8319
5.768, 5, 34.4253, 46.2531, -8.42406, 94.2385, -55.046, 44.8329
5.772, 5, 34.423, 46.2508, -8.4163, 94.234, -55.0512, 44.834
5.776, 5, 34.4207, 46.2485, -8.40855, 94.2295, -55.0564, 44.835
5.78, 5, 34.4185, 46.2462, -8.4008, 94.225, -55.0616, 44.836
5.784, 5, 34.4162, 46.2439, -8.39304, 94.2205, -55.0668, 44.8371
5.788, 5, 34.4139, 46.2416, -8.38529, 94.216, -55.0719, 44.8381
5.792, 5, 34.4116, 46.2393, -8.37754, 94.2115, -55.0771, 44.8391
5.796, 5, 34.4093, 46.237, -8.36979, 94.207, -55.0823, 44.8401
5.8, 5, 34.4071, 46.2347, -8.36205, 94.2025, -55.0875, 44.8412
5.804, 5, 34.4048, 46.2324, -8.3543, 94.198, -55.0927, 44.8422
5.808, 5, 34.4025, 46.2301, -8.34655, 94.1935, -55.0979, 44.8432
5.812, 5, 34.4002, 46.2278, -8.33881, 94.189, -55.1031, 44.8443
5.816, 5, 34.3979, 46.2255, -8.33107, 94.1845, -55.1082, 44.8453
5.82, 5, 34.3956, 46.2232, -8.32333, 94.18, -55.1134, 44.8463
5.824, 5, 34.3933, 46.2209, -8.31559, 94.1755, -55.1186, 44.8473
5.828, 5, 34.3911, 46.2186, -8.30785, 94.171, -55.1238, 44.8484
5.832, 5, 34.3888, 46.2163, -8.30011, 94.1665, -55.129, 44.8494
5.836, 5, 34.3865, 46.214, -8.29237, 94.162, -55.1342, 44.8504
5.84, 5, 34.3842, 46.2117, -8.28463, 94.1575, -55.1394, 44.8515
5.844, 5, 34.3819, 46.2095, -8.2769, 94.153, -55.1445, 44.8525
5.848, 5, 34.3796, 46.2072, -8.26917, 94.1485, -55.1497, 44.8535
5.852, 5, 34.3773, 46.2049, -8.26143, 94.144, -55.1549, 44.8545
5.856, 5, 34.375, 46.2026, -8.2537, 94.1395, -55.1601, 44.8556
5.86, 5, 34.3728, 46.2003, -8.24597, 94.135, -55.1653, 44.8566
5.864, 5, 34.3705, 46.198, -8.23824, 94.1305, -55.1705, 44.8576
5.868, 5, 34.3682, 46.1957, -8.23052, 94.126, -55.1757, 44.8586
5.872, 5, 34.3659, 46.1935, -8.22279, 94.1216, -55.1809, 44.8597
5.876, 5, 34.3636, 46.1912, -8.21506, 94.1171, -55.1861, 44.8607
5.88, 5, 34.3613, 46.1889, -8.20734, 94.1126, -55.1912, 44.8617
5.884, 5, 34.359, 46.1866, -8.19962, 94.1081, -55.1964, 44.8627
5.888, 5, 34.3567, 46.1844, -8.1919, 94.1036, -55.2016, 44.8638
5.892, 5, 34.3544, 46.1821, -8.18417, 94.0991, -55.2068, 44.8648
5.896, 5, 34.3521, 46.1798, -8.17646, 94.0946, -55.212, 44.8658
5.9, 5, 34.3498, 46.1775, -8.16874, 94.0901, -55.2172, 44.8668
5.904, 5, 34.3475, 46.1753, -8.16102, 94.0856, -55.2224, 44.8678
5.908, 5, 34.3453, 46.173, -8.1533, 94.0811, -55.2276, 44.8689
5.912, 5, 34.343, 46.1707, -8.14559, 94.0766, -55.2328, 44.8699
5.916, 5, 34.3407, 46.1684, -8.13788, 94.0722, -55.238, 44.8709
5.92, 5, 34.3384, 46.1662, -8.13016, 94.0677, -55.2432, 44.8719
5.924, 5, 34.3361, 46.1639, -8.12245, 94.0632, -55.2484, 44.873
5.928, 5, 34.3338, 46.1617, -8.11474, 94.0587, -55.2535, 44.874
5.932, 5, 34.3315, 46.1594, -8.10703, 94.0542, -55.2587, 44.875
5.936, 5, 34.3292, 46.1571, -8.09933, 94.0497, -55.2639, 44.876
5.94, 5, 34.3269, 46.1549, -8.09162, 94.0452, -55.2691, 44.877
5.944, 5, 34.3246, 46.1526, -8.08391, 94.0407, -55.2743, 44.8781
5.948, 5, 34.3223, 46.1503, -8.07621, 94.0363, -55.2795, 44.8791
5.952, 5, 34.32, 46.1481, -8.06851, 94.0318, -55.2847, 44.8801
5.956, 5, 34.3177, 46.1458, -8.0608, 94.0273, -55.2899, 44.8811
5.96, 5, 34.3154, 46.1436, -8.0531, 94.0228, -55.2951, 44.8821
5.964, 5, 34.3131, 46.1413, -8.0454, 94.0183, -55.3003, 44.8832
5.968, 5, 34.3108, 46.1391, -8.03771, 94.0138, -55.3055, 44.8842
5.972, 5, 34.3085, 46.1368, -8.03001, 94.0093, -55.3107, 44.8852
5.976, 5, 34.3062, 46.1346, -8.02231, 94.0049, -55.3159, 44.8862
5.98, 5, 34.3039, 46.1323, -8.01462, 94.0004, -55.3211, 44.8872
5.984, 5, 34.3016, 46.1301, -8.00692, 93.9959, -55.3263, 44.8882
5.988, 5, 34.2993, 46.1278, -7.99923, 93.9914, -55.3315, 44.8893
5.992, 5, 34.297, 46.1256, -7.99154, 93.9869, -55.3367, 44.8903
5.996, 5, 34.2947, 46.1233, -7.98385, 93.9824, -55.3419, 44.8913
6, 5, 34.2924, 46.1211, -7.97616, 93.978, -55.3471, 44.8923
6.004, 5, 34.2901, 46.1188, -7.96847, 93.9735, -55.3523, 44.8933
6.008, 5, 34.2878, 46.1166, -7.96078, 93.969, -55.3575, 44.8943
6.012, 5, 34.2855, 46.1143, -7.9531, 93.9645, -55.3627, 44.8954
6.016, 5, 34.2832, 46.1121, -7.94542, 93.96, -55.3679, 44.8964
6.02, 5, 34.2809, 46.1099, -7.93773, 93.9556, -55.3731, 44.8974
6.024, 5, 34.2786, 46.1076, -7.93005, 93.9511, -55.3782, 44.8984
6.028, 5, 34.2763, 46.1054, -7.92237, 93.9466, -55.3834, 44.8994
6.032, 5, 34.274, 46.1032, -7.91469, 93.9421, -55.3886, 44.9004
6.036, 5, 34.2717, 46.1009, -7.90701, 93.9376, -55.3938, 44.9014
6.04, 5, 34.2694, 46.0987, -7.89933, 93.9332, -55.399, 44.9025
