hehonglu123/ABB_Primitive_Study/execution/movel2_30_car/curve_exe_v500_z20.csv
timestamp, cmd_num, J1, J2, J3, J4, J5, J6
0, -1, 22.0083, 52.6431, -3.5641, 80.5273, -71.7225, 40.1913
0.003, -1, 22.0083, 52.6431, -3.5641, 80.5273, -71.7225, 40.1913
0.006, -1, 22.0083, 52.6431, -3.5641, 80.5273, -71.7225, 40.1913
0.008, -1, 22.0083, 52.6431, -3.5641, 80.5273, -71.7225, 40.1913
0.011, -1, 22.0083, 52.6431, -3.5641, 80.5273, -71.7225, 40.1913
0.016, -1, 22.0083, 52.6431, -3.5641, 80.5273, -71.7225, 40.1913
0.02, -1, 22.0083, 52.6431, -3.5641, 80.5273, -71.7225, 40.1913
0.024, -1, 22.0083, 52.6431, -3.5641, 80.5273, -71.7225, 40.1913
0.028, -1, 22.0083, 52.6431, -3.5641, 80.5273, -71.7225, 40.1913
0.032, -1, 22.0083, 52.6431, -3.5641, 80.5273, -71.7225, 40.1913
0.036, -1, 22.0083, 52.6431, -3.5641, 80.5273, -71.7225, 40.1913
0.04, -1, 22.0086, 52.643, -3.56409, 80.5273, -71.7225, 40.1913
0.044, -1, 22.0092, 52.6428, -3.56406, 80.5273, -71.7225, 40.1913
0.048, -1, 22.0103, 52.6425, -3.56401, 80.5274, -71.7224, 40.1913
0.052, -1, 22.012, 52.642, -3.56396, 80.5275, -71.7223, 40.1913
0.056, -1, 22.0145, 52.6411, -3.56392, 80.5277, -71.722, 40.1914
0.06, -1, 22.0177, 52.6399, -3.56394, 80.5281, -71.7215, 40.1915
0.064, -1, 22.0217, 52.6383, -3.56408, 80.5288, -71.7206, 40.1916
0.068, -1, 22.0265, 52.6362, -3.56441, 80.53, -71.7193, 40.1919
0.072, -1, 22.0322, 52.6334, -3.56504, 80.5317, -71.7172, 40.1923
0.076, -1, 22.0391, 52.6299, -3.56609, 80.5342, -71.7141, 40.1928
0.08, -1, 22.0472, 52.6256, -3.56769, 80.5377, -71.7099, 40.1936
0.084, -1, 22.0567, 52.6206, -3.57002, 80.5425, -71.7042, 40.1947
0.088, -1, 22.0678, 52.615, -3.57327, 80.5488, -71.6966, 40.1962
0.092, -1, 22.0803, 52.6089, -3.57766, 80.557, -71.6868, 40.198
0.096, -1, 22.094, 52.6026, -3.58342, 80.5673, -71.6745, 40.2003
0.1, -1, 22.109, 52.5963, -3.59077, 80.58, -71.6593, 40.2032
0.104, -1, 22.125, 52.5899, -3.59987, 80.5953, -71.641, 40.2067
0.108, -1, 22.1421, 52.5836, -3.61085, 80.6134, -71.6193, 40.2108
0.112, -1, 22.1603, 52.5773, -3.62379, 80.6345, -71.5942, 40.2156
0.116, -1, 22.1797, 52.5709, -3.63871, 80.6584, -71.5656, 40.221
0.12, -1, 22.2004, 52.5646, -3.65561, 80.6854, -71.5335, 40.2272
0.124, -1, 22.2224, 52.5582, -3.67441, 80.7152, -71.4979, 40.2339
0.128, -1, 22.2457, 52.5518, -3.69504, 80.7477, -71.4591, 40.2413
0.131, -1, 22.2701, 52.5455, -3.71736, 80.7828, -71.4173, 40.2493
0.136, -1, 22.2957, 52.539, -3.74121, 80.8202, -71.3726, 40.2578
0.139, -1, 22.3225, 52.5323, -3.76639, 80.8597, -71.3256, 40.2668
0.144, -1, 22.3507, 52.5251, -3.79268, 80.901, -71.2764, 40.2761
0.148, -1, 22.3804, 52.5172, -3.81986, 80.9437, -71.2254, 40.2858
0.152, -1, 22.4114, 52.5086, -3.84775, 80.9877, -71.1729, 40.2958
0.156, -1, 22.4437, 52.4992, -3.87617, 81.0327, -71.1193, 40.306
0.16, -1, 22.4771, 52.4892, -3.90498, 81.0784, -71.0648, 40.3164
0.164, -1, 22.5115, 52.4785, -3.93409, 81.1247, -71.0095, 40.3269
0.168, -1, 22.5468, 52.4674, -3.96339, 81.1714, -70.9538, 40.3375
0.172, -1, 22.5827, 52.4559, -3.99284, 81.2184, -70.8977, 40.3482
0.176, -1, 22.6193, 52.4441, -4.02238, 81.2657, -70.8413, 40.359
0.18, -1, 22.6565, 52.432, -4.05197, 81.3131, -70.7847, 40.3697
0.184, -1, 22.6942, 52.4198, -4.08158, 81.3606, -70.728, 40.3805
0.188, -1, 22.7324, 52.4074, -4.1112, 81.4082, -70.6713, 40.3913
0.192, -1, 22.7709, 52.3949, -4.14081, 81.4557, -70.6145, 40.4021
0.196, -1, 22.8095, 52.3823, -4.17041, 81.5033, -70.5577, 40.4129
0.2, -1, 22.8483, 52.3697, -4.2, 81.5509, -70.5009, 40.4237
0.204, -1, 22.8872, 52.3571, -4.22957, 81.5984, -70.4442, 40.4345
0.208, -1, 22.9262, 52.3445, -4.25912, 81.646, -70.3874, 40.4453
0.212, -1, 22.9651, 52.3318, -4.28865, 81.6935, -70.3307, 40.4561
0.216, -1, 23.0041, 52.3192, -4.31816, 81.741, -70.2741, 40.4669
0.22, -1, 23.043, 52.3065, -4.34764, 81.7884, -70.2175, 40.4776
0.224, -1, 23.082, 52.2939, -4.37711, 81.8358, -70.1609, 40.4884
0.228, -1, 23.1209, 52.2812, -4.40655, 81.8832, -70.1043, 40.4992
0.232, -1, 23.1598, 52.2686, -4.43597, 81.9305, -70.0478, 40.5099
0.236, -1, 23.1986, 52.256, -4.46537, 81.9778, -69.9914, 40.5207
0.24, -1, 23.2375, 52.2434, -4.49475, 82.0251, -69.935, 40.5314
0.244, -1, 23.2763, 52.2308, -4.52411, 82.0723, -69.8786, 40.5421
0.248, -1, 23.3151, 52.2182, -4.55344, 82.1195, -69.8223, 40.5528
0.252, -1, 23.3539, 52.2056, -4.58275, 82.1667, -69.766, 40.5635
0.256, -1, 23.3926, 52.193, -4.61204, 82.2138, -69.7097, 40.5742
0.26, -1, 23.4313, 52.1805, -4.64131, 82.2609, -69.6535, 40.5849
0.264, -1, 23.47, 52.1679, -4.67056, 82.308, -69.5974, 40.5956
0.268, -1, 23.5086, 52.1553, -4.69978, 82.355, -69.5412, 40.6063
0.272, -1, 23.5473, 52.1428, -4.72898, 82.402, -69.4852, 40.617
0.276, -1, 23.5859, 52.1303, -4.75816, 82.449, -69.4291, 40.6276
0.28, -1, 23.6244, 52.1178, -4.78732, 82.4959, -69.3731, 40.6383
0.284, -1, 23.663, 52.1052, -4.81646, 82.5428, -69.3172, 40.6489
0.288, -1, 23.7015, 52.0927, -4.84557, 82.5896, -69.2613, 40.6596
0.292, -1, 23.7399, 52.0802, -4.87467, 82.6364, -69.2054, 40.6702
0.296, -1, 23.7784, 52.0678, -4.90374, 82.6832, -69.1496, 40.6808
0.3, -1, 23.8168, 52.0553, -4.93279, 82.7299, -69.0938, 40.6914
0.304, -1, 23.8552, 52.0428, -4.96182, 82.7766, -69.038, 40.702
0.308, -1, 23.8936, 52.0304, -4.99083, 82.8233, -68.9823, 40.7126
0.312, -1, 23.9319, 52.0179, -5.01981, 82.87, -68.9267, 40.7232
0.316, -1, 23.9702, 52.0055, -5.04878, 82.9166, -68.871, 40.7338
0.32, -1, 24.0085, 51.9931, -5.07773, 82.9631, -68.8154, 40.7444
0.324, -1, 24.0468, 51.9806, -5.10665, 83.0097, -68.7599, 40.755
0.328, -1, 24.085, 51.9682, -5.13555, 83.0562, -68.7044, 40.7655
0.332, -1, 24.1232, 51.9558, -5.16443, 83.1027, -68.6489, 40.7761
0.336, -1, 24.1613, 51.9434, -5.19329, 83.1491, -68.5935, 40.7866
0.34, -1, 24.1995, 51.931, -5.22213, 83.1955, -68.5381, 40.7972
0.344, -1, 24.2376, 51.9187, -5.25095, 83.2419, -68.4828, 40.8077
0.348, -1, 24.2757, 51.9063, -5.27975, 83.2882, -68.4275, 40.8182
0.352, -1, 24.3138, 51.894, -5.30853, 83.3345, -68.3722, 40.8287
0.356, -1, 24.3518, 51.8816, -5.33728, 83.3808, -68.317, 40.8392
0.36, -1, 24.3898, 51.8693, -5.36602, 83.427, -68.2618, 40.8497
0.364, -1, 24.4278, 51.8569, -5.39474, 83.4732, -68.2067, 40.8602
0.368, -1, 24.4657, 51.8446, -5.42343, 83.5194, -68.1516, 40.8707
0.372, -1, 24.5036, 51.8323, -5.4521, 83.5655, -68.0965, 40.8812
0.376, -1, 24.5415, 51.82, -5.48076, 83.6116, -68.0415, 40.8916
0.38, -1, 24.5794, 51.8077, -5.50939, 83.6577, -67.9865, 40.9021
0.384, -1, 24.6172, 51.7954, -5.538, 83.7038, -67.9315, 40.9126
0.388, -1, 24.6551, 51.7831, -5.5666, 83.7498, -67.8766, 40.923
0.392, -1, 24.6928, 51.7709, -5.59517, 83.7957, -67.8218, 40.9334
0.396, -1, 24.7306, 51.7586, -5.62372, 83.8417, -67.7669, 40.9439
0.4, -1, 24.7683, 51.7464, -5.65225, 83.8876, -67.7121, 40.9543
0.404, -1, 24.806, 51.7341, -5.68076, 83.9335, -67.6574, 40.9647
0.408, -1, 24.8437, 51.7219, -5.70925, 83.9793, -67.6027, 40.9751
0.412, -1, 24.8814, 51.7097, -5.73772, 84.0251, -67.548, 40.9855
0.416, -1, 24.919, 51.6975, -5.76618, 84.0709, -67.4934, 40.9959
0.42, -1, 24.9566, 51.6852, -5.79461, 84.1166, -67.4388, 41.0063
0.424, -1, 24.9942, 51.673, -5.82302, 84.1624, -67.3842, 41.0167
0.428, -1, 25.0317, 51.6609, -5.85141, 84.208, -67.3297, 41.0271
0.432, -1, 25.0693, 51.6487, -5.87978, 84.2537, -67.2752, 41.0374
0.436, -1, 25.1068, 51.6365, -5.90813, 84.2993, -67.2208, 41.0478
0.44, -1, 25.1442, 51.6243, -5.93646, 84.3449, -67.1664, 41.0581
0.444, -1, 25.1817, 51.6122, -5.96478, 84.3905, -67.112, 41.0685
0.448, -1, 25.2191, 51.6, -5.99307, 84.436, -67.0576, 41.0788
0.452, -1, 25.2565, 51.5879, -6.02134, 84.4815, -67.0034, 41.0892
0.456, -1, 25.2938, 51.5758, -6.04959, 84.5269, -66.9491, 41.0995
0.46, -1, 25.3312, 51.5636, -6.07783, 84.5724, -66.8949, 41.1098
0.464, -1, 25.3685, 51.5515, -6.10604, 84.6178, -66.8407, 41.1201
0.468, -1, 25.4058, 51.5394, -6.13424, 84.6631, -66.7866, 41.1304
0.472, -1, 25.4431, 51.5273, -6.16241, 84.7085, -66.7325, 41.1407
0.476, -1, 25.4803, 51.5152, -6.19057, 84.7538, -66.6784, 41.151
0.48, -1, 25.5175, 51.5031, -6.2187, 84.799, -66.6244, 41.1613
0.484, -1, 25.5547, 51.4911, -6.24682, 84.8443, -66.5704, 41.1715
0.488, -1, 25.5918, 51.479, -6.27492, 84.8895, -66.5164, 41.1818
0.492, -1, 25.629, 51.4669, -6.303, 84.9347, -66.4625, 41.1921
0.496, -1, 25.6661, 51.4549, -6.33106, 84.9798, -66.4086, 41.2023
0.5, -1, 25.7032, 51.4429, -6.3591, 85.0249, -66.3547, 41.2126
0.504, -1, 25.7402, 51.4308, -6.38712, 85.07, -66.3009, 41.2228
0.508, -1, 25.7773, 51.4188, -6.41512, 85.1151, -66.2472, 41.233
0.512, -1, 25.8143, 51.4068, -6.4431, 85.1601, -66.1934, 41.2433
0.516, -1, 25.8513, 51.3948, -6.47107, 85.2051, -66.1397, 41.2535
0.52, -1, 25.8882, 51.3828, -6.49901, 85.2501, -66.0861, 41.2637
0.524, -1, 25.9251, 51.3708, -6.52694, 85.295, -66.0324, 41.2739
0.528, -1, 25.9621, 51.3588, -6.55484, 85.3399, -65.9788, 41.2841
0.532, -1, 25.9989, 51.3468, -6.58273, 85.3848, -65.9253, 41.2943
0.536, -1, 26.0358, 51.3349, -6.6106, 85.4296, -65.8718, 41.3045
0.54, -1, 26.0726, 51.3229, -6.63845, 85.4745, -65.8183, 41.3146
0.544, -1, 26.1094, 51.311, -6.66629, 85.5192, -65.7648, 41.3248
0.548, -1, 26.1462, 51.299, -6.6941, 85.564, -65.7114, 41.335
0.552, -1, 26.183, 51.2871, -6.72189, 85.6087, -65.658, 41.3451
0.556, -1, 26.2197, 51.2752, -6.74967, 85.6534, -65.6047, 41.3553
0.56, -1, 26.2564, 51.2632, -6.77743, 85.6981, -65.5514, 41.3654
0.564, -1, 26.2931, 51.2513, -6.80517, 85.7427, -65.4981, 41.3755
0.568, -1, 26.3298, 51.2394, -6.83289, 85.7873, -65.4449, 41.3857
0.572, -1, 26.3664, 51.2275, -6.86059, 85.8319, -65.3917, 41.3958
0.576, -1, 26.403, 51.2156, -6.88827, 85.8764, -65.3385, 41.4059
0.58, -1, 26.4396, 51.2038, -6.91594, 85.9209, -65.2854, 41.416
0.584, -1, 26.4762, 51.1919, -6.94359, 85.9654, -65.2323, 41.4261
0.588, -1, 26.5127, 51.18, -6.97122, 86.0099, -65.1792, 41.4362
0.592, -1, 26.5492, 51.1682, -6.99883, 86.0543, -65.1262, 41.4463
0.596, -1, 26.5857, 51.1563, -7.02642, 86.0987, -65.0732, 41.4564
0.6, -1, 26.6222, 51.1445, -7.05399, 86.1431, -65.0203, 41.4665
0.604, -1, 26.6586, 51.1327, -7.08155, 86.1874, -64.9674, 41.4765
0.608, -1, 26.6951, 51.1208, -7.10909, 86.2317, -64.9145, 41.4866
0.612, -1, 26.7315, 51.109, -7.13661, 86.276, -64.8616, 41.4966
0.616, -1, 26.7678, 51.0972, -7.16411, 86.3203, -64.8088, 41.5067
0.62, -1, 26.8042, 51.0854, -7.1916, 86.3645, -64.756, 41.5167
0.624, -1, 26.8405, 51.0736, -7.21906, 86.4087, -64.7033, 41.5268
0.628, -1, 26.8768, 51.0618, -7.24651, 86.4529, -64.6506, 41.5368
0.632, -1, 26.9131, 51.05, -7.27394, 86.497, -64.5979, 41.5468
0.636, -1, 26.9493, 51.0383, -7.30135, 86.5411, -64.5453, 41.5568
0.64, -1, 26.9856, 51.0265, -7.32875, 86.5852, -64.4927, 41.5668
0.644, -1, 27.0218, 51.0148, -7.35613, 86.6292, -64.4401, 41.5768
0.648, -1, 27.058, 51.003, -7.38349, 86.6732, -64.3875, 41.5868
0.652, -1, 27.0941, 50.9913, -7.41083, 86.7172, -64.335, 41.5968
0.656, -1, 27.1303, 50.9795, -7.43815, 86.7612, -64.2826, 41.6068
0.66, -1, 27.1664, 50.9678, -7.46546, 86.8051, -64.2301, 41.6168
0.664, -1, 27.2025, 50.9561, -7.49275, 86.8491, -64.1777, 41.6268
0.668, -1, 27.2385, 50.9444, -7.52002, 86.8929, -64.1254, 41.6367
0.672, -1, 27.2746, 50.9327, -7.54727, 86.9368, -64.073, 41.6467
0.676, -1, 27.3106, 50.921, -7.57451, 86.9806, -64.0207, 41.6566
0.68, -1, 27.3466, 50.9093, -7.60173, 87.0244, -63.9684, 41.6666
0.684, -1, 27.3826, 50.8976, -7.62893, 87.0682, -63.9162, 41.6765
0.688, -1, 27.4185, 50.8859, -7.65611, 87.1119, -63.864, 41.6865
0.692, -1, 27.4545, 50.8743, -7.68328, 87.1556, -63.8118, 41.6964
0.696, -1, 27.4904, 50.8626, -7.71043, 87.1993, -63.7597, 41.7063
0.7, -1, 27.5262, 50.851, -7.73756, 87.243, -63.7076, 41.7162
0.704, -1, 27.5621, 50.8393, -7.76468, 87.2866, -63.6555, 41.7261
0.708, -1, 27.5979, 50.8277, -7.79178, 87.3302, -63.6035, 41.736
0.712, -1, 27.6338, 50.8161, -7.81886, 87.3738, -63.5515, 41.7459
0.716, -1, 27.6696, 50.8044, -7.84592, 87.4173, -63.4995, 41.7558
0.72, -1, 27.7053, 50.7928, -7.87297, 87.4609, -63.4476, 41.7657
0.724, -1, 27.7411, 50.7812, -7.9, 87.5043, -63.3956, 41.7756
0.728, -1, 27.7768, 50.7696, -7.92701, 87.5478, -63.3438, 41.7854
0.732, -1, 27.8125, 50.758, -7.95401, 87.5913, -63.2919, 41.7953
0.736, -1, 27.8482, 50.7464, -7.98099, 87.6347, -63.2401, 41.8052
0.74, -1, 27.8838, 50.7349, -8.00795, 87.6781, -63.1883, 41.815
0.744, -1, 27.9195, 50.7233, -8.0349, 87.7214, -63.1366, 41.8249
0.748, -1, 27.9551, 50.7117, -8.06183, 87.7647, -63.0849, 41.8347
0.752, -1, 27.9907, 50.7002, -8.08874, 87.808, -63.0332, 41.8445
0.756, -1, 28.0263, 50.6886, -8.11564, 87.8513, -62.9815, 41.8544
0.76, -1, 28.0618, 50.6771, -8.14252, 87.8946, -62.9299, 41.8642
0.764, -1, 28.0973, 50.6656, -8.16938, 87.9378, -62.8783, 41.874
0.768, -1, 28.1328, 50.654, -8.19622, 87.981, -62.8268, 41.8838
0.772, -1, 28.1683, 50.6425, -8.22305, 88.0242, -62.7753, 41.8936
0.776, -1, 28.2038, 50.631, -8.24987, 88.0673, -62.7238, 41.9034
0.78, -1, 28.2392, 50.6195, -8.27666, 88.1104, -62.6723, 41.9132
0.784, -1, 28.2746, 50.608, -8.30344, 88.1535, -62.6209, 41.923
0.788, -1, 28.31, 50.5965, -8.33021, 88.1966, -62.5695, 41.9327
0.792, -1, 28.3454, 50.585, -8.35696, 88.2396, -62.5181, 41.9425
0.796, -1, 28.3808, 50.5735, -8.38369, 88.2826, -62.4668, 41.9523
0.8, -1, 28.4161, 50.5621, -8.4104, 88.3256, -62.4155, 41.962
0.804, -1, 28.4514, 50.5506, -8.4371, 88.3686, -62.3642, 41.9718
0.808, -1, 28.4867, 50.5391, -8.46378, 88.4115, -62.313, 41.9816
0.812, -1, 28.522, 50.5277, -8.49045, 88.4544, -62.2618, 41.9913
0.816, -1, 28.5572, 50.5163, -8.5171, 88.4973, -62.2106, 42.001
0.82, -1, 28.5924, 50.5048, -8.54374, 88.5402, -62.1594, 42.0108
0.824, -1, 28.6276, 50.4934, -8.57035, 88.583, -62.1083, 42.0205
0.828, -1, 28.6628, 50.482, -8.59696, 88.6258, -62.0572, 42.0302
0.832, -1, 28.698, 50.4706, -8.62354, 88.6686, -62.0062, 42.0399
0.836, -1, 28.7331, 50.4591, -8.65011, 88.7113, -61.9552, 42.0496
0.84, -1, 28.7682, 50.4477, -8.67667, 88.7541, -61.9042, 42.0593
0.844, -1, 28.8033, 50.4363, -8.7032, 88.7968, -61.8532, 42.069
0.848, -1, 28.8384, 50.425, -8.72973, 88.8394, -61.8023, 42.0787
0.852, -1, 28.8735, 50.4136, -8.75623, 88.8821, -61.7514, 42.0884
0.856, -1, 28.9085, 50.4022, -8.78272, 88.9247, -61.7005, 42.0981
0.86, -1, 28.9435, 50.3908, -8.8092, 88.9673, -61.6496, 42.1078
0.864, -1, 28.9785, 50.3795, -8.83566, 89.0099, -61.5988, 42.1174
0.868, -1, 29.0135, 50.3681, -8.8621, 89.0524, -61.548, 42.1271
0.872, -1, 29.0484, 50.3568, -8.88853, 89.095, -61.4973, 42.1367
0.876, -1, 29.0834, 50.3454, -8.91494, 89.1375, -61.4466, 42.1464
0.88, -1, 29.1183, 50.3341, -8.94134, 89.1799, -61.3959, 42.156
0.884, -1, 29.1532, 50.3228, -8.96772, 89.2224, -61.3452, 42.1657
0.888, -1, 29.188, 50.3114, -8.99409, 89.2648, -61.2946, 42.1753
0.892, -1, 29.2229, 50.3001, -9.02044, 89.3072, -61.244, 42.1849
0.896, -1, 29.2577, 50.2888, -9.04677, 89.3496, -61.1934, 42.1946
0.9, -1, 29.2925, 50.2775, -9.07309, 89.3919, -61.1429, 42.2042
0.904, -1, 29.3273, 50.2662, -9.0994, 89.4343, -61.0924, 42.2138
0.908, -1, 29.3621, 50.2549, -9.12568, 89.4766, -61.0419, 42.2234
0.912, -1, 29.3968, 50.2437, -9.15196, 89.5188, -60.9914, 42.233
0.916, -1, 29.4316, 50.2324, -9.17822, 89.5611, -60.941, 42.2426
0.92, -1, 29.4663, 50.2211, -9.20446, 89.6033, -60.8906, 42.2522
0.924, -1, 29.501, 50.2099, -9.23069, 89.6455, -60.8402, 42.2618
0.928, -1, 29.5356, 50.1986, -9.2569, 89.6877, -60.7899, 42.2713
0.932, -1, 29.5703, 50.1873, -9.2831, 89.7298, -60.7396, 42.2809
0.936, -1, 29.6049, 50.1761, -9.30928, 89.772, -60.6893, 42.2905
0.94, -1, 29.6395, 50.1649, -9.33544, 89.8141, -60.6391, 42.3
0.944, -1, 29.6741, 50.1536, -9.3616, 89.8562, -60.5888, 42.3096
0.948, -1, 29.7087, 50.1424, -9.38773, 89.8982, -60.5387, 42.3191
0.952, -1, 29.7432, 50.1312, -9.41386, 89.9402, -60.4885, 42.3287
0.956, -1, 29.7777, 50.12, -9.43996, 89.9822, -60.4384, 42.3382
0.96, -1, 29.8122, 50.1088, -9.46605, 90.0242, -60.3882, 42.3478
0.964, -1, 29.8467, 50.0976, -9.49213, 90.0662, -60.3382, 42.3573
0.968, -1, 29.8812, 50.0864, -9.51819, 90.1081, -60.2881, 42.3668
0.972, -1, 29.9156, 50.0752, -9.54424, 90.15, -60.2381, 42.3763
0.976, -1, 29.9501, 50.064, -9.57027, 90.1919, -60.1881, 42.3858
0.98, -1, 29.9845, 50.0529, -9.59629, 90.2338, -60.1381, 42.3953
0.984, -1, 30.0189, 50.0417, -9.62229, 90.2756, -60.0882, 42.4048
0.988, -1, 30.0532, 50.0305, -9.64828, 90.3175, -60.0383, 42.4143
0.992, -1, 30.0876, 50.0194, -9.67425, 90.3592, -59.9884, 42.4238
0.996, -1, 30.1219, 50.0082, -9.70021, 90.401, -59.9386, 42.4333
1, -1, 30.1562, 49.9971, -9.72616, 90.4427, -59.8888, 42.4428
1.004, -1, 30.1905, 49.986, -9.75208, 90.4845, -59.839, 42.4523
1.008, -1, 30.2248, 49.9748, -9.778, 90.5262, -59.7892, 42.4617
1.012, -1, 30.259, 49.9637, -9.8039, 90.5678, -59.7395, 42.4712
1.016, -1, 30.2933, 49.9526, -9.82979, 90.6095, -59.6897, 42.4806
1.02, -1, 30.3275, 49.9415, -9.85566, 90.6511, -59.6401, 42.4901
1.024, -1, 30.3617, 49.9304, -9.88151, 90.6927, -59.5904, 42.4995
1.027, -1, 30.3959, 49.9193, -9.90735, 90.7343, -59.5408, 42.509
1.032, -1, 30.43, 49.9082, -9.93318, 90.7759, -59.4912, 42.5184
1.036, -1, 30.4642, 49.8971, -9.95899, 90.8174, -59.4416, 42.5279
1.04, -1, 30.4983, 49.8861, -9.98479, 90.8589, -59.3921, 42.5373
1.044, -1, 30.5324, 49.875, -10.0106, 90.9004, -59.3426, 42.5467
1.048, -1, 30.5665, 49.8639, -10.0363, 90.9419, -59.2931, 42.5561
1.052, -1, 30.6005, 49.8529, -10.0621, 90.9833, -59.2436, 42.5655
1.055, -1, 30.6346, 49.8418, -10.0878, 91.0247, -59.1942, 42.5749
1.06, -1, 30.6686, 49.8308, -10.1136, 91.0661, -59.1448, 42.5843
1.064, -1, 30.7026, 49.8197, -10.1393, 91.1075, -59.0954, 42.5937
1.068, -1, 30.7366, 49.8087, -10.165, 91.1489, -59.046, 42.6031
1.072, -1, 30.7706, 49.7976, -10.1907, 91.1902, -58.9967, 42.6125
1.076, -1, 30.8045, 49.7866, -10.2163, 91.2315, -58.9474, 42.6219
1.08, -1, 30.8384, 49.7756, -10.242, 91.2728, -58.8981, 42.6313
1.084, -1, 30.8723, 49.7646, -10.2676, 91.314, -58.8489, 42.6406
1.088, -1, 30.9062, 49.7536, -10.2933, 91.3553, -58.7997, 42.65
1.091, -1, 30.9401, 49.7426, -10.3189, 91.3965, -58.7505, 42.6593
1.096, -1, 30.974, 49.7316, -10.3445, 91.4377, -58.7013, 42.6687
1.1, -1, 31.0078, 49.7206, -10.3701, 91.4789, -58.6522, 42.6781
1.104, -1, 31.0416, 49.7096, -10.3956, 91.52, -58.6031, 42.6874
1.108, -1, 31.0754, 49.6987, -10.4212, 91.5611, -58.554, 42.6967
1.112, -1, 31.1092, 49.6877, -10.4467, 91.6022, -58.5049, 42.7061
1.116, -1, 31.143, 49.6767, -10.4723, 91.6433, -58.4559, 42.7154
1.119, -1, 31.1767, 49.6658, -10.4978, 91.6844, -58.4069, 42.7247
1.124, -1, 31.2105, 49.6548, -10.5233, 91.7254, -58.3579, 42.734
1.128, -1, 31.2442, 49.6439, -10.5488, 91.7664, -58.309, 42.7433
1.132, -1, 31.2779, 49.6329, -10.5743, 91.8074, -58.2601, 42.7527
1.136, -1, 31.3115, 49.622, -10.5997, 91.8484, -58.2112, 42.762
1.14, -1, 31.3452, 49.6111, -10.6252, 91.8893, -58.1623, 42.7713
1.144, -1, 31.3788, 49.6002, -10.6506, 91.9303, -58.1135, 42.7806
1.147, -1, 31.4125, 49.5892, -10.676, 91.9712, -58.0646, 42.7898
1.152, -1, 31.4461, 49.5783, -10.7014, 92.0121, -58.0158, 42.7991
1.156, -1, 31.4796, 49.5674, -10.7268, 92.0529, -57.9671, 42.8084
1.16, -1, 31.5132, 49.5565, -10.7522, 92.0938, -57.9183, 42.8177
1.164, -1, 31.5468, 49.5456, -10.7776, 92.1346, -57.8696, 42.8269
1.168, -1, 31.5803, 49.5348, -10.8029, 92.1754, -57.8209, 42.8362
1.172, -1, 31.6138, 49.5239, -10.8283, 92.2161, -57.7723, 42.8455
1.175, -1, 31.6473, 49.513, -10.8536, 92.2569, -57.7236, 42.8547
1.18, -1, 31.6808, 49.5021, -10.8789, 92.2976, -57.675, 42.864
1.184, -1, 31.7142, 49.4913, -10.9042, 92.3383, -57.6264, 42.8732
1.188, -1, 31.7477, 49.4804, -10.9295, 92.379, -57.5779, 42.8825
1.192, -1, 31.7811, 49.4696, -10.9548, 92.4197, -57.5293, 42.8917
1.196, -1, 31.8145, 49.4587, -10.98, 92.4603, -57.4808, 42.9009
1.2, -1, 31.8479, 49.4479, -11.0053, 92.501, -57.4323, 42.9101
1.204, -1, 31.8813, 49.437, -11.0305, 92.5416, -57.3839, 42.9194
1.208, -1, 31.9146, 49.4262, -11.0557, 92.5821, -57.3355, 42.9286
1.212, -1, 31.948, 49.4154, -11.0809, 92.6227, -57.2871, 42.9378
1.216, -1, 31.9813, 49.4046, -11.1061, 92.6632, -57.2387, 42.947
1.22, -1, 32.0146, 49.3938, -11.1313, 92.7038, -57.1903, 42.9562
1.224, -1, 32.0479, 49.3829, -11.1565, 92.7443, -57.142, 42.9654
1.228, -1, 32.0811, 49.3721, -11.1816, 92.7847, -57.0937, 42.9746
1.232, -1, 32.1144, 49.3614, -11.2068, 92.8252, -57.0454, 42.9838
1.236, -1, 32.1476, 49.3506, -11.2319, 92.8656, -56.9971, 42.9929
1.24, -1, 32.1808, 49.3398, -11.257, 92.906, -56.9489, 43.0021
1.244, -1, 32.214, 49.329, -11.2821, 92.9464, -56.9007, 43.0113
1.248, -1, 32.2472, 49.3182, -11.3072, 92.9868, -56.8525, 43.0205
1.252, -1, 32.2804, 49.3075, -11.3323, 93.0271, -56.8044, 43.0296
1.256, -1, 32.3135, 49.2967, -11.3574, 93.0675, -56.7562, 43.0388
1.26, -1, 32.3466, 49.2859, -11.3824, 93.1078, -56.7081, 43.0479
1.264, -1, 32.3798, 49.2752, -11.4074, 93.1481, -56.66, 43.0571
1.267, -1, 32.4129, 49.2644, -11.4325, 93.1883, -56.612, 43.0662
1.272, -1, 32.4459, 49.2537, -11.4575, 93.2286, -56.564, 43.0754
1.276, -1, 32.479, 49.243, -11.4825, 93.2688, -56.516, 43.0845
1.28, -1, 32.512, 49.2322, -11.5075, 93.309, -56.468, 43.0936
1.284, -1, 32.5451, 49.2215, -11.5324, 93.3492, -56.42, 43.1027
1.288, -1, 32.5781, 49.2108, -11.5574, 93.3894, -56.3721, 43.1119
1.292, -1, 32.6111, 49.2001, -11.5824, 93.4295, -56.3242, 43.121
1.295, -1, 32.644, 49.1894, -11.6073, 93.4696, -56.2763, 43.1301
1.3, -1, 32.677, 49.1787, -11.6322, 93.5097, -56.2284, 43.1392
1.304, -1, 32.71, 49.168, -11.6571, 93.5498, -56.1806, 43.1483
1.308, -1, 32.7429, 49.1573, -11.682, 93.5899, -56.1328, 43.1574
1.312, -1, 32.7758, 49.1466, -11.7069, 93.6299, -56.085, 43.1665
1.316, -1, 32.8087, 49.1359, -11.7318, 93.6699, -56.0372, 43.1756
1.32, -1, 32.8416, 49.1253, -11.7566, 93.7099, -55.9895, 43.1847
1.324, -1, 32.8744, 49.1146, -11.7815, 93.7499, -55.9418, 43.1937
1.328, -1, 32.9073, 49.1039, -11.8063, 93.7899, -55.8941, 43.2028
1.332, -1, 32.9401, 49.0933, -11.8311, 93.8298, -55.8464, 43.2119
1.336, -1, 32.9729, 49.0826, -11.8559, 93.8697, -55.7988, 43.2209
1.34, -1, 33.0057, 49.072, -11.8807, 93.9096, -55.7511, 43.23
1.344, -1, 33.0385, 49.0613, -11.9055, 93.9495, -55.7036, 43.2391
1.348, -1, 33.0712, 49.0507, -11.9303, 93.9894, -55.656, 43.2481
1.352, -1, 33.104, 49.0401, -11.9551, 94.0292, -55.6084, 43.2572
1.356, -1, 33.1367, 49.0294, -11.9798, 94.069, -55.5609, 43.2662
1.36, -1, 33.1694, 49.0188, -12.0045, 94.1088, -55.5134, 43.2752
1.364, -1, 33.2021, 49.0082, -12.0293, 94.1486, -55.4659, 43.2843
1.368, -1, 33.2348, 48.9976, -12.054, 94.1884, -55.4185, 43.2933
1.372, -1, 33.2675, 48.987, -12.0787, 94.2281, -55.371, 43.3023
1.376, -1, 33.3001, 48.9764, -12.1034, 94.2678, -55.3236, 43.3113
1.38, -1, 33.3327, 48.9658, -12.128, 94.3075, -55.2763, 43.3204
1.384, -1, 33.3654, 48.9552, -12.1527, 94.3472, -55.2289, 43.3294
1.388, -1, 33.398, 48.9446, -12.1773, 94.3869, -55.1816, 43.3384
1.392, -1, 33.4306, 48.934, -12.202, 94.4265, -55.1342, 43.3474
1.396, -1, 33.4631, 48.9235, -12.2266, 94.4661, -55.087, 43.3564
1.4, -1, 33.4957, 48.9129, -12.2512, 94.5058, -55.0397, 43.3654
1.404, -1, 33.5282, 48.9023, -12.2758, 94.5453, -54.9924, 43.3744
1.408, -1, 33.5607, 48.8918, -12.3004, 94.5849, -54.9452, 43.3833
1.412, -1, 33.5932, 48.8812, -12.325, 94.6245, -54.898, 43.3923
1.416, -1, 33.6257, 48.8707, -12.3496, 94.664, -54.8508, 43.4013
1.42, -1, 33.6582, 48.8601, -12.3741, 94.7035, -54.8037, 43.4103
1.424, -1, 33.6907, 48.8496, -12.3987, 94.743, -54.7566, 43.4192
1.428, -1, 33.7231, 48.839, -12.4232, 94.7825, -54.7094, 43.4282
1.432, -1, 33.7555, 48.8285, -12.4477, 94.8219, -54.6624, 43.4372
1.436, -1, 33.7879, 48.818, -12.4722, 94.8613, -54.6153, 43.4461
1.44, -1, 33.8203, 48.8075, -12.4967, 94.9008, -54.5683, 43.4551
1.444, -1, 33.8527, 48.797, -12.5212, 94.9402, -54.5212, 43.464
1.448, -1, 33.8851, 48.7865, -12.5457, 94.9795, -54.4742, 43.4729
1.452, -1, 33.9174, 48.7759, -12.5701, 95.0189, -54.4273, 43.4819
1.456, -1, 33.9498, 48.7655, -12.5946, 95.0582, -54.3803, 43.4908
1.46, -1, 33.9821, 48.755, -12.619, 95.0976, -54.3334, 43.4997
1.464, -1, 34.0144, 48.7445, -12.6434, 95.1369, -54.2865, 43.5087
1.468, -1, 34.0467, 48.734, -12.6679, 95.1761, -54.2396, 43.5176
1.472, -1, 34.0789, 48.7235, -12.6923, 95.2154, -54.1927, 43.5265
1.476, -1, 34.1112, 48.713, -12.7166, 95.2546, -54.1459, 43.5354
1.48, -1, 34.1434, 48.7026, -12.741, 95.2939, -54.0991, 43.5443
1.484, -1, 34.1757, 48.6921, -12.7654, 95.3331, -54.0523, 43.5532
1.488, -1, 34.2079, 48.6816, -12.7897, 95.3723, -54.0055, 43.5621
1.492, -1, 34.2401, 48.6712, -12.8141, 95.4114, -53.9588, 43.571
1.496, -1, 34.2723, 48.6607, -12.8384, 95.4506, -53.912, 43.5799
1.5, -1, 34.3044, 48.6503, -12.8627, 95.4897, -53.8653, 43.5888
1.504, -1, 34.3366, 48.6399, -12.8871, 95.5289, -53.8186, 43.5977
1.508, -1, 34.3687, 48.6294, -12.9114, 95.568, -53.772, 43.6066
1.512, -1, 34.4008, 48.619, -12.9356, 95.607, -53.7253, 43.6154
1.516, -1, 34.4329, 48.6086, -12.9599, 95.6461, -53.6787, 43.6243
1.52, -1, 34.465, 48.5982, -12.9842, 95.6852, -53.6321, 43.6332
1.524, -1, 34.4971, 48.5877, -13.0084, 95.7242, -53.5855, 43.642
1.528, -1, 34.5292, 48.5773, -13.0327, 95.7632, -53.539, 43.6509
1.532, -1, 34.5612, 48.5669, -13.0569, 95.8022, -53.4924, 43.6597
1.536, -1, 34.5933, 48.5565, -13.0811, 95.8411, -53.4459, 43.6686
1.54, -1, 34.6253, 48.5461, -13.1054, 95.8801, -53.3994, 43.6774
1.544, -1, 34.6573, 48.5357, -13.1296, 95.919, -53.353, 43.6863
1.548, -1, 34.6893, 48.5254, -13.1537, 95.958, -53.3065, 43.6951
1.552, -1, 34.7212, 48.515, -13.1779, 95.9969, -53.2601, 43.704
1.556, -1, 34.7532, 48.5046, -13.2021, 96.0358, -53.2137, 43.7128
1.56, -1, 34.7852, 48.4942, -13.2262, 96.0746, -53.1673, 43.7216
1.564, -1, 34.8171, 48.4839, -13.2504, 96.1135, -53.1209, 43.7304
1.568, -1, 34.849, 48.4735, -13.2745, 96.1523, -53.0746, 43.7392
1.572, -1, 34.8809, 48.4631, -13.2986, 96.1911, -53.0283, 43.7481
1.576, -1, 34.9128, 48.4528, -13.3227, 96.2299, -52.982, 43.7569
1.58, -1, 34.9447, 48.4424, -13.3468, 96.2687, -52.9357, 43.7657
1.584, -1, 34.9765, 48.4321, -13.3709, 96.3075, -52.8894, 43.7745
1.588, -1, 35.0084, 48.4217, -13.395, 96.3462, -52.8432, 43.7833
1.592, -1, 35.0402, 48.4114, -13.4191, 96.3849, -52.797, 43.7921
1.596, -1, 35.072, 48.4011, -13.4431, 96.4236, -52.7508, 43.8009
1.6, -1, 35.1038, 48.3908, -13.4672, 96.4623, -52.7046, 43.8096
1.604, -1, 35.1356, 48.3804, -13.4912, 96.501, -52.6584, 43.8184
1.608, -1, 35.1674, 48.3701, -13.5152, 96.5397, -52.6123, 43.8272
1.612, -1, 35.1991, 48.3598, -13.5393, 96.5783, -52.5662, 43.836
1.616, -1, 35.2309, 48.3495, -13.5633, 96.6169, -52.5201, 43.8447
1.62, -1, 35.2625, 48.3392, -13.5873, 96.6555, -52.474, 43.8535
1.624, -1, 35.294, 48.329, -13.6113, 96.6941, -52.428, 43.8623
1.628, -1, 35.3252, 48.3189, -13.6353, 96.7327, -52.3819, 43.871
1.632, -1, 35.356, 48.3088, -13.6593, 96.7712, -52.336, 43.8798
1.636, -1, 35.3865, 48.299, -13.6833, 96.8096, -52.2901, 43.8885
1.64, -1, 35.4165, 48.2893, -13.7072, 96.848, -52.2443, 43.8972
1.644, -1, 35.446, 48.2798, -13.7312, 96.8862, -52.1987, 43.9059
1.648, -1, 35.4749, 48.2706, -13.7551, 96.9243, -52.1534, 43.9145
1.652, -1, 35.5033, 48.2617, -13.7788, 96.962, -52.1083, 43.9231
1.656, -1, 35.5309, 48.2532, -13.8025, 96.9994, -52.0638, 43.9316
1.66, -1, 35.5575, 48.2451, -13.8259, 97.0363, -52.0198, 43.94
1.664, -1, 35.5832, 48.2375, -13.849, 97.0725, -51.9766, 43.9482
1.668, -1, 35.6077, 48.2303, -13.8717, 97.1079, -51.9345, 43.9563
1.672, -1, 35.6312, 48.2236, -13.8937, 97.1423, -51.8935, 43.9641
1.676, -1, 35.6537, 48.2172, -13.9151, 97.1754, -51.8541, 43.9716
1.68, -1, 35.6753, 48.211, -13.9354, 97.2071, -51.8164, 43.9788
1.684, -1, 35.6959, 48.2051, -13.9547, 97.2371, -51.7806, 43.9857
1.688, -1, 35.7155, 48.1994, -13.9728, 97.2653, -51.7471, 43.9921
1.692, -1, 35.734, 48.194, -13.9895, 97.2914, -51.716, 43.998
1.696, -1, 35.7515, 48.1887, -14.0047, 97.3153, -51.6874, 44.0034
1.7, -1, 35.7681, 48.1836, -14.0184, 97.337, -51.6616, 44.0084
1.704, -1, 35.7838, 48.1786, -14.0305, 97.3564, -51.6385, 44.0128
1.708, -1, 35.7987, 48.1736, -14.0409, 97.3734, -51.6181, 44.0166
1.712, -1, 35.8129, 48.1686, -14.0498, 97.3882, -51.6004, 44.02
1.716, -1, 35.8263, 48.1636, -14.0571, 97.4008, -51.5854, 44.0228
1.72, -1, 35.8388, 48.1588, -14.063, 97.4113, -51.5728, 44.0252
1.724, -1, 35.8502, 48.1543, -14.0678, 97.42, -51.5623, 44.0272
1.728, -1, 35.8604, 48.1502, -14.0714, 97.427, -51.5539, 44.0288
1.732, -1, 35.8696, 48.1464, -14.0742, 97.4325, -51.5472, 44.03
1.736, -1, 35.8778, 48.1429, -14.0762, 97.4368, -51.5419, 44.031
1.74, -1, 35.8851, 48.1398, -14.0776, 97.4401, -51.5379, 44.0317
1.744, -1, 35.8916, 48.1371, -14.0786, 97.4425, -51.535, 44.0322
1.748, -1, 35.8971, 48.1348, -14.0792, 97.4443, -51.5328, 44.0326
1.752, 2, 35.9018, 48.1329, -14.0795, 97.4455, -51.5313, 44.0329
1.756, 2, 35.9056, 48.1314, -14.0797, 97.4464, -51.5302, 44.0331
1.76, 2, 35.9085, 48.1303, -14.0798, 97.447, -51.5294, 44.0332
1.764, 2, 35.9106, 48.1295, -14.0799, 97.4474, -51.5289, 44.0333
1.768, 2, 35.9121, 48.1289, -14.0799, 97.4477, -51.5286, 44.0334
1.772, 2, 35.9131, 48.1286, -14.08, 97.4479, -51.5283, 44.0334
1.776, 2, 35.9137, 48.1283, -14.08, 97.448, -51.5282, 44.0335
1.78, 2, 35.9142, 48.1281, -14.08, 97.4481, -51.5281, 44.0335
1.784, 2, 35.9145, 48.128, -14.08, 97.4482, -51.528, 44.0335
1.788, 2, 35.9147, 48.1279, -14.08, 97.4482, -51.5279, 44.0335
1.792, 2, 35.9148, 48.1279, -14.08, 97.4482, -51.5279, 44.0335
1.796, 2, 35.9149, 48.1279, -14.08, 97.4482, -51.5279, 44.0335
1.8, 2, 35.915, 48.1278, -14.08, 97.4483, -51.5279, 44.0335
1.804, 2, 35.915, 48.1278, -14.08, 97.4483, -51.5279, 44.0335
1.808, 2, 35.9151, 48.1278, -14.08, 97.4483, -51.5279, 44.0335
1.812, 2, 35.9151, 48.1278, -14.08, 97.4483, -51.5279, 44.0335
1.816, 2, 35.9151, 48.1278, -14.08, 97.4483, -51.5278, 44.0335
1.82, 2, 35.9151, 48.1278, -14.08, 97.4483, -51.5278, 44.0335
1.824, 2, 35.9151, 48.1278, -14.08, 97.4483, -51.5278, 44.0335
1.828, 2, 35.9151, 48.1278, -14.08, 97.4483, -51.5278, 44.0335
1.832, 2, 35.9151, 48.1278, -14.08, 97.4483, -51.5278, 44.0335
1.836, 2, 35.9151, 48.1278, -14.08, 97.4483, -51.5278, 44.0335
1.84, 2, 35.9151, 48.1278, -14.08, 97.4483, -51.5278, 44.0335
1.844, 2, 35.9151, 48.1278, -14.08, 97.4483, -51.5278, 44.0335
1.848, 2, 35.9151, 48.1278, -14.08, 97.4483, -51.5278, 44.0335
1.852, 2, 35.9151, 48.1278, -14.08, 97.4483, -51.5278, 44.0335
1.856, 2, 35.9151, 48.1278, -14.08, 97.4483, -51.5278, 44.0335
1.86, 2, 35.9151, 48.1278, -14.08, 97.4483, -51.5278, 44.0335
1.864, 2, 35.9151, 48.1278, -14.08, 97.4483, -51.5278, 44.0335
1.868, 2, 35.9151, 48.1278, -14.08, 97.4483, -51.5278, 44.0335
1.872, 2, 35.9151, 48.1278, -14.08, 97.4483, -51.5278, 44.0335
1.876, 2, 35.9151, 48.1278, -14.08, 97.4483, -51.5278, 44.0335
1.88, 2, 35.9151, 48.1278, -14.08, 97.4483, -51.5278, 44.0335
1.884, 2, 35.9151, 48.1278, -14.08, 97.4483, -51.5278, 44.0335
1.888, 2, 35.9151, 48.1278, -14.08, 97.4483, -51.5278, 44.0335
1.892, 2, 35.9151, 48.1278, -14.08, 97.4483, -51.5278, 44.0335
1.896, 2, 35.9151, 48.1278, -14.08, 97.4483, -51.5278, 44.0335
1.9, 2, 35.9151, 48.1278, -14.08, 97.4483, -51.5278, 44.0335
1.904, 2, 35.9151, 48.1278, -14.08, 97.4483, -51.5278, 44.0335
1.908, 2, 35.9151, 48.1278, -14.08, 97.4483, -51.5278, 44.0335
1.912, 2, 35.9151, 48.1278, -14.08, 97.4483, -51.5278, 44.0335
1.916, 2, 35.9151, 48.1278, -14.08, 97.4483, -51.5278, 44.0335
1.92, 2, 35.9151, 48.1278, -14.08, 97.4483, -51.5278, 44.0335
1.924, 2, 35.9151, 48.1278, -14.08, 97.4483, -51.5278, 44.0335
1.928, 2, 35.9151, 48.1278, -14.08, 97.4483, -51.5278, 44.0335
1.932, 2, 35.9151, 48.1278, -14.08, 97.4483, -51.5278, 44.0335
1.936, 2, 35.9151, 48.1278, -14.08, 97.4483, -51.5278, 44.0335
1.94, 2, 35.9151, 48.1278, -14.08, 97.4483, -51.5278, 44.0335
1.944, 2, 35.9151, 48.1278, -14.08, 97.4483, -51.5278, 44.0335
1.948, 2, 35.9151, 48.1278, -14.08, 97.4483, -51.5278, 44.0335
1.952, 2, 35.9151, 48.1278, -14.08, 97.4483, -51.5278, 44.0335
1.956, 2, 35.9151, 48.1278, -14.08, 97.4483, -51.5278, 44.0335
1.96, 2, 35.9151, 48.1278, -14.08, 97.4483, -51.5278, 44.0335
1.964, 2, 35.9151, 48.1278, -14.08, 97.4483, -51.5278, 44.0335
1.968, 2, 35.9151, 48.1278, -14.08, 97.4483, -51.5278, 44.0335
1.972, 2, 35.9151, 48.1278, -14.08, 97.4483, -51.5278, 44.0335
1.976, 2, 35.9151, 48.1278, -14.08, 97.4483, -51.5278, 44.0335
1.98, 2, 35.9151, 48.1278, -14.08, 97.4483, -51.5278, 44.0335
1.984, 2, 35.9151, 48.1278, -14.08, 97.4483, -51.5278, 44.0335
1.988, 2, 35.9151, 48.1278, -14.08, 97.4483, -51.5278, 44.0335
1.992, 2, 35.9151, 48.1278, -14.08, 97.4483, -51.5278, 44.0335
1.996, 2, 35.9151, 48.1278, -14.08, 97.4483, -51.5278, 44.0335
1.999, 2, 35.9151, 48.1278, -14.08, 97.4483, -51.5278, 44.0335
2.004, 2, 35.9151, 48.1278, -14.08, 97.4483, -51.5278, 44.0335
2.008, 2, 35.9151, 48.1278, -14.08, 97.4483, -51.5278, 44.0335
2.012, 2, 35.9151, 48.1278, -14.08, 97.4483, -51.5278, 44.0335
2.015, 2, 35.9151, 48.1278, -14.08, 97.4483, -51.5278, 44.0335
2.019, 2, 35.9151, 48.1278, -14.08, 97.4483, -51.5278, 44.0335
2.024, 2, 35.9151, 48.1278, -14.08, 97.4483, -51.5278, 44.0335
2.028, 2, 35.9151, 48.1278, -14.08, 97.4483, -51.5278, 44.0335
2.031, 2, 35.9151, 48.1278, -14.08, 97.4483, -51.5278, 44.0335
2.036, 2, 35.9151, 48.1278, -14.08, 97.4483, -51.5278, 44.0335
2.04, 2, 35.9151, 48.1278, -14.08, 97.4483, -51.5278, 44.0335
2.044, 2, 35.9151, 48.1278, -14.08, 97.4483, -51.5278, 44.0335
2.048, 2, 35.9151, 48.1278, -14.08, 97.4483, -51.5278, 44.0335
2.051, 2, 35.9151, 48.1278, -14.08, 97.4483, -51.5278, 44.0335
2.055, 2, 35.9151, 48.1278, -14.08, 97.4483, -51.5278, 44.0335
2.06, 2, 35.9151, 48.1278, -14.08, 97.4483, -51.5278, 44.0335
2.064, 2, 35.9151, 48.1278, -14.08, 97.4483, -51.5278, 44.0335
2.068, 2, 35.9151, 48.1278, -14.08, 97.4483, -51.5278, 44.0335
2.071, 2, 35.9151, 48.1278, -14.08, 97.4483, -51.5278, 44.0335
2.076, 2, 35.9151, 48.1278, -14.08, 97.4483, -51.5278, 44.0335
2.08, 2, 35.9151, 48.1278, -14.08, 97.4483, -51.5278, 44.0335
2.084, 2, 35.9151, 48.1278, -14.08, 97.4483, -51.5278, 44.0335
2.087, 2, 35.9151, 48.1278, -14.08, 97.4483, -51.5278, 44.0335
2.092, 2, 35.9151, 48.1278, -14.08, 97.4483, -51.5278, 44.0335
2.096, 2, 35.9151, 48.1278, -14.08, 97.4483, -51.5278, 44.0335
2.1, 2, 35.9151, 48.1278, -14.08, 97.4483, -51.5278, 44.0335
2.104, 2, 35.9151, 48.1278, -14.08, 97.4483, -51.5278, 44.0335
2.107, 2, 35.9151, 48.1278, -14.08, 97.4483, -51.5278, 44.0335
2.111, 2, 35.9151, 48.1278, -14.08, 97.4483, -51.5278, 44.0335
2.116, 2, 35.9151, 48.1278, -14.08, 97.4483, -51.5278, 44.0335
2.12, 2, 35.9151, 48.1278, -14.08, 97.4483, -51.5278, 44.0335
2.124, 2, 35.9151, 48.1278, -14.08, 97.4483, -51.5278, 44.0335
2.127, 2, 35.9151, 48.1278, -14.08, 97.4483, -51.5278, 44.0335
2.132, 2, 35.9151, 48.1278, -14.08, 97.4483, -51.5278, 44.0335
2.136, 2, 35.9151, 48.1278, -14.08, 97.4483, -51.5278, 44.0335
2.14, 2, 35.9151, 48.1278, -14.08, 97.4483, -51.5278, 44.0335
2.143, 2, 35.9151, 48.1278, -14.08, 97.4483, -51.5278, 44.0335
2.148, 2, 35.9151, 48.1278, -14.08, 97.4483, -51.5278, 44.0335
2.152, 2, 35.9151, 48.1278, -14.08, 97.4483, -51.5278, 44.0335
2.156, 2, 35.9151, 48.1278, -14.08, 97.4483, -51.5278, 44.0335
2.16, 2, 35.9151, 48.1278, -14.08, 97.4483, -51.5278, 44.0335
2.163, 2, 35.9151, 48.1278, -14.08, 97.4483, -51.5278, 44.0335
2.168, 2, 35.9151, 48.1278, -14.08, 97.4483, -51.5278, 44.0335
2.172, 2, 35.9151, 48.1278, -14.08, 97.4483, -51.5278, 44.0335
2.176, 2, 35.9151, 48.1278, -14.08, 97.4483, -51.5278, 44.0335
2.179, 2, 35.9151, 48.1278, -14.08, 97.4483, -51.5278, 44.0335
2.184, 2, 35.9151, 48.1278, -14.08, 97.4483, -51.5278, 44.0335
2.188, 2, 35.9151, 48.1278, -14.08, 97.4483, -51.5278, 44.0335
2.192, 2, 35.9151, 48.1278, -14.08, 97.4483, -51.5278, 44.0335
2.196, 2, 35.9151, 48.1278, -14.08, 97.4483, -51.5278, 44.0335
2.199, 2, 35.9151, 48.1278, -14.08, 97.4483, -51.5278, 44.0335
2.204, 2, 35.9151, 48.1278, -14.08, 97.4483, -51.5278, 44.0335
2.208, 2, 35.9151, 48.1278, -14.08, 97.4483, -51.5278, 44.0335
2.212, 2, 35.9151, 48.1278, -14.08, 97.4483, -51.5278, 44.0335
2.216, 2, 35.9151, 48.1278, -14.08, 97.4483, -51.5278, 44.0335
2.219, 2, 35.9151, 48.1278, -14.08, 97.4483, -51.5278, 44.0335
2.224, 2, 35.9151, 48.1278, -14.08, 97.4483, -51.5278, 44.0335
2.228, 2, 35.9151, 48.1278, -14.08, 97.4483, -51.5278, 44.0335
2.232, 2, 35.9151, 48.1278, -14.08, 97.4483, -51.5278, 44.0335
2.235, 2, 35.9151, 48.1278, -14.08, 97.4483, -51.5278, 44.0335
2.24, 2, 35.9151, 48.1278, -14.08, 97.4483, -51.5278, 44.0335
2.244, 2, 35.9151, 48.1278, -14.08, 97.4483, -51.5278, 44.0335
2.248, 2, 35.9151, 48.1278, -14.08, 97.4483, -51.5278, 44.0335
2.252, 2, 35.9151, 48.1278, -14.08, 97.4483, -51.5278, 44.0335
2.255, 2, 35.9151, 48.1278, -14.08, 97.4483, -51.5278, 44.0335
2.259, 2, 35.9151, 48.1278, -14.08, 97.4483, -51.5278, 44.0335
2.264, 2, 35.9151, 48.1278, -14.08, 97.4483, -51.5278, 44.0335
2.268, 2, 35.9151, 48.1278, -14.08, 97.4483, -51.5278, 44.0335
2.272, 2, 35.9151, 48.1278, -14.08, 97.4483, -51.5278, 44.0335
2.275, 2, 35.9151, 48.1278, -14.08, 97.4483, -51.5278, 44.0335
2.28, 2, 35.9151, 48.1278, -14.08, 97.4483, -51.5278, 44.0335
2.284, 2, 35.9151, 48.1278, -14.08, 97.4483, -51.5278, 44.0335
2.288, 2, 35.9151, 48.1278, -14.08, 97.4483, -51.5278, 44.0335
2.291, 2, 35.9151, 48.1278, -14.08, 97.4483, -51.5278, 44.0335
2.296, 2, 35.9151, 48.1278, -14.08, 97.4483, -51.5278, 44.0335
2.3, 2, 35.9151, 48.1278, -14.08, 97.4483, -51.5278, 44.0335
2.304, 2, 35.9151, 48.1278, -14.08, 97.4483, -51.5278, 44.0335
2.308, 2, 35.9151, 48.1278, -14.08, 97.4483, -51.5278, 44.0335
2.311, 2, 35.9151, 48.1278, -14.08, 97.4483, -51.5278, 44.0335
2.316, 2, 35.9151, 48.1278, -14.08, 97.4483, -51.5278, 44.0335
2.32, 2, 35.9151, 48.1278, -14.08, 97.4483, -51.5278, 44.0335
2.324, 2, 35.9151, 48.1278, -14.08, 97.4483, -51.5278, 44.0335
2.328, 2, 35.9151, 48.1278, -14.08, 97.4483, -51.5278, 44.0335
2.331, 2, 35.9151, 48.1278, -14.08, 97.4483, -51.5278, 44.0335
2.336, 2, 35.9151, 48.1278, -14.08, 97.4483, -51.5278, 44.0335
2.34, 2, 35.9151, 48.1278, -14.08, 97.4483, -51.5278, 44.0335
2.344, 2, 35.9151, 48.1278, -14.08, 97.4483, -51.5278, 44.0335
2.347, 2, 35.9151, 48.1278, -14.08, 97.4483, -51.5278, 44.0335
2.352, 2, 35.9151, 48.1278, -14.08, 97.4483, -51.5278, 44.0335
2.356, 2, 35.9151, 48.1278, -14.08, 97.4483, -51.5278, 44.0335
2.36, 2, 35.9151, 48.1278, -14.08, 97.4483, -51.5278, 44.0335
2.364, 2, 35.9151, 48.1278, -14.08, 97.4483, -51.5278, 44.0335
2.367, 2, 35.9151, 48.1278, -14.08, 97.4483, -51.5278, 44.0335
2.372, 2, 35.9151, 48.1278, -14.08, 97.4483, -51.5278, 44.0335
2.376, 2, 35.9151, 48.1278, -14.08, 97.4483, -51.5278, 44.0335
2.38, 2, 35.9151, 48.1278, -14.08, 97.4483, -51.5278, 44.0335
2.383, 2, 35.9151, 48.1278, -14.08, 97.4483, -51.5278, 44.0335
2.388, 2, 35.9151, 48.1278, -14.08, 97.4483, -51.5278, 44.0335
2.392, 2, 35.9151, 48.1278, -14.08, 97.4483, -51.5278, 44.0335
2.396, 2, 35.9151, 48.1278, -14.08, 97.4483, -51.5278, 44.0335
2.4, 2, 35.9151, 48.1278, -14.08, 97.4483, -51.5278, 44.0335
2.403, 2, 35.9151, 48.1278, -14.08, 97.4483, -51.5278, 44.0335
2.408, 2, 35.9151, 48.1278, -14.08, 97.4483, -51.5278, 44.0335
2.412, 2, 35.9151, 48.1278, -14.08, 97.4483, -51.5278, 44.0335
2.416, 2, 35.9151, 48.1278, -14.08, 97.4483, -51.5278, 44.0335
2.42, 2, 35.9151, 48.1278, -14.08, 97.4483, -51.5278, 44.0335
2.423, 2, 35.9151, 48.1278, -14.08, 97.4483, -51.5278, 44.0335
2.428, 2, 35.9151, 48.1278, -14.08, 97.4483, -51.5278, 44.0335
2.432, 2, 35.9151, 48.1278, -14.08, 97.4483, -51.5278, 44.0335
2.436, 2, 35.9151, 48.1278, -14.08, 97.4483, -51.5278, 44.0335
2.439, 2, 35.9151, 48.1278, -14.08, 97.4483, -51.5278, 44.0335
2.444, 2, 35.9151, 48.1278, -14.08, 97.4483, -51.5278, 44.0335
2.448, 2, 35.9151, 48.1278, -14.08, 97.4483, -51.5278, 44.0335
2.452, 2, 35.9151, 48.1278, -14.08, 97.4483, -51.5278, 44.0335
2.456, 2, 35.9151, 48.1278, -14.08, 97.4483, -51.5278, 44.0335
2.459, 2, 35.9151, 48.1278, -14.08, 97.4483, -51.5278, 44.0335
2.464, 2, 35.9151, 48.1278, -14.08, 97.4483, -51.5278, 44.0335
2.468, 2, 35.9151, 48.1278, -14.08, 97.4483, -51.5278, 44.0335
2.472, 2, 35.9151, 48.1278, -14.08, 97.4483, -51.5278, 44.0335
2.476, 2, 35.9151, 48.1278, -14.08, 97.4483, -51.5278, 44.0335
2.479, 2, 35.9151, 48.1278, -14.08, 97.4483, -51.5278, 44.0335
2.484, 2, 35.9151, 48.1278, -14.08, 97.4483, -51.5278, 44.0335
2.488, 2, 35.9151, 48.1278, -14.08, 97.4483, -51.5278, 44.0335
2.492, 2, 35.9151, 48.1278, -14.08, 97.4483, -51.5278, 44.0335
2.495, 2, 35.9151, 48.1278, -14.08, 97.4483, -51.5278, 44.0335
2.5, 2, 35.9151, 48.1278, -14.08, 97.4483, -51.5278, 44.0335
2.504, 2, 35.9151, 48.1278, -14.08, 97.4483, -51.5278, 44.0335
2.508, 2, 35.9151, 48.1278, -14.08, 97.4483, -51.5278, 44.0335
2.512, 2, 35.9151, 48.1278, -14.08, 97.4483, -51.5278, 44.0335
2.515, 2, 35.9151, 48.1278, -14.08, 97.4483, -51.5278, 44.0335
2.52, 2, 35.9151, 48.1278, -14.08, 97.4483, -51.5278, 44.0335
2.524, 2, 35.9151, 48.1278, -14.08, 97.4483, -51.5278, 44.0335
2.528, 2, 35.9151, 48.1278, -14.08, 97.4483, -51.5278, 44.0335
2.531, 2, 35.9151, 48.1278, -14.08, 97.4483, -51.5278, 44.0335
2.536, 2, 35.9151, 48.1278, -14.08, 97.4483, -51.5278, 44.0335
2.54, 2, 35.9151, 48.1278, -14.08, 97.4483, -51.5278, 44.0335
2.544, 2, 35.9151, 48.1278, -14.08, 97.4483, -51.5278, 44.0335
2.548, 2, 35.9151, 48.1278, -14.08, 97.4483, -51.5278, 44.0335
2.551, 2, 35.9151, 48.1278, -14.08, 97.4483, -51.5278, 44.0335
2.556, 2, 35.9151, 48.1278, -14.08, 97.4483, -51.5278, 44.0335
2.56, 2, 35.9151, 48.1278, -14.08, 97.4483, -51.5278, 44.0335
2.564, 2, 35.9151, 48.1278, -14.08, 97.4483, -51.5278, 44.0335
2.568, 2, 35.9151, 48.1278, -14.08, 97.4483, -51.5278, 44.0335
2.571, 2, 35.9151, 48.1278, -14.08, 97.4483, -51.5278, 44.0335
2.576, 2, 35.9151, 48.1278, -14.08, 97.4483, -51.5278, 44.0335
2.58, 2, 35.9151, 48.1278, -14.08, 97.4483, -51.5278, 44.0335
2.584, 2, 35.9151, 48.1278, -14.08, 97.4483, -51.5278, 44.0335
2.587, 2, 35.9151, 48.1278, -14.08, 97.4483, -51.5278, 44.0335
2.592, 2, 35.9151, 48.1278, -14.08, 97.4483, -51.5278, 44.0335
2.596, 2, 35.9151, 48.1278, -14.08, 97.4483, -51.5278, 44.0335
2.6, 2, 35.9151, 48.1278, -14.08, 97.4483, -51.5278, 44.0335
2.604, 2, 35.9151, 48.1278, -14.08, 97.4483, -51.5278, 44.0335
2.607, 2, 35.9151, 48.1278, -14.08, 97.4483, -51.5278, 44.0335
2.612, 2, 35.9151, 48.1278, -14.08, 97.4483, -51.5278, 44.0335
2.616, 2, 35.9151, 48.1278, -14.08, 97.4483, -51.5278, 44.0335
2.62, 2, 35.9151, 48.1278, -14.08, 97.4483, -51.5278, 44.0335
2.624, 2, 35.9151, 48.1278, -14.08, 97.4483, -51.5278, 44.0335
2.627, 2, 35.9151, 48.1278, -14.08, 97.4483, -51.5278, 44.0335
2.632, 2, 35.9151, 48.1278, -14.08, 97.4483, -51.5278, 44.0335
2.636, 2, 35.9151, 48.1278, -14.08, 97.4483, -51.5278, 44.0335
2.64, 2, 35.9151, 48.1278, -14.08, 97.4483, -51.5278, 44.0335
2.643, 2, 35.9151, 48.1278, -14.08, 97.4483, -51.5278, 44.0335
2.648, 2, 35.9151, 48.1278, -14.08, 97.4483, -51.5278, 44.0335
2.652, 2, 35.9151, 48.1278, -14.08, 97.4483, -51.5278, 44.0335
2.656, 2, 35.9151, 48.1278, -14.08, 97.4483, -51.5278, 44.0335
2.66, 2, 35.9151, 48.1278, -14.08, 97.4483, -51.5278, 44.0335
2.663, 2, 35.9151, 48.1278, -14.08, 97.4483, -51.5278, 44.0335
2.668, 2, 35.9151, 48.1278, -14.08, 97.4483, -51.5278, 44.0335
2.672, 2, 35.9151, 48.1278, -14.08, 97.4483, -51.5278, 44.0335
2.676, 2, 35.9151, 48.1278, -14.08, 97.4483, -51.5278, 44.0335
2.679, 2, 35.9151, 48.1278, -14.08, 97.4483, -51.5278, 44.0335
2.684, 2, 35.9151, 48.1278, -14.08, 97.4483, -51.5278, 44.0335
2.688, 2, 35.9151, 48.1278, -14.08, 97.4483, -51.5278, 44.0335
2.692, 2, 35.9151, 48.1278, -14.08, 97.4483, -51.5278, 44.0335
2.696, 2, 35.9151, 48.1278, -14.08, 97.4483, -51.5278, 44.0335
2.699, 2, 35.9151, 48.1278, -14.08, 97.4483, -51.5278, 44.0335
2.704, 2, 35.9151, 48.1278, -14.08, 97.4483, -51.5278, 44.0335
2.708, 2, 35.9151, 48.1278, -14.08, 97.4483, -51.5278, 44.0335
2.712, 2, 35.9151, 48.1278, -14.08, 97.4483, -51.5278, 44.0335
2.716, 2, 35.9151, 48.1278, -14.08, 97.4483, -51.5278, 44.0335
2.719, 2, 35.9151, 48.1278, -14.08, 97.4483, -51.5278, 44.0335
2.724, 2, 35.9151, 48.1278, -14.08, 97.4483, -51.5278, 44.0335
2.728, 2, 35.9151, 48.1278, -14.08, 97.4483, -51.5278, 44.0335
2.732, 2, 35.9151, 48.1278, -14.08, 97.4483, -51.5278, 44.0335
2.735, 2, 35.9151, 48.1278, -14.08, 97.4483, -51.5278, 44.0335
2.74, 2, 35.9151, 48.1278, -14.08, 97.4483, -51.5278, 44.0335
2.744, 2, 35.9151, 48.1278, -14.08, 97.4483, -51.5278, 44.0335
2.748, 2, 35.9151, 48.1278, -14.08, 97.4483, -51.5278, 44.0335
2.752, 2, 35.9151, 48.1278, -14.08, 97.4483, -51.5278, 44.0335
2.755, 2, 35.9151, 48.1278, -14.08, 97.4483, -51.5278, 44.0335
2.76, 2, 35.9151, 48.1278, -14.08, 97.4483, -51.5278, 44.0335
2.764, 2, 35.9151, 48.1278, -14.08, 97.4483, -51.5278, 44.0335
2.768, 2, 35.9151, 48.1278, -14.08, 97.4483, -51.5278, 44.0335
2.772, 2, 35.9151, 48.1278, -14.08, 97.4483, -51.5278, 44.0335
2.775, 2, 35.9151, 48.1278, -14.08, 97.4483, -51.5278, 44.0335
2.78, 2, 35.9151, 48.1278, -14.08, 97.4483, -51.5278, 44.0335
2.784, 2, 35.9151, 48.1278, -14.08, 97.4483, -51.5278, 44.0335
2.788, 2, 35.9151, 48.1278, -14.08, 97.4483, -51.5278, 44.0335
2.791, 2, 35.9151, 48.1278, -14.08, 97.4483, -51.5278, 44.0335
2.796, 2, 35.9151, 48.1278, -14.08, 97.4483, -51.5278, 44.0335
2.8, 2, 35.9151, 48.1278, -14.08, 97.4483, -51.5278, 44.0335
2.804, 2, 35.9151, 48.1278, -14.08, 97.4483, -51.5278, 44.0335
2.808, 4, 35.9151, 48.1278, -14.08, 97.4483, -51.5278, 44.0335
2.811, 4, 35.9151, 48.1278, -14.08, 97.4483, -51.5278, 44.0335
2.816, 4, 35.9151, 48.1278, -14.08, 97.4483, -51.5278, 44.0335
2.82, 4, 35.9151, 48.1278, -14.08, 97.4483, -51.5278, 44.0335
2.824, 4, 35.9151, 48.1278, -14.08, 97.4483, -51.5278, 44.0335
2.828, 4, 35.9151, 48.1278, -14.08, 97.4483, -51.5278, 44.0335
2.831, 4, 35.9151, 48.1278, -14.08, 97.4483, -51.5278, 44.0335
2.836, 4, 35.9151, 48.1278, -14.08, 97.4483, -51.5278, 44.0335
2.84, 4, 35.9151, 48.1278, -14.08, 97.4483, -51.5278, 44.0335
2.844, 4, 35.9151, 48.1278, -14.08, 97.4483, -51.5278, 44.0335
2.847, 4, 35.9151, 48.1278, -14.08, 97.4483, -51.5278, 44.0335
2.852, 4, 35.9151, 48.1278, -14.08, 97.4483, -51.5278, 44.0335
2.856, 4, 35.9151, 48.1278, -14.08, 97.4483, -51.5278, 44.0335
2.86, 4, 35.9151, 48.1278, -14.08, 97.4483, -51.5278, 44.0335
2.864, 4, 35.9151, 48.1278, -14.08, 97.4483, -51.5278, 44.0335
2.867, 4, 35.9151, 48.1278, -14.08, 97.4483, -51.5278, 44.0335
2.872, 4, 35.9151, 48.1278, -14.08, 97.4483, -51.5278, 44.0335
2.876, 4, 35.9151, 48.1278, -14.08, 97.4483, -51.5278, 44.0335
2.88, 4, 35.9151, 48.1278, -14.08, 97.4483, -51.5278, 44.0335
2.883, 4, 35.9151, 48.1278, -14.08, 97.4483, -51.5278, 44.0335
2.888, 4, 35.9151, 48.1278, -14.08, 97.4483, -51.5278, 44.0335
2.892, 4, 35.9151, 48.1278, -14.08, 97.4483, -51.5278, 44.0335
2.896, 4, 35.9151, 48.1278, -14.08, 97.4483, -51.5278, 44.0335
2.9, 4, 35.9151, 48.1278, -14.08, 97.4483, -51.5278, 44.0335
2.903, 4, 35.9151, 48.1278, -14.08, 97.4483, -51.5278, 44.0335
2.908, 4, 35.9151, 48.1278, -14.08, 97.4483, -51.5278, 44.0335
2.912, 4, 35.9151, 48.1278, -14.08, 97.4483, -51.5278, 44.0335
2.916, 4, 35.9151, 48.1278, -14.08, 97.4483, -51.5278, 44.0335
2.92, 4, 35.9151, 48.1278, -14.08, 97.4483, -51.5278, 44.0335
2.923, 4, 35.9151, 48.1278, -14.08, 97.4483, -51.5278, 44.0335
2.928, 4, 35.9151, 48.1278, -14.08, 97.4483, -51.5278, 44.0335
2.932, 4, 35.9151, 48.1278, -14.08, 97.4483, -51.5278, 44.0335
2.936, 4, 35.9151, 48.1278, -14.08, 97.4483, -51.5278, 44.0335
2.939, 4, 35.9151, 48.1278, -14.08, 97.4483, -51.5278, 44.0335
2.944, 4, 35.9148, 48.1277, -14.08, 97.4483, -51.5279, 44.0335
2.948, 4, 35.9142, 48.1276, -14.0799, 97.4482, -51.5279, 44.0335
2.952, 4, 35.9132, 48.1273, -14.0797, 97.4482, -51.528, 44.0336
2.956, 4, 35.9115, 48.1268, -14.0792, 97.448, -51.5283, 44.0336
2.959, 4, 35.9092, 48.1259, -14.0783, 97.4476, -51.5288, 44.0337
2.964, 4, 35.9062, 48.1245, -14.0767, 97.4468, -51.5297, 44.0339
2.968, 4, 35.9026, 48.1226, -14.0741, 97.4456, -51.5311, 44.0342
2.972, 4, 35.8984, 48.12, -14.0701, 97.4436, -51.5333, 44.0348
2.976, 4, 35.8936, 48.1166, -14.0643, 97.4406, -51.5367, 44.0356
2.98, 5, 35.8883, 48.1123, -14.0561, 97.4363, -51.5413, 44.0367
2.984, 5, 35.8823, 48.107, -14.045, 97.4303, -51.5477, 44.0383
2.988, 5, 35.8756, 48.1004, -14.0306, 97.4225, -51.556, 44.0404
2.992, 5, 35.8682, 48.0926, -14.0121, 97.4125, -51.5666, 44.0432
2.995, 5, 35.8601, 48.0834, -13.9892, 97.3999, -51.5799, 44.0466
3, 5, 35.8514, 48.0727, -13.9613, 97.3846, -51.596, 44.0507
3.004, 5, 35.8422, 48.0604, -13.9283, 97.3662, -51.6152, 44.0556
3.008, 5, 35.8325, 48.0465, -13.8897, 97.3448, -51.6377, 44.0614
3.012, 5, 35.8223, 48.031, -13.8457, 97.3201, -51.6634, 44.0681
3.015, 5, 35.8115, 48.014, -13.7962, 97.2924, -51.6923, 44.0755
3.02, 5, 35.8001, 47.9953, -13.7414, 97.2616, -51.7244, 44.0838
3.024, 5, 35.788, 47.9752, -13.6817, 97.2281, -51.7594, 44.0928
3.028, 5, 35.7752, 47.9537, -13.6174, 97.1919, -51.7971, 44.1025
3.031, 5, 35.7617, 47.9308, -13.5491, 97.1535, -51.8373, 44.1128
3.036, 5, 35.7475, 47.9067, -13.4773, 97.1131, -51.8796, 44.1236
3.04, 5, 35.7327, 47.8816, -13.4024, 97.0709, -51.9237, 44.1348
3.044, 5, 35.7174, 47.8555, -13.3251, 97.0274, -51.9694, 44.1464
3.048, 5, 35.7013, 47.8287, -13.2458, 96.9828, -52.0163, 44.1582
3.051, 5, 35.6845, 47.8011, -13.165, 96.9374, -52.0641, 44.1702
3.056, 5, 35.6669, 47.773, -13.0831, 96.8913, -52.1128, 44.1824
3.06, 5, 35.6486, 47.7445, -13.0004, 96.8448, -52.1619, 44.1946
3.064, 5, 35.6296, 47.7157, -12.9171, 96.7981, -52.2115, 44.2069
3.068, 5, 35.61, 47.6868, -12.8336, 96.7512, -52.2613, 44.2191
3.071, 5, 35.5899, 47.6577, -12.7498, 96.7041, -52.3114, 44.2314
3.076, 5, 35.5696, 47.6287, -12.666, 96.657, -52.3616, 44.2437
3.08, 5, 35.549, 47.5997, -12.5822, 96.6099, -52.4119, 44.2559
3.084, 5, 35.5283, 47.5707, -12.4984, 96.5628, -52.4622, 44.2681
3.087, 5, 35.5074, 47.5419, -12.4147, 96.5157, -52.5127, 44.2802
3.092, 5, 35.4865, 47.5131, -12.3311, 96.4687, -52.5632, 44.2923
3.096, 5, 35.4655, 47.4844, -12.2476, 96.4217, -52.6137, 44.3044
3.1, 5, 35.4444, 47.4558, -12.1642, 96.3747, -52.6643, 44.3164
3.104, 5, 35.4233, 47.4274, -12.0809, 96.3278, -52.715, 44.3284
3.107, 5, 35.4021, 47.399, -11.9977, 96.2809, -52.7656, 44.3404
3.112, 5, 35.3809, 47.3708, -11.9147, 96.234, -52.8163, 44.3523
3.116, 5, 35.3596, 47.3427, -11.8318, 96.1872, -52.867, 44.3641
3.12, 5, 35.3384, 47.3147, -11.749, 96.1405, -52.9178, 44.3759
3.124, 5, 35.317, 47.2868, -11.6663, 96.0938, -52.9685, 44.3877
3.128, 5, 35.2957, 47.259, -11.5838, 96.0471, -53.0193, 44.3994
3.132, 5, 35.2743, 47.2314, -11.5014, 96.0005, -53.0701, 44.4111
3.136, 5, 35.2528, 47.2039, -11.4192, 95.9539, -53.121, 44.4228
3.14, 5, 35.2314, 47.1765, -11.337, 95.9074, -53.1719, 44.4344
3.143, 5, 35.2098, 47.1492, -11.255, 95.8609, -53.2228, 44.4459
3.148, 5, 35.1883, 47.122, -11.1731, 95.8145, -53.2737, 44.4574
3.152, 5, 35.1667, 47.095, -11.0914, 95.7681, -53.3247, 44.4689
3.156, 5, 35.1451, 47.068, -11.0098, 95.7218, -53.3757, 44.4803
3.16, 5, 35.1235, 47.0412, -10.9283, 95.6755, -53.4267, 44.4917
3.163, 5, 35.1018, 47.0145, -10.8469, 95.6293, -53.4777, 44.5031
3.168, 5, 35.0801, 46.9879, -10.7657, 95.5831, -53.5288, 44.5144
3.172, 5, 35.0583, 46.9615, -10.6846, 95.5369, -53.5799, 44.5257
3.176, 5, 35.0365, 46.9351, -10.6036, 95.4908, -53.631, 44.537
3.179, 5, 35.0147, 46.9089, -10.5227, 95.4447, -53.6821, 44.5482
3.184, 5, 34.9928, 46.8828, -10.442, 95.3987, -53.7333, 44.5593
3.188, 5, 34.9709, 46.8568, -10.3614, 95.3527, -53.7845, 44.5705
3.192, 5, 34.949, 46.8309, -10.2809, 95.3068, -53.8357, 44.5816
3.196, 5, 34.927, 46.8052, -10.2006, 95.2609, -53.887, 44.5926
3.199, 5, 34.905, 46.7795, -10.1203, 95.215, -53.9383, 44.6036
3.204, 5, 34.883, 46.754, -10.0402, 95.1692, -53.9896, 44.6146
3.208, 5, 34.8609, 46.7286, -9.96025, 95.1234, -54.0409, 44.6256
3.212, 5, 34.8388, 46.7033, -9.88039, 95.0777, -54.0922, 44.6365
3.216, 5, 34.8166, 46.6781, -9.80066, 95.032, -54.1436, 44.6474
3.22, 5, 34.7945, 46.6531, -9.72104, 94.9863, -54.195, 44.6583
3.224, 5, 34.7722, 46.6281, -9.64155, 94.9407, -54.2464, 44.6691
3.228, 5, 34.75, 46.6033, -9.56218, 94.8951, -54.2979, 44.6799
3.232, 5, 34.7277, 46.5786, -9.48294, 94.8496, -54.3494, 44.6906
3.235, 5, 34.7053, 46.554, -9.40381, 94.8041, -54.4009, 44.7013
3.24, 5, 34.683, 46.5295, -9.32481, 94.7586, -54.4524, 44.712
3.244, 5, 34.6606, 46.5052, -9.24592, 94.7132, -54.504, 44.7227
3.248, 5, 34.6381, 46.4809, -9.16716, 94.6678, -54.5555, 44.7333
3.252, 5, 34.6157, 46.4568, -9.08852, 94.6225, -54.6072, 44.7439
3.255, 5, 34.5931, 46.4328, -9.01, 94.5771, -54.6588, 44.7544
3.26, 5, 34.5706, 46.4089, -8.9316, 94.5319, -54.7104, 44.765
3.264, 5, 34.548, 46.3851, -8.85332, 94.4866, -54.7621, 44.7755
3.268, 5, 34.5254, 46.3614, -8.77516, 94.4414, -54.8138, 44.7859
3.272, 5, 34.5027, 46.3378, -8.69712, 94.3963, -54.8656, 44.7964
3.276, 5, 34.48, 46.3144, -8.61919, 94.3511, -54.9173, 44.8068
3.28, 5, 34.4573, 46.2911, -8.54139, 94.306, -54.9691, 44.8172
3.284, 5, 34.4345, 46.2678, -8.46371, 94.261, -55.0209, 44.8275
3.288, 5, 34.4117, 46.2447, -8.38614, 94.216, -55.0727, 44.8378
3.291, 5, 34.3888, 46.2218, -8.30869, 94.171, -55.1246, 44.8481
3.296, 5, 34.366, 46.1989, -8.23135, 94.126, -55.1765, 44.8584
3.3, 5, 34.343, 46.1761, -8.15414, 94.0811, -55.2284, 44.8686
3.304, 5, 34.3201, 46.1535, -8.07704, 94.0362, -55.2803, 44.8788
3.308, 5, 34.2971, 46.1309, -8.00006, 93.9914, -55.3323, 44.889
3.312, 5, 34.274, 46.1085, -7.9232, 93.9466, -55.3842, 44.8992
3.316, 5, 34.2509, 46.0862, -7.84645, 93.9018, -55.4363, 44.9093
3.32, 5, 34.2278, 46.064, -7.76982, 93.857, -55.4883, 44.9194
3.324, 5, 34.2047, 46.042, -7.6933, 93.8123, -55.5403, 44.9295
3.328, 5, 34.1815, 46.02, -7.6169, 93.7676, -55.5924, 44.9396
3.332, 5, 34.1583, 45.9982, -7.54062, 93.723, -55.6445, 44.9496
3.336, 5, 34.135, 45.9764, -7.46445, 93.6784, -55.6967, 44.9596
3.34, 5, 34.1117, 45.9548, -7.38839, 93.6338, -55.7488, 44.9696
3.344, 5, 34.0883, 45.9333, -7.31245, 93.5892, -55.801, 44.9795
3.347, 5, 34.065, 45.9119, -7.23662, 93.5447, -55.8532, 44.9895
3.352, 5, 34.0415, 45.8906, -7.16091, 93.5002, -55.9054, 44.9994
3.356, 5, 34.0181, 45.8694, -7.08531, 93.4557, -55.9577, 45.0092
3.36, 5, 33.9946, 45.8484, -7.00983, 93.4113, -56.0099, 45.0191
3.364, 5, 33.9711, 45.8274, -6.93446, 93.3669, -56.0622, 45.0289
3.368, 5, 33.9475, 45.8066, -6.8592, 93.3225, -56.1146, 45.0387
3.372, 5, 33.9239, 45.7859, -6.78406, 93.2782, -56.1669, 45.0485
3.376, 5, 33.9002, 45.7653, -6.70903, 93.2339, -56.2193, 45.0583
3.38, 5, 33.8765, 45.7448, -6.63411, 93.1896, -56.2717, 45.0681
3.383, 5, 33.8528, 45.7244, -6.5593, 93.1453, -56.3241, 45.0778
3.388, 5, 33.829, 45.7041, -6.48461, 93.1011, -56.3766, 45.0875
3.392, 5, 33.8052, 45.684, -6.41003, 93.0569, -56.429, 45.0972
3.396, 5, 33.7814, 45.6639, -6.33556, 93.0128, -56.4815, 45.1068
3.4, 5, 33.7575, 45.644, -6.2612, 92.9686, -56.534, 45.1165
3.403, 5, 33.7336, 45.6242, -6.18695, 92.9245, -56.5866, 45.1261
3.408, 5, 33.7096, 45.6045, -6.11281, 92.8804, -56.6391, 45.1357
3.412, 5, 33.6856, 45.5849, -6.03879, 92.8364, -56.6917, 45.1453
3.416, 5, 33.6615, 45.5654, -5.96487, 92.7924, -56.7444, 45.1548
3.42, 5, 33.6375, 45.546, -5.89107, 92.7483, -56.797, 45.1644
3.424, 5, 33.6133, 45.5268, -5.81738, 92.7044, -56.8497, 45.1739
3.428, 5, 33.5892, 45.5076, -5.74379, 92.6604, -56.9023, 45.1834
3.432, 5, 33.565, 45.4886, -5.67032, 92.6165, -56.9551, 45.1929
3.436, 5, 33.5407, 45.4696, -5.59696, 92.5726, -57.0078, 45.2023
3.439, 5, 33.5164, 45.4508, -5.5237, 92.5287, -57.0606, 45.2118
3.444, 5, 33.4921, 45.4321, -5.45056, 92.4849, -57.1133, 45.2212
3.448, 5, 33.4678, 45.4135, -5.37752, 92.4411, -57.1661, 45.2306
3.452, 5, 33.4433, 45.3951, -5.3046, 92.3973, -57.219, 45.24
3.456, 5, 33.4189, 45.3767, -5.23178, 92.3535, -57.2718, 45.2494
3.46, 5, 33.3944, 45.3584, -5.15907, 92.3098, -57.3247, 45.2588
3.464, 5, 33.3699, 45.3403, -5.08647, 92.2661, -57.3776, 45.2681
3.468, 5, 33.3453, 45.3223, -5.01398, 92.2224, -57.4305, 45.2774
3.472, 5, 33.3207, 45.3043, -4.9416, 92.1787, -57.4835, 45.2867
3.476, 5, 33.2961, 45.2865, -4.86932, 92.1351, -57.5365, 45.296
3.48, 5, 33.2714, 45.2688, -4.79715, 92.0915, -57.5895, 45.3053
3.484, 5, 33.2467, 45.2512, -4.72509, 92.0479, -57.6425, 45.3146
3.488, 5, 33.2219, 45.2338, -4.65314, 92.0043, -57.6955, 45.3238
3.492, 5, 33.1971, 45.2164, -4.5813, 91.9607, -57.7486, 45.333
3.495, 5, 33.1722, 45.1991, -4.50956, 91.9172, -57.8017, 45.3423
3.5, 5, 33.1473, 45.182, -4.43793, 91.8737, -57.8548, 45.3515
3.504, 5, 33.1224, 45.1649, -4.36641, 91.8302, -57.908, 45.3606
3.508, 5, 33.0974, 45.148, -4.295, 91.7868, -57.9611, 45.3698
3.512, 5, 33.0724, 45.1312, -4.22369, 91.7434, -58.0143, 45.379
3.516, 5, 33.0474, 45.1145, -4.15249, 91.7, -58.0675, 45.3881
3.52, 5, 33.0223, 45.0979, -4.08139, 91.6566, -58.1208, 45.3972
3.524, 5, 32.9971, 45.0814, -4.0104, 91.6132, -58.174, 45.4064
3.528, 5, 32.972, 45.0651, -3.93952, 91.5699, -58.2273, 45.4155
3.531, 5, 32.9467, 45.0488, -3.86874, 91.5265, -58.2806, 45.4245
3.536, 5, 32.9215, 45.0327, -3.79807, 91.4832, -58.334, 45.4336
3.54, 5, 32.8962, 45.0166, -3.72751, 91.44, -58.3873, 45.4427
3.544, 5, 32.8708, 45.0007, -3.65705, 91.3967, -58.4407, 45.4517
3.548, 5, 32.8454, 44.9849, -3.5867, 91.3535, -58.4941, 45.4608
3.552, 5, 32.82, 44.9692, -3.51645, 91.3103, -58.5476, 45.4698
3.556, 5, 32.7945, 44.9536, -3.44631, 91.2671, -58.601, 45.4788
3.56, 5, 32.769, 44.9381, -3.37627, 91.2239, -58.6545, 45.4878
3.564, 5, 32.7435, 44.9227, -3.30634, 91.1807, -58.708, 45.4968
3.568, 5, 32.7179, 44.9075, -3.23651, 91.1376, -58.7616, 45.5058
3.572, 5, 32.6922, 44.8923, -3.16679, 91.0945, -58.8151, 45.5147
3.576, 5, 32.6665, 44.8773, -3.09718, 91.0514, -58.8687, 45.5237
3.58, 5, 32.6408, 44.8623, -3.02766, 91.0083, -58.9223, 45.5326
3.584, 5, 32.615, 44.8475, -2.95826, 90.9653, -58.9759, 45.5415
3.587, 5, 32.5892, 44.8328, -2.88895, 90.9223, -59.0296, 45.5505
3.592, 5, 32.5634, 44.8182, -2.81976, 90.8792, -59.0833, 45.5594
3.596, 5, 32.5375, 44.8037, -2.75066, 90.8363, -59.137, 45.5683
3.6, 5, 32.5116, 44.7893, -2.68167, 90.7933, -59.1907, 45.5772
3.604, 5, 32.4856, 44.7751, -2.61278, 90.7503, -59.2445, 45.586
3.608, 5, 32.4595, 44.7609, -2.544, 90.7074, -59.2982, 45.5949
3.612, 5, 32.4335, 44.7469, -2.47532, 90.6645, -59.352, 45.6037
3.616, 5, 32.4074, 44.7329, -2.40675, 90.6216, -59.4059, 45.6126
3.62, 5, 32.3812, 44.7191, -2.33828, 90.5787, -59.4597, 45.6214
3.624, 5, 32.355, 44.7054, -2.26991, 90.5358, -59.5136, 45.6303
3.628, 5, 32.3288, 44.6918, -2.20165, 90.493, -59.5675, 45.6391
3.632, 5, 32.3025, 44.6783, -2.13349, 90.4502, -59.6214, 45.6479
3.636, 5, 32.2762, 44.6649, -2.06543, 90.4074, -59.6754, 45.6567
3.64, 5, 32.2498, 44.6516, -1.99748, 90.3646, -59.7294, 45.6655
3.644, 5, 32.2234, 44.6384, -1.92963, 90.3218, -59.7834, 45.6742
3.648, 5, 32.1969, 44.6254, -1.86188, 90.2791, -59.8374, 45.683
3.652, 5, 32.1704, 44.6124, -1.79423, 90.2363, -59.8914, 45.6918
3.656, 5, 32.1439, 44.5996, -1.72669, 90.1936, -59.9455, 45.7005
3.66, 5, 32.1173, 44.5869, -1.65925, 90.1509, -59.9996, 45.7093
3.664, 5, 32.0907, 44.5742, -1.59192, 90.1082, -60.0537, 45.718
3.668, 5, 32.064, 44.5617, -1.52468, 90.0655, -60.1079, 45.7268
3.672, 5, 32.0373, 44.5493, -1.45755, 90.0229, -60.1621, 45.7355
3.676, 5, 32.0105, 44.537, -1.39052, 89.9802, -60.2163, 45.7442
3.679, 5, 31.9837, 44.5249, -1.32359, 89.9376, -60.2705, 45.7529
3.684, 5, 31.9569, 44.5128, -1.25677, 89.895, -60.3248, 45.7616
3.688, 5, 31.93, 44.5008, -1.19005, 89.8524, -60.379, 45.7703
3.692, 5, 31.903, 44.489, -1.12343, 89.8099, -60.4333, 45.779
3.696, 5, 31.876, 44.4773, -1.05691, 89.7673, -60.4877, 45.7877
3.7, 5, 31.849, 44.4656, -0.99049, 89.7248, -60.542, 45.7964
3.704, 5, 31.8219, 44.4541, -0.924176, 89.6823, -60.5964, 45.805
3.708, 5, 31.7948, 44.4427, -0.857962, 89.6397, -60.6508, 45.8137
3.712, 5, 31.7676, 44.4314, -0.791851, 89.5973, -60.7052, 45.8223
3.716, 5, 31.7404, 44.4202, -0.725841, 89.5548, -60.7597, 45.831
3.72, 5, 31.7132, 44.4091, -0.659933, 89.5123, -60.8142, 45.8396
3.724, 5, 31.6859, 44.3982, -0.594126, 89.4699, -60.8687, 45.8483
3.728, 5, 31.6585, 44.3873, -0.52842, 89.4274, -60.9232, 45.8569
3.732, 5, 31.6311, 44.3766, -0.462816, 89.385, -60.9778, 45.8655
3.735, 5, 31.6037, 44.3659, -0.397313, 89.3426, -61.0323, 45.8742
3.74, 5, 31.5762, 44.3554, -0.331914, 89.3002, -61.087, 45.8828
3.744, 5, 31.5487, 44.345, -0.266626, 89.2578, -61.1416, 45.8914
3.748, 5, 31.521, 44.3348, -0.201468, 89.2155, -61.1962, 45.9
3.752, 5, 31.4931, 44.3248, -0.136474, 89.1731, -61.2509, 45.9086
3.756, 5, 31.465, 44.3152, -0.0716934, 89.1308, -61.3056, 45.9171
3.76, 5, 31.4366, 44.3059, -0.00719834, 89.0885, -61.3603, 45.9257
3.764, 5, 31.4077, 44.2971, 0.0569169, 89.0462, -61.4151, 45.9341
3.768, 5, 31.3785, 44.2889, 0.120531, 89.0039, -61.4698, 45.9424
3.772, 5, 31.3487, 44.2814, 0.183495, 88.9617, -61.5245, 45.9504
3.776, 5, 31.3185, 44.2746, 0.245632, 88.9195, -61.5791, 45.9582
3.78, 5, 31.2877, 44.2686, 0.306741, 88.8774, -61.6338, 45.9655
3.784, 5, 31.2565, 44.2636, 0.366589, 88.8353, -61.6884, 45.9723
3.788, 5, 31.2248, 44.2596, 0.424918, 88.7932, -61.7429, 45.9783
3.792, 5, 31.1927, 44.2568, 0.481452, 88.7513, -61.7974, 45.9834
3.796, 5, 31.1602, 44.2552, 0.535899, 88.7094, -61.8517, 45.9875
3.8, 6, 31.1273, 44.2549, 0.587962, 88.6676, -61.906, 45.9904
3.804, 6, 31.094, 44.2561, 0.637341, 88.626, -61.96, 45.9918
3.808, 6, 31.0604, 44.2589, 0.683743, 88.5846, -62.0139, 45.9916
3.812, 6, 31.0263, 44.2634, 0.726895, 88.5433, -62.0675, 45.9896
3.816, 6, 30.9918, 44.2696, 0.766554, 88.5023, -62.1207, 45.9858
3.82, 6, 30.957, 44.2777, 0.802524, 88.4616, -62.1736, 45.9801
3.824, 6, 30.9217, 44.2876, 0.834656, 88.4213, -62.2259, 45.9723
3.828, 6, 30.8861, 44.2994, 0.862857, 88.3813, -62.2778, 45.9624
3.832, 6, 30.8502, 44.3131, 0.887094, 88.3417, -62.3292, 45.9505
3.836, 6, 30.8138, 44.3287, 0.907394, 88.3026, -62.3799, 45.9366
3.84, 6, 30.777, 44.3461, 0.923844, 88.2639, -62.43, 45.9207
3.844, 6, 30.7397, 44.3655, 0.936585, 88.2257, -62.4794, 45.9031
3.848, 6, 30.7019, 44.3866, 0.945815, 88.1879, -62.5283, 45.8837
3.852, 6, 30.6636, 44.4093, 0.951779, 88.1505, -62.5765, 45.8629
3.856, 6, 30.6248, 44.4337, 0.954758, 88.1136, -62.6242, 45.8406
3.86, 6, 30.5856, 44.4595, 0.955066, 88.077, -62.6713, 45.8172
3.864, 6, 30.546, 44.4865, 0.953026, 88.0407, -62.7181, 45.7928
3.868, 6, 30.5061, 44.5147, 0.948958, 88.0046, -62.7644, 45.7675
3.872, 6, 30.4658, 44.5439, 0.943167, 87.9688, -62.8104, 45.7415
3.876, 6, 30.4253, 44.574, 0.935937, 87.933, -62.8561, 45.715
3.88, 6, 30.3845, 44.6049, 0.927523, 87.8974, -62.9017, 45.688
3.884, 6, 30.3433, 44.6365, 0.918152, 87.8619, -62.9471, 45.6607
3.888, 6, 30.3018, 44.6687, 0.908019, 87.8264, -62.9924, 45.6332
3.892, 6, 30.2601, 44.7014, 0.897286, 87.7909, -63.0376, 45.6055
3.896, 6, 30.2182, 44.7345, 0.886084, 87.7555, -63.0828, 45.5777
3.9, 6, 30.1761, 44.768, 0.874519, 87.72, -63.1279, 45.5499
3.904, 6, 30.1339, 44.8018, 0.862667, 87.6845, -63.1731, 45.522
3.908, 6, 30.0916, 44.8357, 0.850585, 87.6489, -63.2182, 45.494
3.912, 6, 30.0492, 44.8698, 0.838309, 87.6134, -63.2633, 45.4661
3.916, 6, 30.0068, 44.9041, 0.825865, 87.5778, -63.3084, 45.4381
3.92, 6, 29.9644, 44.9385, 0.813271, 87.5421, -63.3536, 45.4101
3.924, 6, 29.9219, 44.973, 0.800537, 87.5065, -63.3987, 45.3821
3.928, 6, 29.8794, 45.0076, 0.787672, 87.4707, -63.4439, 45.3542
3.932, 6, 29.8368, 45.0423, 0.774681, 87.435, -63.4891, 45.3262
3.936, 6, 29.7943, 45.0771, 0.761567, 87.3992, -63.5342, 45.2982
3.94, 6, 29.7517, 45.112, 0.748333, 87.3633, -63.5794, 45.2702
3.944, 6, 29.7091, 45.147, 0.73498, 87.3275, -63.6247, 45.2423
3.948, 6, 29.6665, 45.1821, 0.721509, 87.2916, -63.6699, 45.2143
3.952, 6, 29.6239, 45.2173, 0.707921, 87.2556, -63.7151, 45.1864
3.956, 6, 29.5812, 45.2525, 0.694215, 87.2196, -63.7604, 45.1584
3.96, 6, 29.5386, 45.2879, 0.680393, 87.1836, -63.8057, 45.1305
3.964, 6, 29.4959, 45.3233, 0.666454, 87.1475, -63.851, 45.1025
3.968, 6, 29.4532, 45.3589, 0.652399, 87.1114, -63.8963, 45.0746
3.972, 6, 29.4104, 45.3945, 0.638226, 87.0752, -63.9416, 45.0466
3.976, 6, 29.3677, 45.4302, 0.623936, 87.0391, -63.9869, 45.0187
3.98, 6, 29.3249, 45.4661, 0.60953, 87.0028, -64.0323, 44.9908
3.984, 6, 29.2822, 45.502, 0.595005, 86.9666, -64.0776, 44.9628
3.988, 6, 29.2394, 45.538, 0.580364, 86.9303, -64.123, 44.9349
3.992, 6, 29.1966, 45.574, 0.565605, 86.8939, -64.1684, 44.907
3.996, 6, 29.1537, 45.6102, 0.550727, 86.8575, -64.2138, 44.879
3.999, 6, 29.1109, 45.6465, 0.535732, 86.8211, -64.2593, 44.8511
4.004, 6, 29.068, 45.6828, 0.520619, 86.7846, -64.3047, 44.8232
4.008, 6, 29.0252, 45.7193, 0.505387, 86.7481, -64.3502, 44.7953
4.012, 6, 28.9823, 45.7558, 0.490037, 86.7116, -64.3956, 44.7674
4.016, 6, 28.9393, 45.7924, 0.474568, 86.675, -64.4411, 44.7394
4.02, 6, 28.8964, 45.8291, 0.458979, 86.6384, -64.4866, 44.7115
4.024, 6, 28.8535, 45.8659, 0.443272, 86.6018, -64.5321, 44.6836
4.028, 6, 28.8105, 45.9028, 0.427445, 86.5651, -64.5776, 44.6557
4.032, 6, 28.7675, 45.9398, 0.411499, 86.5283, -64.6232, 44.6278
4.036, 6, 28.7245, 45.9769, 0.395433, 86.4916, -64.6687, 44.5998
4.04, 6, 28.6815, 46.014, 0.379247, 86.4548, -64.7143, 44.5719
4.044, 6, 28.6384, 46.0513, 0.36294, 86.4179, -64.7599, 44.544
4.048, 6, 28.5954, 46.0886, 0.346514, 86.381, -64.8055, 44.5161
4.052, 6, 28.5523, 46.1261, 0.329966, 86.3441, -64.8511, 44.4881
4.056, 6, 28.5092, 46.1636, 0.313298, 86.3072, -64.8967, 44.4602
4.06, 6, 28.4661, 46.2012, 0.296509, 86.2702, -64.9424, 44.4323
4.064, 6, 28.423, 46.2389, 0.279599, 86.2331, -64.988, 44.4044
4.068, 6, 28.3799, 46.2767, 0.262568, 86.1961, -65.0337, 44.3764
4.072, 6, 28.3367, 46.3146, 0.245414, 86.159, -65.0794, 44.3485
4.076, 6, 28.2935, 46.3526, 0.228139, 86.1218, -65.1251, 44.3206
4.08, 6, 28.2503, 46.3906, 0.210742, 86.0846, -65.1708, 44.2926
4.084, 6, 28.2071, 46.4288, 0.193223, 86.0474, -65.2165, 44.2647
4.088, 6, 28.1639, 46.467, 0.175582, 86.0102, -65.2623, 44.2367
4.092, 6, 28.1207, 46.5053, 0.157818, 85.9729, -65.308, 44.2088
4.096, 6, 28.0774, 46.5438, 0.139931, 85.9356, -65.3538, 44.1808
4.1, 6, 28.0341, 46.5823, 0.121921, 85.8982, -65.3996, 44.1528
4.104, 6, 27.9908, 46.6209, 0.103787, 85.8608, -65.4454, 44.1249
4.108, 6, 27.9475, 46.6596, 0.0855307, 85.8234, -65.4912, 44.0969
4.112, 6, 27.9042, 46.6983, 0.0671505, 85.7859, -65.537, 44.0689
4.116, 6, 27.8608, 46.7372, 0.0486463, 85.7484, -65.5828, 44.041
4.12, 6, 27.8175, 46.7762, 0.0300182, 85.7109, -65.6287, 44.013
4.124, 6, 27.7741, 46.8152, 0.0112657, 85.6733, -65.6745, 43.985
4.128, 6, 27.7307, 46.8544, -0.00761116, 85.6357, -65.7204, 43.957
4.132, 6, 27.6873, 46.8936, -0.0266127, 85.598, -65.7663, 43.929
4.136, 6, 27.6439, 46.9329, -0.0457392, 85.5603, -65.8122, 43.9009
4.14, 6, 27.6004, 46.9723, -0.0649907, 85.5226, -65.8581, 43.8729
4.144, 6, 27.5569, 47.0118, -0.0843676, 85.4849, -65.9041, 43.8449
4.148, 6, 27.5135, 47.0514, -0.10387, 85.4471, -65.95, 43.8169
4.152, 6, 27.47, 47.0911, -0.123498, 85.4093, -65.996, 43.7888
4.156, 6, 27.4265, 47.1308, -0.143252, 85.3714, -66.0419, 43.7608
4.16, 6, 27.3829, 47.1707, -0.163132, 85.3335, -66.0879, 43.7327
4.164, 6, 27.3394, 47.2106, -0.183139, 85.2956, -66.1339, 43.7046
4.168, 6, 27.2958, 47.2507, -0.203272, 85.2576, -66.1799, 43.6765
4.172, 6, 27.2522, 47.2908, -0.223532, 85.2197, -66.226, 43.6485
4.176, 6, 27.2086, 47.331, -0.243919, 85.1816, -66.272, 43.6204
4.18, 6, 27.165, 47.3713, -0.264433, 85.1436, -66.318, 43.5922
4.184, 6, 27.1214, 47.4117, -0.285075, 85.1055, -66.3641, 43.5641
4.188, 6, 27.0778, 47.4522, -0.305844, 85.0673, -66.4102, 43.536
4.192, 6, 27.0341, 47.4928, -0.326741, 85.0292, -66.4563, 43.5079
4.196, 6, 26.9904, 47.5334, -0.347767, 84.991, -66.5024, 43.4797
4.2, 6, 26.9467, 47.5742, -0.36892, 84.9528, -66.5485, 43.4515
4.204, 6, 26.903, 47.615, -0.390202, 84.9145, -66.5946, 43.4234
4.208, 6, 26.8593, 47.6559, -0.411613, 84.8762, -66.6407, 43.3952
4.212, 6, 26.8155, 47.697, -0.433153, 84.8379, -66.6869, 43.367
4.216, 6, 26.7718, 47.7381, -0.454822, 84.7995, -66.7331, 43.3387
4.22, 6, 26.728, 47.7793, -0.47662, 84.7611, -66.7792, 43.3105
4.224, 6, 26.6842, 47.8206, -0.498548, 84.7227, -66.8254, 43.2823
4.228, 6, 26.6404, 47.8619, -0.520606, 84.6842, -66.8716, 43.254
4.232, 6, 26.5966, 47.9034, -0.542794, 84.6458, -66.9178, 43.2258
4.236, 6, 26.5527, 47.9449, -0.565112, 84.6072, -66.9641, 43.1975
4.24, 6, 26.5089, 47.9866, -0.587561, 84.5687, -67.0103, 43.1692
4.244, 6, 26.465, 48.0283, -0.61014, 84.5301, -67.0565, 43.1409
4.248, 6, 26.4211, 48.0701, -0.632851, 84.4915, -67.1028, 43.1125
4.252, 6, 26.3772, 48.112, -0.655692, 84.4528, -67.1491, 43.0842
4.256, 6, 26.3333, 48.154, -0.678665, 84.4142, -67.1954, 43.0558
4.26, 6, 26.2893, 48.1961, -0.70177, 84.3755, -67.2417, 43.0274
4.264, 6, 26.2454, 48.2383, -0.725006, 84.3367, -67.288, 42.999
4.268, 6, 26.2014, 48.2806, -0.748375, 84.2979, -67.3343, 42.9706
4.272, 6, 26.1574, 48.3229, -0.771876, 84.2591, -67.3806, 42.9422
4.276, 6, 26.1134, 48.3654, -0.795509, 84.2203, -67.427, 42.9138
4.28, 6, 26.0694, 48.4079, -0.819275, 84.1814, -67.4733, 42.8853
4.284, 6, 26.0254, 48.4505, -0.843174, 84.1426, -67.5197, 42.8568
4.288, 6, 25.9813, 48.4932, -0.867207, 84.1036, -67.5661, 42.8283
4.292, 6, 25.9372, 48.536, -0.891372, 84.0647, -67.6125, 42.7998
4.296, 6, 25.8932, 48.5789, -0.915672, 84.0257, -67.6589, 42.7712
4.3, 6, 25.8491, 48.6219, -0.940105, 83.9867, -67.7053, 42.7427
4.304, 6, 25.805, 48.6649, -0.964673, 83.9476, -67.7517, 42.7141
4.308, 6, 25.7608, 48.7081, -0.989375, 83.9086, -67.7981, 42.6855
4.312, 6, 25.7167, 48.7513, -1.01421, 83.8695, -67.8446, 42.6569
4.316, 6, 25.6725, 48.7946, -1.03918, 83.8303, -67.891, 42.6283
4.32, 6, 25.6283, 48.8381, -1.06429, 83.7912, -67.9375, 42.5996
4.324, 6, 25.5842, 48.8816, -1.08953, 83.752, -67.984, 42.5709
4.328, 6, 25.5399, 48.9252, -1.11491, 83.7127, -68.0305, 42.5422
4.332, 6, 25.4957, 48.9689, -1.14042, 83.6735, -68.077, 42.5135
4.336, 6, 25.4515, 49.0126, -1.16607, 83.6342, -68.1235, 42.4848
4.34, 6, 25.4072, 49.0565, -1.19186, 83.5949, -68.17, 42.456
4.344, 6, 25.363, 49.1004, -1.21778, 83.5555, -68.2165, 42.4272
4.348, 6, 25.3187, 49.1445, -1.24384, 83.5162, -68.2631, 42.3984
4.352, 6, 25.2744, 49.1886, -1.27004, 83.4768, -68.3096, 42.3696
4.356, 6, 25.2301, 49.2328, -1.29637, 83.4373, -68.3562, 42.3408
4.36, 6, 25.1857, 49.2771, -1.32284, 83.3978, -68.4027, 42.3119
4.364, 6, 25.1414, 49.3215, -1.34945, 83.3584, -68.4493, 42.283
4.368, 6, 25.097, 49.366, -1.3762, 83.3188, -68.4959, 42.2541
4.372, 6, 25.0526, 49.4106, -1.40308, 83.2793, -68.5425, 42.2251
4.376, 6, 25.0083, 49.4553, -1.43011, 83.2397, -68.5891, 42.1962
4.38, 6, 24.9638, 49.5, -1.45727, 83.2001, -68.6357, 42.1672
4.384, 6, 24.9194, 49.5448, -1.48457, 83.1604, -68.6824, 42.1382
4.388, 6, 24.875, 49.5898, -1.51201, 83.1207, -68.729, 42.1091
4.392, 6, 24.8305, 49.6348, -1.5396, 83.081, -68.7756, 42.0801
4.396, 6, 24.7861, 49.6799, -1.56732, 83.0413, -68.8223, 42.051
4.4, 6, 24.7416, 49.7251, -1.59518, 83.0015, -68.8689, 42.0219
4.404, 6, 24.6971, 49.7704, -1.62318, 82.9617, -68.9156, 41.9928
4.408, 6, 24.6526, 49.8158, -1.65132, 82.9219, -68.9623, 41.9636
4.412, 6, 24.608, 49.8612, -1.6796, 82.8821, -69.009, 41.9344
4.416, 6, 24.5635, 49.9068, -1.70803, 82.8422, -69.0557, 41.9052
4.42, 6, 24.5189, 49.9524, -1.73659, 82.8023, -69.1024, 41.876
4.424, 6, 24.4744, 49.9982, -1.7653, 82.7623, -69.1491, 41.8467
4.428, 6, 24.4298, 50.044, -1.79415, 82.7224, -69.1958, 41.8174
4.432, 6, 24.3852, 50.0899, -1.82314, 82.6824, -69.2425, 41.7881
4.436, 6, 24.3405, 50.1359, -1.85228, 82.6423, -69.2893, 41.7587
4.44, 6, 24.2959, 50.182, -1.88155, 82.6023, -69.336, 41.7294
4.444, 6, 24.2513, 50.2281, -1.91097, 82.5622, -69.3828, 41.7
4.448, 6, 24.2066, 50.2744, -1.94053, 82.5221, -69.4295, 41.6705
4.452, 6, 24.1619, 50.3208, -1.97024, 82.482, -69.4763, 41.6411
4.456, 6, 24.1172, 50.3672, -2.00009, 82.4418, -69.5231, 41.6116
4.46, 6, 24.0725, 50.4137, -2.03008, 82.4016, -69.5698, 41.5821
4.464, 6, 24.0278, 50.4604, -2.06022, 82.3614, -69.6166, 41.5525
4.468, 6, 23.9831, 50.5071, -2.0905, 82.3211, -69.6634, 41.5229
4.472, 6, 23.9383, 50.5539, -2.12093, 82.2808, -69.7102, 41.4933
4.476, 6, 23.8935, 50.6008, -2.1515, 82.2405, -69.757, 41.4637
4.48, 6, 23.8488, 50.6477, -2.18222, 82.2002, -69.8039, 41.434
4.484, 6, 23.804, 50.6948, -2.21308, 82.1598, -69.8507, 41.4043
4.488, 6, 23.7592, 50.742, -2.24409, 82.1194, -69.8975, 41.3746
4.492, 6, 23.7143, 50.7892, -2.27524, 82.079, -69.9443, 41.3448
4.496, 6, 23.6695, 50.8365, -2.30655, 82.0385, -69.9912, 41.315
4.5, 6, 23.6246, 50.884, -2.33799, 81.9981, -70.038, 41.2852
4.504, 6, 23.5798, 50.9315, -2.36959, 81.9576, -70.0849, 41.2553
4.508, 6, 23.5349, 50.9791, -2.40133, 81.917, -70.1317, 41.2254
4.512, 6, 23.49, 51.0268, -2.43322, 81.8765, -70.1786, 41.1955
4.516, 6, 23.4451, 51.0745, -2.46525, 81.8359, -70.2255, 41.1656
4.52, 6, 23.4002, 51.1224, -2.49744, 81.7952, -70.2724, 41.1356
4.524, 6, 23.3552, 51.1704, -2.52977, 81.7546, -70.3192, 41.1055
4.528, 6, 23.3103, 51.2184, -2.56226, 81.7139, -70.3661, 41.0755
4.532, 6, 23.2653, 51.2665, -2.59489, 81.6732, -70.413, 41.0454
4.536, 6, 23.2203, 51.3148, -2.62767, 81.6325, -70.4599, 41.0152
4.54, 6, 23.1753, 51.3631, -2.6606, 81.5917, -70.5068, 40.9851
4.544, 6, 23.1303, 51.4115, -2.69368, 81.551, -70.5537, 40.9549
4.548, 6, 23.0853, 51.46, -2.72691, 81.5101, -70.6006, 40.9246
4.552, 6, 23.0402, 51.5085, -2.76029, 81.4693, -70.6476, 40.8943
4.556, 6, 22.9952, 51.5572, -2.79382, 81.4284, -70.6945, 40.864
4.56, 6, 22.9502, 51.6059, -2.8275, 81.3876, -70.7414, 40.8337
4.564, 6, 22.9053, 51.6547, -2.8613, 81.3466, -70.7883, 40.8033
4.568, 6, 22.8608, 51.7034, -2.89521, 81.3057, -70.8353, 40.7729
4.572, 6, 22.8169, 51.7518, -2.92916, 81.2648, -70.8822, 40.7424
4.576, 6, 22.7737, 51.7999, -2.96309, 81.2238, -70.929, 40.712
4.58, 6, 22.7313, 51.8473, -2.99696, 81.183, -70.9758, 40.6816
4.584, 6, 22.6899, 51.894, -3.03068, 81.1422, -71.0224, 40.6512
4.588, 6, 22.6494, 51.9397, -3.06417, 81.1017, -71.0688, 40.621
4.592, 6, 22.6097, 51.9844, -3.09737, 81.0615, -71.1148, 40.591
4.596, 6, 22.5709, 52.0281, -3.13016, 81.0217, -71.1602, 40.5613
4.6, 6, 22.5329, 52.0706, -3.16243, 80.9826, -71.2049, 40.5321
4.604, 6, 22.4961, 52.112, -3.19404, 80.9442, -71.2488, 40.5034
4.608, 6, 22.4606, 52.1521, -3.22483, 80.9067, -71.2916, 40.4754
4.612, 6, 22.4264, 52.1909, -3.25467, 80.8704, -71.333, 40.4482
4.616, 6, 22.3936, 52.2283, -3.28345, 80.8355, -71.3729, 40.422
4.62, 6, 22.3621, 52.2644, -3.31105, 80.802, -71.411, 40.397
4.624, 6, 22.3319, 52.2989, -3.33739, 80.7704, -71.4471, 40.3732
4.628, 6, 22.3029, 52.332, -3.36236, 80.7406, -71.4811, 40.3509
4.632, 6, 22.2752, 52.3634, -3.38586, 80.7128, -71.5127, 40.3301
4.636, 6, 22.2489, 52.3931, -3.4078, 80.6871, -71.5419, 40.3109
4.64, 6, 22.2241, 52.4208, -3.42808, 80.6637, -71.5685, 40.2933
4.644, 6, 22.2009, 52.4465, -3.44668, 80.6425, -71.5926, 40.2774
4.648, 6, 22.1793, 52.4702, -3.46358, 80.6235, -71.6142, 40.2631
4.652, 6, 22.1591, 52.492, -3.47882, 80.6067, -71.6332, 40.2506
4.656, 6, 22.1403, 52.512, -3.49246, 80.5921, -71.6498, 40.2396
4.66, 6, 22.1229, 52.5303, -3.50454, 80.5794, -71.6641, 40.2301
4.664, 6, 22.107, 52.5469, -3.51514, 80.5687, -71.6762, 40.2221
4.668, 6, 22.0925, 52.562, -3.52432, 80.5597, -71.6863, 40.2154
4.672, 6, 22.0796, 52.5755, -3.53216, 80.5523, -71.6947, 40.2098
4.676, 6, 22.0682, 52.5874, -3.53876, 80.5463, -71.7015, 40.2053
4.68, 6, 22.0582, 52.5979, -3.54425, 80.5415, -71.7069, 40.2017
4.684, 6, 22.0494, 52.6071, -3.54876, 80.5377, -71.7111, 40.1989
4.688, 6, 22.0416, 52.615, -3.55243, 80.5348, -71.7143, 40.1968
4.692, 6, 22.0347, 52.6217, -3.55538, 80.5326, -71.7167, 40.1952
4.696, 6, 22.0287, 52.6271, -3.55771, 80.531, -71.7185, 40.194
4.7, 7, 22.0236, 52.6315, -3.55951, 80.5299, -71.7197, 40.1931
4.704, 7, 22.0194, 52.6349, -3.56088, 80.5291, -71.7206, 40.1926
4.708, 7, 22.0161, 52.6374, -3.56187, 80.5285, -71.7212, 40.1922
4.712, 7, 22.0137, 52.6392, -3.56258, 80.5281, -71.7216, 40.1919
4.716, 7, 22.0119, 52.6404, -3.56307, 80.5279, -71.7219, 40.1917
4.72, 7, 22.0107, 52.6413, -3.5634, 80.5277, -71.7221, 40.1916
4.724, 7, 22.0099, 52.6419, -3.56363, 80.5276, -71.7222, 40.1915
4.728, 7, 22.0094, 52.6423, -3.56378, 80.5275, -71.7223, 40.1914
4.732, 7, 22.009, 52.6425, -3.56388, 80.5274, -71.7224, 40.1914
4.736, 7, 22.0088, 52.6427, -3.56395, 80.5274, -71.7224, 40.1914
4.74, 7, 22.0086, 52.6428, -3.564, 80.5274, -71.7224, 40.1913
4.744, 7, 22.0085, 52.6429, -3.56403, 80.5274, -71.7224, 40.1913
4.748, 7, 22.0084, 52.643, -3.56405, 80.5274, -71.7225, 40.1913
4.752, 7, 22.0084, 52.643, -3.56407, 80.5273, -71.7225, 40.1913
4.756, 7, 22.0083, 52.643, -3.56408, 80.5273, -71.7225, 40.1913
4.76, 7, 22.0083, 52.643, -3.56409, 80.5273, -71.7225, 40.1913
4.764, 7, 22.0083, 52.6431, -3.56409, 80.5273, -71.7225, 40.1913
4.768, 7, 22.0083, 52.6431, -3.56409, 80.5273, -71.7225, 40.1913
4.772, 7, 22.0083, 52.6431, -3.5641, 80.5273, -71.7225, 40.1913
4.776, 7, 22.0083, 52.6431, -3.5641, 80.5273, -71.7225, 40.1913
4.78, 7, 22.0083, 52.6431, -3.5641, 80.5273, -71.7225, 40.1913
4.784, 7, 22.0083, 52.6431, -3.5641, 80.5273, -71.7225, 40.1913
4.788, 7, 22.0083, 52.6431, -3.5641, 80.5273, -71.7225, 40.1913
4.792, 7, 22.0083, 52.6431, -3.5641, 80.5273, -71.7225, 40.1913
4.796, 7, 22.0083, 52.6431, -3.5641, 80.5273, -71.7225, 40.1913
4.8, 7, 22.0083, 52.6431, -3.5641, 80.5273, -71.7225, 40.1913
4.804, 7, 22.0083, 52.6431, -3.5641, 80.5273, -71.7225, 40.1913
4.808, 7, 22.0083, 52.6431, -3.5641, 80.5273, -71.7225, 40.1913
4.812, 7, 22.0083, 52.6431, -3.5641, 80.5273, -71.7225, 40.1913
4.816, 7, 22.0083, 52.6431, -3.5641, 80.5273, -71.7225, 40.1913
