hehonglu123/ABB_Primitive_Study/execution/movel2_30_car/curve_exe_vmax_fine.csv
timestamp, cmd_num, J1, J2, J3, J4, J5, J6
0, -1, 22.0083, 52.6431, -3.5641, 80.5273, -71.7225, 40.1913
0.002, -1, 22.0083, 52.6431, -3.5641, 80.5273, -71.7225, 40.1913
0.006, -1, 22.0083, 52.6431, -3.5641, 80.5273, -71.7225, 40.1913
0.008, -1, 22.0083, 52.6431, -3.5641, 80.5273, -71.7225, 40.1913
0.011, -1, 22.0083, 52.6431, -3.5641, 80.5273, -71.7225, 40.1913
0.016, -1, 22.0083, 52.6431, -3.5641, 80.5273, -71.7225, 40.1913
0.02, -1, 22.0083, 52.6431, -3.5641, 80.5273, -71.7225, 40.1913
0.024, -1, 22.0083, 52.6431, -3.5641, 80.5273, -71.7225, 40.1913
0.028, -1, 22.0083, 52.6431, -3.5641, 80.5273, -71.7225, 40.1913
0.032, -1, 22.0083, 52.6431, -3.5641, 80.5273, -71.7225, 40.1913
0.036, -1, 22.0083, 52.6431, -3.5641, 80.5273, -71.7225, 40.1913
0.04, -1, 22.0086, 52.643, -3.56409, 80.5273, -71.7225, 40.1913
0.044, -1, 22.0092, 52.6428, -3.56406, 80.5273, -71.7225, 40.1913
0.048, -1, 22.0103, 52.6425, -3.56401, 80.5274, -71.7224, 40.1913
0.052, -1, 22.012, 52.642, -3.56396, 80.5275, -71.7223, 40.1913
0.056, -1, 22.0145, 52.6411, -3.56392, 80.5277, -71.722, 40.1914
0.06, -1, 22.0177, 52.6399, -3.56394, 80.5281, -71.7215, 40.1915
0.064, -1, 22.0217, 52.6383, -3.56408, 80.5288, -71.7206, 40.1916
0.068, -1, 22.0265, 52.6362, -3.56441, 80.53, -71.7193, 40.1919
0.072, -1, 22.0322, 52.6334, -3.56504, 80.5317, -71.7172, 40.1923
0.076, -1, 22.0391, 52.6299, -3.56609, 80.5342, -71.7141, 40.1928
0.08, -1, 22.0472, 52.6256, -3.56769, 80.5377, -71.7099, 40.1936
0.084, -1, 22.0567, 52.6206, -3.57002, 80.5425, -71.7042, 40.1947
0.088, -1, 22.0678, 52.615, -3.57327, 80.5488, -71.6966, 40.1962
0.092, -1, 22.0803, 52.6089, -3.57766, 80.557, -71.6868, 40.198
0.096, -1, 22.094, 52.6026, -3.58342, 80.5673, -71.6745, 40.2003
0.1, -1, 22.109, 52.5963, -3.59077, 80.58, -71.6593, 40.2032
0.104, -1, 22.125, 52.5899, -3.59987, 80.5953, -71.641, 40.2067
0.108, -1, 22.1421, 52.5836, -3.61085, 80.6134, -71.6193, 40.2108
0.112, -1, 22.1603, 52.5773, -3.62379, 80.6345, -71.5942, 40.2156
0.116, -1, 22.1797, 52.5709, -3.63871, 80.6584, -71.5656, 40.221
0.12, -1, 22.2004, 52.5646, -3.65561, 80.6854, -71.5335, 40.2272
0.124, -1, 22.2224, 52.5582, -3.67441, 80.7152, -71.4979, 40.2339
0.128, -1, 22.2457, 52.5518, -3.69504, 80.7477, -71.4591, 40.2413
0.131, -1, 22.2701, 52.5455, -3.71736, 80.7828, -71.4173, 40.2493
0.136, -1, 22.2957, 52.539, -3.74121, 80.8202, -71.3726, 40.2578
0.139, -1, 22.3225, 52.5323, -3.76639, 80.8597, -71.3256, 40.2668
0.144, -1, 22.3507, 52.5251, -3.79268, 80.901, -71.2764, 40.2761
0.148, -1, 22.3804, 52.5172, -3.81986, 80.9437, -71.2254, 40.2858
0.152, -1, 22.4114, 52.5086, -3.84775, 80.9877, -71.1729, 40.2958
0.156, -1, 22.4437, 52.4992, -3.87617, 81.0327, -71.1193, 40.306
0.16, -1, 22.4771, 52.4892, -3.90498, 81.0784, -71.0648, 40.3164
0.164, -1, 22.5115, 52.4785, -3.93409, 81.1247, -71.0095, 40.3269
0.168, -1, 22.5468, 52.4674, -3.96339, 81.1714, -70.9538, 40.3375
0.172, -1, 22.5827, 52.4559, -3.99284, 81.2184, -70.8977, 40.3482
0.176, -1, 22.6193, 52.4441, -4.02238, 81.2657, -70.8413, 40.359
0.18, -1, 22.6565, 52.432, -4.05197, 81.3131, -70.7847, 40.3697
0.184, -1, 22.6942, 52.4198, -4.08158, 81.3606, -70.728, 40.3805
0.188, -1, 22.7324, 52.4074, -4.1112, 81.4082, -70.6713, 40.3913
0.192, -1, 22.7709, 52.3949, -4.14081, 81.4557, -70.6145, 40.4021
0.196, -1, 22.8095, 52.3823, -4.17041, 81.5033, -70.5577, 40.4129
0.2, -1, 22.8483, 52.3697, -4.2, 81.5509, -70.5009, 40.4237
0.204, -1, 22.8872, 52.3571, -4.22957, 81.5984, -70.4442, 40.4345
0.208, -1, 22.9262, 52.3445, -4.25912, 81.646, -70.3874, 40.4453
0.212, -1, 22.9651, 52.3318, -4.28865, 81.6935, -70.3307, 40.4561
0.216, -1, 23.0041, 52.3192, -4.31816, 81.741, -70.2741, 40.4669
0.22, -1, 23.043, 52.3065, -4.34764, 81.7884, -70.2175, 40.4776
0.224, -1, 23.082, 52.2939, -4.37711, 81.8358, -70.1609, 40.4884
0.228, -1, 23.1209, 52.2812, -4.40655, 81.8832, -70.1043, 40.4992
0.232, -1, 23.1598, 52.2686, -4.43597, 81.9305, -70.0478, 40.5099
0.236, -1, 23.1986, 52.256, -4.46537, 81.9778, -69.9914, 40.5207
0.24, -1, 23.2375, 52.2434, -4.49475, 82.0251, -69.935, 40.5314
0.244, -1, 23.2763, 52.2308, -4.52411, 82.0723, -69.8786, 40.5421
0.248, -1, 23.3151, 52.2182, -4.55344, 82.1195, -69.8223, 40.5528
0.252, -1, 23.3539, 52.2056, -4.58275, 82.1667, -69.766, 40.5635
0.256, -1, 23.3926, 52.193, -4.61204, 82.2138, -69.7097, 40.5742
0.26, -1, 23.4313, 52.1805, -4.64131, 82.2609, -69.6535, 40.5849
0.264, -1, 23.47, 52.1679, -4.67056, 82.308, -69.5974, 40.5956
0.268, -1, 23.5086, 52.1553, -4.69978, 82.355, -69.5412, 40.6063
0.272, -1, 23.5473, 52.1428, -4.72898, 82.402, -69.4852, 40.617
0.276, -1, 23.5859, 52.1303, -4.75816, 82.449, -69.4291, 40.6276
0.28, -1, 23.6244, 52.1178, -4.78732, 82.4959, -69.3731, 40.6383
0.284, -1, 23.663, 52.1052, -4.81646, 82.5428, -69.3172, 40.6489
0.288, -1, 23.7015, 52.0927, -4.84557, 82.5896, -69.2613, 40.6596
0.292, -1, 23.7399, 52.0802, -4.87467, 82.6364, -69.2054, 40.6702
0.296, -1, 23.7784, 52.0678, -4.90374, 82.6832, -69.1496, 40.6808
0.3, -1, 23.8168, 52.0553, -4.93279, 82.7299, -69.0938, 40.6914
0.304, -1, 23.8552, 52.0428, -4.96182, 82.7766, -69.038, 40.702
0.308, -1, 23.8936, 52.0304, -4.99083, 82.8233, -68.9823, 40.7126
0.312, -1, 23.9319, 52.0179, -5.01981, 82.87, -68.9267, 40.7232
0.316, -1, 23.9702, 52.0055, -5.04878, 82.9166, -68.871, 40.7338
0.32, -1, 24.0085, 51.9931, -5.07773, 82.9631, -68.8154, 40.7444
0.324, -1, 24.0468, 51.9806, -5.10665, 83.0097, -68.7599, 40.755
0.328, -1, 24.085, 51.9682, -5.13555, 83.0562, -68.7044, 40.7655
0.332, -1, 24.1232, 51.9558, -5.16443, 83.1027, -68.6489, 40.7761
0.336, -1, 24.1613, 51.9434, -5.19329, 83.1491, -68.5935, 40.7866
0.34, -1, 24.1995, 51.931, -5.22213, 83.1955, -68.5381, 40.7972
0.344, -1, 24.2376, 51.9187, -5.25095, 83.2419, -68.4828, 40.8077
0.348, -1, 24.2757, 51.9063, -5.27975, 83.2882, -68.4275, 40.8182
0.352, -1, 24.3138, 51.894, -5.30853, 83.3345, -68.3722, 40.8287
0.356, -1, 24.3518, 51.8816, -5.33728, 83.3808, -68.317, 40.8392
0.36, -1, 24.3898, 51.8693, -5.36602, 83.427, -68.2618, 40.8497
0.364, -1, 24.4278, 51.8569, -5.39474, 83.4732, -68.2067, 40.8602
0.368, -1, 24.4657, 51.8446, -5.42343, 83.5194, -68.1516, 40.8707
0.372, -1, 24.5036, 51.8323, -5.4521, 83.5655, -68.0965, 40.8812
0.376, -1, 24.5415, 51.82, -5.48076, 83.6116, -68.0415, 40.8916
0.38, -1, 24.5794, 51.8077, -5.50939, 83.6577, -67.9865, 40.9021
0.384, -1, 24.6172, 51.7954, -5.538, 83.7038, -67.9315, 40.9126
0.388, -1, 24.6551, 51.7831, -5.5666, 83.7498, -67.8766, 40.923
0.392, -1, 24.6928, 51.7709, -5.59517, 83.7957, -67.8218, 40.9334
0.396, -1, 24.7306, 51.7586, -5.62372, 83.8417, -67.7669, 40.9439
0.4, -1, 24.7683, 51.7464, -5.65225, 83.8876, -67.7121, 40.9543
0.404, -1, 24.806, 51.7341, -5.68076, 83.9335, -67.6574, 40.9647
0.408, -1, 24.8437, 51.7219, -5.70925, 83.9793, -67.6027, 40.9751
0.412, -1, 24.8814, 51.7097, -5.73772, 84.0251, -67.548, 40.9855
0.416, -1, 24.919, 51.6975, -5.76618, 84.0709, -67.4934, 40.9959
0.42, -1, 24.9566, 51.6852, -5.79461, 84.1166, -67.4388, 41.0063
0.424, -1, 24.9942, 51.673, -5.82302, 84.1624, -67.3842, 41.0167
0.428, -1, 25.0317, 51.6609, -5.85141, 84.208, -67.3297, 41.0271
0.432, -1, 25.0693, 51.6487, -5.87978, 84.2537, -67.2752, 41.0374
0.436, -1, 25.1068, 51.6365, -5.90813, 84.2993, -67.2208, 41.0478
0.44, -1, 25.1442, 51.6243, -5.93646, 84.3449, -67.1664, 41.0581
0.444, -1, 25.1817, 51.6122, -5.96478, 84.3905, -67.112, 41.0685
0.448, -1, 25.2191, 51.6, -5.99307, 84.436, -67.0576, 41.0788
0.452, -1, 25.2565, 51.5879, -6.02134, 84.4815, -67.0034, 41.0892
0.456, -1, 25.2938, 51.5758, -6.04959, 84.5269, -66.9491, 41.0995
0.46, -1, 25.3312, 51.5636, -6.07783, 84.5724, -66.8949, 41.1098
0.464, -1, 25.3685, 51.5515, -6.10604, 84.6178, -66.8407, 41.1201
0.468, -1, 25.4058, 51.5394, -6.13424, 84.6631, -66.7866, 41.1304
0.472, -1, 25.4431, 51.5273, -6.16241, 84.7085, -66.7325, 41.1407
0.476, -1, 25.4803, 51.5152, -6.19057, 84.7538, -66.6784, 41.151
0.48, -1, 25.5175, 51.5031, -6.2187, 84.799, -66.6244, 41.1613
0.484, -1, 25.5547, 51.4911, -6.24682, 84.8443, -66.5704, 41.1715
0.488, -1, 25.5918, 51.479, -6.27492, 84.8895, -66.5164, 41.1818
0.492, -1, 25.629, 51.4669, -6.303, 84.9347, -66.4625, 41.1921
0.496, -1, 25.6661, 51.4549, -6.33106, 84.9798, -66.4086, 41.2023
0.5, -1, 25.7032, 51.4429, -6.3591, 85.0249, -66.3547, 41.2126
0.504, -1, 25.7402, 51.4308, -6.38712, 85.07, -66.3009, 41.2228
0.508, -1, 25.7773, 51.4188, -6.41512, 85.1151, -66.2472, 41.233
0.512, -1, 25.8143, 51.4068, -6.4431, 85.1601, -66.1934, 41.2433
0.516, -1, 25.8513, 51.3948, -6.47107, 85.2051, -66.1397, 41.2535
0.52, -1, 25.8882, 51.3828, -6.49901, 85.2501, -66.0861, 41.2637
0.524, -1, 25.9251, 51.3708, -6.52694, 85.295, -66.0324, 41.2739
0.528, -1, 25.9621, 51.3588, -6.55484, 85.3399, -65.9788, 41.2841
0.532, -1, 25.9989, 51.3468, -6.58273, 85.3848, -65.9253, 41.2943
0.536, -1, 26.0358, 51.3349, -6.6106, 85.4296, -65.8718, 41.3045
0.54, -1, 26.0726, 51.3229, -6.63845, 85.4745, -65.8183, 41.3146
0.544, -1, 26.1094, 51.311, -6.66629, 85.5192, -65.7648, 41.3248
0.548, -1, 26.1462, 51.299, -6.6941, 85.564, -65.7114, 41.335
0.552, -1, 26.183, 51.2871, -6.72189, 85.6087, -65.658, 41.3451
0.556, -1, 26.2197, 51.2752, -6.74967, 85.6534, -65.6047, 41.3553
0.56, -1, 26.2564, 51.2632, -6.77743, 85.6981, -65.5514, 41.3654
0.564, -1, 26.2931, 51.2513, -6.80517, 85.7427, -65.4981, 41.3755
0.568, -1, 26.3298, 51.2394, -6.83289, 85.7873, -65.4449, 41.3857
0.572, -1, 26.3664, 51.2275, -6.86059, 85.8319, -65.3917, 41.3958
0.576, -1, 26.403, 51.2156, -6.88827, 85.8764, -65.3385, 41.4059
0.58, -1, 26.4396, 51.2038, -6.91594, 85.9209, -65.2854, 41.416
0.584, -1, 26.4762, 51.1919, -6.94359, 85.9654, -65.2323, 41.4261
0.588, -1, 26.5127, 51.18, -6.97122, 86.0099, -65.1792, 41.4362
0.592, -1, 26.5492, 51.1682, -6.99883, 86.0543, -65.1262, 41.4463
0.596, -1, 26.5857, 51.1563, -7.02642, 86.0987, -65.0732, 41.4564
0.6, -1, 26.6222, 51.1445, -7.05399, 86.1431, -65.0203, 41.4665
0.604, -1, 26.6586, 51.1327, -7.08155, 86.1874, -64.9674, 41.4765
0.608, -1, 26.6951, 51.1208, -7.10909, 86.2317, -64.9145, 41.4866
0.612, -1, 26.7315, 51.109, -7.13661, 86.276, -64.8616, 41.4966
0.616, -1, 26.7678, 51.0972, -7.16411, 86.3203, -64.8088, 41.5067
0.62, -1, 26.8042, 51.0854, -7.1916, 86.3645, -64.756, 41.5167
0.624, -1, 26.8405, 51.0736, -7.21906, 86.4087, -64.7033, 41.5268
0.628, -1, 26.8768, 51.0618, -7.24651, 86.4529, -64.6506, 41.5368
0.632, -1, 26.9131, 51.05, -7.27394, 86.497, -64.5979, 41.5468
0.636, -1, 26.9493, 51.0383, -7.30135, 86.5411, -64.5453, 41.5568
0.64, -1, 26.9856, 51.0265, -7.32875, 86.5852, -64.4927, 41.5668
0.644, -1, 27.0218, 51.0148, -7.35613, 86.6292, -64.4401, 41.5768
0.648, -1, 27.058, 51.003, -7.38349, 86.6732, -64.3875, 41.5868
0.652, -1, 27.0941, 50.9913, -7.41083, 86.7172, -64.335, 41.5968
0.656, -1, 27.1303, 50.9795, -7.43815, 86.7612, -64.2826, 41.6068
0.66, -1, 27.1664, 50.9678, -7.46546, 86.8051, -64.2301, 41.6168
0.664, -1, 27.2025, 50.9561, -7.49275, 86.8491, -64.1777, 41.6268
0.668, -1, 27.2385, 50.9444, -7.52002, 86.8929, -64.1254, 41.6367
0.672, -1, 27.2746, 50.9327, -7.54727, 86.9368, -64.073, 41.6467
0.676, -1, 27.3106, 50.921, -7.57451, 86.9806, -64.0207, 41.6566
0.68, -1, 27.3466, 50.9093, -7.60173, 87.0244, -63.9684, 41.6666
0.684, -1, 27.3826, 50.8976, -7.62893, 87.0682, -63.9162, 41.6765
0.688, -1, 27.4185, 50.8859, -7.65611, 87.1119, -63.864, 41.6865
0.692, -1, 27.4545, 50.8743, -7.68328, 87.1556, -63.8118, 41.6964
0.696, -1, 27.4904, 50.8626, -7.71043, 87.1993, -63.7597, 41.7063
0.7, -1, 27.5262, 50.851, -7.73756, 87.243, -63.7076, 41.7162
0.704, -1, 27.5621, 50.8393, -7.76468, 87.2866, -63.6555, 41.7261
0.708, -1, 27.5979, 50.8277, -7.79178, 87.3302, -63.6035, 41.736
0.712, -1, 27.6338, 50.8161, -7.81886, 87.3738, -63.5515, 41.7459
0.716, -1, 27.6696, 50.8044, -7.84592, 87.4173, -63.4995, 41.7558
0.72, -1, 27.7053, 50.7928, -7.87297, 87.4609, -63.4476, 41.7657
0.724, -1, 27.7411, 50.7812, -7.9, 87.5043, -63.3956, 41.7756
0.728, -1, 27.7768, 50.7696, -7.92701, 87.5478, -63.3438, 41.7854
0.732, -1, 27.8125, 50.758, -7.95401, 87.5913, -63.2919, 41.7953
0.736, -1, 27.8482, 50.7464, -7.98099, 87.6347, -63.2401, 41.8052
0.74, -1, 27.8838, 50.7349, -8.00795, 87.6781, -63.1883, 41.815
0.744, -1, 27.9195, 50.7233, -8.0349, 87.7214, -63.1366, 41.8249
0.748, -1, 27.9551, 50.7117, -8.06183, 87.7647, -63.0849, 41.8347
0.752, -1, 27.9907, 50.7002, -8.08874, 87.808, -63.0332, 41.8445
0.756, -1, 28.0263, 50.6886, -8.11564, 87.8513, -62.9815, 41.8544
0.76, -1, 28.0618, 50.6771, -8.14252, 87.8946, -62.9299, 41.8642
0.764, -1, 28.0973, 50.6656, -8.16938, 87.9378, -62.8783, 41.874
0.768, -1, 28.1328, 50.654, -8.19622, 87.981, -62.8268, 41.8838
0.772, -1, 28.1683, 50.6425, -8.22305, 88.0242, -62.7753, 41.8936
0.776, -1, 28.2038, 50.631, -8.24987, 88.0673, -62.7238, 41.9034
0.78, -1, 28.2392, 50.6195, -8.27666, 88.1104, -62.6723, 41.9132
0.784, -1, 28.2746, 50.608, -8.30344, 88.1535, -62.6209, 41.923
0.788, -1, 28.31, 50.5965, -8.33021, 88.1966, -62.5695, 41.9327
0.792, -1, 28.3454, 50.585, -8.35696, 88.2396, -62.5181, 41.9425
0.796, -1, 28.3808, 50.5735, -8.38369, 88.2826, -62.4668, 41.9523
0.8, -1, 28.4161, 50.5621, -8.4104, 88.3256, -62.4155, 41.962
0.804, -1, 28.4514, 50.5506, -8.4371, 88.3686, -62.3642, 41.9718
0.808, -1, 28.4867, 50.5391, -8.46378, 88.4115, -62.313, 41.9816
0.812, -1, 28.522, 50.5277, -8.49045, 88.4544, -62.2618, 41.9913
0.816, -1, 28.5572, 50.5163, -8.5171, 88.4973, -62.2106, 42.001
0.82, -1, 28.5924, 50.5048, -8.54374, 88.5402, -62.1594, 42.0108
0.824, -1, 28.6276, 50.4934, -8.57035, 88.583, -62.1083, 42.0205
0.828, -1, 28.6628, 50.482, -8.59696, 88.6258, -62.0572, 42.0302
0.832, -1, 28.698, 50.4706, -8.62354, 88.6686, -62.0062, 42.0399
0.836, -1, 28.7331, 50.4591, -8.65011, 88.7113, -61.9552, 42.0496
0.84, -1, 28.7682, 50.4477, -8.67667, 88.7541, -61.9042, 42.0593
0.844, -1, 28.8033, 50.4363, -8.7032, 88.7968, -61.8532, 42.069
0.848, -1, 28.8384, 50.425, -8.72973, 88.8394, -61.8023, 42.0787
0.852, -1, 28.8735, 50.4136, -8.75623, 88.8821, -61.7514, 42.0884
0.856, -1, 28.9085, 50.4022, -8.78272, 88.9247, -61.7005, 42.0981
0.86, -1, 28.9435, 50.3908, -8.8092, 88.9673, -61.6496, 42.1078
0.864, -1, 28.9785, 50.3795, -8.83566, 89.0099, -61.5988, 42.1174
0.868, -1, 29.0135, 50.3681, -8.8621, 89.0524, -61.548, 42.1271
0.872, -1, 29.0484, 50.3568, -8.88853, 89.095, -61.4973, 42.1367
0.876, -1, 29.0834, 50.3454, -8.91494, 89.1375, -61.4466, 42.1464
0.88, -1, 29.1183, 50.3341, -8.94134, 89.1799, -61.3959, 42.156
0.884, -1, 29.1532, 50.3228, -8.96772, 89.2224, -61.3452, 42.1657
0.888, -1, 29.188, 50.3114, -8.99409, 89.2648, -61.2946, 42.1753
0.892, -1, 29.2229, 50.3001, -9.02044, 89.3072, -61.244, 42.1849
0.896, -1, 29.2577, 50.2888, -9.04677, 89.3496, -61.1934, 42.1946
0.9, -1, 29.2925, 50.2775, -9.07309, 89.3919, -61.1429, 42.2042
0.904, -1, 29.3273, 50.2662, -9.0994, 89.4343, -61.0924, 42.2138
0.908, -1, 29.3621, 50.2549, -9.12568, 89.4766, -61.0419, 42.2234
0.912, -1, 29.3968, 50.2437, -9.15196, 89.5188, -60.9914, 42.233
0.916, -1, 29.4316, 50.2324, -9.17822, 89.5611, -60.941, 42.2426
0.92, -1, 29.4663, 50.2211, -9.20446, 89.6033, -60.8906, 42.2522
0.924, -1, 29.501, 50.2099, -9.23069, 89.6455, -60.8402, 42.2618
0.928, -1, 29.5356, 50.1986, -9.2569, 89.6877, -60.7899, 42.2713
0.932, -1, 29.5703, 50.1873, -9.2831, 89.7298, -60.7396, 42.2809
0.936, -1, 29.6049, 50.1761, -9.30928, 89.772, -60.6893, 42.2905
0.94, -1, 29.6395, 50.1649, -9.33544, 89.8141, -60.6391, 42.3
0.944, -1, 29.6741, 50.1536, -9.3616, 89.8562, -60.5888, 42.3096
0.948, -1, 29.7087, 50.1424, -9.38773, 89.8982, -60.5387, 42.3191
0.952, -1, 29.7432, 50.1312, -9.41386, 89.9402, -60.4885, 42.3287
0.956, -1, 29.7777, 50.12, -9.43996, 89.9822, -60.4384, 42.3382
0.96, -1, 29.8122, 50.1088, -9.46605, 90.0242, -60.3882, 42.3478
0.964, -1, 29.8467, 50.0976, -9.49213, 90.0662, -60.3382, 42.3573
0.968, -1, 29.8812, 50.0864, -9.51819, 90.1081, -60.2881, 42.3668
0.972, -1, 29.9156, 50.0752, -9.54424, 90.15, -60.2381, 42.3763
0.976, -1, 29.9501, 50.064, -9.57027, 90.1919, -60.1881, 42.3858
0.98, -1, 29.9845, 50.0529, -9.59629, 90.2338, -60.1381, 42.3953
0.984, -1, 30.0189, 50.0417, -9.62229, 90.2756, -60.0882, 42.4048
0.988, -1, 30.0532, 50.0305, -9.64828, 90.3175, -60.0383, 42.4143
0.992, -1, 30.0876, 50.0194, -9.67425, 90.3592, -59.9884, 42.4238
0.996, -1, 30.1219, 50.0082, -9.70021, 90.401, -59.9386, 42.4333
1, -1, 30.1562, 49.9971, -9.72616, 90.4427, -59.8888, 42.4428
1.004, -1, 30.1905, 49.986, -9.75208, 90.4845, -59.839, 42.4523
1.008, -1, 30.2248, 49.9748, -9.778, 90.5262, -59.7892, 42.4617
1.012, -1, 30.259, 49.9637, -9.8039, 90.5678, -59.7395, 42.4712
1.016, -1, 30.2933, 49.9526, -9.82979, 90.6095, -59.6897, 42.4806
1.02, -1, 30.3275, 49.9415, -9.85566, 90.6511, -59.6401, 42.4901
1.024, -1, 30.3617, 49.9304, -9.88151, 90.6927, -59.5904, 42.4995
1.027, -1, 30.3959, 49.9193, -9.90735, 90.7343, -59.5408, 42.509
1.032, -1, 30.43, 49.9082, -9.93318, 90.7759, -59.4912, 42.5184
1.036, -1, 30.4642, 49.8971, -9.95899, 90.8174, -59.4416, 42.5279
1.04, -1, 30.4983, 49.8861, -9.98479, 90.8589, -59.3921, 42.5373
1.044, -1, 30.5324, 49.875, -10.0106, 90.9004, -59.3426, 42.5467
1.048, -1, 30.5665, 49.8639, -10.0363, 90.9419, -59.2931, 42.5561
1.052, -1, 30.6005, 49.8529, -10.0621, 90.9833, -59.2436, 42.5655
1.055, -1, 30.6346, 49.8418, -10.0878, 91.0247, -59.1942, 42.5749
1.06, -1, 30.6686, 49.8308, -10.1136, 91.0661, -59.1448, 42.5843
1.064, -1, 30.7026, 49.8197, -10.1393, 91.1075, -59.0954, 42.5937
1.068, -1, 30.7366, 49.8087, -10.165, 91.1489, -59.046, 42.6031
1.072, -1, 30.7706, 49.7976, -10.1907, 91.1902, -58.9967, 42.6125
1.076, -1, 30.8045, 49.7866, -10.2163, 91.2315, -58.9474, 42.6219
1.08, -1, 30.8384, 49.7756, -10.242, 91.2728, -58.8981, 42.6313
1.084, -1, 30.8723, 49.7646, -10.2676, 91.314, -58.8489, 42.6406
1.088, -1, 30.9062, 49.7536, -10.2933, 91.3553, -58.7997, 42.65
1.091, -1, 30.9401, 49.7426, -10.3189, 91.3965, -58.7505, 42.6593
1.096, -1, 30.974, 49.7316, -10.3445, 91.4377, -58.7013, 42.6687
1.1, -1, 31.0078, 49.7206, -10.3701, 91.4789, -58.6522, 42.6781
1.104, -1, 31.0416, 49.7096, -10.3956, 91.52, -58.6031, 42.6874
1.108, -1, 31.0754, 49.6987, -10.4212, 91.5611, -58.554, 42.6967
1.112, -1, 31.1092, 49.6877, -10.4467, 91.6022, -58.5049, 42.7061
1.116, -1, 31.143, 49.6767, -10.4723, 91.6433, -58.4559, 42.7154
1.119, -1, 31.1767, 49.6658, -10.4978, 91.6844, -58.4069, 42.7247
1.124, -1, 31.2105, 49.6548, -10.5233, 91.7254, -58.3579, 42.734
1.128, -1, 31.2442, 49.6439, -10.5488, 91.7664, -58.309, 42.7433
1.132, -1, 31.2779, 49.6329, -10.5743, 91.8074, -58.2601, 42.7527
1.136, -1, 31.3115, 49.622, -10.5997, 91.8484, -58.2112, 42.762
1.14, -1, 31.3452, 49.6111, -10.6252, 91.8893, -58.1623, 42.7713
1.144, -1, 31.3788, 49.6002, -10.6506, 91.9303, -58.1135, 42.7806
1.147, -1, 31.4125, 49.5892, -10.676, 91.9712, -58.0646, 42.7898
1.152, -1, 31.4461, 49.5783, -10.7014, 92.0121, -58.0158, 42.7991
1.156, -1, 31.4796, 49.5674, -10.7268, 92.0529, -57.9671, 42.8084
1.16, -1, 31.5132, 49.5565, -10.7522, 92.0938, -57.9183, 42.8177
1.164, -1, 31.5468, 49.5456, -10.7776, 92.1346, -57.8696, 42.8269
1.168, -1, 31.5803, 49.5348, -10.8029, 92.1754, -57.8209, 42.8362
1.172, -1, 31.6138, 49.5239, -10.8283, 92.2161, -57.7723, 42.8455
1.175, -1, 31.6473, 49.513, -10.8536, 92.2569, -57.7236, 42.8547
1.18, -1, 31.6808, 49.5021, -10.8789, 92.2976, -57.675, 42.864
1.184, -1, 31.7142, 49.4913, -10.9042, 92.3383, -57.6264, 42.8732
1.188, -1, 31.7477, 49.4804, -10.9295, 92.379, -57.5779, 42.8825
1.192, -1, 31.7811, 49.4696, -10.9548, 92.4197, -57.5293, 42.8917
1.196, -1, 31.8145, 49.4587, -10.98, 92.4603, -57.4808, 42.9009
1.2, -1, 31.8479, 49.4479, -11.0053, 92.501, -57.4323, 42.9101
1.204, -1, 31.8813, 49.437, -11.0305, 92.5416, -57.3839, 42.9194
1.208, -1, 31.9146, 49.4262, -11.0557, 92.5821, -57.3355, 42.9286
1.212, -1, 31.948, 49.4154, -11.0809, 92.6227, -57.2871, 42.9378
1.216, -1, 31.9813, 49.4046, -11.1061, 92.6632, -57.2387, 42.947
1.22, -1, 32.0146, 49.3938, -11.1313, 92.7038, -57.1903, 42.9562
1.224, -1, 32.0479, 49.3829, -11.1565, 92.7443, -57.142, 42.9654
1.228, -1, 32.0811, 49.3721, -11.1816, 92.7847, -57.0937, 42.9746
1.232, -1, 32.1144, 49.3614, -11.2068, 92.8252, -57.0454, 42.9838
1.236, -1, 32.1476, 49.3506, -11.2319, 92.8656, -56.9971, 42.9929
1.24, -1, 32.1808, 49.3398, -11.257, 92.906, -56.9489, 43.0021
1.244, -1, 32.214, 49.329, -11.2821, 92.9464, -56.9007, 43.0113
1.248, -1, 32.2472, 49.3182, -11.3072, 92.9868, -56.8525, 43.0205
1.252, -1, 32.2804, 49.3075, -11.3323, 93.0271, -56.8044, 43.0296
1.256, -1, 32.3135, 49.2967, -11.3574, 93.0675, -56.7562, 43.0388
1.26, -1, 32.3466, 49.2859, -11.3824, 93.1078, -56.7081, 43.0479
1.264, -1, 32.3798, 49.2752, -11.4074, 93.1481, -56.66, 43.0571
1.267, -1, 32.4129, 49.2644, -11.4325, 93.1883, -56.612, 43.0662
1.272, -1, 32.4459, 49.2537, -11.4575, 93.2286, -56.564, 43.0754
1.276, -1, 32.479, 49.243, -11.4825, 93.2688, -56.516, 43.0845
1.28, -1, 32.512, 49.2322, -11.5075, 93.309, -56.468, 43.0936
1.284, -1, 32.5451, 49.2215, -11.5324, 93.3492, -56.42, 43.1027
1.288, -1, 32.5781, 49.2108, -11.5574, 93.3894, -56.3721, 43.1119
1.292, -1, 32.6111, 49.2001, -11.5824, 93.4295, -56.3242, 43.121
1.295, -1, 32.644, 49.1894, -11.6073, 93.4696, -56.2763, 43.1301
1.3, -1, 32.677, 49.1787, -11.6322, 93.5097, -56.2284, 43.1392
1.304, -1, 32.71, 49.168, -11.6571, 93.5498, -56.1806, 43.1483
1.308, -1, 32.7429, 49.1573, -11.682, 93.5899, -56.1328, 43.1574
1.312, -1, 32.7758, 49.1466, -11.7069, 93.6299, -56.085, 43.1665
1.316, -1, 32.8087, 49.1359, -11.7318, 93.6699, -56.0372, 43.1756
1.32, -1, 32.8416, 49.1253, -11.7566, 93.7099, -55.9895, 43.1847
1.324, -1, 32.8744, 49.1146, -11.7815, 93.7499, -55.9418, 43.1937
1.328, -1, 32.9073, 49.1039, -11.8063, 93.7899, -55.8941, 43.2028
1.332, -1, 32.9401, 49.0933, -11.8311, 93.8298, -55.8464, 43.2119
1.336, -1, 32.9729, 49.0826, -11.8559, 93.8697, -55.7988, 43.2209
1.34, -1, 33.0057, 49.072, -11.8807, 93.9096, -55.7511, 43.23
1.344, -1, 33.0385, 49.0613, -11.9055, 93.9495, -55.7036, 43.2391
1.348, -1, 33.0712, 49.0507, -11.9303, 93.9894, -55.656, 43.2481
1.352, -1, 33.104, 49.0401, -11.9551, 94.0292, -55.6084, 43.2572
1.356, -1, 33.1367, 49.0294, -11.9798, 94.069, -55.5609, 43.2662
1.36, -1, 33.1694, 49.0188, -12.0045, 94.1088, -55.5134, 43.2752
1.364, -1, 33.2021, 49.0082, -12.0293, 94.1486, -55.4659, 43.2843
1.368, -1, 33.2348, 48.9976, -12.054, 94.1884, -55.4185, 43.2933
1.372, -1, 33.2675, 48.987, -12.0787, 94.2281, -55.371, 43.3023
1.376, -1, 33.3001, 48.9764, -12.1034, 94.2678, -55.3236, 43.3113
1.38, -1, 33.3327, 48.9658, -12.128, 94.3075, -55.2763, 43.3204
1.384, -1, 33.3654, 48.9552, -12.1527, 94.3472, -55.2289, 43.3294
1.388, -1, 33.398, 48.9446, -12.1773, 94.3869, -55.1816, 43.3384
1.392, -1, 33.4306, 48.934, -12.202, 94.4265, -55.1342, 43.3474
1.396, -1, 33.4631, 48.9235, -12.2266, 94.4661, -55.087, 43.3564
1.4, -1, 33.4957, 48.9129, -12.2512, 94.5058, -55.0397, 43.3654
1.404, -1, 33.5282, 48.9023, -12.2758, 94.5453, -54.9924, 43.3744
1.408, -1, 33.5607, 48.8918, -12.3004, 94.5849, -54.9452, 43.3833
1.412, -1, 33.5932, 48.8812, -12.325, 94.6245, -54.898, 43.3923
1.416, -1, 33.6257, 48.8707, -12.3496, 94.664, -54.8508, 43.4013
1.42, -1, 33.6582, 48.8601, -12.3741, 94.7035, -54.8037, 43.4103
1.424, -1, 33.6907, 48.8496, -12.3987, 94.743, -54.7566, 43.4192
1.428, -1, 33.7231, 48.839, -12.4232, 94.7825, -54.7094, 43.4282
1.432, -1, 33.7555, 48.8285, -12.4477, 94.8219, -54.6624, 43.4372
1.436, -1, 33.7879, 48.818, -12.4722, 94.8613, -54.6153, 43.4461
1.44, -1, 33.8203, 48.8075, -12.4967, 94.9008, -54.5683, 43.4551
1.444, -1, 33.8527, 48.797, -12.5212, 94.9402, -54.5212, 43.464
1.448, -1, 33.8851, 48.7865, -12.5457, 94.9795, -54.4742, 43.4729
1.452, -1, 33.9174, 48.7759, -12.5701, 95.0189, -54.4273, 43.4819
1.456, -1, 33.9498, 48.7655, -12.5946, 95.0582, -54.3803, 43.4908
1.46, -1, 33.9821, 48.755, -12.619, 95.0976, -54.3334, 43.4997
1.464, -1, 34.0144, 48.7445, -12.6434, 95.1369, -54.2865, 43.5087
1.468, -1, 34.0467, 48.734, -12.6679, 95.1761, -54.2396, 43.5176
1.472, -1, 34.0789, 48.7235, -12.6923, 95.2154, -54.1927, 43.5265
1.476, -1, 34.1112, 48.713, -12.7166, 95.2546, -54.1459, 43.5354
1.48, -1, 34.1434, 48.7026, -12.741, 95.2939, -54.0991, 43.5443
1.484, -1, 34.1757, 48.6921, -12.7654, 95.3331, -54.0523, 43.5532
1.488, -1, 34.2079, 48.6816, -12.7897, 95.3723, -54.0055, 43.5621
1.492, -1, 34.2401, 48.6712, -12.8141, 95.4114, -53.9588, 43.571
1.496, -1, 34.2723, 48.6607, -12.8384, 95.4506, -53.912, 43.5799
1.5, -1, 34.3044, 48.6503, -12.8627, 95.4897, -53.8653, 43.5888
1.504, -1, 34.3366, 48.6399, -12.8871, 95.5289, -53.8186, 43.5977
1.508, -1, 34.3687, 48.6294, -12.9114, 95.568, -53.772, 43.6066
1.512, -1, 34.4008, 48.619, -12.9356, 95.607, -53.7253, 43.6154
1.516, -1, 34.4329, 48.6086, -12.9599, 95.6461, -53.6787, 43.6243
1.52, -1, 34.465, 48.5982, -12.9842, 95.6852, -53.6321, 43.6332
1.524, -1, 34.4971, 48.5877, -13.0084, 95.7242, -53.5855, 43.642
1.528, -1, 34.5292, 48.5773, -13.0327, 95.7632, -53.539, 43.6509
1.532, -1, 34.5612, 48.5669, -13.0569, 95.8022, -53.4924, 43.6597
1.536, -1, 34.5933, 48.5565, -13.0811, 95.8411, -53.4459, 43.6686
1.54, -1, 34.6253, 48.5461, -13.1054, 95.8801, -53.3994, 43.6774
1.544, -1, 34.6573, 48.5357, -13.1296, 95.919, -53.353, 43.6863
1.548, -1, 34.6893, 48.5254, -13.1537, 95.958, -53.3065, 43.6951
1.552, -1, 34.7212, 48.515, -13.1779, 95.9969, -53.2601, 43.704
1.556, -1, 34.7532, 48.5046, -13.2021, 96.0358, -53.2137, 43.7128
1.56, -1, 34.7852, 48.4942, -13.2262, 96.0746, -53.1673, 43.7216
1.564, -1, 34.8171, 48.4839, -13.2504, 96.1135, -53.1209, 43.7304
1.568, -1, 34.849, 48.4735, -13.2745, 96.1523, -53.0746, 43.7392
1.572, -1, 34.8809, 48.4631, -13.2986, 96.1911, -53.0283, 43.7481
1.576, -1, 34.9128, 48.4528, -13.3227, 96.2299, -52.982, 43.7569
1.58, -1, 34.9447, 48.4424, -13.3468, 96.2687, -52.9357, 43.7657
1.584, -1, 34.9765, 48.4321, -13.3709, 96.3075, -52.8894, 43.7745
1.588, -1, 35.0084, 48.4217, -13.395, 96.3462, -52.8432, 43.7833
1.592, -1, 35.0402, 48.4114, -13.4191, 96.3849, -52.797, 43.7921
1.596, -1, 35.072, 48.4011, -13.4431, 96.4236, -52.7508, 43.8009
1.6, -1, 35.1038, 48.3908, -13.4672, 96.4623, -52.7046, 43.8096
1.604, -1, 35.1356, 48.3804, -13.4912, 96.501, -52.6584, 43.8184
1.608, -1, 35.1674, 48.3701, -13.5152, 96.5397, -52.6123, 43.8272
1.612, -1, 35.1991, 48.3598, -13.5393, 96.5783, -52.5662, 43.836
1.616, -1, 35.2309, 48.3495, -13.5633, 96.6169, -52.5201, 43.8447
1.62, -1, 35.2625, 48.3392, -13.5873, 96.6555, -52.474, 43.8535
1.624, -1, 35.294, 48.329, -13.6113, 96.6941, -52.428, 43.8623
1.628, -1, 35.3252, 48.3189, -13.6353, 96.7327, -52.3819, 43.871
1.632, -1, 35.356, 48.3088, -13.6593, 96.7712, -52.336, 43.8798
1.636, -1, 35.3865, 48.299, -13.6833, 96.8096, -52.2901, 43.8885
1.64, -1, 35.4165, 48.2893, -13.7072, 96.848, -52.2443, 43.8972
1.644, -1, 35.446, 48.2798, -13.7312, 96.8862, -52.1987, 43.9059
1.648, -1, 35.4749, 48.2706, -13.7551, 96.9243, -52.1534, 43.9145
1.652, -1, 35.5033, 48.2617, -13.7788, 96.962, -52.1083, 43.9231
1.656, -1, 35.5309, 48.2532, -13.8025, 96.9994, -52.0638, 43.9316
1.66, -1, 35.5575, 48.2451, -13.8259, 97.0363, -52.0198, 43.94
1.664, -1, 35.5832, 48.2375, -13.849, 97.0725, -51.9766, 43.9482
1.668, -1, 35.6077, 48.2303, -13.8717, 97.1079, -51.9345, 43.9563
1.672, -1, 35.6312, 48.2236, -13.8937, 97.1423, -51.8935, 43.9641
1.676, -1, 35.6537, 48.2172, -13.9151, 97.1754, -51.8541, 43.9716
1.68, -1, 35.6753, 48.211, -13.9354, 97.2071, -51.8164, 43.9788
1.684, -1, 35.6959, 48.2051, -13.9547, 97.2371, -51.7806, 43.9857
1.688, -1, 35.7155, 48.1994, -13.9728, 97.2653, -51.7471, 43.9921
1.692, -1, 35.734, 48.194, -13.9895, 97.2914, -51.716, 43.998
1.696, -1, 35.7515, 48.1887, -14.0047, 97.3153, -51.6874, 44.0034
1.7, -1, 35.7681, 48.1836, -14.0184, 97.337, -51.6616, 44.0084
1.704, -1, 35.7838, 48.1786, -14.0305, 97.3564, -51.6385, 44.0128
1.708, -1, 35.7987, 48.1736, -14.0409, 97.3734, -51.6181, 44.0166
1.712, -1, 35.8129, 48.1686, -14.0498, 97.3882, -51.6004, 44.02
1.716, -1, 35.8263, 48.1636, -14.0571, 97.4008, -51.5854, 44.0228
1.72, -1, 35.8388, 48.1588, -14.063, 97.4113, -51.5728, 44.0252
1.724, -1, 35.8502, 48.1543, -14.0678, 97.42, -51.5623, 44.0272
1.728, -1, 35.8604, 48.1502, -14.0714, 97.427, -51.5539, 44.0288
1.732, -1, 35.8696, 48.1464, -14.0742, 97.4325, -51.5472, 44.03
1.736, -1, 35.8778, 48.1429, -14.0762, 97.4368, -51.5419, 44.031
1.74, -1, 35.8851, 48.1398, -14.0776, 97.4401, -51.5379, 44.0317
1.744, -1, 35.8916, 48.1371, -14.0786, 97.4425, -51.535, 44.0322
1.748, -1, 35.8971, 48.1348, -14.0792, 97.4443, -51.5328, 44.0326
1.752, 2, 35.9018, 48.1329, -14.0795, 97.4455, -51.5313, 44.0329
1.756, 2, 35.9056, 48.1314, -14.0797, 97.4464, -51.5302, 44.0331
1.76, 2, 35.9085, 48.1303, -14.0798, 97.447, -51.5294, 44.0332
1.764, 2, 35.9106, 48.1295, -14.0799, 97.4474, -51.5289, 44.0333
1.768, 2, 35.9121, 48.1289, -14.0799, 97.4477, -51.5286, 44.0334
1.772, 2, 35.9131, 48.1286, -14.08, 97.4479, -51.5283, 44.0334
1.776, 2, 35.9137, 48.1283, -14.08, 97.448, -51.5282, 44.0335
1.78, 2, 35.9142, 48.1281, -14.08, 97.4481, -51.5281, 44.0335
1.784, 2, 35.9145, 48.128, -14.08, 97.4482, -51.528, 44.0335
1.788, 2, 35.9147, 48.1279, -14.08, 97.4482, -51.5279, 44.0335
1.792, 2, 35.9148, 48.1279, -14.08, 97.4482, -51.5279, 44.0335
1.796, 2, 35.9149, 48.1279, -14.08, 97.4482, -51.5279, 44.0335
1.8, 2, 35.915, 48.1278, -14.08, 97.4483, -51.5279, 44.0335
1.804, 2, 35.915, 48.1278, -14.08, 97.4483, -51.5279, 44.0335
1.808, 2, 35.9151, 48.1278, -14.08, 97.4483, -51.5279, 44.0335
1.812, 2, 35.9151, 48.1278, -14.08, 97.4483, -51.5279, 44.0335
1.816, 2, 35.9151, 48.1278, -14.08, 97.4483, -51.5278, 44.0335
1.82, 2, 35.9151, 48.1278, -14.08, 97.4483, -51.5278, 44.0335
1.824, 2, 35.9151, 48.1278, -14.08, 97.4483, -51.5278, 44.0335
1.828, 2, 35.9151, 48.1278, -14.08, 97.4483, -51.5278, 44.0335
1.832, 2, 35.9151, 48.1278, -14.08, 97.4483, -51.5278, 44.0335
1.836, 2, 35.9151, 48.1278, -14.08, 97.4483, -51.5278, 44.0335
1.84, 2, 35.9151, 48.1278, -14.08, 97.4483, -51.5278, 44.0335
1.844, 2, 35.9151, 48.1278, -14.08, 97.4483, -51.5278, 44.0335
1.848, 2, 35.9151, 48.1278, -14.08, 97.4483, -51.5278, 44.0335
1.852, 2, 35.9151, 48.1278, -14.08, 97.4483, -51.5278, 44.0335
1.856, 2, 35.9151, 48.1278, -14.08, 97.4483, -51.5278, 44.0335
1.86, 2, 35.9151, 48.1278, -14.08, 97.4483, -51.5278, 44.0335
1.864, 2, 35.9151, 48.1278, -14.08, 97.4483, -51.5278, 44.0335
1.868, 2, 35.9151, 48.1278, -14.08, 97.4483, -51.5278, 44.0335
1.872, 2, 35.9151, 48.1278, -14.08, 97.4483, -51.5278, 44.0335
1.876, 2, 35.9151, 48.1278, -14.08, 97.4483, -51.5278, 44.0335
1.88, 2, 35.9151, 48.1278, -14.08, 97.4483, -51.5278, 44.0335
1.884, 2, 35.9151, 48.1278, -14.08, 97.4483, -51.5278, 44.0335
1.888, 2, 35.9151, 48.1278, -14.08, 97.4483, -51.5278, 44.0335
1.892, 2, 35.9151, 48.1278, -14.08, 97.4483, -51.5278, 44.0335
1.896, 2, 35.9151, 48.1278, -14.08, 97.4483, -51.5278, 44.0335
1.9, 2, 35.9151, 48.1278, -14.08, 97.4483, -51.5278, 44.0335
1.904, 2, 35.9151, 48.1278, -14.08, 97.4483, -51.5278, 44.0335
1.908, 2, 35.9151, 48.1278, -14.08, 97.4483, -51.5278, 44.0335
1.912, 2, 35.9151, 48.1278, -14.08, 97.4483, -51.5278, 44.0335
1.916, 2, 35.9151, 48.1278, -14.08, 97.4483, -51.5278, 44.0335
1.92, 2, 35.9151, 48.1278, -14.08, 97.4483, -51.5278, 44.0335
1.924, 2, 35.9151, 48.1278, -14.08, 97.4483, -51.5278, 44.0335
1.928, 2, 35.9151, 48.1278, -14.08, 97.4483, -51.5278, 44.0335
1.932, 2, 35.9151, 48.1278, -14.08, 97.4483, -51.5278, 44.0335
1.936, 2, 35.9151, 48.1278, -14.08, 97.4483, -51.5278, 44.0335
1.94, 2, 35.9151, 48.1278, -14.08, 97.4483, -51.5278, 44.0335
1.944, 2, 35.9151, 48.1278, -14.08, 97.4483, -51.5278, 44.0335
1.948, 2, 35.9151, 48.1278, -14.08, 97.4483, -51.5278, 44.0335
1.952, 2, 35.9151, 48.1278, -14.08, 97.4483, -51.5278, 44.0335
1.956, 2, 35.9151, 48.1278, -14.08, 97.4483, -51.5278, 44.0335
1.96, 2, 35.9151, 48.1278, -14.08, 97.4483, -51.5278, 44.0335
1.964, 2, 35.9151, 48.1278, -14.08, 97.4483, -51.5278, 44.0335
1.968, 2, 35.9151, 48.1278, -14.08, 97.4483, -51.5278, 44.0335
1.972, 2, 35.9151, 48.1278, -14.08, 97.4483, -51.5278, 44.0335
1.976, 2, 35.9151, 48.1278, -14.08, 97.4483, -51.5278, 44.0335
1.98, 2, 35.9151, 48.1278, -14.08, 97.4483, -51.5278, 44.0335
1.984, 2, 35.9151, 48.1278, -14.08, 97.4483, -51.5278, 44.0335
1.988, 2, 35.9151, 48.1278, -14.08, 97.4483, -51.5278, 44.0335
1.992, 2, 35.9151, 48.1278, -14.08, 97.4483, -51.5278, 44.0335
1.996, 2, 35.9151, 48.1278, -14.08, 97.4483, -51.5278, 44.0335
1.999, 2, 35.9151, 48.1278, -14.08, 97.4483, -51.5278, 44.0335
2.004, 2, 35.9151, 48.1278, -14.08, 97.4483, -51.5278, 44.0335
2.008, 2, 35.9151, 48.1278, -14.08, 97.4483, -51.5278, 44.0335
2.012, 2, 35.9151, 48.1278, -14.08, 97.4483, -51.5278, 44.0335
2.015, 2, 35.9151, 48.1278, -14.08, 97.4483, -51.5278, 44.0335
2.019, 2, 35.9151, 48.1278, -14.08, 97.4483, -51.5278, 44.0335
2.024, 2, 35.9151, 48.1278, -14.08, 97.4483, -51.5278, 44.0335
2.028, 2, 35.9151, 48.1278, -14.08, 97.4483, -51.5278, 44.0335
2.031, 2, 35.9151, 48.1278, -14.08, 97.4483, -51.5278, 44.0335
2.036, 2, 35.9151, 48.1278, -14.08, 97.4483, -51.5278, 44.0335
2.04, 2, 35.9151, 48.1278, -14.08, 97.4483, -51.5278, 44.0335
2.044, 2, 35.9151, 48.1278, -14.08, 97.4483, -51.5278, 44.0335
2.048, 2, 35.9151, 48.1278, -14.08, 97.4483, -51.5278, 44.0335
2.051, 2, 35.9151, 48.1278, -14.08, 97.4483, -51.5278, 44.0335
2.055, 2, 35.9151, 48.1278, -14.08, 97.4483, -51.5278, 44.0335
2.06, 2, 35.9151, 48.1278, -14.08, 97.4483, -51.5278, 44.0335
2.064, 2, 35.9151, 48.1278, -14.08, 97.4483, -51.5278, 44.0335
2.068, 2, 35.9151, 48.1278, -14.08, 97.4483, -51.5278, 44.0335
2.071, 2, 35.9151, 48.1278, -14.08, 97.4483, -51.5278, 44.0335
2.076, 2, 35.9151, 48.1278, -14.08, 97.4483, -51.5278, 44.0335
2.08, 2, 35.9151, 48.1278, -14.08, 97.4483, -51.5278, 44.0335
2.084, 2, 35.9151, 48.1278, -14.08, 97.4483, -51.5278, 44.0335
2.087, 2, 35.9151, 48.1278, -14.08, 97.4483, -51.5278, 44.0335
2.092, 2, 35.9151, 48.1278, -14.08, 97.4483, -51.5278, 44.0335
2.096, 2, 35.9151, 48.1278, -14.08, 97.4483, -51.5278, 44.0335
2.1, 2, 35.9151, 48.1278, -14.08, 97.4483, -51.5278, 44.0335
2.104, 2, 35.9151, 48.1278, -14.08, 97.4483, -51.5278, 44.0335
2.107, 2, 35.9151, 48.1278, -14.08, 97.4483, -51.5278, 44.0335
2.111, 2, 35.9151, 48.1278, -14.08, 97.4483, -51.5278, 44.0335
2.116, 2, 35.9151, 48.1278, -14.08, 97.4483, -51.5278, 44.0335
2.12, 2, 35.9151, 48.1278, -14.08, 97.4483, -51.5278, 44.0335
2.124, 2, 35.9151, 48.1278, -14.08, 97.4483, -51.5278, 44.0335
2.127, 2, 35.9151, 48.1278, -14.08, 97.4483, -51.5278, 44.0335
2.132, 2, 35.9151, 48.1278, -14.08, 97.4483, -51.5278, 44.0335
2.136, 2, 35.9151, 48.1278, -14.08, 97.4483, -51.5278, 44.0335
2.14, 2, 35.9151, 48.1278, -14.08, 97.4483, -51.5278, 44.0335
2.143, 2, 35.9151, 48.1278, -14.08, 97.4483, -51.5278, 44.0335
2.148, 2, 35.9151, 48.1278, -14.08, 97.4483, -51.5278, 44.0335
2.152, 2, 35.9151, 48.1278, -14.08, 97.4483, -51.5278, 44.0335
2.156, 2, 35.9151, 48.1278, -14.08, 97.4483, -51.5278, 44.0335
2.16, 2, 35.9151, 48.1278, -14.08, 97.4483, -51.5278, 44.0335
2.163, 2, 35.9151, 48.1278, -14.08, 97.4483, -51.5278, 44.0335
2.168, 2, 35.9151, 48.1278, -14.08, 97.4483, -51.5278, 44.0335
2.172, 2, 35.9151, 48.1278, -14.08, 97.4483, -51.5278, 44.0335
2.176, 2, 35.9151, 48.1278, -14.08, 97.4483, -51.5278, 44.0335
2.179, 2, 35.9151, 48.1278, -14.08, 97.4483, -51.5278, 44.0335
2.184, 2, 35.9151, 48.1278, -14.08, 97.4483, -51.5278, 44.0335
2.188, 2, 35.9151, 48.1278, -14.08, 97.4483, -51.5278, 44.0335
2.192, 2, 35.9151, 48.1278, -14.08, 97.4483, -51.5278, 44.0335
2.196, 2, 35.9151, 48.1278, -14.08, 97.4483, -51.5278, 44.0335
2.199, 2, 35.9151, 48.1278, -14.08, 97.4483, -51.5278, 44.0335
2.204, 2, 35.9151, 48.1278, -14.08, 97.4483, -51.5278, 44.0335
2.208, 2, 35.9151, 48.1278, -14.08, 97.4483, -51.5278, 44.0335
2.212, 2, 35.9151, 48.1278, -14.08, 97.4483, -51.5278, 44.0335
2.216, 2, 35.9151, 48.1278, -14.08, 97.4483, -51.5278, 44.0335
2.219, 2, 35.9151, 48.1278, -14.08, 97.4483, -51.5278, 44.0335
2.224, 2, 35.9151, 48.1278, -14.08, 97.4483, -51.5278, 44.0335
2.228, 2, 35.9151, 48.1278, -14.08, 97.4483, -51.5278, 44.0335
2.232, 2, 35.9151, 48.1278, -14.08, 97.4483, -51.5278, 44.0335
2.235, 2, 35.9151, 48.1278, -14.08, 97.4483, -51.5278, 44.0335
2.24, 2, 35.9151, 48.1278, -14.08, 97.4483, -51.5278, 44.0335
2.244, 2, 35.9151, 48.1278, -14.08, 97.4483, -51.5278, 44.0335
2.248, 2, 35.9151, 48.1278, -14.08, 97.4483, -51.5278, 44.0335
2.252, 2, 35.9151, 48.1278, -14.08, 97.4483, -51.5278, 44.0335
2.255, 2, 35.9151, 48.1278, -14.08, 97.4483, -51.5278, 44.0335
2.259, 2, 35.9151, 48.1278, -14.08, 97.4483, -51.5278, 44.0335
2.264, 2, 35.9151, 48.1278, -14.08, 97.4483, -51.5278, 44.0335
2.268, 2, 35.9151, 48.1278, -14.08, 97.4483, -51.5278, 44.0335
2.272, 2, 35.9151, 48.1278, -14.08, 97.4483, -51.5278, 44.0335
2.275, 2, 35.9151, 48.1278, -14.08, 97.4483, -51.5278, 44.0335
2.28, 2, 35.9151, 48.1278, -14.08, 97.4483, -51.5278, 44.0335
2.284, 2, 35.9151, 48.1278, -14.08, 97.4483, -51.5278, 44.0335
2.288, 2, 35.9151, 48.1278, -14.08, 97.4483, -51.5278, 44.0335
2.291, 2, 35.9151, 48.1278, -14.08, 97.4483, -51.5278, 44.0335
2.296, 2, 35.9151, 48.1278, -14.08, 97.4483, -51.5278, 44.0335
2.3, 2, 35.9151, 48.1278, -14.08, 97.4483, -51.5278, 44.0335
2.304, 2, 35.9151, 48.1278, -14.08, 97.4483, -51.5278, 44.0335
2.308, 2, 35.9151, 48.1278, -14.08, 97.4483, -51.5278, 44.0335
2.311, 2, 35.9151, 48.1278, -14.08, 97.4483, -51.5278, 44.0335
2.316, 2, 35.9151, 48.1278, -14.08, 97.4483, -51.5278, 44.0335
2.32, 2, 35.9151, 48.1278, -14.08, 97.4483, -51.5278, 44.0335
2.324, 2, 35.9151, 48.1278, -14.08, 97.4483, -51.5278, 44.0335
2.328, 2, 35.9151, 48.1278, -14.08, 97.4483, -51.5278, 44.0335
2.331, 2, 35.9151, 48.1278, -14.08, 97.4483, -51.5278, 44.0335
2.336, 2, 35.9151, 48.1278, -14.08, 97.4483, -51.5278, 44.0335
2.34, 2, 35.9151, 48.1278, -14.08, 97.4483, -51.5278, 44.0335
2.344, 2, 35.9151, 48.1278, -14.08, 97.4483, -51.5278, 44.0335
2.347, 2, 35.9151, 48.1278, -14.08, 97.4483, -51.5278, 44.0335
2.352, 2, 35.9151, 48.1278, -14.08, 97.4483, -51.5278, 44.0335
2.356, 2, 35.9151, 48.1278, -14.08, 97.4483, -51.5278, 44.0335
2.36, 2, 35.9151, 48.1278, -14.08, 97.4483, -51.5278, 44.0335
2.364, 2, 35.9151, 48.1278, -14.08, 97.4483, -51.5278, 44.0335
2.367, 2, 35.9151, 48.1278, -14.08, 97.4483, -51.5278, 44.0335
2.372, 2, 35.9151, 48.1278, -14.08, 97.4483, -51.5278, 44.0335
2.376, 2, 35.9151, 48.1278, -14.08, 97.4483, -51.5278, 44.0335
2.38, 2, 35.9151, 48.1278, -14.08, 97.4483, -51.5278, 44.0335
2.383, 2, 35.9151, 48.1278, -14.08, 97.4483, -51.5278, 44.0335
2.388, 2, 35.9151, 48.1278, -14.08, 97.4483, -51.5278, 44.0335
2.392, 2, 35.9151, 48.1278, -14.08, 97.4483, -51.5278, 44.0335
2.396, 2, 35.9151, 48.1278, -14.08, 97.4483, -51.5278, 44.0335
2.4, 2, 35.9151, 48.1278, -14.08, 97.4483, -51.5278, 44.0335
2.403, 2, 35.9151, 48.1278, -14.08, 97.4483, -51.5278, 44.0335
2.408, 2, 35.9151, 48.1278, -14.08, 97.4483, -51.5278, 44.0335
2.412, 2, 35.9151, 48.1278, -14.08, 97.4483, -51.5278, 44.0335
2.416, 2, 35.9151, 48.1278, -14.08, 97.4483, -51.5278, 44.0335
2.42, 2, 35.9151, 48.1278, -14.08, 97.4483, -51.5278, 44.0335
2.423, 2, 35.9151, 48.1278, -14.08, 97.4483, -51.5278, 44.0335
2.428, 2, 35.9151, 48.1278, -14.08, 97.4483, -51.5278, 44.0335
2.432, 2, 35.9151, 48.1278, -14.08, 97.4483, -51.5278, 44.0335
2.436, 2, 35.9151, 48.1278, -14.08, 97.4483, -51.5278, 44.0335
2.439, 2, 35.9151, 48.1278, -14.08, 97.4483, -51.5278, 44.0335
2.444, 2, 35.9151, 48.1278, -14.08, 97.4483, -51.5278, 44.0335
2.448, 2, 35.9151, 48.1278, -14.08, 97.4483, -51.5278, 44.0335
2.452, 2, 35.9151, 48.1278, -14.08, 97.4483, -51.5278, 44.0335
2.456, 2, 35.9151, 48.1278, -14.08, 97.4483, -51.5278, 44.0335
2.459, 2, 35.9151, 48.1278, -14.08, 97.4483, -51.5278, 44.0335
2.464, 2, 35.9151, 48.1278, -14.08, 97.4483, -51.5278, 44.0335
2.468, 2, 35.9151, 48.1278, -14.08, 97.4483, -51.5278, 44.0335
2.472, 2, 35.9151, 48.1278, -14.08, 97.4483, -51.5278, 44.0335
2.476, 2, 35.9151, 48.1278, -14.08, 97.4483, -51.5278, 44.0335
2.479, 2, 35.9151, 48.1278, -14.08, 97.4483, -51.5278, 44.0335
2.484, 2, 35.9151, 48.1278, -14.08, 97.4483, -51.5278, 44.0335
2.488, 2, 35.9151, 48.1278, -14.08, 97.4483, -51.5278, 44.0335
2.492, 2, 35.9151, 48.1278, -14.08, 97.4483, -51.5278, 44.0335
2.495, 2, 35.9151, 48.1278, -14.08, 97.4483, -51.5278, 44.0335
2.5, 2, 35.9151, 48.1278, -14.08, 97.4483, -51.5278, 44.0335
2.504, 2, 35.9151, 48.1278, -14.08, 97.4483, -51.5278, 44.0335
2.508, 2, 35.9151, 48.1278, -14.08, 97.4483, -51.5278, 44.0335
2.512, 2, 35.9151, 48.1278, -14.08, 97.4483, -51.5278, 44.0335
2.515, 2, 35.9151, 48.1278, -14.08, 97.4483, -51.5278, 44.0335
2.52, 2, 35.9151, 48.1278, -14.08, 97.4483, -51.5278, 44.0335
2.524, 2, 35.9151, 48.1278, -14.08, 97.4483, -51.5278, 44.0335
2.528, 2, 35.9151, 48.1278, -14.08, 97.4483, -51.5278, 44.0335
2.531, 2, 35.9151, 48.1278, -14.08, 97.4483, -51.5278, 44.0335
2.536, 2, 35.9151, 48.1278, -14.08, 97.4483, -51.5278, 44.0335
2.54, 2, 35.9151, 48.1278, -14.08, 97.4483, -51.5278, 44.0335
2.544, 2, 35.9151, 48.1278, -14.08, 97.4483, -51.5278, 44.0335
2.548, 2, 35.9151, 48.1278, -14.08, 97.4483, -51.5278, 44.0335
2.551, 2, 35.9151, 48.1278, -14.08, 97.4483, -51.5278, 44.0335
2.556, 2, 35.9151, 48.1278, -14.08, 97.4483, -51.5278, 44.0335
2.56, 2, 35.9151, 48.1278, -14.08, 97.4483, -51.5278, 44.0335
2.564, 2, 35.9151, 48.1278, -14.08, 97.4483, -51.5278, 44.0335
2.568, 2, 35.9151, 48.1278, -14.08, 97.4483, -51.5278, 44.0335
2.571, 2, 35.9151, 48.1278, -14.08, 97.4483, -51.5278, 44.0335
2.576, 2, 35.9151, 48.1278, -14.08, 97.4483, -51.5278, 44.0335
2.58, 2, 35.9151, 48.1278, -14.08, 97.4483, -51.5278, 44.0335
2.584, 2, 35.9151, 48.1278, -14.08, 97.4483, -51.5278, 44.0335
2.587, 2, 35.9151, 48.1278, -14.08, 97.4483, -51.5278, 44.0335
2.592, 2, 35.9151, 48.1278, -14.08, 97.4483, -51.5278, 44.0335
2.596, 2, 35.9151, 48.1278, -14.08, 97.4483, -51.5278, 44.0335
2.6, 2, 35.9151, 48.1278, -14.08, 97.4483, -51.5278, 44.0335
2.604, 2, 35.9151, 48.1278, -14.08, 97.4483, -51.5278, 44.0335
2.607, 2, 35.9151, 48.1278, -14.08, 97.4483, -51.5278, 44.0335
2.612, 2, 35.9151, 48.1278, -14.08, 97.4483, -51.5278, 44.0335
2.616, 2, 35.9151, 48.1278, -14.08, 97.4483, -51.5278, 44.0335
2.62, 2, 35.9151, 48.1278, -14.08, 97.4483, -51.5278, 44.0335
2.624, 2, 35.9151, 48.1278, -14.08, 97.4483, -51.5278, 44.0335
2.627, 2, 35.9151, 48.1278, -14.08, 97.4483, -51.5278, 44.0335
2.632, 2, 35.9151, 48.1278, -14.08, 97.4483, -51.5278, 44.0335
2.636, 2, 35.9151, 48.1278, -14.08, 97.4483, -51.5278, 44.0335
2.64, 2, 35.9151, 48.1278, -14.08, 97.4483, -51.5278, 44.0335
2.643, 2, 35.9151, 48.1278, -14.08, 97.4483, -51.5278, 44.0335
2.648, 2, 35.9151, 48.1278, -14.08, 97.4483, -51.5278, 44.0335
2.652, 2, 35.9151, 48.1278, -14.08, 97.4483, -51.5278, 44.0335
2.656, 2, 35.9151, 48.1278, -14.08, 97.4483, -51.5278, 44.0335
2.66, 2, 35.9151, 48.1278, -14.08, 97.4483, -51.5278, 44.0335
2.663, 2, 35.9151, 48.1278, -14.08, 97.4483, -51.5278, 44.0335
2.668, 2, 35.9151, 48.1278, -14.08, 97.4483, -51.5278, 44.0335
2.672, 2, 35.9151, 48.1278, -14.08, 97.4483, -51.5278, 44.0335
2.676, 2, 35.9151, 48.1278, -14.08, 97.4483, -51.5278, 44.0335
2.679, 2, 35.9151, 48.1278, -14.08, 97.4483, -51.5278, 44.0335
2.684, 2, 35.9151, 48.1278, -14.08, 97.4483, -51.5278, 44.0335
2.688, 2, 35.9151, 48.1278, -14.08, 97.4483, -51.5278, 44.0335
2.692, 2, 35.9151, 48.1278, -14.08, 97.4483, -51.5278, 44.0335
2.696, 2, 35.9151, 48.1278, -14.08, 97.4483, -51.5278, 44.0335
2.699, 2, 35.9151, 48.1278, -14.08, 97.4483, -51.5278, 44.0335
2.704, 2, 35.9151, 48.1278, -14.08, 97.4483, -51.5278, 44.0335
2.708, 2, 35.9151, 48.1278, -14.08, 97.4483, -51.5278, 44.0335
2.712, 2, 35.9151, 48.1278, -14.08, 97.4483, -51.5278, 44.0335
2.716, 2, 35.9151, 48.1278, -14.08, 97.4483, -51.5278, 44.0335
2.719, 2, 35.9151, 48.1278, -14.08, 97.4483, -51.5278, 44.0335
2.724, 2, 35.9151, 48.1278, -14.08, 97.4483, -51.5278, 44.0335
2.728, 2, 35.9151, 48.1278, -14.08, 97.4483, -51.5278, 44.0335
2.732, 2, 35.9151, 48.1278, -14.08, 97.4483, -51.5278, 44.0335
2.735, 2, 35.9151, 48.1278, -14.08, 97.4483, -51.5278, 44.0335
2.74, 2, 35.9151, 48.1278, -14.08, 97.4483, -51.5278, 44.0335
2.744, 2, 35.9151, 48.1278, -14.08, 97.4483, -51.5278, 44.0335
2.748, 2, 35.9151, 48.1278, -14.08, 97.4483, -51.5278, 44.0335
2.752, 2, 35.9151, 48.1278, -14.08, 97.4483, -51.5278, 44.0335
2.755, 2, 35.9151, 48.1278, -14.08, 97.4483, -51.5278, 44.0335
2.76, 2, 35.9151, 48.1278, -14.08, 97.4483, -51.5278, 44.0335
2.764, 2, 35.9151, 48.1278, -14.08, 97.4483, -51.5278, 44.0335
2.768, 2, 35.9151, 48.1278, -14.08, 97.4483, -51.5278, 44.0335
2.772, 2, 35.9151, 48.1278, -14.08, 97.4483, -51.5278, 44.0335
2.775, 2, 35.9151, 48.1278, -14.08, 97.4483, -51.5278, 44.0335
2.78, 2, 35.9151, 48.1278, -14.08, 97.4483, -51.5278, 44.0335
2.784, 2, 35.9151, 48.1278, -14.08, 97.4483, -51.5278, 44.0335
2.788, 2, 35.9151, 48.1278, -14.08, 97.4483, -51.5278, 44.0335
2.791, 2, 35.9151, 48.1278, -14.08, 97.4483, -51.5278, 44.0335
2.796, 2, 35.9151, 48.1278, -14.08, 97.4483, -51.5278, 44.0335
2.8, 2, 35.9151, 48.1278, -14.08, 97.4483, -51.5278, 44.0335
2.804, 2, 35.9151, 48.1278, -14.08, 97.4483, -51.5278, 44.0335
2.808, 4, 35.9151, 48.1278, -14.08, 97.4483, -51.5278, 44.0335
2.811, 4, 35.9151, 48.1278, -14.08, 97.4483, -51.5278, 44.0335
2.816, 4, 35.9151, 48.1278, -14.08, 97.4483, -51.5278, 44.0335
2.82, 4, 35.9151, 48.1278, -14.08, 97.4483, -51.5278, 44.0335
2.824, 4, 35.9151, 48.1278, -14.08, 97.4483, -51.5278, 44.0335
2.828, 4, 35.9151, 48.1278, -14.08, 97.4483, -51.5278, 44.0335
2.831, 4, 35.9151, 48.1278, -14.08, 97.4483, -51.5278, 44.0335
2.836, 4, 35.9151, 48.1278, -14.08, 97.4483, -51.5278, 44.0335
2.84, 4, 35.9151, 48.1278, -14.08, 97.4483, -51.5278, 44.0335
2.844, 4, 35.9151, 48.1278, -14.08, 97.4483, -51.5278, 44.0335
2.847, 4, 35.9151, 48.1278, -14.08, 97.4483, -51.5278, 44.0335
2.852, 4, 35.9151, 48.1278, -14.08, 97.4483, -51.5278, 44.0335
2.856, 4, 35.9151, 48.1278, -14.08, 97.4483, -51.5278, 44.0335
2.86, 4, 35.9151, 48.1278, -14.08, 97.4483, -51.5278, 44.0335
2.864, 4, 35.9151, 48.1278, -14.08, 97.4483, -51.5278, 44.0335
2.867, 4, 35.9151, 48.1278, -14.08, 97.4483, -51.5278, 44.0335
2.872, 4, 35.9151, 48.1278, -14.08, 97.4483, -51.5278, 44.0335
2.876, 4, 35.9151, 48.1278, -14.08, 97.4483, -51.5278, 44.0335
2.88, 4, 35.9151, 48.1278, -14.08, 97.4483, -51.5278, 44.0335
2.883, 4, 35.9151, 48.1278, -14.08, 97.4483, -51.5278, 44.0335
2.888, 4, 35.9151, 48.1278, -14.08, 97.4483, -51.5278, 44.0335
2.892, 4, 35.9151, 48.1278, -14.08, 97.4483, -51.5278, 44.0335
2.896, 4, 35.9151, 48.1278, -14.08, 97.4483, -51.5278, 44.0335
2.9, 4, 35.9151, 48.1278, -14.08, 97.4483, -51.5278, 44.0335
2.903, 4, 35.9151, 48.1278, -14.08, 97.4483, -51.5278, 44.0335
2.908, 4, 35.9151, 48.1278, -14.08, 97.4483, -51.5278, 44.0335
2.912, 4, 35.9151, 48.1278, -14.08, 97.4483, -51.5278, 44.0335
2.916, 4, 35.9151, 48.1278, -14.08, 97.4483, -51.5278, 44.0335
2.92, 4, 35.9151, 48.1278, -14.08, 97.4483, -51.5278, 44.0335
2.923, 4, 35.9151, 48.1278, -14.08, 97.4483, -51.5278, 44.0335
2.928, 4, 35.9151, 48.1278, -14.08, 97.4483, -51.5278, 44.0335
2.932, 4, 35.9151, 48.1278, -14.08, 97.4483, -51.5278, 44.0335
2.936, 4, 35.9151, 48.1278, -14.08, 97.4483, -51.5278, 44.0335
2.939, 4, 35.9151, 48.1278, -14.08, 97.4483, -51.5278, 44.0335
2.944, 4, 35.9148, 48.1277, -14.08, 97.4483, -51.5279, 44.0335
2.948, 4, 35.9142, 48.1276, -14.0799, 97.4482, -51.5279, 44.0335
2.952, 4, 35.9132, 48.1273, -14.0797, 97.4482, -51.528, 44.0336
2.956, 4, 35.9115, 48.1268, -14.0792, 97.448, -51.5283, 44.0336
2.959, 4, 35.9092, 48.1259, -14.0783, 97.4476, -51.5288, 44.0337
2.964, 4, 35.9062, 48.1245, -14.0767, 97.4468, -51.5297, 44.0339
2.968, 4, 35.9025, 48.1226, -14.0741, 97.4456, -51.5311, 44.0342
2.972, 4, 35.898, 48.1198, -14.07, 97.4435, -51.5334, 44.0348
2.976, 4, 35.8927, 48.1162, -14.0639, 97.4404, -51.5368, 44.0356
2.98, 5, 35.8864, 48.1114, -14.0553, 97.436, -51.5418, 44.0368
2.984, 5, 35.8789, 48.1054, -14.0433, 97.4296, -51.5486, 44.0385
2.988, 5, 35.8701, 48.0978, -14.0272, 97.4211, -51.5578, 44.0408
2.992, 5, 35.8598, 48.0885, -14.0062, 97.4098, -51.5699, 44.0439
2.995, 5, 35.8479, 48.0772, -13.9792, 97.3952, -51.5855, 44.0478
3, 5, 35.8344, 48.0636, -13.9453, 97.3767, -51.6052, 44.0528
3.004, 5, 35.8193, 48.0474, -13.9035, 97.3538, -51.6294, 44.0589
3.008, 5, 35.8024, 48.0284, -13.853, 97.326, -51.6588, 44.0664
3.012, 5, 35.7836, 48.0063, -13.7929, 97.2928, -51.6939, 44.0752
3.015, 5, 35.7627, 47.9808, -13.7224, 97.2537, -51.7351, 44.0857
3.02, 5, 35.7395, 47.9516, -13.6408, 97.2084, -51.783, 44.0978
3.024, 5, 35.714, 47.9187, -13.5477, 97.1565, -51.8378, 44.1115
3.028, 5, 35.6859, 47.8819, -13.4424, 97.0978, -51.8999, 44.1271
3.031, 5, 35.6553, 47.8411, -13.3248, 97.0321, -51.9695, 44.1444
3.036, 5, 35.6218, 47.7963, -13.1945, 96.9591, -52.047, 44.1636
3.04, 5, 35.5854, 47.7475, -13.0515, 96.8789, -52.1323, 44.1846
3.044, 5, 35.546, 47.6947, -12.8957, 96.7914, -52.2256, 44.2074
3.048, 5, 35.5033, 47.6381, -12.7271, 96.6966, -52.327, 44.2319
3.051, 5, 35.4572, 47.5777, -12.5459, 96.5946, -52.4365, 44.2582
3.056, 5, 35.4077, 47.5136, -12.3522, 96.4853, -52.5542, 44.2862
3.06, 5, 35.3547, 47.446, -12.1461, 96.369, -52.68, 44.3158
3.064, 5, 35.2982, 47.375, -11.9278, 96.2455, -52.8139, 44.347
3.068, 5, 35.2382, 47.3007, -11.6977, 96.1152, -52.9559, 44.3797
3.071, 5, 35.1747, 47.2233, -11.4559, 95.978, -53.1061, 44.4139
3.076, 5, 35.1078, 47.1428, -11.2028, 95.8341, -53.2642, 44.4495
3.08, 5, 35.0375, 47.0594, -10.9388, 95.6837, -53.4303, 44.4865
3.084, 5, 34.9641, 46.9733, -10.6642, 95.5268, -53.6042, 44.5247
3.087, 5, 34.8876, 46.8847, -10.3795, 95.3638, -53.7858, 44.5642
3.092, 5, 34.8083, 46.7938, -10.0853, 95.1949, -53.9749, 44.6047
3.096, 5, 34.7263, 46.701, -9.78223, 95.0204, -54.1711, 44.6462
3.1, 5, 34.6417, 46.6065, -9.47103, 94.8408, -54.3742, 44.6887
3.104, 5, 34.5547, 46.5108, -9.15253, 94.6564, -54.5836, 44.7319
3.107, 5, 34.4655, 46.4142, -8.82768, 94.4678, -54.7989, 44.7757
3.112, 5, 34.3741, 46.3169, -8.49748, 94.2755, -55.0194, 44.8201
3.116, 5, 34.2811, 46.2196, -8.16303, 94.0801, -55.2446, 44.8648
3.12, 5, 34.1869, 46.1224, -7.82551, 93.8823, -55.4737, 44.9098
3.124, 5, 34.0916, 46.0258, -7.4861, 93.6828, -55.7059, 44.9548
3.128, 5, 33.9954, 45.9303, -7.14604, 93.4823, -55.9405, 44.9997
3.132, 5, 33.8983, 45.8361, -6.80651, 93.2813, -56.1766, 45.0443
3.136, 5, 33.8004, 45.7436, -6.46868, 93.0808, -56.4135, 45.0886
3.14, 5, 33.7015, 45.6531, -6.13365, 92.8812, -56.6504, 45.1324
3.143, 5, 33.6017, 45.565, -5.80242, 92.6833, -56.8865, 45.1755
3.148, 5, 33.5012, 45.4795, -5.47592, 92.4875, -57.1211, 45.218
3.152, 5, 33.4001, 45.3968, -5.15492, 92.2943, -57.3536, 45.2596
3.156, 5, 33.299, 45.317, -4.84011, 92.1042, -57.5834, 45.3003
3.16, 5, 33.198, 45.2402, -4.53205, 91.9175, -57.8101, 45.3401
3.163, 5, 33.0976, 45.1666, -4.23123, 91.7346, -58.0332, 45.3789
3.168, 5, 32.9979, 45.0962, -3.93801, 91.5557, -58.2523, 45.4167
3.172, 5, 32.8992, 45.029, -3.65268, 91.3809, -58.4671, 45.4535
3.176, 5, 32.8017, 44.9649, -3.37546, 91.2105, -58.6775, 45.4892
3.179, 5, 32.7057, 44.9039, -3.10647, 91.0446, -58.883, 45.5239
3.184, 5, 32.6113, 44.846, -2.84583, 90.8832, -59.0837, 45.5575
3.188, 5, 32.5188, 44.7911, -2.59356, 90.7264, -59.2793, 45.59
3.192, 5, 32.4283, 44.7389, -2.34969, 90.5742, -59.4696, 45.6215
3.196, 5, 32.34, 44.6895, -2.11423, 90.4268, -59.6547, 45.652
3.199, 5, 32.254, 44.6427, -1.88717, 90.2841, -59.8344, 45.6814
3.204, 5, 32.1706, 44.5983, -1.66852, 90.1462, -60.0085, 45.7097
3.208, 5, 32.0897, 44.5562, -1.45831, 90.0132, -60.1769, 45.737
3.212, 5, 32.0116, 44.5165, -1.25656, 89.885, -60.3395, 45.7633
3.216, 5, 31.9363, 44.4789, -1.06334, 89.7619, -60.4962, 45.7885
3.22, 5, 31.8639, 44.4435, -0.878703, 89.6438, -60.6467, 45.8126
3.224, 5, 31.7945, 44.4104, -0.702747, 89.531, -60.7909, 45.8356
3.228, 5, 31.7282, 44.3794, -0.535567, 89.4235, -60.9287, 45.8576
3.232, 5, 31.665, 44.3506, -0.377268, 89.3213, -61.0597, 45.8784
3.235, 5, 31.6051, 44.324, -0.227955, 89.2248, -61.1838, 45.898
3.24, 5, 31.5483, 44.2995, -0.0877207, 89.1338, -61.3009, 45.9165
3.244, 5, 31.4946, 44.277, 0.0433597, 89.0487, -61.4108, 45.9338
3.248, 5, 31.444, 44.2567, 0.165247, 88.9693, -61.5133, 45.95
3.252, 5, 31.3965, 44.2383, 0.27795, 88.8958, -61.6084, 45.9649
3.255, 5, 31.3519, 44.222, 0.381533, 88.8282, -61.6961, 45.9786
3.26, 5, 31.3102, 44.2075, 0.476128, 88.7663, -61.7764, 45.9912
3.264, 5, 31.2715, 44.1947, 0.561928, 88.7102, -61.8494, 46.0026
3.268, 5, 31.2358, 44.1837, 0.63919, 88.6596, -61.9152, 46.0128
3.272, 5, 31.2031, 44.1741, 0.708225, 88.6144, -61.9742, 46.022
3.276, 5, 31.1733, 44.1661, 0.769398, 88.5743, -62.0265, 46.0301
3.28, 5, 31.1461, 44.1594, 0.823122, 88.5391, -62.0725, 46.0373
3.284, 5, 31.1215, 44.154, 0.869854, 88.5085, -62.1126, 46.0435
3.288, 5, 31.0993, 44.1497, 0.910092, 88.4822, -62.1471, 46.0488
3.291, 5, 31.0793, 44.1465, 0.944365, 88.4598, -62.1765, 46.0533
3.296, 5, 31.0616, 44.1443, 0.973226, 88.441, -62.2013, 46.0571
3.3, 5, 31.046, 44.1427, 0.997236, 88.4254, -62.2218, 46.0603
3.304, 5, 31.0324, 44.1418, 1.01695, 88.4127, -62.2387, 46.0629
3.308, 5, 31.0207, 44.1415, 1.03291, 88.4023, -62.2524, 46.065
3.312, 5, 31.0106, 44.1415, 1.04563, 88.3941, -62.2633, 46.0666
3.316, 5, 31.0019, 44.1419, 1.05559, 88.3878, -62.2718, 46.0679
3.32, 5, 30.9942, 44.1426, 1.06325, 88.3829, -62.2783, 46.0689
3.324, 5, 30.9875, 44.1435, 1.06901, 88.3793, -62.2831, 46.0696
3.328, 5, 30.9818, 44.1444, 1.07326, 88.3766, -62.2867, 46.0702
3.332, 5, 30.9769, 44.1453, 1.07633, 88.3747, -62.2893, 46.0705
3.336, 5, 30.9729, 44.146, 1.0785, 88.3734, -62.2911, 46.0708
3.34, 5, 30.9698, 44.1467, 1.08, 88.3725, -62.2923, 46.071
3.344, 5, 30.9675, 44.1472, 1.08103, 88.3719, -62.2932, 46.0711
3.347, 5, 30.9656, 44.1476, 1.08171, 88.3715, -62.2938, 46.0712
3.352, 5, 30.9639, 44.1482, 1.08212, 88.3712, -62.2942, 46.0712
3.356, 5, 30.962, 44.1489, 1.0823, 88.3709, -62.2945, 46.0713
3.36, 5, 30.9596, 44.1501, 1.08227, 88.3707, -62.2948, 46.0712
3.364, 5, 30.9567, 44.1517, 1.08204, 88.3704, -62.2951, 46.0711
3.368, 5, 30.953, 44.1538, 1.0816, 88.3701, -62.2956, 46.0709
3.372, 5, 30.9486, 44.1566, 1.08093, 88.3695, -62.2964, 46.0704
3.376, 5, 30.9432, 44.16, 1.08002, 88.3685, -62.2976, 46.0697
3.38, 5, 30.9368, 44.1642, 1.07883, 88.3671, -62.2994, 46.0687
3.383, 5, 30.9293, 44.1694, 1.07731, 88.3652, -62.3019, 46.0671
3.388, 6, 30.9203, 44.1757, 1.07542, 88.3624, -62.3055, 46.0649
3.392, 6, 30.9096, 44.1832, 1.07311, 88.3587, -62.3103, 46.062
3.396, 6, 30.8971, 44.1921, 1.07034, 88.3538, -62.3166, 46.058
3.4, 6, 30.8826, 44.2025, 1.06708, 88.3474, -62.3248, 46.0529
3.403, 6, 30.8662, 44.2145, 1.06332, 88.3394, -62.3351, 46.0465
3.408, 6, 30.8476, 44.2282, 1.05901, 88.3295, -62.3479, 46.0385
3.412, 6, 30.8268, 44.2436, 1.05412, 88.3174, -62.3635, 46.0288
3.416, 6, 30.8036, 44.261, 1.04858, 88.3029, -62.3821, 46.0171
3.42, 6, 30.7777, 44.2805, 1.04234, 88.2859, -62.404, 46.0033
3.424, 6, 30.7491, 44.3023, 1.03534, 88.266, -62.4296, 45.9873
3.428, 6, 30.7175, 44.3265, 1.02753, 88.2432, -62.4589, 45.969
3.432, 6, 30.6828, 44.3533, 1.01883, 88.2172, -62.4922, 45.9481
3.436, 6, 30.6449, 44.3828, 1.00919, 88.1881, -62.5296, 45.9247
3.439, 6, 30.6035, 44.415, 0.998565, 88.1556, -62.5713, 45.8985
3.444, 6, 30.5587, 44.4502, 0.986878, 88.1196, -62.6174, 45.8697
3.448, 6, 30.5101, 44.4885, 0.974061, 88.0802, -62.6679, 45.8381
3.452, 6, 30.4576, 44.5299, 0.960044, 88.0372, -62.7228, 45.8038
3.456, 6, 30.4012, 44.5747, 0.944756, 87.9906, -62.7823, 45.7667
3.46, 6, 30.3406, 44.6229, 0.928135, 87.9405, -62.8463, 45.7267
3.464, 6, 30.2759, 44.6747, 0.91012, 87.8867, -62.9148, 45.684
3.468, 6, 30.207, 44.7299, 0.890655, 87.8293, -62.9878, 45.6385
3.472, 6, 30.1338, 44.7888, 0.869678, 87.7682, -63.0654, 45.5902
3.476, 6, 30.0565, 44.8514, 0.847133, 87.7035, -63.1475, 45.5392
3.48, 6, 29.9749, 44.9177, 0.822958, 87.6352, -63.2341, 45.4854
3.484, 6, 29.889, 44.9877, 0.797094, 87.5631, -63.3252, 45.4289
3.488, 6, 29.799, 45.0615, 0.769475, 87.4874, -63.4208, 45.3696
3.492, 6, 29.7047, 45.1391, 0.740035, 87.4081, -63.5209, 45.3077
3.495, 6, 29.6062, 45.2205, 0.708706, 87.325, -63.6254, 45.243
3.5, 6, 29.5034, 45.3059, 0.675413, 87.2383, -63.7344, 45.1757
3.504, 6, 29.3965, 45.3951, 0.640082, 87.1479, -63.8478, 45.1057
3.508, 6, 29.2855, 45.4884, 0.602636, 87.0538, -63.9656, 45.0331
3.512, 6, 29.1703, 45.5857, 0.562997, 86.9559, -64.0878, 44.9579
3.516, 6, 29.0509, 45.687, 0.521083, 86.8544, -64.2144, 44.88
3.52, 6, 28.9275, 45.7924, 0.476812, 86.7493, -64.3453, 44.7995
3.524, 6, 28.8, 45.902, 0.430097, 86.6404, -64.4805, 44.7164
3.528, 6, 28.6684, 46.0156, 0.380857, 86.5278, -64.6201, 44.6308
3.531, 6, 28.533, 46.1334, 0.329026, 86.4115, -64.7638, 44.5426
3.536, 6, 28.394, 46.2552, 0.274563, 86.2916, -64.9118, 44.4519
3.54, 6, 28.2516, 46.3807, 0.217447, 86.168, -65.064, 44.3587
3.544, 6, 28.1062, 46.5099, 0.157665, 86.0409, -65.2202, 44.2631
3.548, 6, 27.9581, 46.6426, 0.0952083, 85.9103, -65.3804, 44.1651
3.552, 6, 27.8075, 46.7784, 0.0300759, 85.7763, -65.5443, 44.0648
3.556, 6, 27.6548, 46.9174, -0.0377257, 85.6391, -65.7118, 43.9623
3.56, 6, 27.5002, 47.0593, -0.108174, 85.499, -65.8825, 43.8579
3.564, 6, 27.3439, 47.204, -0.181218, 85.3561, -66.0562, 43.7517
3.568, 6, 27.1867, 47.351, -0.256771, 85.2108, -66.2323, 43.6439
3.572, 6, 27.0288, 47.4999, -0.334708, 85.0635, -66.4106, 43.5348
3.576, 6, 26.8708, 47.6503, -0.414872, 84.9144, -66.5905, 43.4247
3.58, 6, 26.713, 47.8018, -0.497102, 84.7642, -66.7716, 43.3138
3.584, 6, 26.5553, 47.9543, -0.58124, 84.6131, -66.9532, 43.2025
3.587, 6, 26.3976, 48.1075, -0.667134, 84.4617, -67.1349, 43.0911
3.592, 6, 26.2399, 48.2615, -0.754612, 84.3104, -67.3159, 42.9799
3.596, 6, 26.0822, 48.4162, -0.843463, 84.1598, -67.4959, 42.8693
3.6, 6, 25.9246, 48.5712, -0.933449, 84.0102, -67.6742, 42.7596
3.604, 6, 25.7677, 48.7264, -1.02431, 83.8621, -67.8504, 42.651
3.608, 6, 25.6118, 48.8812, -1.11576, 83.7158, -68.024, 42.5438
3.612, 6, 25.4574, 49.0352, -1.20755, 83.5717, -68.1947, 42.4383
3.616, 6, 25.3049, 49.188, -1.29943, 83.4301, -68.3622, 42.3346
3.62, 6, 25.1546, 49.3392, -1.39116, 83.2912, -68.5262, 42.2329
3.624, 6, 25.0068, 49.4887, -1.48253, 83.1552, -68.6864, 42.1333
3.628, 6, 24.8616, 49.636, -1.57333, 83.0223, -68.8426, 42.036
3.632, 6, 24.7192, 49.7809, -1.66336, 82.8926, -68.9948, 41.941
3.636, 6, 24.5801, 49.9231, -1.75241, 82.7664, -69.1427, 41.8485
3.64, 6, 24.4444, 50.0623, -1.8403, 82.6435, -69.2864, 41.7584
3.644, 6, 24.3124, 50.1983, -1.92685, 82.5242, -69.4258, 41.6708
3.648, 6, 24.1842, 50.331, -2.01193, 82.4083, -69.5609, 41.5857
3.652, 6, 24.0599, 50.4602, -2.0954, 82.296, -69.6916, 41.5032
3.656, 6, 23.9396, 50.5858, -2.17716, 82.1873, -69.818, 41.4232
3.66, 6, 23.8233, 50.7077, -2.25709, 82.0822, -69.94, 41.3459
3.664, 6, 23.711, 50.8258, -2.33509, 81.9807, -70.0576, 41.2711
3.668, 6, 23.6027, 50.9401, -2.41107, 81.8828, -70.1709, 41.1989
3.672, 6, 23.4985, 51.0506, -2.48495, 81.7885, -70.2799, 41.1293
3.676, 6, 23.3983, 51.1571, -2.55663, 81.6979, -70.3845, 41.0623
3.679, 6, 23.3022, 51.2596, -2.62604, 81.6109, -70.4849, 40.998
3.684, 6, 23.2101, 51.3582, -2.69311, 81.5275, -70.5809, 40.9362
3.688, 6, 23.122, 51.4527, -2.75775, 81.4477, -70.6727, 40.8771
3.692, 6, 23.038, 51.5431, -2.81992, 81.3715, -70.7602, 40.8206
3.696, 6, 22.9581, 51.6294, -2.87954, 81.299, -70.8435, 40.7668
3.7, 6, 22.8821, 51.7115, -2.93656, 81.2301, -70.9225, 40.7156
3.704, 6, 22.8103, 51.7895, -2.99093, 81.1648, -70.9973, 40.667
3.708, 6, 22.7424, 51.8633, -3.04258, 81.1031, -71.0679, 40.6211
3.712, 6, 22.6784, 51.933, -3.09149, 81.045, -71.1343, 40.5779
3.716, 6, 22.6184, 51.9985, -3.13763, 80.9905, -71.1966, 40.5373
3.72, 6, 22.562, 52.06, -3.181, 80.9396, -71.2547, 40.4994
3.724, 6, 22.5092, 52.1176, -3.2216, 80.8923, -71.3086, 40.4641
3.728, 6, 22.4599, 52.1714, -3.25946, 80.8486, -71.3585, 40.4314
3.732, 6, 22.4138, 52.2215, -3.2946, 80.8083, -71.4044, 40.4013
3.735, 6, 22.3711, 52.2678, -3.32704, 80.7715, -71.4463, 40.3737
3.74, 6, 22.3315, 52.3105, -3.35682, 80.7379, -71.4844, 40.3487
3.744, 6, 22.2951, 52.3497, -3.38398, 80.7076, -71.5189, 40.326
3.748, 6, 22.2618, 52.3854, -3.40859, 80.6804, -71.5498, 40.3057
3.752, 6, 22.2314, 52.4177, -3.43076, 80.6562, -71.5772, 40.2875
3.756, 6, 22.2038, 52.447, -3.4506, 80.6348, -71.6015, 40.2715
3.76, 6, 22.1786, 52.4734, -3.46825, 80.6161, -71.6227, 40.2575
3.764, 6, 22.1559, 52.497, -3.48384, 80.5998, -71.6411, 40.2453
3.768, 6, 22.1353, 52.5182, -3.4975, 80.5859, -71.6569, 40.2349
3.772, 6, 22.117, 52.5371, -3.50938, 80.574, -71.6702, 40.2261
3.776, 6, 22.1007, 52.5538, -3.51958, 80.5641, -71.6814, 40.2186
3.78, 6, 22.0863, 52.5685, -3.52826, 80.5559, -71.6907, 40.2125
3.784, 6, 22.0739, 52.5815, -3.53555, 80.5492, -71.6982, 40.2075
3.788, 6, 22.0631, 52.5928, -3.5416, 80.5437, -71.7043, 40.2034
3.792, 6, 22.0537, 52.6026, -3.54659, 80.5395, -71.7091, 40.2003
3.796, 6, 22.0454, 52.6111, -3.55067, 80.5361, -71.7128, 40.1978
3.8, 6, 22.0381, 52.6184, -3.55397, 80.5336, -71.7156, 40.1959
3.804, 6, 22.0316, 52.6245, -3.5566, 80.5317, -71.7176, 40.1945
3.808, 6, 22.0261, 52.6294, -3.55866, 80.5304, -71.7191, 40.1935
3.812, 7, 22.0214, 52.6333, -3.56024, 80.5294, -71.7202, 40.1928
3.816, 7, 22.0176, 52.6362, -3.56141, 80.5288, -71.7209, 40.1923
3.82, 7, 22.0148, 52.6384, -3.56226, 80.5283, -71.7214, 40.192
3.824, 7, 22.0127, 52.6399, -3.56285, 80.528, -71.7218, 40.1918
3.828, 7, 22.0113, 52.6409, -3.56325, 80.5278, -71.722, 40.1916
3.832, 7, 22.0103, 52.6416, -3.56352, 80.5276, -71.7221, 40.1915
3.836, 7, 22.0096, 52.6421, -3.56371, 80.5275, -71.7223, 40.1914
3.84, 7, 22.0092, 52.6424, -3.56384, 80.5275, -71.7223, 40.1914
3.844, 7, 22.0089, 52.6426, -3.56392, 80.5274, -71.7224, 40.1914
3.848, 7, 22.0087, 52.6428, -3.56398, 80.5274, -71.7224, 40.1913
3.852, 7, 22.0085, 52.6429, -3.56402, 80.5274, -71.7224, 40.1913
3.856, 7, 22.0084, 52.6429, -3.56404, 80.5274, -71.7224, 40.1913
3.86, 7, 22.0084, 52.643, -3.56406, 80.5273, -71.7225, 40.1913
3.864, 7, 22.0083, 52.643, -3.56407, 80.5273, -71.7225, 40.1913
3.868, 7, 22.0083, 52.643, -3.56408, 80.5273, -71.7225, 40.1913
3.872, 7, 22.0083, 52.643, -3.56409, 80.5273, -71.7225, 40.1913
3.876, 7, 22.0083, 52.6431, -3.56409, 80.5273, -71.7225, 40.1913
3.88, 7, 22.0083, 52.6431, -3.56409, 80.5273, -71.7225, 40.1913
3.884, 7, 22.0083, 52.6431, -3.5641, 80.5273, -71.7225, 40.1913
3.888, 7, 22.0083, 52.6431, -3.5641, 80.5273, -71.7225, 40.1913
3.892, 7, 22.0083, 52.6431, -3.5641, 80.5273, -71.7225, 40.1913
3.896, 7, 22.0083, 52.6431, -3.5641, 80.5273, -71.7225, 40.1913
3.9, 7, 22.0083, 52.6431, -3.5641, 80.5273, -71.7225, 40.1913
3.904, 7, 22.0083, 52.6431, -3.5641, 80.5273, -71.7225, 40.1913
3.908, 7, 22.0083, 52.6431, -3.5641, 80.5273, -71.7225, 40.1913
3.912, 7, 22.0083, 52.6431, -3.5641, 80.5273, -71.7225, 40.1913
3.916, 7, 22.0083, 52.6431, -3.5641, 80.5273, -71.7225, 40.1913
3.92, 7, 22.0083, 52.6431, -3.5641, 80.5273, -71.7225, 40.1913
3.924, 7, 22.0083, 52.6431, -3.5641, 80.5273, -71.7225, 40.1913
3.928, 7, 22.0083, 52.6431, -3.5641, 80.5273, -71.7225, 40.1913
