hehonglu123/ABB_Primitive_Study/execution/movel2_30_car/curve_exe_v300_fine.csv
timestamp, cmd_num, J1, J2, J3, J4, J5, J6
0, -1, 22.0083, 52.6431, -3.5641, 80.5273, -71.7225, 40.1913
0.002, -1, 22.0083, 52.6431, -3.5641, 80.5273, -71.7225, 40.1913
0.006, -1, 22.0083, 52.6431, -3.5641, 80.5273, -71.7225, 40.1913
0.008, -1, 22.0083, 52.6431, -3.5641, 80.5273, -71.7225, 40.1913
0.011, -1, 22.0083, 52.6431, -3.5641, 80.5273, -71.7225, 40.1913
0.016, -1, 22.0083, 52.6431, -3.5641, 80.5273, -71.7225, 40.1913
0.02, -1, 22.0083, 52.6431, -3.5641, 80.5273, -71.7225, 40.1913
0.024, -1, 22.0083, 52.6431, -3.5641, 80.5273, -71.7225, 40.1913
0.028, -1, 22.0083, 52.6431, -3.5641, 80.5273, -71.7225, 40.1913
0.032, -1, 22.0083, 52.6431, -3.5641, 80.5273, -71.7225, 40.1913
0.036, -1, 22.0083, 52.6431, -3.5641, 80.5273, -71.7225, 40.1913
0.04, -1, 22.0086, 52.643, -3.56409, 80.5273, -71.7225, 40.1913
0.044, -1, 22.0092, 52.6428, -3.56406, 80.5273, -71.7225, 40.1913
0.048, -1, 22.0103, 52.6425, -3.56401, 80.5274, -71.7224, 40.1913
0.052, -1, 22.012, 52.642, -3.56396, 80.5275, -71.7223, 40.1913
0.056, -1, 22.0145, 52.6411, -3.56392, 80.5277, -71.722, 40.1914
0.06, -1, 22.0177, 52.6399, -3.56394, 80.5281, -71.7215, 40.1915
0.064, -1, 22.0217, 52.6383, -3.56408, 80.5288, -71.7206, 40.1916
0.068, -1, 22.0265, 52.6362, -3.56441, 80.53, -71.7193, 40.1919
0.072, -1, 22.0322, 52.6334, -3.56504, 80.5317, -71.7172, 40.1923
0.076, -1, 22.0391, 52.6299, -3.56609, 80.5342, -71.7141, 40.1928
0.08, -1, 22.0472, 52.6256, -3.56769, 80.5377, -71.7099, 40.1936
0.084, -1, 22.0567, 52.6206, -3.57002, 80.5425, -71.7042, 40.1947
0.088, -1, 22.0678, 52.615, -3.57327, 80.5488, -71.6966, 40.1962
0.092, -1, 22.0803, 52.6089, -3.57766, 80.557, -71.6868, 40.198
0.096, -1, 22.094, 52.6026, -3.58342, 80.5673, -71.6745, 40.2003
0.1, -1, 22.109, 52.5963, -3.59077, 80.58, -71.6593, 40.2032
0.104, -1, 22.125, 52.5899, -3.59987, 80.5953, -71.641, 40.2067
0.108, -1, 22.1421, 52.5836, -3.61085, 80.6134, -71.6193, 40.2108
0.112, -1, 22.1603, 52.5773, -3.62379, 80.6345, -71.5942, 40.2156
0.116, -1, 22.1797, 52.5709, -3.63871, 80.6584, -71.5656, 40.221
0.12, -1, 22.2004, 52.5646, -3.65561, 80.6854, -71.5335, 40.2272
0.124, -1, 22.2224, 52.5582, -3.67441, 80.7152, -71.4979, 40.2339
0.128, -1, 22.2457, 52.5518, -3.69504, 80.7477, -71.4591, 40.2413
0.131, -1, 22.2701, 52.5455, -3.71736, 80.7828, -71.4173, 40.2493
0.136, -1, 22.2957, 52.539, -3.74121, 80.8202, -71.3726, 40.2578
0.139, -1, 22.3225, 52.5323, -3.76639, 80.8597, -71.3256, 40.2668
0.144, -1, 22.3507, 52.5251, -3.79268, 80.901, -71.2764, 40.2761
0.148, -1, 22.3804, 52.5172, -3.81986, 80.9437, -71.2254, 40.2858
0.152, -1, 22.4114, 52.5086, -3.84775, 80.9877, -71.1729, 40.2958
0.156, -1, 22.4437, 52.4992, -3.87617, 81.0327, -71.1193, 40.306
0.16, -1, 22.4771, 52.4892, -3.90498, 81.0784, -71.0648, 40.3164
0.164, -1, 22.5115, 52.4785, -3.93409, 81.1247, -71.0095, 40.3269
0.168, -1, 22.5468, 52.4674, -3.96339, 81.1714, -70.9538, 40.3375
0.172, -1, 22.5827, 52.4559, -3.99284, 81.2184, -70.8977, 40.3482
0.176, -1, 22.6193, 52.4441, -4.02238, 81.2657, -70.8413, 40.359
0.18, -1, 22.6565, 52.432, -4.05197, 81.3131, -70.7847, 40.3697
0.184, -1, 22.6942, 52.4198, -4.08158, 81.3606, -70.728, 40.3805
0.188, -1, 22.7324, 52.4074, -4.1112, 81.4082, -70.6713, 40.3913
0.192, -1, 22.7709, 52.3949, -4.14081, 81.4557, -70.6145, 40.4021
0.196, -1, 22.8095, 52.3823, -4.17041, 81.5033, -70.5577, 40.4129
0.2, -1, 22.8483, 52.3697, -4.2, 81.5509, -70.5009, 40.4237
0.204, -1, 22.8872, 52.3571, -4.22957, 81.5984, -70.4442, 40.4345
0.208, -1, 22.9262, 52.3445, -4.25912, 81.646, -70.3874, 40.4453
0.212, -1, 22.9651, 52.3318, -4.28865, 81.6935, -70.3307, 40.4561
0.216, -1, 23.0041, 52.3192, -4.31816, 81.741, -70.2741, 40.4669
0.22, -1, 23.043, 52.3065, -4.34764, 81.7884, -70.2175, 40.4776
0.224, -1, 23.082, 52.2939, -4.37711, 81.8358, -70.1609, 40.4884
0.228, -1, 23.1209, 52.2812, -4.40655, 81.8832, -70.1043, 40.4992
0.232, -1, 23.1598, 52.2686, -4.43597, 81.9305, -70.0478, 40.5099
0.236, -1, 23.1986, 52.256, -4.46537, 81.9778, -69.9914, 40.5207
0.24, -1, 23.2375, 52.2434, -4.49475, 82.0251, -69.935, 40.5314
0.244, -1, 23.2763, 52.2308, -4.52411, 82.0723, -69.8786, 40.5421
0.248, -1, 23.3151, 52.2182, -4.55344, 82.1195, -69.8223, 40.5528
0.252, -1, 23.3539, 52.2056, -4.58275, 82.1667, -69.766, 40.5635
0.256, -1, 23.3926, 52.193, -4.61204, 82.2138, -69.7097, 40.5742
0.26, -1, 23.4313, 52.1805, -4.64131, 82.2609, -69.6535, 40.5849
0.264, -1, 23.47, 52.1679, -4.67056, 82.308, -69.5974, 40.5956
0.268, -1, 23.5086, 52.1553, -4.69978, 82.355, -69.5412, 40.6063
0.272, -1, 23.5473, 52.1428, -4.72898, 82.402, -69.4852, 40.617
0.276, -1, 23.5859, 52.1303, -4.75816, 82.449, -69.4291, 40.6276
0.28, -1, 23.6244, 52.1178, -4.78732, 82.4959, -69.3731, 40.6383
0.284, -1, 23.663, 52.1052, -4.81646, 82.5428, -69.3172, 40.6489
0.288, -1, 23.7015, 52.0927, -4.84557, 82.5896, -69.2613, 40.6596
0.292, -1, 23.7399, 52.0802, -4.87467, 82.6364, -69.2054, 40.6702
0.296, -1, 23.7784, 52.0678, -4.90374, 82.6832, -69.1496, 40.6808
0.3, -1, 23.8168, 52.0553, -4.93279, 82.7299, -69.0938, 40.6914
0.304, -1, 23.8552, 52.0428, -4.96182, 82.7766, -69.038, 40.702
0.308, -1, 23.8936, 52.0304, -4.99083, 82.8233, -68.9823, 40.7126
0.312, -1, 23.9319, 52.0179, -5.01981, 82.87, -68.9267, 40.7232
0.316, -1, 23.9702, 52.0055, -5.04878, 82.9166, -68.871, 40.7338
0.32, -1, 24.0085, 51.9931, -5.07773, 82.9631, -68.8154, 40.7444
0.324, -1, 24.0468, 51.9806, -5.10665, 83.0097, -68.7599, 40.755
0.328, -1, 24.085, 51.9682, -5.13555, 83.0562, -68.7044, 40.7655
0.332, -1, 24.1232, 51.9558, -5.16443, 83.1027, -68.6489, 40.7761
0.336, -1, 24.1613, 51.9434, -5.19329, 83.1491, -68.5935, 40.7866
0.34, -1, 24.1995, 51.931, -5.22213, 83.1955, -68.5381, 40.7972
0.344, -1, 24.2376, 51.9187, -5.25095, 83.2419, -68.4828, 40.8077
0.348, -1, 24.2757, 51.9063, -5.27975, 83.2882, -68.4275, 40.8182
0.352, -1, 24.3138, 51.894, -5.30853, 83.3345, -68.3722, 40.8287
0.356, -1, 24.3518, 51.8816, -5.33728, 83.3808, -68.317, 40.8392
0.36, -1, 24.3898, 51.8693, -5.36602, 83.427, -68.2618, 40.8497
0.364, -1, 24.4278, 51.8569, -5.39474, 83.4732, -68.2067, 40.8602
0.368, -1, 24.4657, 51.8446, -5.42343, 83.5194, -68.1516, 40.8707
0.372, -1, 24.5036, 51.8323, -5.4521, 83.5655, -68.0965, 40.8812
0.376, -1, 24.5415, 51.82, -5.48076, 83.6116, -68.0415, 40.8916
0.38, -1, 24.5794, 51.8077, -5.50939, 83.6577, -67.9865, 40.9021
0.384, -1, 24.6172, 51.7954, -5.538, 83.7038, -67.9315, 40.9126
0.388, -1, 24.6551, 51.7831, -5.5666, 83.7498, -67.8766, 40.923
0.392, -1, 24.6928, 51.7709, -5.59517, 83.7957, -67.8218, 40.9334
0.396, -1, 24.7306, 51.7586, -5.62372, 83.8417, -67.7669, 40.9439
0.4, -1, 24.7683, 51.7464, -5.65225, 83.8876, -67.7121, 40.9543
0.404, -1, 24.806, 51.7341, -5.68076, 83.9335, -67.6574, 40.9647
0.408, -1, 24.8437, 51.7219, -5.70925, 83.9793, -67.6027, 40.9751
0.412, -1, 24.8814, 51.7097, -5.73772, 84.0251, -67.548, 40.9855
0.416, -1, 24.919, 51.6975, -5.76618, 84.0709, -67.4934, 40.9959
0.42, -1, 24.9566, 51.6852, -5.79461, 84.1166, -67.4388, 41.0063
0.424, -1, 24.9942, 51.673, -5.82302, 84.1624, -67.3842, 41.0167
0.428, -1, 25.0317, 51.6609, -5.85141, 84.208, -67.3297, 41.0271
0.432, -1, 25.0693, 51.6487, -5.87978, 84.2537, -67.2752, 41.0374
0.436, -1, 25.1068, 51.6365, -5.90813, 84.2993, -67.2208, 41.0478
0.44, -1, 25.1442, 51.6243, -5.93646, 84.3449, -67.1664, 41.0581
0.444, -1, 25.1817, 51.6122, -5.96478, 84.3905, -67.112, 41.0685
0.448, -1, 25.2191, 51.6, -5.99307, 84.436, -67.0576, 41.0788
0.452, -1, 25.2565, 51.5879, -6.02134, 84.4815, -67.0034, 41.0892
0.456, -1, 25.2938, 51.5758, -6.04959, 84.5269, -66.9491, 41.0995
0.46, -1, 25.3312, 51.5636, -6.07783, 84.5724, -66.8949, 41.1098
0.464, -1, 25.3685, 51.5515, -6.10604, 84.6178, -66.8407, 41.1201
0.468, -1, 25.4058, 51.5394, -6.13424, 84.6631, -66.7866, 41.1304
0.472, -1, 25.4431, 51.5273, -6.16241, 84.7085, -66.7325, 41.1407
0.476, -1, 25.4803, 51.5152, -6.19057, 84.7538, -66.6784, 41.151
0.48, -1, 25.5175, 51.5031, -6.2187, 84.799, -66.6244, 41.1613
0.484, -1, 25.5547, 51.4911, -6.24682, 84.8443, -66.5704, 41.1715
0.488, -1, 25.5918, 51.479, -6.27492, 84.8895, -66.5164, 41.1818
0.492, -1, 25.629, 51.4669, -6.303, 84.9347, -66.4625, 41.1921
0.496, -1, 25.6661, 51.4549, -6.33106, 84.9798, -66.4086, 41.2023
0.5, -1, 25.7032, 51.4429, -6.3591, 85.0249, -66.3547, 41.2126
0.504, -1, 25.7402, 51.4308, -6.38712, 85.07, -66.3009, 41.2228
0.508, -1, 25.7773, 51.4188, -6.41512, 85.1151, -66.2472, 41.233
0.512, -1, 25.8143, 51.4068, -6.4431, 85.1601, -66.1934, 41.2433
0.516, -1, 25.8513, 51.3948, -6.47107, 85.2051, -66.1397, 41.2535
0.52, -1, 25.8882, 51.3828, -6.49901, 85.2501, -66.0861, 41.2637
0.524, -1, 25.9251, 51.3708, -6.52694, 85.295, -66.0324, 41.2739
0.528, -1, 25.9621, 51.3588, -6.55484, 85.3399, -65.9788, 41.2841
0.532, -1, 25.9989, 51.3468, -6.58273, 85.3848, -65.9253, 41.2943
0.536, -1, 26.0358, 51.3349, -6.6106, 85.4296, -65.8718, 41.3045
0.54, -1, 26.0726, 51.3229, -6.63845, 85.4745, -65.8183, 41.3146
0.544, -1, 26.1094, 51.311, -6.66629, 85.5192, -65.7648, 41.3248
0.548, -1, 26.1462, 51.299, -6.6941, 85.564, -65.7114, 41.335
0.552, -1, 26.183, 51.2871, -6.72189, 85.6087, -65.658, 41.3451
0.556, -1, 26.2197, 51.2752, -6.74967, 85.6534, -65.6047, 41.3553
0.56, -1, 26.2564, 51.2632, -6.77743, 85.6981, -65.5514, 41.3654
0.564, -1, 26.2931, 51.2513, -6.80517, 85.7427, -65.4981, 41.3755
0.568, -1, 26.3298, 51.2394, -6.83289, 85.7873, -65.4449, 41.3857
0.572, -1, 26.3664, 51.2275, -6.86059, 85.8319, -65.3917, 41.3958
0.576, -1, 26.403, 51.2156, -6.88827, 85.8764, -65.3385, 41.4059
0.58, -1, 26.4396, 51.2038, -6.91594, 85.9209, -65.2854, 41.416
0.584, -1, 26.4762, 51.1919, -6.94359, 85.9654, -65.2323, 41.4261
0.588, -1, 26.5127, 51.18, -6.97122, 86.0099, -65.1792, 41.4362
0.592, -1, 26.5492, 51.1682, -6.99883, 86.0543, -65.1262, 41.4463
0.596, -1, 26.5857, 51.1563, -7.02642, 86.0987, -65.0732, 41.4564
0.6, -1, 26.6222, 51.1445, -7.05399, 86.1431, -65.0203, 41.4665
0.604, -1, 26.6586, 51.1327, -7.08155, 86.1874, -64.9674, 41.4765
0.608, -1, 26.6951, 51.1208, -7.10909, 86.2317, -64.9145, 41.4866
0.612, -1, 26.7315, 51.109, -7.13661, 86.276, -64.8616, 41.4966
0.616, -1, 26.7678, 51.0972, -7.16411, 86.3203, -64.8088, 41.5067
0.62, -1, 26.8042, 51.0854, -7.1916, 86.3645, -64.756, 41.5167
0.624, -1, 26.8405, 51.0736, -7.21906, 86.4087, -64.7033, 41.5268
0.628, -1, 26.8768, 51.0618, -7.24651, 86.4529, -64.6506, 41.5368
0.632, -1, 26.9131, 51.05, -7.27394, 86.497, -64.5979, 41.5468
0.636, -1, 26.9493, 51.0383, -7.30135, 86.5411, -64.5453, 41.5568
0.64, -1, 26.9856, 51.0265, -7.32875, 86.5852, -64.4927, 41.5668
0.644, -1, 27.0218, 51.0148, -7.35613, 86.6292, -64.4401, 41.5768
0.648, -1, 27.058, 51.003, -7.38349, 86.6732, -64.3875, 41.5868
0.652, -1, 27.0941, 50.9913, -7.41083, 86.7172, -64.335, 41.5968
0.656, -1, 27.1303, 50.9795, -7.43815, 86.7612, -64.2826, 41.6068
0.66, -1, 27.1664, 50.9678, -7.46546, 86.8051, -64.2301, 41.6168
0.664, -1, 27.2025, 50.9561, -7.49275, 86.8491, -64.1777, 41.6268
0.668, -1, 27.2385, 50.9444, -7.52002, 86.8929, -64.1254, 41.6367
0.672, -1, 27.2746, 50.9327, -7.54727, 86.9368, -64.073, 41.6467
0.676, -1, 27.3106, 50.921, -7.57451, 86.9806, -64.0207, 41.6566
0.68, -1, 27.3466, 50.9093, -7.60173, 87.0244, -63.9684, 41.6666
0.684, -1, 27.3826, 50.8976, -7.62893, 87.0682, -63.9162, 41.6765
0.688, -1, 27.4185, 50.8859, -7.65611, 87.1119, -63.864, 41.6865
0.692, -1, 27.4545, 50.8743, -7.68328, 87.1556, -63.8118, 41.6964
0.696, -1, 27.4904, 50.8626, -7.71043, 87.1993, -63.7597, 41.7063
0.7, -1, 27.5262, 50.851, -7.73756, 87.243, -63.7076, 41.7162
0.704, -1, 27.5621, 50.8393, -7.76468, 87.2866, -63.6555, 41.7261
0.708, -1, 27.5979, 50.8277, -7.79178, 87.3302, -63.6035, 41.736
0.712, -1, 27.6338, 50.8161, -7.81886, 87.3738, -63.5515, 41.7459
0.716, -1, 27.6696, 50.8044, -7.84592, 87.4173, -63.4995, 41.7558
0.72, -1, 27.7053, 50.7928, -7.87297, 87.4609, -63.4476, 41.7657
0.724, -1, 27.7411, 50.7812, -7.9, 87.5043, -63.3956, 41.7756
0.728, -1, 27.7768, 50.7696, -7.92701, 87.5478, -63.3438, 41.7854
0.732, -1, 27.8125, 50.758, -7.95401, 87.5913, -63.2919, 41.7953
0.736, -1, 27.8482, 50.7464, -7.98099, 87.6347, -63.2401, 41.8052
0.74, -1, 27.8838, 50.7349, -8.00795, 87.6781, -63.1883, 41.815
0.744, -1, 27.9195, 50.7233, -8.0349, 87.7214, -63.1366, 41.8249
0.748, -1, 27.9551, 50.7117, -8.06183, 87.7647, -63.0849, 41.8347
0.752, -1, 27.9907, 50.7002, -8.08874, 87.808, -63.0332, 41.8445
0.756, -1, 28.0263, 50.6886, -8.11564, 87.8513, -62.9815, 41.8544
0.76, -1, 28.0618, 50.6771, -8.14252, 87.8946, -62.9299, 41.8642
0.764, -1, 28.0973, 50.6656, -8.16938, 87.9378, -62.8783, 41.874
0.768, -1, 28.1328, 50.654, -8.19622, 87.981, -62.8268, 41.8838
0.772, -1, 28.1683, 50.6425, -8.22305, 88.0242, -62.7753, 41.8936
0.776, -1, 28.2038, 50.631, -8.24987, 88.0673, -62.7238, 41.9034
0.78, -1, 28.2392, 50.6195, -8.27666, 88.1104, -62.6723, 41.9132
0.784, -1, 28.2746, 50.608, -8.30344, 88.1535, -62.6209, 41.923
0.788, -1, 28.31, 50.5965, -8.33021, 88.1966, -62.5695, 41.9327
0.792, -1, 28.3454, 50.585, -8.35696, 88.2396, -62.5181, 41.9425
0.796, -1, 28.3808, 50.5735, -8.38369, 88.2826, -62.4668, 41.9523
0.8, -1, 28.4161, 50.5621, -8.4104, 88.3256, -62.4155, 41.962
0.804, -1, 28.4514, 50.5506, -8.4371, 88.3686, -62.3642, 41.9718
0.808, -1, 28.4867, 50.5391, -8.46378, 88.4115, -62.313, 41.9816
0.812, -1, 28.522, 50.5277, -8.49045, 88.4544, -62.2618, 41.9913
0.816, -1, 28.5572, 50.5163, -8.5171, 88.4973, -62.2106, 42.001
0.82, -1, 28.5924, 50.5048, -8.54374, 88.5402, -62.1594, 42.0108
0.824, -1, 28.6276, 50.4934, -8.57035, 88.583, -62.1083, 42.0205
0.828, -1, 28.6628, 50.482, -8.59696, 88.6258, -62.0572, 42.0302
0.832, -1, 28.698, 50.4706, -8.62354, 88.6686, -62.0062, 42.0399
0.836, -1, 28.7331, 50.4591, -8.65011, 88.7113, -61.9552, 42.0496
0.84, -1, 28.7682, 50.4477, -8.67667, 88.7541, -61.9042, 42.0593
0.844, -1, 28.8033, 50.4363, -8.7032, 88.7968, -61.8532, 42.069
0.848, -1, 28.8384, 50.425, -8.72973, 88.8394, -61.8023, 42.0787
0.852, -1, 28.8735, 50.4136, -8.75623, 88.8821, -61.7514, 42.0884
0.856, -1, 28.9085, 50.4022, -8.78272, 88.9247, -61.7005, 42.0981
0.86, -1, 28.9435, 50.3908, -8.8092, 88.9673, -61.6496, 42.1078
0.864, -1, 28.9785, 50.3795, -8.83566, 89.0099, -61.5988, 42.1174
0.868, -1, 29.0135, 50.3681, -8.8621, 89.0524, -61.548, 42.1271
0.872, -1, 29.0484, 50.3568, -8.88853, 89.095, -61.4973, 42.1367
0.876, -1, 29.0834, 50.3454, -8.91494, 89.1375, -61.4466, 42.1464
0.88, -1, 29.1183, 50.3341, -8.94134, 89.1799, -61.3959, 42.156
0.884, -1, 29.1532, 50.3228, -8.96772, 89.2224, -61.3452, 42.1657
0.888, -1, 29.188, 50.3114, -8.99409, 89.2648, -61.2946, 42.1753
0.892, -1, 29.2229, 50.3001, -9.02044, 89.3072, -61.244, 42.1849
0.896, -1, 29.2577, 50.2888, -9.04677, 89.3496, -61.1934, 42.1946
0.9, -1, 29.2925, 50.2775, -9.07309, 89.3919, -61.1429, 42.2042
0.904, -1, 29.3273, 50.2662, -9.0994, 89.4343, -61.0924, 42.2138
0.908, -1, 29.3621, 50.2549, -9.12568, 89.4766, -61.0419, 42.2234
0.912, -1, 29.3968, 50.2437, -9.15196, 89.5188, -60.9914, 42.233
0.916, -1, 29.4316, 50.2324, -9.17822, 89.5611, -60.941, 42.2426
0.92, -1, 29.4663, 50.2211, -9.20446, 89.6033, -60.8906, 42.2522
0.924, -1, 29.501, 50.2099, -9.23069, 89.6455, -60.8402, 42.2618
0.928, -1, 29.5356, 50.1986, -9.2569, 89.6877, -60.7899, 42.2713
0.932, -1, 29.5703, 50.1873, -9.2831, 89.7298, -60.7396, 42.2809
0.936, -1, 29.6049, 50.1761, -9.30928, 89.772, -60.6893, 42.2905
0.94, -1, 29.6395, 50.1649, -9.33544, 89.8141, -60.6391, 42.3
0.944, -1, 29.6741, 50.1536, -9.3616, 89.8562, -60.5888, 42.3096
0.948, -1, 29.7087, 50.1424, -9.38773, 89.8982, -60.5387, 42.3191
0.952, -1, 29.7432, 50.1312, -9.41386, 89.9402, -60.4885, 42.3287
0.956, -1, 29.7777, 50.12, -9.43996, 89.9822, -60.4384, 42.3382
0.96, -1, 29.8122, 50.1088, -9.46605, 90.0242, -60.3882, 42.3478
0.964, -1, 29.8467, 50.0976, -9.49213, 90.0662, -60.3382, 42.3573
0.968, -1, 29.8812, 50.0864, -9.51819, 90.1081, -60.2881, 42.3668
0.972, -1, 29.9156, 50.0752, -9.54424, 90.15, -60.2381, 42.3763
0.976, -1, 29.9501, 50.064, -9.57027, 90.1919, -60.1881, 42.3858
0.98, -1, 29.9845, 50.0529, -9.59629, 90.2338, -60.1381, 42.3953
0.984, -1, 30.0189, 50.0417, -9.62229, 90.2756, -60.0882, 42.4048
0.988, -1, 30.0532, 50.0305, -9.64828, 90.3175, -60.0383, 42.4143
0.992, -1, 30.0876, 50.0194, -9.67425, 90.3592, -59.9884, 42.4238
0.996, -1, 30.1219, 50.0082, -9.70021, 90.401, -59.9386, 42.4333
1, -1, 30.1562, 49.9971, -9.72616, 90.4427, -59.8888, 42.4428
1.004, -1, 30.1905, 49.986, -9.75208, 90.4845, -59.839, 42.4523
1.008, -1, 30.2248, 49.9748, -9.778, 90.5262, -59.7892, 42.4617
1.012, -1, 30.259, 49.9637, -9.8039, 90.5678, -59.7395, 42.4712
1.016, -1, 30.2933, 49.9526, -9.82979, 90.6095, -59.6897, 42.4806
1.02, -1, 30.3275, 49.9415, -9.85566, 90.6511, -59.6401, 42.4901
1.024, -1, 30.3617, 49.9304, -9.88151, 90.6927, -59.5904, 42.4995
1.027, -1, 30.3959, 49.9193, -9.90735, 90.7343, -59.5408, 42.509
1.032, -1, 30.43, 49.9082, -9.93318, 90.7759, -59.4912, 42.5184
1.036, -1, 30.4642, 49.8971, -9.95899, 90.8174, -59.4416, 42.5279
1.04, -1, 30.4983, 49.8861, -9.98479, 90.8589, -59.3921, 42.5373
1.044, -1, 30.5324, 49.875, -10.0106, 90.9004, -59.3426, 42.5467
1.048, -1, 30.5665, 49.8639, -10.0363, 90.9419, -59.2931, 42.5561
1.052, -1, 30.6005, 49.8529, -10.0621, 90.9833, -59.2436, 42.5655
1.055, -1, 30.6346, 49.8418, -10.0878, 91.0247, -59.1942, 42.5749
1.06, -1, 30.6686, 49.8308, -10.1136, 91.0661, -59.1448, 42.5843
1.064, -1, 30.7026, 49.8197, -10.1393, 91.1075, -59.0954, 42.5937
1.068, -1, 30.7366, 49.8087, -10.165, 91.1489, -59.046, 42.6031
1.072, -1, 30.7706, 49.7976, -10.1907, 91.1902, -58.9967, 42.6125
1.076, -1, 30.8045, 49.7866, -10.2163, 91.2315, -58.9474, 42.6219
1.08, -1, 30.8384, 49.7756, -10.242, 91.2728, -58.8981, 42.6313
1.084, -1, 30.8723, 49.7646, -10.2676, 91.314, -58.8489, 42.6406
1.088, -1, 30.9062, 49.7536, -10.2933, 91.3553, -58.7997, 42.65
1.091, -1, 30.9401, 49.7426, -10.3189, 91.3965, -58.7505, 42.6593
1.096, -1, 30.974, 49.7316, -10.3445, 91.4377, -58.7013, 42.6687
1.1, -1, 31.0078, 49.7206, -10.3701, 91.4789, -58.6522, 42.6781
1.104, -1, 31.0416, 49.7096, -10.3956, 91.52, -58.6031, 42.6874
1.108, -1, 31.0754, 49.6987, -10.4212, 91.5611, -58.554, 42.6967
1.112, -1, 31.1092, 49.6877, -10.4467, 91.6022, -58.5049, 42.7061
1.116, -1, 31.143, 49.6767, -10.4723, 91.6433, -58.4559, 42.7154
1.119, -1, 31.1767, 49.6658, -10.4978, 91.6844, -58.4069, 42.7247
1.124, -1, 31.2105, 49.6548, -10.5233, 91.7254, -58.3579, 42.734
1.128, -1, 31.2442, 49.6439, -10.5488, 91.7664, -58.309, 42.7433
1.132, -1, 31.2779, 49.6329, -10.5743, 91.8074, -58.2601, 42.7527
1.136, -1, 31.3115, 49.622, -10.5997, 91.8484, -58.2112, 42.762
1.14, -1, 31.3452, 49.6111, -10.6252, 91.8893, -58.1623, 42.7713
1.144, -1, 31.3788, 49.6002, -10.6506, 91.9303, -58.1135, 42.7806
1.147, -1, 31.4125, 49.5892, -10.676, 91.9712, -58.0646, 42.7898
1.152, -1, 31.4461, 49.5783, -10.7014, 92.0121, -58.0158, 42.7991
1.156, -1, 31.4796, 49.5674, -10.7268, 92.0529, -57.9671, 42.8084
1.16, -1, 31.5132, 49.5565, -10.7522, 92.0938, -57.9183, 42.8177
1.164, -1, 31.5468, 49.5456, -10.7776, 92.1346, -57.8696, 42.8269
1.168, -1, 31.5803, 49.5348, -10.8029, 92.1754, -57.8209, 42.8362
1.172, -1, 31.6138, 49.5239, -10.8283, 92.2161, -57.7723, 42.8455
1.175, -1, 31.6473, 49.513, -10.8536, 92.2569, -57.7236, 42.8547
1.18, -1, 31.6808, 49.5021, -10.8789, 92.2976, -57.675, 42.864
1.184, -1, 31.7142, 49.4913, -10.9042, 92.3383, -57.6264, 42.8732
1.188, -1, 31.7477, 49.4804, -10.9295, 92.379, -57.5779, 42.8825
1.192, -1, 31.7811, 49.4696, -10.9548, 92.4197, -57.5293, 42.8917
1.196, -1, 31.8145, 49.4587, -10.98, 92.4603, -57.4808, 42.9009
1.2, -1, 31.8479, 49.4479, -11.0053, 92.501, -57.4323, 42.9101
1.204, -1, 31.8813, 49.437, -11.0305, 92.5416, -57.3839, 42.9194
1.208, -1, 31.9146, 49.4262, -11.0557, 92.5821, -57.3355, 42.9286
1.212, -1, 31.948, 49.4154, -11.0809, 92.6227, -57.2871, 42.9378
1.216, -1, 31.9813, 49.4046, -11.1061, 92.6632, -57.2387, 42.947
1.22, -1, 32.0146, 49.3938, -11.1313, 92.7038, -57.1903, 42.9562
1.224, -1, 32.0479, 49.3829, -11.1565, 92.7443, -57.142, 42.9654
1.228, -1, 32.0811, 49.3721, -11.1816, 92.7847, -57.0937, 42.9746
1.232, -1, 32.1144, 49.3614, -11.2068, 92.8252, -57.0454, 42.9838
1.236, -1, 32.1476, 49.3506, -11.2319, 92.8656, -56.9971, 42.9929
1.24, -1, 32.1808, 49.3398, -11.257, 92.906, -56.9489, 43.0021
1.244, -1, 32.214, 49.329, -11.2821, 92.9464, -56.9007, 43.0113
1.248, -1, 32.2472, 49.3182, -11.3072, 92.9868, -56.8525, 43.0205
1.252, -1, 32.2804, 49.3075, -11.3323, 93.0271, -56.8044, 43.0296
1.256, -1, 32.3135, 49.2967, -11.3574, 93.0675, -56.7562, 43.0388
1.26, -1, 32.3466, 49.2859, -11.3824, 93.1078, -56.7081, 43.0479
1.264, -1, 32.3798, 49.2752, -11.4074, 93.1481, -56.66, 43.0571
1.267, -1, 32.4129, 49.2644, -11.4325, 93.1883, -56.612, 43.0662
1.272, -1, 32.4459, 49.2537, -11.4575, 93.2286, -56.564, 43.0754
1.276, -1, 32.479, 49.243, -11.4825, 93.2688, -56.516, 43.0845
1.28, -1, 32.512, 49.2322, -11.5075, 93.309, -56.468, 43.0936
1.284, -1, 32.5451, 49.2215, -11.5324, 93.3492, -56.42, 43.1027
1.288, -1, 32.5781, 49.2108, -11.5574, 93.3894, -56.3721, 43.1119
1.292, -1, 32.6111, 49.2001, -11.5824, 93.4295, -56.3242, 43.121
1.295, -1, 32.644, 49.1894, -11.6073, 93.4696, -56.2763, 43.1301
1.3, -1, 32.677, 49.1787, -11.6322, 93.5097, -56.2284, 43.1392
1.304, -1, 32.71, 49.168, -11.6571, 93.5498, -56.1806, 43.1483
1.308, -1, 32.7429, 49.1573, -11.682, 93.5899, -56.1328, 43.1574
1.312, -1, 32.7758, 49.1466, -11.7069, 93.6299, -56.085, 43.1665
1.316, -1, 32.8087, 49.1359, -11.7318, 93.6699, -56.0372, 43.1756
1.32, -1, 32.8416, 49.1253, -11.7566, 93.7099, -55.9895, 43.1847
1.324, -1, 32.8744, 49.1146, -11.7815, 93.7499, -55.9418, 43.1937
1.328, -1, 32.9073, 49.1039, -11.8063, 93.7899, -55.8941, 43.2028
1.332, -1, 32.9401, 49.0933, -11.8311, 93.8298, -55.8464, 43.2119
1.336, -1, 32.9729, 49.0826, -11.8559, 93.8697, -55.7988, 43.2209
1.34, -1, 33.0057, 49.072, -11.8807, 93.9096, -55.7511, 43.23
1.344, -1, 33.0385, 49.0613, -11.9055, 93.9495, -55.7036, 43.2391
1.348, -1, 33.0712, 49.0507, -11.9303, 93.9894, -55.656, 43.2481
1.352, -1, 33.104, 49.0401, -11.9551, 94.0292, -55.6084, 43.2572
1.356, -1, 33.1367, 49.0294, -11.9798, 94.069, -55.5609, 43.2662
1.36, -1, 33.1694, 49.0188, -12.0045, 94.1088, -55.5134, 43.2752
1.364, -1, 33.2021, 49.0082, -12.0293, 94.1486, -55.4659, 43.2843
1.368, -1, 33.2348, 48.9976, -12.054, 94.1884, -55.4185, 43.2933
1.372, -1, 33.2675, 48.987, -12.0787, 94.2281, -55.371, 43.3023
1.376, -1, 33.3001, 48.9764, -12.1034, 94.2678, -55.3236, 43.3113
1.38, -1, 33.3327, 48.9658, -12.128, 94.3075, -55.2763, 43.3204
1.384, -1, 33.3654, 48.9552, -12.1527, 94.3472, -55.2289, 43.3294
1.388, -1, 33.398, 48.9446, -12.1773, 94.3869, -55.1816, 43.3384
1.392, -1, 33.4306, 48.934, -12.202, 94.4265, -55.1342, 43.3474
1.396, -1, 33.4631, 48.9235, -12.2266, 94.4661, -55.087, 43.3564
1.4, -1, 33.4957, 48.9129, -12.2512, 94.5058, -55.0397, 43.3654
1.404, -1, 33.5282, 48.9023, -12.2758, 94.5453, -54.9924, 43.3744
1.408, -1, 33.5607, 48.8918, -12.3004, 94.5849, -54.9452, 43.3833
1.412, -1, 33.5932, 48.8812, -12.325, 94.6245, -54.898, 43.3923
1.416, -1, 33.6257, 48.8707, -12.3496, 94.664, -54.8508, 43.4013
1.42, -1, 33.6582, 48.8601, -12.3741, 94.7035, -54.8037, 43.4103
1.424, -1, 33.6907, 48.8496, -12.3987, 94.743, -54.7566, 43.4192
1.428, -1, 33.7231, 48.839, -12.4232, 94.7825, -54.7094, 43.4282
1.432, -1, 33.7555, 48.8285, -12.4477, 94.8219, -54.6624, 43.4372
1.436, -1, 33.7879, 48.818, -12.4722, 94.8613, -54.6153, 43.4461
1.44, -1, 33.8203, 48.8075, -12.4967, 94.9008, -54.5683, 43.4551
1.444, -1, 33.8527, 48.797, -12.5212, 94.9402, -54.5212, 43.464
1.448, -1, 33.8851, 48.7865, -12.5457, 94.9795, -54.4742, 43.4729
1.452, -1, 33.9174, 48.7759, -12.5701, 95.0189, -54.4273, 43.4819
1.456, -1, 33.9498, 48.7655, -12.5946, 95.0582, -54.3803, 43.4908
1.46, -1, 33.9821, 48.755, -12.619, 95.0976, -54.3334, 43.4997
1.464, -1, 34.0144, 48.7445, -12.6434, 95.1369, -54.2865, 43.5087
1.468, -1, 34.0467, 48.734, -12.6679, 95.1761, -54.2396, 43.5176
1.472, -1, 34.0789, 48.7235, -12.6923, 95.2154, -54.1927, 43.5265
1.476, -1, 34.1112, 48.713, -12.7166, 95.2546, -54.1459, 43.5354
1.48, -1, 34.1434, 48.7026, -12.741, 95.2939, -54.0991, 43.5443
1.484, -1, 34.1757, 48.6921, -12.7654, 95.3331, -54.0523, 43.5532
1.488, -1, 34.2079, 48.6816, -12.7897, 95.3723, -54.0055, 43.5621
1.492, -1, 34.2401, 48.6712, -12.8141, 95.4114, -53.9588, 43.571
1.496, -1, 34.2723, 48.6607, -12.8384, 95.4506, -53.912, 43.5799
1.5, -1, 34.3044, 48.6503, -12.8627, 95.4897, -53.8653, 43.5888
1.504, -1, 34.3366, 48.6399, -12.8871, 95.5289, -53.8186, 43.5977
1.508, -1, 34.3687, 48.6294, -12.9114, 95.568, -53.772, 43.6066
1.512, -1, 34.4008, 48.619, -12.9356, 95.607, -53.7253, 43.6154
1.516, -1, 34.4329, 48.6086, -12.9599, 95.6461, -53.6787, 43.6243
1.52, -1, 34.465, 48.5982, -12.9842, 95.6852, -53.6321, 43.6332
1.524, -1, 34.4971, 48.5877, -13.0084, 95.7242, -53.5855, 43.642
1.528, -1, 34.5292, 48.5773, -13.0327, 95.7632, -53.539, 43.6509
1.532, -1, 34.5612, 48.5669, -13.0569, 95.8022, -53.4924, 43.6597
1.536, -1, 34.5933, 48.5565, -13.0811, 95.8411, -53.4459, 43.6686
1.54, -1, 34.6253, 48.5461, -13.1054, 95.8801, -53.3994, 43.6774
1.544, -1, 34.6573, 48.5357, -13.1296, 95.919, -53.353, 43.6863
1.548, -1, 34.6893, 48.5254, -13.1537, 95.958, -53.3065, 43.6951
1.552, -1, 34.7212, 48.515, -13.1779, 95.9969, -53.2601, 43.704
1.556, -1, 34.7532, 48.5046, -13.2021, 96.0358, -53.2137, 43.7128
1.56, -1, 34.7852, 48.4942, -13.2262, 96.0746, -53.1673, 43.7216
1.564, -1, 34.8171, 48.4839, -13.2504, 96.1135, -53.1209, 43.7304
1.568, -1, 34.849, 48.4735, -13.2745, 96.1523, -53.0746, 43.7392
1.572, -1, 34.8809, 48.4631, -13.2986, 96.1911, -53.0283, 43.7481
1.576, -1, 34.9128, 48.4528, -13.3227, 96.2299, -52.982, 43.7569
1.58, -1, 34.9447, 48.4424, -13.3468, 96.2687, -52.9357, 43.7657
1.584, -1, 34.9765, 48.4321, -13.3709, 96.3075, -52.8894, 43.7745
1.588, -1, 35.0084, 48.4217, -13.395, 96.3462, -52.8432, 43.7833
1.592, -1, 35.0402, 48.4114, -13.4191, 96.3849, -52.797, 43.7921
1.596, -1, 35.072, 48.4011, -13.4431, 96.4236, -52.7508, 43.8009
1.6, -1, 35.1038, 48.3908, -13.4672, 96.4623, -52.7046, 43.8096
1.604, -1, 35.1356, 48.3804, -13.4912, 96.501, -52.6584, 43.8184
1.608, -1, 35.1674, 48.3701, -13.5152, 96.5397, -52.6123, 43.8272
1.612, -1, 35.1991, 48.3598, -13.5393, 96.5783, -52.5662, 43.836
1.616, -1, 35.2309, 48.3495, -13.5633, 96.6169, -52.5201, 43.8447
1.62, -1, 35.2625, 48.3392, -13.5873, 96.6555, -52.474, 43.8535
1.624, -1, 35.294, 48.329, -13.6113, 96.6941, -52.428, 43.8623
1.628, -1, 35.3252, 48.3189, -13.6353, 96.7327, -52.3819, 43.871
1.632, -1, 35.356, 48.3088, -13.6593, 96.7712, -52.336, 43.8798
1.636, -1, 35.3865, 48.299, -13.6833, 96.8096, -52.2901, 43.8885
1.64, -1, 35.4165, 48.2893, -13.7072, 96.848, -52.2443, 43.8972
1.644, -1, 35.446, 48.2798, -13.7312, 96.8862, -52.1987, 43.9059
1.648, -1, 35.4749, 48.2706, -13.7551, 96.9243, -52.1534, 43.9145
1.652, -1, 35.5033, 48.2617, -13.7788, 96.962, -52.1083, 43.9231
1.656, -1, 35.5309, 48.2532, -13.8025, 96.9994, -52.0638, 43.9316
1.66, -1, 35.5575, 48.2451, -13.8259, 97.0363, -52.0198, 43.94
1.664, -1, 35.5832, 48.2375, -13.849, 97.0725, -51.9766, 43.9482
1.668, -1, 35.6077, 48.2303, -13.8717, 97.1079, -51.9345, 43.9563
1.672, -1, 35.6312, 48.2236, -13.8937, 97.1423, -51.8935, 43.9641
1.676, -1, 35.6537, 48.2172, -13.9151, 97.1754, -51.8541, 43.9716
1.68, -1, 35.6753, 48.211, -13.9354, 97.2071, -51.8164, 43.9788
1.684, -1, 35.6959, 48.2051, -13.9547, 97.2371, -51.7806, 43.9857
1.688, -1, 35.7155, 48.1994, -13.9728, 97.2653, -51.7471, 43.9921
1.692, -1, 35.734, 48.194, -13.9895, 97.2914, -51.716, 43.998
1.696, -1, 35.7515, 48.1887, -14.0047, 97.3153, -51.6874, 44.0034
1.7, -1, 35.7681, 48.1836, -14.0184, 97.337, -51.6616, 44.0084
1.704, -1, 35.7838, 48.1786, -14.0305, 97.3564, -51.6385, 44.0128
1.708, -1, 35.7987, 48.1736, -14.0409, 97.3734, -51.6181, 44.0166
1.712, -1, 35.8129, 48.1686, -14.0498, 97.3882, -51.6004, 44.02
1.716, -1, 35.8263, 48.1636, -14.0571, 97.4008, -51.5854, 44.0228
1.72, -1, 35.8388, 48.1588, -14.063, 97.4113, -51.5728, 44.0252
1.724, -1, 35.8502, 48.1543, -14.0678, 97.42, -51.5623, 44.0272
1.728, -1, 35.8604, 48.1502, -14.0714, 97.427, -51.5539, 44.0288
1.732, -1, 35.8696, 48.1464, -14.0742, 97.4325, -51.5472, 44.03
1.736, -1, 35.8778, 48.1429, -14.0762, 97.4368, -51.5419, 44.031
1.74, -1, 35.8851, 48.1398, -14.0776, 97.4401, -51.5379, 44.0317
1.744, -1, 35.8916, 48.1371, -14.0786, 97.4425, -51.535, 44.0322
1.748, -1, 35.8971, 48.1348, -14.0792, 97.4443, -51.5328, 44.0326
1.752, 2, 35.9018, 48.1329, -14.0795, 97.4455, -51.5313, 44.0329
1.756, 2, 35.9056, 48.1314, -14.0797, 97.4464, -51.5302, 44.0331
1.76, 2, 35.9085, 48.1303, -14.0798, 97.447, -51.5294, 44.0332
1.764, 2, 35.9106, 48.1295, -14.0799, 97.4474, -51.5289, 44.0333
1.768, 2, 35.9121, 48.1289, -14.0799, 97.4477, -51.5286, 44.0334
1.772, 2, 35.9131, 48.1286, -14.08, 97.4479, -51.5283, 44.0334
1.776, 2, 35.9137, 48.1283, -14.08, 97.448, -51.5282, 44.0335
1.78, 2, 35.9142, 48.1281, -14.08, 97.4481, -51.5281, 44.0335
1.784, 2, 35.9145, 48.128, -14.08, 97.4482, -51.528, 44.0335
1.788, 2, 35.9147, 48.1279, -14.08, 97.4482, -51.5279, 44.0335
1.792, 2, 35.9148, 48.1279, -14.08, 97.4482, -51.5279, 44.0335
1.796, 2, 35.9149, 48.1279, -14.08, 97.4482, -51.5279, 44.0335
1.8, 2, 35.915, 48.1278, -14.08, 97.4483, -51.5279, 44.0335
1.804, 2, 35.915, 48.1278, -14.08, 97.4483, -51.5279, 44.0335
1.808, 2, 35.9151, 48.1278, -14.08, 97.4483, -51.5279, 44.0335
1.812, 2, 35.9151, 48.1278, -14.08, 97.4483, -51.5279, 44.0335
1.816, 2, 35.9151, 48.1278, -14.08, 97.4483, -51.5278, 44.0335
1.82, 2, 35.9151, 48.1278, -14.08, 97.4483, -51.5278, 44.0335
1.824, 2, 35.9151, 48.1278, -14.08, 97.4483, -51.5278, 44.0335
1.828, 2, 35.9151, 48.1278, -14.08, 97.4483, -51.5278, 44.0335
1.832, 2, 35.9151, 48.1278, -14.08, 97.4483, -51.5278, 44.0335
1.836, 2, 35.9151, 48.1278, -14.08, 97.4483, -51.5278, 44.0335
1.84, 2, 35.9151, 48.1278, -14.08, 97.4483, -51.5278, 44.0335
1.844, 2, 35.9151, 48.1278, -14.08, 97.4483, -51.5278, 44.0335
1.848, 2, 35.9151, 48.1278, -14.08, 97.4483, -51.5278, 44.0335
1.852, 2, 35.9151, 48.1278, -14.08, 97.4483, -51.5278, 44.0335
1.856, 2, 35.9151, 48.1278, -14.08, 97.4483, -51.5278, 44.0335
1.86, 2, 35.9151, 48.1278, -14.08, 97.4483, -51.5278, 44.0335
1.864, 2, 35.9151, 48.1278, -14.08, 97.4483, -51.5278, 44.0335
1.868, 2, 35.9151, 48.1278, -14.08, 97.4483, -51.5278, 44.0335
1.872, 2, 35.9151, 48.1278, -14.08, 97.4483, -51.5278, 44.0335
1.876, 2, 35.9151, 48.1278, -14.08, 97.4483, -51.5278, 44.0335
1.88, 2, 35.9151, 48.1278, -14.08, 97.4483, -51.5278, 44.0335
1.884, 2, 35.9151, 48.1278, -14.08, 97.4483, -51.5278, 44.0335
1.888, 2, 35.9151, 48.1278, -14.08, 97.4483, -51.5278, 44.0335
1.892, 2, 35.9151, 48.1278, -14.08, 97.4483, -51.5278, 44.0335
1.896, 2, 35.9151, 48.1278, -14.08, 97.4483, -51.5278, 44.0335
1.9, 2, 35.9151, 48.1278, -14.08, 97.4483, -51.5278, 44.0335
1.904, 2, 35.9151, 48.1278, -14.08, 97.4483, -51.5278, 44.0335
1.908, 2, 35.9151, 48.1278, -14.08, 97.4483, -51.5278, 44.0335
1.912, 2, 35.9151, 48.1278, -14.08, 97.4483, -51.5278, 44.0335
1.916, 2, 35.9151, 48.1278, -14.08, 97.4483, -51.5278, 44.0335
1.92, 2, 35.9151, 48.1278, -14.08, 97.4483, -51.5278, 44.0335
1.924, 2, 35.9151, 48.1278, -14.08, 97.4483, -51.5278, 44.0335
1.928, 2, 35.9151, 48.1278, -14.08, 97.4483, -51.5278, 44.0335
1.932, 2, 35.9151, 48.1278, -14.08, 97.4483, -51.5278, 44.0335
1.936, 2, 35.9151, 48.1278, -14.08, 97.4483, -51.5278, 44.0335
1.94, 2, 35.9151, 48.1278, -14.08, 97.4483, -51.5278, 44.0335
1.944, 2, 35.9151, 48.1278, -14.08, 97.4483, -51.5278, 44.0335
1.948, 2, 35.9151, 48.1278, -14.08, 97.4483, -51.5278, 44.0335
1.952, 2, 35.9151, 48.1278, -14.08, 97.4483, -51.5278, 44.0335
1.956, 2, 35.9151, 48.1278, -14.08, 97.4483, -51.5278, 44.0335
1.96, 2, 35.9151, 48.1278, -14.08, 97.4483, -51.5278, 44.0335
1.964, 2, 35.9151, 48.1278, -14.08, 97.4483, -51.5278, 44.0335
1.968, 2, 35.9151, 48.1278, -14.08, 97.4483, -51.5278, 44.0335
1.972, 2, 35.9151, 48.1278, -14.08, 97.4483, -51.5278, 44.0335
1.976, 2, 35.9151, 48.1278, -14.08, 97.4483, -51.5278, 44.0335
1.98, 2, 35.9151, 48.1278, -14.08, 97.4483, -51.5278, 44.0335
1.984, 2, 35.9151, 48.1278, -14.08, 97.4483, -51.5278, 44.0335
1.988, 2, 35.9151, 48.1278, -14.08, 97.4483, -51.5278, 44.0335
1.992, 2, 35.9151, 48.1278, -14.08, 97.4483, -51.5278, 44.0335
1.996, 2, 35.9151, 48.1278, -14.08, 97.4483, -51.5278, 44.0335
1.999, 2, 35.9151, 48.1278, -14.08, 97.4483, -51.5278, 44.0335
2.004, 2, 35.9151, 48.1278, -14.08, 97.4483, -51.5278, 44.0335
2.008, 2, 35.9151, 48.1278, -14.08, 97.4483, -51.5278, 44.0335
2.012, 2, 35.9151, 48.1278, -14.08, 97.4483, -51.5278, 44.0335
2.015, 2, 35.9151, 48.1278, -14.08, 97.4483, -51.5278, 44.0335
2.019, 2, 35.9151, 48.1278, -14.08, 97.4483, -51.5278, 44.0335
2.024, 2, 35.9151, 48.1278, -14.08, 97.4483, -51.5278, 44.0335
2.028, 2, 35.9151, 48.1278, -14.08, 97.4483, -51.5278, 44.0335
2.031, 2, 35.9151, 48.1278, -14.08, 97.4483, -51.5278, 44.0335
2.036, 2, 35.9151, 48.1278, -14.08, 97.4483, -51.5278, 44.0335
2.04, 2, 35.9151, 48.1278, -14.08, 97.4483, -51.5278, 44.0335
2.044, 2, 35.9151, 48.1278, -14.08, 97.4483, -51.5278, 44.0335
2.048, 2, 35.9151, 48.1278, -14.08, 97.4483, -51.5278, 44.0335
2.051, 2, 35.9151, 48.1278, -14.08, 97.4483, -51.5278, 44.0335
2.055, 2, 35.9151, 48.1278, -14.08, 97.4483, -51.5278, 44.0335
2.06, 2, 35.9151, 48.1278, -14.08, 97.4483, -51.5278, 44.0335
2.064, 2, 35.9151, 48.1278, -14.08, 97.4483, -51.5278, 44.0335
2.068, 2, 35.9151, 48.1278, -14.08, 97.4483, -51.5278, 44.0335
2.071, 2, 35.9151, 48.1278, -14.08, 97.4483, -51.5278, 44.0335
2.076, 2, 35.9151, 48.1278, -14.08, 97.4483, -51.5278, 44.0335
2.08, 2, 35.9151, 48.1278, -14.08, 97.4483, -51.5278, 44.0335
2.084, 2, 35.9151, 48.1278, -14.08, 97.4483, -51.5278, 44.0335
2.087, 2, 35.9151, 48.1278, -14.08, 97.4483, -51.5278, 44.0335
2.092, 2, 35.9151, 48.1278, -14.08, 97.4483, -51.5278, 44.0335
2.096, 2, 35.9151, 48.1278, -14.08, 97.4483, -51.5278, 44.0335
2.1, 2, 35.9151, 48.1278, -14.08, 97.4483, -51.5278, 44.0335
2.104, 2, 35.9151, 48.1278, -14.08, 97.4483, -51.5278, 44.0335
2.107, 2, 35.9151, 48.1278, -14.08, 97.4483, -51.5278, 44.0335
2.111, 2, 35.9151, 48.1278, -14.08, 97.4483, -51.5278, 44.0335
2.116, 2, 35.9151, 48.1278, -14.08, 97.4483, -51.5278, 44.0335
2.12, 2, 35.9151, 48.1278, -14.08, 97.4483, -51.5278, 44.0335
2.124, 2, 35.9151, 48.1278, -14.08, 97.4483, -51.5278, 44.0335
2.127, 2, 35.9151, 48.1278, -14.08, 97.4483, -51.5278, 44.0335
2.132, 2, 35.9151, 48.1278, -14.08, 97.4483, -51.5278, 44.0335
2.136, 2, 35.9151, 48.1278, -14.08, 97.4483, -51.5278, 44.0335
2.14, 2, 35.9151, 48.1278, -14.08, 97.4483, -51.5278, 44.0335
2.143, 2, 35.9151, 48.1278, -14.08, 97.4483, -51.5278, 44.0335
2.148, 2, 35.9151, 48.1278, -14.08, 97.4483, -51.5278, 44.0335
2.152, 2, 35.9151, 48.1278, -14.08, 97.4483, -51.5278, 44.0335
2.156, 2, 35.9151, 48.1278, -14.08, 97.4483, -51.5278, 44.0335
2.16, 2, 35.9151, 48.1278, -14.08, 97.4483, -51.5278, 44.0335
2.163, 2, 35.9151, 48.1278, -14.08, 97.4483, -51.5278, 44.0335
2.168, 2, 35.9151, 48.1278, -14.08, 97.4483, -51.5278, 44.0335
2.172, 2, 35.9151, 48.1278, -14.08, 97.4483, -51.5278, 44.0335
2.176, 2, 35.9151, 48.1278, -14.08, 97.4483, -51.5278, 44.0335
2.179, 2, 35.9151, 48.1278, -14.08, 97.4483, -51.5278, 44.0335
2.184, 2, 35.9151, 48.1278, -14.08, 97.4483, -51.5278, 44.0335
2.188, 2, 35.9151, 48.1278, -14.08, 97.4483, -51.5278, 44.0335
2.192, 2, 35.9151, 48.1278, -14.08, 97.4483, -51.5278, 44.0335
2.196, 2, 35.9151, 48.1278, -14.08, 97.4483, -51.5278, 44.0335
2.199, 2, 35.9151, 48.1278, -14.08, 97.4483, -51.5278, 44.0335
2.204, 2, 35.9151, 48.1278, -14.08, 97.4483, -51.5278, 44.0335
2.208, 2, 35.9151, 48.1278, -14.08, 97.4483, -51.5278, 44.0335
2.212, 2, 35.9151, 48.1278, -14.08, 97.4483, -51.5278, 44.0335
2.216, 2, 35.9151, 48.1278, -14.08, 97.4483, -51.5278, 44.0335
2.219, 2, 35.9151, 48.1278, -14.08, 97.4483, -51.5278, 44.0335
2.224, 2, 35.9151, 48.1278, -14.08, 97.4483, -51.5278, 44.0335
2.228, 2, 35.9151, 48.1278, -14.08, 97.4483, -51.5278, 44.0335
2.232, 2, 35.9151, 48.1278, -14.08, 97.4483, -51.5278, 44.0335
2.235, 2, 35.9151, 48.1278, -14.08, 97.4483, -51.5278, 44.0335
2.24, 2, 35.9151, 48.1278, -14.08, 97.4483, -51.5278, 44.0335
2.244, 2, 35.9151, 48.1278, -14.08, 97.4483, -51.5278, 44.0335
2.248, 2, 35.9151, 48.1278, -14.08, 97.4483, -51.5278, 44.0335
2.252, 2, 35.9151, 48.1278, -14.08, 97.4483, -51.5278, 44.0335
2.255, 2, 35.9151, 48.1278, -14.08, 97.4483, -51.5278, 44.0335
2.259, 2, 35.9151, 48.1278, -14.08, 97.4483, -51.5278, 44.0335
2.264, 2, 35.9151, 48.1278, -14.08, 97.4483, -51.5278, 44.0335
2.268, 2, 35.9151, 48.1278, -14.08, 97.4483, -51.5278, 44.0335
2.272, 2, 35.9151, 48.1278, -14.08, 97.4483, -51.5278, 44.0335
2.275, 2, 35.9151, 48.1278, -14.08, 97.4483, -51.5278, 44.0335
2.28, 2, 35.9151, 48.1278, -14.08, 97.4483, -51.5278, 44.0335
2.284, 2, 35.9151, 48.1278, -14.08, 97.4483, -51.5278, 44.0335
2.288, 2, 35.9151, 48.1278, -14.08, 97.4483, -51.5278, 44.0335
2.291, 2, 35.9151, 48.1278, -14.08, 97.4483, -51.5278, 44.0335
2.296, 2, 35.9151, 48.1278, -14.08, 97.4483, -51.5278, 44.0335
2.3, 2, 35.9151, 48.1278, -14.08, 97.4483, -51.5278, 44.0335
2.304, 2, 35.9151, 48.1278, -14.08, 97.4483, -51.5278, 44.0335
2.308, 2, 35.9151, 48.1278, -14.08, 97.4483, -51.5278, 44.0335
2.311, 2, 35.9151, 48.1278, -14.08, 97.4483, -51.5278, 44.0335
2.316, 2, 35.9151, 48.1278, -14.08, 97.4483, -51.5278, 44.0335
2.32, 2, 35.9151, 48.1278, -14.08, 97.4483, -51.5278, 44.0335
2.324, 2, 35.9151, 48.1278, -14.08, 97.4483, -51.5278, 44.0335
2.328, 2, 35.9151, 48.1278, -14.08, 97.4483, -51.5278, 44.0335
2.331, 2, 35.9151, 48.1278, -14.08, 97.4483, -51.5278, 44.0335
2.336, 2, 35.9151, 48.1278, -14.08, 97.4483, -51.5278, 44.0335
2.34, 2, 35.9151, 48.1278, -14.08, 97.4483, -51.5278, 44.0335
2.344, 2, 35.9151, 48.1278, -14.08, 97.4483, -51.5278, 44.0335
2.347, 2, 35.9151, 48.1278, -14.08, 97.4483, -51.5278, 44.0335
2.352, 2, 35.9151, 48.1278, -14.08, 97.4483, -51.5278, 44.0335
2.356, 2, 35.9151, 48.1278, -14.08, 97.4483, -51.5278, 44.0335
2.36, 2, 35.9151, 48.1278, -14.08, 97.4483, -51.5278, 44.0335
2.364, 2, 35.9151, 48.1278, -14.08, 97.4483, -51.5278, 44.0335
2.367, 2, 35.9151, 48.1278, -14.08, 97.4483, -51.5278, 44.0335
2.372, 2, 35.9151, 48.1278, -14.08, 97.4483, -51.5278, 44.0335
2.376, 2, 35.9151, 48.1278, -14.08, 97.4483, -51.5278, 44.0335
2.38, 2, 35.9151, 48.1278, -14.08, 97.4483, -51.5278, 44.0335
2.383, 2, 35.9151, 48.1278, -14.08, 97.4483, -51.5278, 44.0335
2.388, 2, 35.9151, 48.1278, -14.08, 97.4483, -51.5278, 44.0335
2.392, 2, 35.9151, 48.1278, -14.08, 97.4483, -51.5278, 44.0335
2.396, 2, 35.9151, 48.1278, -14.08, 97.4483, -51.5278, 44.0335
2.4, 2, 35.9151, 48.1278, -14.08, 97.4483, -51.5278, 44.0335
2.403, 2, 35.9151, 48.1278, -14.08, 97.4483, -51.5278, 44.0335
2.408, 2, 35.9151, 48.1278, -14.08, 97.4483, -51.5278, 44.0335
2.412, 2, 35.9151, 48.1278, -14.08, 97.4483, -51.5278, 44.0335
2.416, 2, 35.9151, 48.1278, -14.08, 97.4483, -51.5278, 44.0335
2.42, 2, 35.9151, 48.1278, -14.08, 97.4483, -51.5278, 44.0335
2.423, 2, 35.9151, 48.1278, -14.08, 97.4483, -51.5278, 44.0335
2.428, 2, 35.9151, 48.1278, -14.08, 97.4483, -51.5278, 44.0335
2.432, 2, 35.9151, 48.1278, -14.08, 97.4483, -51.5278, 44.0335
2.436, 2, 35.9151, 48.1278, -14.08, 97.4483, -51.5278, 44.0335
2.439, 2, 35.9151, 48.1278, -14.08, 97.4483, -51.5278, 44.0335
2.444, 2, 35.9151, 48.1278, -14.08, 97.4483, -51.5278, 44.0335
2.448, 2, 35.9151, 48.1278, -14.08, 97.4483, -51.5278, 44.0335
2.452, 2, 35.9151, 48.1278, -14.08, 97.4483, -51.5278, 44.0335
2.456, 2, 35.9151, 48.1278, -14.08, 97.4483, -51.5278, 44.0335
2.459, 2, 35.9151, 48.1278, -14.08, 97.4483, -51.5278, 44.0335
2.464, 2, 35.9151, 48.1278, -14.08, 97.4483, -51.5278, 44.0335
2.468, 2, 35.9151, 48.1278, -14.08, 97.4483, -51.5278, 44.0335
2.472, 2, 35.9151, 48.1278, -14.08, 97.4483, -51.5278, 44.0335
2.476, 2, 35.9151, 48.1278, -14.08, 97.4483, -51.5278, 44.0335
2.479, 2, 35.9151, 48.1278, -14.08, 97.4483, -51.5278, 44.0335
2.484, 2, 35.9151, 48.1278, -14.08, 97.4483, -51.5278, 44.0335
2.488, 2, 35.9151, 48.1278, -14.08, 97.4483, -51.5278, 44.0335
2.492, 2, 35.9151, 48.1278, -14.08, 97.4483, -51.5278, 44.0335
2.495, 2, 35.9151, 48.1278, -14.08, 97.4483, -51.5278, 44.0335
2.5, 2, 35.9151, 48.1278, -14.08, 97.4483, -51.5278, 44.0335
2.504, 2, 35.9151, 48.1278, -14.08, 97.4483, -51.5278, 44.0335
2.508, 2, 35.9151, 48.1278, -14.08, 97.4483, -51.5278, 44.0335
2.512, 2, 35.9151, 48.1278, -14.08, 97.4483, -51.5278, 44.0335
2.515, 2, 35.9151, 48.1278, -14.08, 97.4483, -51.5278, 44.0335
2.52, 2, 35.9151, 48.1278, -14.08, 97.4483, -51.5278, 44.0335
2.524, 2, 35.9151, 48.1278, -14.08, 97.4483, -51.5278, 44.0335
2.528, 2, 35.9151, 48.1278, -14.08, 97.4483, -51.5278, 44.0335
2.531, 2, 35.9151, 48.1278, -14.08, 97.4483, -51.5278, 44.0335
2.536, 2, 35.9151, 48.1278, -14.08, 97.4483, -51.5278, 44.0335
2.54, 2, 35.9151, 48.1278, -14.08, 97.4483, -51.5278, 44.0335
2.544, 2, 35.9151, 48.1278, -14.08, 97.4483, -51.5278, 44.0335
2.548, 2, 35.9151, 48.1278, -14.08, 97.4483, -51.5278, 44.0335
2.551, 2, 35.9151, 48.1278, -14.08, 97.4483, -51.5278, 44.0335
2.556, 2, 35.9151, 48.1278, -14.08, 97.4483, -51.5278, 44.0335
2.56, 2, 35.9151, 48.1278, -14.08, 97.4483, -51.5278, 44.0335
2.564, 2, 35.9151, 48.1278, -14.08, 97.4483, -51.5278, 44.0335
2.568, 2, 35.9151, 48.1278, -14.08, 97.4483, -51.5278, 44.0335
2.571, 2, 35.9151, 48.1278, -14.08, 97.4483, -51.5278, 44.0335
2.576, 2, 35.9151, 48.1278, -14.08, 97.4483, -51.5278, 44.0335
2.58, 2, 35.9151, 48.1278, -14.08, 97.4483, -51.5278, 44.0335
2.584, 2, 35.9151, 48.1278, -14.08, 97.4483, -51.5278, 44.0335
2.587, 2, 35.9151, 48.1278, -14.08, 97.4483, -51.5278, 44.0335
2.592, 2, 35.9151, 48.1278, -14.08, 97.4483, -51.5278, 44.0335
2.596, 2, 35.9151, 48.1278, -14.08, 97.4483, -51.5278, 44.0335
2.6, 2, 35.9151, 48.1278, -14.08, 97.4483, -51.5278, 44.0335
2.604, 2, 35.9151, 48.1278, -14.08, 97.4483, -51.5278, 44.0335
2.607, 2, 35.9151, 48.1278, -14.08, 97.4483, -51.5278, 44.0335
2.612, 2, 35.9151, 48.1278, -14.08, 97.4483, -51.5278, 44.0335
2.616, 2, 35.9151, 48.1278, -14.08, 97.4483, -51.5278, 44.0335
2.62, 2, 35.9151, 48.1278, -14.08, 97.4483, -51.5278, 44.0335
2.624, 2, 35.9151, 48.1278, -14.08, 97.4483, -51.5278, 44.0335
2.627, 2, 35.9151, 48.1278, -14.08, 97.4483, -51.5278, 44.0335
2.632, 2, 35.9151, 48.1278, -14.08, 97.4483, -51.5278, 44.0335
2.636, 2, 35.9151, 48.1278, -14.08, 97.4483, -51.5278, 44.0335
2.64, 2, 35.9151, 48.1278, -14.08, 97.4483, -51.5278, 44.0335
2.643, 2, 35.9151, 48.1278, -14.08, 97.4483, -51.5278, 44.0335
2.648, 2, 35.9151, 48.1278, -14.08, 97.4483, -51.5278, 44.0335
2.652, 2, 35.9151, 48.1278, -14.08, 97.4483, -51.5278, 44.0335
2.656, 2, 35.9151, 48.1278, -14.08, 97.4483, -51.5278, 44.0335
2.66, 2, 35.9151, 48.1278, -14.08, 97.4483, -51.5278, 44.0335
2.663, 2, 35.9151, 48.1278, -14.08, 97.4483, -51.5278, 44.0335
2.668, 2, 35.9151, 48.1278, -14.08, 97.4483, -51.5278, 44.0335
2.672, 2, 35.9151, 48.1278, -14.08, 97.4483, -51.5278, 44.0335
2.676, 2, 35.9151, 48.1278, -14.08, 97.4483, -51.5278, 44.0335
2.679, 2, 35.9151, 48.1278, -14.08, 97.4483, -51.5278, 44.0335
2.684, 2, 35.9151, 48.1278, -14.08, 97.4483, -51.5278, 44.0335
2.688, 2, 35.9151, 48.1278, -14.08, 97.4483, -51.5278, 44.0335
2.692, 2, 35.9151, 48.1278, -14.08, 97.4483, -51.5278, 44.0335
2.696, 2, 35.9151, 48.1278, -14.08, 97.4483, -51.5278, 44.0335
2.699, 2, 35.9151, 48.1278, -14.08, 97.4483, -51.5278, 44.0335
2.704, 2, 35.9151, 48.1278, -14.08, 97.4483, -51.5278, 44.0335
2.708, 2, 35.9151, 48.1278, -14.08, 97.4483, -51.5278, 44.0335
2.712, 2, 35.9151, 48.1278, -14.08, 97.4483, -51.5278, 44.0335
2.716, 2, 35.9151, 48.1278, -14.08, 97.4483, -51.5278, 44.0335
2.719, 2, 35.9151, 48.1278, -14.08, 97.4483, -51.5278, 44.0335
2.724, 2, 35.9151, 48.1278, -14.08, 97.4483, -51.5278, 44.0335
2.728, 2, 35.9151, 48.1278, -14.08, 97.4483, -51.5278, 44.0335
2.732, 2, 35.9151, 48.1278, -14.08, 97.4483, -51.5278, 44.0335
2.735, 2, 35.9151, 48.1278, -14.08, 97.4483, -51.5278, 44.0335
2.74, 2, 35.9151, 48.1278, -14.08, 97.4483, -51.5278, 44.0335
2.744, 2, 35.9151, 48.1278, -14.08, 97.4483, -51.5278, 44.0335
2.748, 2, 35.9151, 48.1278, -14.08, 97.4483, -51.5278, 44.0335
2.752, 2, 35.9151, 48.1278, -14.08, 97.4483, -51.5278, 44.0335
2.755, 2, 35.9151, 48.1278, -14.08, 97.4483, -51.5278, 44.0335
2.76, 2, 35.9151, 48.1278, -14.08, 97.4483, -51.5278, 44.0335
2.764, 2, 35.9151, 48.1278, -14.08, 97.4483, -51.5278, 44.0335
2.768, 2, 35.9151, 48.1278, -14.08, 97.4483, -51.5278, 44.0335
2.772, 2, 35.9151, 48.1278, -14.08, 97.4483, -51.5278, 44.0335
2.775, 2, 35.9151, 48.1278, -14.08, 97.4483, -51.5278, 44.0335
2.78, 2, 35.9151, 48.1278, -14.08, 97.4483, -51.5278, 44.0335
2.784, 2, 35.9151, 48.1278, -14.08, 97.4483, -51.5278, 44.0335
2.788, 2, 35.9151, 48.1278, -14.08, 97.4483, -51.5278, 44.0335
2.791, 2, 35.9151, 48.1278, -14.08, 97.4483, -51.5278, 44.0335
2.796, 2, 35.9151, 48.1278, -14.08, 97.4483, -51.5278, 44.0335
2.8, 2, 35.9151, 48.1278, -14.08, 97.4483, -51.5278, 44.0335
2.804, 2, 35.9151, 48.1278, -14.08, 97.4483, -51.5278, 44.0335
2.808, 4, 35.9151, 48.1278, -14.08, 97.4483, -51.5278, 44.0335
2.811, 4, 35.9151, 48.1278, -14.08, 97.4483, -51.5278, 44.0335
2.816, 4, 35.9151, 48.1278, -14.08, 97.4483, -51.5278, 44.0335
2.82, 4, 35.9151, 48.1278, -14.08, 97.4483, -51.5278, 44.0335
2.824, 4, 35.9151, 48.1278, -14.08, 97.4483, -51.5278, 44.0335
2.828, 4, 35.9151, 48.1278, -14.08, 97.4483, -51.5278, 44.0335
2.831, 4, 35.9151, 48.1278, -14.08, 97.4483, -51.5278, 44.0335
2.836, 4, 35.9151, 48.1278, -14.08, 97.4483, -51.5278, 44.0335
2.84, 4, 35.9151, 48.1278, -14.08, 97.4483, -51.5278, 44.0335
2.844, 4, 35.9151, 48.1278, -14.08, 97.4483, -51.5278, 44.0335
2.847, 4, 35.9151, 48.1278, -14.08, 97.4483, -51.5278, 44.0335
2.852, 4, 35.9151, 48.1278, -14.08, 97.4483, -51.5278, 44.0335
2.856, 4, 35.9151, 48.1278, -14.08, 97.4483, -51.5278, 44.0335
2.86, 4, 35.9151, 48.1278, -14.08, 97.4483, -51.5278, 44.0335
2.864, 4, 35.9151, 48.1278, -14.08, 97.4483, -51.5278, 44.0335
2.867, 4, 35.9151, 48.1278, -14.08, 97.4483, -51.5278, 44.0335
2.872, 4, 35.9151, 48.1278, -14.08, 97.4483, -51.5278, 44.0335
2.876, 4, 35.9151, 48.1278, -14.08, 97.4483, -51.5278, 44.0335
2.88, 4, 35.9151, 48.1278, -14.08, 97.4483, -51.5278, 44.0335
2.883, 4, 35.9151, 48.1278, -14.08, 97.4483, -51.5278, 44.0335
2.888, 4, 35.9151, 48.1278, -14.08, 97.4483, -51.5278, 44.0335
2.892, 4, 35.9151, 48.1278, -14.08, 97.4483, -51.5278, 44.0335
2.896, 4, 35.9151, 48.1278, -14.08, 97.4483, -51.5278, 44.0335
2.9, 4, 35.9151, 48.1278, -14.08, 97.4483, -51.5278, 44.0335
2.903, 4, 35.9151, 48.1278, -14.08, 97.4483, -51.5278, 44.0335
2.908, 4, 35.9151, 48.1278, -14.08, 97.4483, -51.5278, 44.0335
2.912, 4, 35.9151, 48.1278, -14.08, 97.4483, -51.5278, 44.0335
2.916, 4, 35.9151, 48.1278, -14.08, 97.4483, -51.5278, 44.0335
2.92, 4, 35.9151, 48.1278, -14.08, 97.4483, -51.5278, 44.0335
2.923, 4, 35.9151, 48.1278, -14.08, 97.4483, -51.5278, 44.0335
2.928, 4, 35.9151, 48.1278, -14.08, 97.4483, -51.5278, 44.0335
2.932, 4, 35.9151, 48.1278, -14.08, 97.4483, -51.5278, 44.0335
2.936, 4, 35.9151, 48.1278, -14.08, 97.4483, -51.5278, 44.0335
2.939, 4, 35.9151, 48.1278, -14.08, 97.4483, -51.5278, 44.0335
2.944, 4, 35.9148, 48.1277, -14.08, 97.4483, -51.5279, 44.0335
2.948, 4, 35.9142, 48.1276, -14.0799, 97.4482, -51.5279, 44.0335
2.952, 4, 35.9132, 48.1273, -14.0797, 97.4482, -51.528, 44.0336
2.956, 4, 35.9115, 48.1268, -14.0792, 97.448, -51.5283, 44.0336
2.959, 4, 35.9092, 48.1259, -14.0783, 97.4476, -51.5288, 44.0337
2.964, 4, 35.9063, 48.1246, -14.0767, 97.4468, -51.5296, 44.0339
2.968, 4, 35.9027, 48.1227, -14.0741, 97.4456, -51.5311, 44.0342
2.972, 4, 35.8987, 48.1202, -14.0702, 97.4436, -51.5333, 44.0348
2.976, 4, 35.8945, 48.1171, -14.0646, 97.4407, -51.5365, 44.0356
2.98, 5, 35.89, 48.1132, -14.0568, 97.4365, -51.541, 44.0367
2.984, 5, 35.8852, 48.1085, -14.0465, 97.4309, -51.5469, 44.0382
2.988, 5, 35.8802, 48.103, -14.0333, 97.4237, -51.5545, 44.0401
2.992, 5, 35.8749, 48.0965, -14.017, 97.4147, -51.5639, 44.0426
2.995, 5, 35.8693, 48.0891, -13.9973, 97.4038, -51.5753, 44.0455
3, 5, 35.8634, 48.0806, -13.9741, 97.3909, -51.5888, 44.049
3.004, 5, 35.8573, 48.0712, -13.9473, 97.3759, -51.6044, 44.0531
3.008, 5, 35.8509, 48.0608, -13.917, 97.359, -51.622, 44.0577
3.012, 5, 35.8443, 48.0494, -13.8833, 97.34, -51.6416, 44.0628
3.015, 5, 35.8375, 48.0372, -13.8465, 97.3194, -51.6631, 44.0684
3.02, 5, 35.8304, 48.0241, -13.8069, 97.2971, -51.6862, 44.0744
3.024, 5, 35.8229, 48.0102, -13.7649, 97.2734, -51.7108, 44.0808
3.028, 5, 35.8149, 47.9954, -13.7207, 97.2486, -51.7367, 44.0875
3.031, 5, 35.8063, 47.9799, -13.6748, 97.2228, -51.7635, 44.0944
3.036, 5, 35.7972, 47.9638, -13.6276, 97.1962, -51.7912, 44.1015
3.04, 5, 35.7876, 47.9471, -13.5793, 97.1691, -51.8195, 44.1088
3.044, 5, 35.7774, 47.9301, -13.5302, 97.1416, -51.8483, 44.1162
3.048, 5, 35.7669, 47.9128, -13.4805, 97.1137, -51.8775, 44.1236
3.051, 5, 35.7559, 47.8952, -13.4304, 97.0857, -51.907, 44.1311
3.056, 5, 35.7447, 47.8775, -13.3799, 97.0574, -51.9366, 44.1386
3.06, 5, 35.7332, 47.8597, -13.3293, 97.0291, -51.9665, 44.1462
3.064, 5, 35.7214, 47.8418, -13.2786, 97.0007, -51.9964, 44.1537
3.068, 5, 35.7094, 47.8239, -13.2277, 96.9722, -52.0264, 44.1613
3.071, 5, 35.6973, 47.806, -13.1769, 96.9437, -52.0565, 44.1688
3.076, 5, 35.685, 47.7881, -13.126, 96.9152, -52.0866, 44.1763
3.08, 5, 35.6727, 47.7702, -13.0752, 96.8867, -52.1167, 44.1838
3.084, 5, 35.6603, 47.7524, -13.0244, 96.8582, -52.1469, 44.1913
3.087, 5, 35.6479, 47.7346, -12.9736, 96.8298, -52.1771, 44.1988
3.092, 5, 35.6354, 47.7168, -12.9228, 96.8013, -52.2073, 44.2063
3.096, 5, 35.623, 47.699, -12.8721, 96.7729, -52.2375, 44.2137
3.1, 5, 35.6105, 47.6813, -12.8214, 96.7444, -52.2678, 44.2211
3.104, 5, 35.5979, 47.6637, -12.7708, 96.716, -52.298, 44.2286
3.107, 5, 35.5854, 47.646, -12.7202, 96.6876, -52.3283, 44.236
3.112, 5, 35.5729, 47.6285, -12.6697, 96.6592, -52.3585, 44.2433
3.116, 5, 35.5603, 47.6109, -12.6192, 96.6309, -52.3888, 44.2507
3.12, 5, 35.5477, 47.5934, -12.5687, 96.6026, -52.4191, 44.2581
3.124, 5, 35.5351, 47.576, -12.5183, 96.5742, -52.4494, 44.2654
3.128, 5, 35.5225, 47.5586, -12.468, 96.5459, -52.4797, 44.2727
3.132, 5, 35.5099, 47.5412, -12.4177, 96.5176, -52.51, 44.28
3.136, 5, 35.4973, 47.5239, -12.3674, 96.4894, -52.5404, 44.2873
3.14, 5, 35.4846, 47.5066, -12.3172, 96.4611, -52.5707, 44.2945
3.143, 5, 35.472, 47.4894, -12.2671, 96.4329, -52.601, 44.3018
3.148, 5, 35.4593, 47.4722, -12.217, 96.4047, -52.6314, 44.309
3.152, 5, 35.4466, 47.455, -12.1669, 96.3765, -52.6618, 44.3162
3.156, 5, 35.434, 47.4379, -12.1169, 96.3483, -52.6921, 44.3234
3.16, 5, 35.4212, 47.4209, -12.067, 96.3202, -52.7225, 44.3306
3.163, 5, 35.4085, 47.4038, -12.0171, 96.292, -52.7529, 44.3378
3.168, 5, 35.3958, 47.3869, -11.9672, 96.2639, -52.7833, 44.3449
3.172, 5, 35.3831, 47.3699, -11.9174, 96.2358, -52.8138, 44.3521
3.176, 5, 35.3703, 47.353, -11.8676, 96.2077, -52.8442, 44.3592
3.179, 5, 35.3576, 47.3362, -11.8179, 96.1796, -52.8746, 44.3663
3.184, 5, 35.3448, 47.3194, -11.7682, 96.1516, -52.9051, 44.3734
3.188, 5, 35.332, 47.3026, -11.7186, 96.1236, -52.9355, 44.3804
3.192, 5, 35.3192, 47.2859, -11.669, 96.0955, -52.966, 44.3875
3.196, 5, 35.3064, 47.2692, -11.6195, 96.0675, -52.9965, 44.3945
3.199, 5, 35.2935, 47.2526, -11.57, 96.0396, -53.027, 44.4016
3.204, 5, 35.2807, 47.236, -11.5206, 96.0116, -53.0575, 44.4086
3.208, 5, 35.2679, 47.2195, -11.4712, 95.9836, -53.088, 44.4156
3.212, 5, 35.255, 47.203, -11.4218, 95.9557, -53.1185, 44.4225
3.216, 5, 35.2421, 47.1865, -11.3725, 95.9278, -53.149, 44.4295
3.22, 5, 35.2292, 47.1701, -11.3233, 95.8999, -53.1795, 44.4365
3.224, 5, 35.2163, 47.1537, -11.2741, 95.872, -53.2101, 44.4434
3.228, 5, 35.2034, 47.1374, -11.2249, 95.8441, -53.2406, 44.4503
3.232, 5, 35.1905, 47.1211, -11.1758, 95.8163, -53.2712, 44.4572
3.235, 5, 35.1775, 47.1049, -11.1267, 95.7885, -53.3018, 44.4641
3.24, 5, 35.1646, 47.0886, -11.0777, 95.7606, -53.3323, 44.471
3.244, 5, 35.1516, 47.0725, -11.0287, 95.7328, -53.3629, 44.4778
3.248, 5, 35.1386, 47.0564, -10.9798, 95.7051, -53.3935, 44.4847
3.252, 5, 35.1257, 47.0403, -10.9309, 95.6773, -53.4241, 44.4915
3.255, 5, 35.1127, 47.0243, -10.8821, 95.6495, -53.4548, 44.4983
3.26, 5, 35.0996, 47.0083, -10.8333, 95.6218, -53.4854, 44.5052
3.264, 5, 35.0866, 46.9923, -10.7846, 95.5941, -53.516, 44.512
3.268, 5, 35.0736, 46.9764, -10.7359, 95.5664, -53.5467, 44.5187
3.272, 5, 35.0605, 46.9605, -10.6872, 95.5387, -53.5773, 44.5255
3.276, 5, 35.0474, 46.9447, -10.6386, 95.511, -53.608, 44.5322
3.28, 5, 35.0344, 46.9289, -10.59, 95.4833, -53.6387, 44.539
3.284, 5, 35.0213, 46.9132, -10.5415, 95.4557, -53.6694, 44.5457
3.288, 5, 35.0082, 46.8975, -10.4931, 95.4281, -53.7, 44.5524
3.291, 5, 34.9951, 46.8819, -10.4446, 95.4005, -53.7308, 44.5591
3.296, 5, 34.9819, 46.8662, -10.3962, 95.3729, -53.7615, 44.5658
3.3, 5, 34.9688, 46.8507, -10.3479, 95.3453, -53.7922, 44.5725
3.304, 5, 34.9556, 46.8352, -10.2996, 95.3177, -53.8229, 44.5791
3.308, 5, 34.9425, 46.8197, -10.2514, 95.2902, -53.8536, 44.5858
3.312, 5, 34.9293, 46.8042, -10.2032, 95.2626, -53.8844, 44.5924
3.316, 5, 34.9161, 46.7888, -10.155, 95.2351, -53.9152, 44.599
3.32, 5, 34.9029, 46.7735, -10.1069, 95.2076, -53.9459, 44.6056
3.324, 5, 34.8896, 46.7581, -10.0588, 95.1801, -53.9767, 44.6122
3.328, 5, 34.8764, 46.7429, -10.0108, 95.1526, -54.0075, 44.6188
3.332, 5, 34.8632, 46.7276, -9.96283, 95.1252, -54.0383, 44.6254
3.336, 5, 34.8499, 46.7124, -9.9149, 95.0977, -54.0691, 44.632
3.34, 5, 34.8366, 46.6973, -9.86701, 95.0703, -54.0999, 44.6385
3.344, 5, 34.8233, 46.6822, -9.81916, 95.0429, -54.1307, 44.645
3.347, 5, 34.81, 46.6671, -9.77136, 95.0155, -54.1615, 44.6516
3.352, 5, 34.7967, 46.6521, -9.7236, 94.9881, -54.1924, 44.6581
3.356, 5, 34.7834, 46.6371, -9.67589, 94.9607, -54.2232, 44.6646
3.36, 5, 34.7701, 46.6222, -9.62822, 94.9333, -54.2541, 44.671
3.364, 5, 34.7567, 46.6073, -9.5806, 94.906, -54.285, 44.6775
3.368, 5, 34.7434, 46.5924, -9.53301, 94.8786, -54.3158, 44.684
3.372, 5, 34.73, 46.5776, -9.48548, 94.8513, -54.3467, 44.6904
3.376, 5, 34.7166, 46.5628, -9.43798, 94.824, -54.3776, 44.6969
3.38, 5, 34.7032, 46.5481, -9.39053, 94.7967, -54.4085, 44.7033
3.383, 5, 34.6898, 46.5334, -9.34313, 94.7694, -54.4394, 44.7097
3.388, 5, 34.6763, 46.5188, -9.29577, 94.7422, -54.4704, 44.7161
3.392, 5, 34.6629, 46.5042, -9.24845, 94.7149, -54.5013, 44.7225
3.396, 5, 34.6494, 46.4896, -9.20117, 94.6877, -54.5322, 44.7289
3.4, 5, 34.636, 46.4751, -9.15394, 94.6605, -54.5632, 44.7352
3.403, 5, 34.6225, 46.4606, -9.10675, 94.6333, -54.5941, 44.7416
3.408, 5, 34.609, 46.4461, -9.05961, 94.6061, -54.6251, 44.7479
3.412, 5, 34.5955, 46.4317, -9.0125, 94.5789, -54.6561, 44.7543
3.416, 5, 34.582, 46.4174, -8.96545, 94.5517, -54.6871, 44.7606
3.42, 5, 34.5684, 46.4031, -8.91843, 94.5246, -54.7181, 44.7669
3.424, 5, 34.5549, 46.3888, -8.87146, 94.4974, -54.7491, 44.7732
3.428, 5, 34.5413, 46.3745, -8.82453, 94.4703, -54.7801, 44.7795
3.432, 5, 34.5277, 46.3604, -8.77764, 94.4432, -54.8111, 44.7858
3.436, 5, 34.5141, 46.3462, -8.7308, 94.4161, -54.8421, 44.7921
3.439, 5, 34.5005, 46.3321, -8.684, 94.389, -54.8732, 44.7983
3.444, 5, 34.4869, 46.318, -8.63724, 94.3619, -54.9042, 44.8046
3.448, 5, 34.4733, 46.304, -8.59052, 94.3348, -54.9353, 44.8108
3.452, 5, 34.4597, 46.29, -8.54385, 94.3078, -54.9663, 44.817
3.456, 5, 34.446, 46.2761, -8.49722, 94.2807, -54.9974, 44.8232
3.46, 5, 34.4323, 46.2622, -8.45063, 94.2537, -55.0285, 44.8294
3.464, 5, 34.4186, 46.2483, -8.40409, 94.2267, -55.0596, 44.8356
3.468, 5, 34.4049, 46.2345, -8.35759, 94.1997, -55.0907, 44.8418
3.472, 5, 34.3912, 46.2207, -8.31113, 94.1727, -55.1218, 44.848
3.476, 5, 34.3775, 46.2069, -8.26471, 94.1457, -55.1529, 44.8542
3.48, 5, 34.3638, 46.1932, -8.21833, 94.1188, -55.1841, 44.8603
3.484, 5, 34.35, 46.1796, -8.172, 94.0918, -55.2152, 44.8665
3.488, 5, 34.3363, 46.166, -8.12571, 94.0649, -55.2464, 44.8726
3.492, 5, 34.3225, 46.1524, -8.07946, 94.0379, -55.2775, 44.8787
3.495, 5, 34.3087, 46.1389, -8.03326, 94.011, -55.3087, 44.8848
3.5, 5, 34.2949, 46.1254, -7.98709, 93.9841, -55.3399, 44.891
3.504, 5, 34.2811, 46.1119, -7.94097, 93.9572, -55.371, 44.8971
3.508, 5, 34.2672, 46.0985, -7.89489, 93.9304, -55.4022, 44.9031
3.512, 5, 34.2534, 46.0851, -7.84885, 93.9035, -55.4334, 44.9092
3.516, 5, 34.2395, 46.0718, -7.80285, 93.8766, -55.4646, 44.9153
3.52, 5, 34.2256, 46.0585, -7.7569, 93.8498, -55.4959, 44.9213
3.524, 5, 34.2118, 46.0453, -7.71098, 93.823, -55.5271, 44.9274
3.528, 5, 34.1979, 46.032, -7.66511, 93.7962, -55.5583, 44.9334
3.531, 5, 34.1839, 46.0189, -7.61928, 93.7693, -55.5896, 44.9395
3.536, 5, 34.17, 46.0058, -7.57349, 93.7425, -55.6208, 44.9455
3.54, 5, 34.1561, 45.9927, -7.52775, 93.7158, -55.6521, 44.9515
3.544, 5, 34.1421, 45.9796, -7.48204, 93.689, -55.6834, 44.9575
3.548, 5, 34.1281, 45.9666, -7.43638, 93.6622, -55.7147, 44.9635
3.552, 5, 34.1142, 45.9537, -7.39075, 93.6355, -55.7459, 44.9695
3.556, 5, 34.1002, 45.9407, -7.34517, 93.6087, -55.7772, 44.9755
3.56, 5, 34.0862, 45.9279, -7.29963, 93.582, -55.8086, 44.9814
3.564, 5, 34.0721, 45.915, -7.25413, 93.5553, -55.8399, 44.9874
3.568, 5, 34.0581, 45.9022, -7.20867, 93.5286, -55.8712, 44.9933
3.572, 5, 34.044, 45.8895, -7.16326, 93.5019, -55.9025, 44.9993
3.576, 5, 34.03, 45.8767, -7.11788, 93.4752, -55.9339, 45.0052
3.58, 5, 34.0159, 45.8641, -7.07255, 93.4486, -55.9652, 45.0111
3.584, 5, 34.0018, 45.8514, -7.02725, 93.4219, -55.9966, 45.017
3.587, 5, 33.9877, 45.8388, -6.982, 93.3952, -56.028, 45.023
3.592, 5, 33.9736, 45.8263, -6.93679, 93.3686, -56.0594, 45.0289
3.596, 5, 33.9594, 45.8137, -6.89162, 93.342, -56.0907, 45.0347
3.6, 5, 33.9453, 45.8013, -6.84649, 93.3154, -56.1221, 45.0406
3.604, 5, 33.9311, 45.7888, -6.8014, 93.2888, -56.1535, 45.0465
3.608, 5, 33.9169, 45.7764, -6.75635, 93.2622, -56.185, 45.0524
3.612, 5, 33.9027, 45.7641, -6.71134, 93.2356, -56.2164, 45.0582
3.616, 5, 33.8885, 45.7518, -6.66638, 93.209, -56.2478, 45.0641
3.62, 5, 33.8743, 45.7395, -6.62145, 93.1824, -56.2793, 45.0699
3.624, 5, 33.8601, 45.7273, -6.57656, 93.1559, -56.3107, 45.0758
3.628, 5, 33.8458, 45.7151, -6.53172, 93.1293, -56.3422, 45.0816
3.632, 5, 33.8316, 45.7029, -6.48691, 93.1028, -56.3736, 45.0874
3.636, 5, 33.8173, 45.6908, -6.44215, 93.0763, -56.4051, 45.0932
3.64, 5, 33.803, 45.6787, -6.39742, 93.0498, -56.4366, 45.099
3.644, 5, 33.7887, 45.6667, -6.35274, 93.0233, -56.4681, 45.1048
3.648, 5, 33.7744, 45.6547, -6.3081, 92.9968, -56.4996, 45.1106
3.652, 5, 33.76, 45.6428, -6.26349, 92.9703, -56.5311, 45.1164
3.656, 5, 33.7457, 45.6309, -6.21893, 92.9439, -56.5627, 45.1222
3.66, 5, 33.7313, 45.619, -6.17441, 92.9174, -56.5942, 45.1279
3.664, 5, 33.7169, 45.6072, -6.12992, 92.8909, -56.6257, 45.1337
3.668, 5, 33.7025, 45.5954, -6.08548, 92.8645, -56.6573, 45.1394
3.672, 5, 33.6881, 45.5836, -6.04108, 92.8381, -56.6888, 45.1452
3.676, 5, 33.6737, 45.5719, -5.99671, 92.8117, -56.7204, 45.1509
3.679, 5, 33.6593, 45.5603, -5.95239, 92.7852, -56.752, 45.1566
3.684, 5, 33.6448, 45.5486, -5.90811, 92.7588, -56.7836, 45.1624
3.688, 5, 33.6304, 45.537, -5.86386, 92.7325, -56.8152, 45.1681
3.692, 5, 33.6159, 45.5255, -5.81966, 92.7061, -56.8468, 45.1738
3.696, 5, 33.6014, 45.514, -5.7755, 92.6797, -56.8784, 45.1795
3.7, 5, 33.5869, 45.5025, -5.73137, 92.6534, -56.91, 45.1852
3.704, 5, 33.5724, 45.4911, -5.68729, 92.627, -56.9416, 45.1909
3.708, 5, 33.5578, 45.4797, -5.64324, 92.6007, -56.9732, 45.1966
3.712, 5, 33.5433, 45.4684, -5.59924, 92.5743, -57.0049, 45.2022
3.716, 5, 33.5287, 45.4571, -5.55527, 92.548, -57.0365, 45.2079
3.72, 5, 33.5142, 45.4458, -5.51135, 92.5217, -57.0682, 45.2136
3.724, 5, 33.4996, 45.4346, -5.46746, 92.4954, -57.0999, 45.2192
3.728, 5, 33.485, 45.4234, -5.42361, 92.4691, -57.1316, 45.2249
3.732, 5, 33.4703, 45.4122, -5.3798, 92.4428, -57.1633, 45.2305
3.735, 5, 33.4557, 45.4011, -5.33604, 92.4165, -57.195, 45.2361
3.74, 5, 33.4411, 45.3901, -5.29231, 92.3903, -57.2267, 45.2418
3.744, 5, 33.4264, 45.3791, -5.24862, 92.364, -57.2584, 45.2474
3.748, 5, 33.4117, 45.3681, -5.20497, 92.3378, -57.2901, 45.253
3.752, 5, 33.397, 45.3571, -5.16136, 92.3115, -57.3218, 45.2586
3.756, 5, 33.3823, 45.3462, -5.11778, 92.2853, -57.3536, 45.2642
3.76, 5, 33.3676, 45.3354, -5.07425, 92.2591, -57.3853, 45.2698
3.764, 5, 33.3529, 45.3245, -5.03076, 92.2329, -57.4171, 45.2754
3.768, 5, 33.3381, 45.3138, -4.9873, 92.2067, -57.4489, 45.281
3.772, 5, 33.3233, 45.303, -4.94389, 92.1805, -57.4806, 45.2866
3.776, 5, 33.3086, 45.2923, -4.90051, 92.1543, -57.5124, 45.2921
3.78, 5, 33.2938, 45.2816, -4.85717, 92.1281, -57.5442, 45.2977
3.784, 5, 33.2789, 45.271, -4.81387, 92.1019, -57.576, 45.3033
3.788, 5, 33.2641, 45.2604, -4.77061, 92.0758, -57.6078, 45.3088
3.792, 5, 33.2493, 45.2499, -4.72739, 92.0496, -57.6396, 45.3144
3.796, 5, 33.2344, 45.2394, -4.68421, 92.0235, -57.6715, 45.3199
3.8, 5, 33.2196, 45.2289, -4.64107, 91.9974, -57.7033, 45.3255
3.804, 5, 33.2047, 45.2185, -4.59796, 91.9712, -57.7352, 45.331
3.808, 5, 33.1898, 45.2081, -4.5549, 91.9451, -57.767, 45.3365
3.812, 5, 33.1749, 45.1978, -4.51187, 91.919, -57.7989, 45.342
3.816, 5, 33.1599, 45.1875, -4.46888, 91.8929, -57.8308, 45.3476
3.82, 5, 33.145, 45.1772, -4.42593, 91.8668, -57.8626, 45.3531
3.824, 5, 33.13, 45.167, -4.38302, 91.8407, -57.8945, 45.3586
3.828, 5, 33.1151, 45.1568, -4.34015, 91.8147, -57.9264, 45.3641
3.832, 5, 33.1001, 45.1467, -4.29731, 91.7886, -57.9583, 45.3696
3.836, 5, 33.0851, 45.1366, -4.25452, 91.7625, -57.9903, 45.3751
3.84, 5, 33.0701, 45.1265, -4.21176, 91.7365, -58.0222, 45.3806
3.844, 5, 33.055, 45.1165, -4.16904, 91.7104, -58.0541, 45.386
3.848, 5, 33.04, 45.1065, -4.12636, 91.6844, -58.0861, 45.3915
3.852, 5, 33.0249, 45.0965, -4.08372, 91.6584, -58.118, 45.397
3.856, 5, 33.0098, 45.0866, -4.04111, 91.6324, -58.15, 45.4025
3.86, 5, 32.9948, 45.0768, -3.99855, 91.6063, -58.1819, 45.4079
3.864, 5, 32.9797, 45.0669, -3.95602, 91.5804, -58.2139, 45.4134
3.868, 5, 32.9645, 45.0572, -3.91353, 91.5544, -58.2459, 45.4188
3.872, 5, 32.9494, 45.0474, -3.87108, 91.5284, -58.2779, 45.4243
3.876, 5, 32.9342, 45.0377, -3.82866, 91.5024, -58.3099, 45.4297
3.88, 5, 32.9191, 45.028, -3.78629, 91.4764, -58.3419, 45.4351
3.884, 5, 32.9039, 45.0184, -3.74395, 91.4505, -58.3739, 45.4406
3.888, 5, 32.8887, 45.0088, -3.70165, 91.4245, -58.406, 45.446
3.892, 5, 32.8735, 44.9993, -3.65939, 91.3986, -58.438, 45.4514
3.896, 5, 32.8583, 44.9898, -3.61717, 91.3726, -58.4701, 45.4568
3.9, 5, 32.843, 44.9803, -3.57499, 91.3467, -58.5021, 45.4623
3.904, 5, 32.8278, 44.9709, -3.53284, 91.3208, -58.5342, 45.4677
3.908, 5, 32.8125, 44.9615, -3.49073, 91.2948, -58.5662, 45.4731
3.912, 5, 32.7972, 44.9522, -3.44866, 91.2689, -58.5983, 45.4785
3.916, 5, 32.7819, 44.9429, -3.40662, 91.243, -58.6304, 45.4839
3.92, 5, 32.7666, 44.9336, -3.36463, 91.2171, -58.6625, 45.4893
3.924, 5, 32.7513, 44.9244, -3.32267, 91.1912, -58.6946, 45.4946
3.928, 5, 32.7359, 44.9152, -3.28075, 91.1654, -58.7267, 45.5
3.932, 5, 32.7206, 44.906, -3.23887, 91.1395, -58.7589, 45.5054
3.936, 5, 32.7052, 44.8969, -3.19702, 91.1136, -58.791, 45.5108
3.94, 5, 32.6898, 44.8879, -3.15522, 91.0878, -58.8232, 45.5162
3.944, 5, 32.6744, 44.8788, -3.11345, 91.0619, -58.8553, 45.5215
3.948, 5, 32.659, 44.8698, -3.07171, 91.0361, -58.8875, 45.5269
3.952, 5, 32.6435, 44.8609, -3.03002, 91.0102, -58.9196, 45.5322
3.956, 5, 32.6281, 44.852, -2.98836, 90.9844, -58.9518, 45.5376
3.96, 5, 32.6126, 44.8431, -2.94674, 90.9586, -58.984, 45.5429
3.964, 5, 32.5971, 44.8343, -2.90516, 90.9328, -59.0162, 45.5483
3.968, 5, 32.5816, 44.8255, -2.86362, 90.907, -59.0484, 45.5536
3.972, 5, 32.5661, 44.8167, -2.82211, 90.8811, -59.0806, 45.559
3.976, 5, 32.5506, 44.808, -2.78064, 90.8554, -59.1128, 45.5643
3.98, 5, 32.535, 44.7994, -2.73921, 90.8296, -59.1451, 45.5696
3.984, 5, 32.5195, 44.7907, -2.69781, 90.8038, -59.1773, 45.575
3.988, 5, 32.5039, 44.7821, -2.65646, 90.778, -59.2095, 45.5803
3.992, 5, 32.4883, 44.7736, -2.61514, 90.7522, -59.2418, 45.5856
3.996, 5, 32.4727, 44.7651, -2.57385, 90.7265, -59.2741, 45.5909
3.999, 5, 32.4571, 44.7566, -2.53261, 90.7007, -59.3063, 45.5963
4.004, 5, 32.4414, 44.7482, -2.4914, 90.675, -59.3386, 45.6016
4.008, 5, 32.4258, 44.7398, -2.45023, 90.6492, -59.3709, 45.6069
4.012, 5, 32.4101, 44.7314, -2.4091, 90.6235, -59.4032, 45.6122
4.016, 5, 32.3944, 44.7231, -2.368, 90.5978, -59.4355, 45.6175
4.02, 5, 32.3787, 44.7148, -2.32694, 90.572, -59.4678, 45.6228
4.024, 5, 32.363, 44.7066, -2.28592, 90.5463, -59.5002, 45.6281
4.028, 5, 32.3473, 44.6984, -2.24494, 90.5206, -59.5325, 45.6334
4.032, 5, 32.3315, 44.6903, -2.20399, 90.4949, -59.5648, 45.6387
4.036, 5, 32.3158, 44.6821, -2.16308, 90.4692, -59.5972, 45.6439
4.04, 5, 32.3, 44.6741, -2.12221, 90.4435, -59.6296, 45.6492
4.044, 5, 32.2842, 44.666, -2.08137, 90.4178, -59.6619, 45.6545
4.048, 5, 32.2684, 44.658, -2.04058, 90.3922, -59.6943, 45.6598
4.052, 5, 32.2526, 44.6501, -1.99982, 90.3665, -59.7267, 45.6651
4.056, 5, 32.2367, 44.6422, -1.95909, 90.3408, -59.7591, 45.6703
4.06, 5, 32.2209, 44.6343, -1.91841, 90.3152, -59.7915, 45.6756
4.064, 5, 32.205, 44.6265, -1.87776, 90.2895, -59.8239, 45.6809
4.068, 5, 32.1891, 44.6187, -1.83715, 90.2639, -59.8563, 45.6861
4.072, 5, 32.1732, 44.6109, -1.79658, 90.2382, -59.8888, 45.6914
4.076, 5, 32.1573, 44.6032, -1.75604, 90.2126, -59.9212, 45.6966
4.08, 5, 32.1413, 44.5955, -1.71554, 90.187, -59.9537, 45.7019
4.084, 5, 32.1254, 44.5879, -1.67508, 90.1613, -59.9861, 45.7071
4.088, 5, 32.1094, 44.5803, -1.63465, 90.1357, -60.0186, 45.7124
4.092, 5, 32.0934, 44.5728, -1.59426, 90.1101, -60.0511, 45.7176
4.096, 5, 32.0774, 44.5652, -1.55391, 90.0845, -60.0836, 45.7229
4.1, 5, 32.0614, 44.5578, -1.5136, 90.0589, -60.1161, 45.7281
4.104, 5, 32.0454, 44.5503, -1.47332, 90.0333, -60.1486, 45.7333
4.108, 5, 32.0293, 44.5429, -1.43308, 90.0077, -60.1811, 45.7386
4.112, 5, 32.0133, 44.5356, -1.39288, 89.9822, -60.2136, 45.7438
4.116, 5, 31.9972, 44.5283, -1.35271, 89.9566, -60.2461, 45.749
4.12, 5, 31.9811, 44.521, -1.31258, 89.931, -60.2787, 45.7543
4.124, 5, 31.965, 44.5137, -1.27249, 89.9055, -60.3112, 45.7595
4.128, 5, 31.9489, 44.5065, -1.23243, 89.8799, -60.3438, 45.7647
4.132, 5, 31.9327, 44.4994, -1.19241, 89.8544, -60.3764, 45.7699
4.136, 5, 31.9166, 44.4923, -1.15243, 89.8288, -60.4089, 45.7751
4.14, 5, 31.9004, 44.4852, -1.11249, 89.8033, -60.4415, 45.7803
4.144, 5, 31.8842, 44.4781, -1.07258, 89.7777, -60.4741, 45.7856
4.148, 5, 31.868, 44.4711, -1.0327, 89.7522, -60.5067, 45.7908
4.152, 5, 31.8518, 44.4642, -0.992868, 89.7267, -60.5393, 45.796
4.156, 5, 31.8355, 44.4573, -0.953069, 89.7012, -60.572, 45.8012
4.16, 5, 31.8193, 44.4504, -0.913306, 89.6757, -60.6046, 45.8064
4.164, 5, 31.803, 44.4435, -0.87358, 89.6502, -60.6372, 45.8116
4.168, 5, 31.7867, 44.4367, -0.83389, 89.6246, -60.6699, 45.8168
4.172, 5, 31.7704, 44.43, -0.794237, 89.5992, -60.7025, 45.822
4.176, 5, 31.7541, 44.4232, -0.75462, 89.5737, -60.7352, 45.8272
4.18, 5, 31.7378, 44.4166, -0.71504, 89.5482, -60.7679, 45.8323
4.184, 5, 31.7214, 44.4099, -0.675496, 89.5227, -60.8006, 45.8375
4.188, 5, 31.7051, 44.4033, -0.635989, 89.4972, -60.8333, 45.8427
4.192, 5, 31.6887, 44.3967, -0.596518, 89.4718, -60.866, 45.8479
4.196, 5, 31.6723, 44.3902, -0.557083, 89.4463, -60.8987, 45.8531
4.2, 5, 31.6559, 44.3837, -0.517684, 89.4208, -60.9314, 45.8583
4.204, 5, 31.6394, 44.3773, -0.478322, 89.3954, -60.9642, 45.8634
4.208, 5, 31.623, 44.3709, -0.438996, 89.3699, -60.9969, 45.8686
4.212, 5, 31.6065, 44.3645, -0.399706, 89.3445, -61.0296, 45.8738
4.216, 5, 31.59, 44.3582, -0.360453, 89.3191, -61.0624, 45.879
4.22, 5, 31.5735, 44.3519, -0.321235, 89.2936, -61.0952, 45.8841
4.224, 5, 31.557, 44.3456, -0.282054, 89.2682, -61.128, 45.8893
4.228, 5, 31.5405, 44.3394, -0.242909, 89.2428, -61.1607, 45.8945
4.232, 5, 31.524, 44.3332, -0.2038, 89.2174, -61.1935, 45.8996
4.236, 5, 31.5074, 44.3271, -0.164727, 89.192, -61.2263, 45.9048
4.24, 5, 31.4908, 44.321, -0.125691, 89.1666, -61.2592, 45.91
4.244, 5, 31.4742, 44.315, -0.08669, 89.1412, -61.292, 45.9151
4.248, 5, 31.4576, 44.3089, -0.0477255, 89.1158, -61.3248, 45.9203
4.252, 5, 31.441, 44.303, -0.00879695, 89.0904, -61.3577, 45.9254
4.256, 5, 31.4244, 44.297, 0.0300956, 89.065, -61.3905, 45.9306
4.26, 5, 31.4077, 44.2911, 0.0689522, 89.0396, -61.4234, 45.9357
4.264, 5, 31.391, 44.2853, 0.107773, 89.0142, -61.4563, 45.9409
4.268, 5, 31.3743, 44.2794, 0.146558, 88.9889, -61.4891, 45.946
4.272, 5, 31.3576, 44.2737, 0.185307, 88.9635, -61.522, 45.9512
4.276, 5, 31.3409, 44.2679, 0.22402, 88.9381, -61.5549, 45.9563
4.28, 5, 31.3242, 44.2622, 0.262697, 88.9128, -61.5878, 45.9615
4.284, 5, 31.3074, 44.2565, 0.301338, 88.8874, -61.6207, 45.9666
4.288, 5, 31.2907, 44.2509, 0.339941, 88.8621, -61.6537, 45.9717
4.292, 5, 31.274, 44.2453, 0.378503, 88.8367, -61.6866, 45.9769
4.296, 5, 31.2574, 44.2397, 0.417022, 88.8114, -61.7195, 45.982
4.3, 5, 31.2408, 44.2342, 0.455491, 88.7861, -61.7525, 45.9872
4.304, 5, 31.2243, 44.2287, 0.493899, 88.7608, -61.7854, 45.9923
4.308, 5, 31.208, 44.2232, 0.532227, 88.7355, -61.8183, 45.9974
4.312, 5, 31.192, 44.2176, 0.570444, 88.7103, -61.8511, 46.0025
4.316, 5, 31.1765, 44.212, 0.608495, 88.6852, -61.8839, 46.0076
4.32, 5, 31.1615, 44.2062, 0.6463, 88.6601, -61.9165, 46.0127
4.324, 5, 31.1472, 44.2003, 0.68374, 88.6353, -61.9488, 46.0177
4.328, 5, 31.1335, 44.1943, 0.720659, 88.6108, -61.9807, 46.0227
4.332, 5, 31.1205, 44.1881, 0.756852, 88.5867, -62.0121, 46.0276
4.336, 5, 31.1082, 44.182, 0.792083, 88.5632, -62.0426, 46.0323
4.34, 5, 31.0964, 44.176, 0.826081, 88.5405, -62.0722, 46.0369
4.344, 5, 31.0852, 44.1702, 0.858563, 88.5189, -62.1004, 46.0413
4.348, 5, 31.0744, 44.1648, 0.889246, 88.4984, -62.1271, 46.0455
4.352, 5, 31.0642, 44.1598, 0.917865, 88.4792, -62.152, 46.0494
4.356, 5, 31.0544, 44.1554, 0.944188, 88.4617, -62.1749, 46.0529
4.36, 5, 31.045, 44.1517, 0.968036, 88.4458, -62.1957, 46.0562
4.364, 5, 31.0361, 44.1485, 0.989292, 88.4316, -62.2142, 46.059
4.368, 5, 31.0276, 44.1461, 1.0079, 88.4193, -62.2304, 46.0615
4.372, 5, 31.0197, 44.1443, 1.02389, 88.4087, -62.2442, 46.0637
4.376, 5, 31.0121, 44.1432, 1.03734, 88.3998, -62.2559, 46.0655
4.38, 5, 31.005, 44.1427, 1.04842, 88.3926, -62.2654, 46.0669
4.384, 5, 30.9983, 44.1427, 1.05733, 88.3868, -62.2731, 46.0681
4.388, 5, 30.992, 44.1431, 1.06432, 88.3823, -62.2791, 46.069
4.392, 5, 30.9862, 44.1437, 1.06968, 88.3789, -62.2836, 46.0697
4.396, 5, 30.981, 44.1445, 1.07368, 88.3764, -62.287, 46.0702
4.4, 5, 30.9765, 44.1453, 1.07659, 88.3746, -62.2895, 46.0706
4.404, 5, 30.9728, 44.1461, 1.07867, 88.3733, -62.2912, 46.0708
4.408, 5, 30.9697, 44.1467, 1.08012, 88.3724, -62.2924, 46.071
4.412, 5, 30.9674, 44.1472, 1.08111, 88.3718, -62.2932, 46.0711
4.416, 5, 30.9656, 44.1476, 1.08176, 88.3714, -62.2938, 46.0712
4.42, 5, 30.9639, 44.1482, 1.08215, 88.3711, -62.2942, 46.0713
4.424, 5, 30.9619, 44.1489, 1.08232, 88.3709, -62.2945, 46.0713
4.428, 5, 30.9596, 44.1501, 1.08228, 88.3707, -62.2948, 46.0712
4.432, 5, 30.9567, 44.1517, 1.08205, 88.3704, -62.2951, 46.0711
4.436, 5, 30.953, 44.1538, 1.08161, 88.3701, -62.2956, 46.0709
4.44, 5, 30.9487, 44.1565, 1.08097, 88.3695, -62.2964, 46.0704
4.444, 5, 30.9437, 44.1597, 1.08013, 88.3685, -62.2976, 46.0698
4.448, 5, 30.938, 44.1635, 1.07908, 88.3672, -62.2993, 46.0687
4.452, 5, 30.9316, 44.1678, 1.0778, 88.3653, -62.3017, 46.0672
4.456, 6, 30.9244, 44.1729, 1.07629, 88.3627, -62.3051, 46.0652
4.46, 6, 30.9162, 44.1787, 1.07452, 88.3593, -62.3095, 46.0624
4.464, 6, 30.9072, 44.1852, 1.0725, 88.355, -62.3151, 46.0589
4.468, 6, 30.8973, 44.1925, 1.07023, 88.3495, -62.3221, 46.0545
4.472, 6, 30.8866, 44.2004, 1.06775, 88.3429, -62.3307, 46.0492
4.476, 6, 30.8753, 44.209, 1.06505, 88.3349, -62.3409, 46.0427
4.48, 6, 30.8633, 44.2182, 1.06216, 88.3256, -62.3529, 46.0352
4.484, 6, 30.8508, 44.2279, 1.05906, 88.3149, -62.3667, 46.0265
4.488, 6, 30.8375, 44.2383, 1.05576, 88.3029, -62.3822, 46.0168
4.492, 6, 30.8235, 44.2494, 1.05221, 88.2895, -62.3994, 46.0059
4.496, 6, 30.8087, 44.2613, 1.0484, 88.2749, -62.4183, 45.9941
4.5, 6, 30.7929, 44.2739, 1.04431, 88.2592, -62.4385, 45.9813
4.504, 6, 30.7762, 44.2873, 1.03996, 88.2424, -62.4601, 45.9677
4.508, 6, 30.7588, 44.3014, 1.03534, 88.2247, -62.4828, 45.9534
4.512, 6, 30.7406, 44.3161, 1.03046, 88.2063, -62.5065, 45.9385
4.516, 6, 30.7217, 44.3315, 1.02533, 88.1872, -62.5311, 45.9231
4.52, 6, 30.7019, 44.3476, 1.01995, 88.1676, -62.5562, 45.9073
4.524, 6, 30.6812, 44.3644, 1.01432, 88.1476, -62.5819, 45.8912
4.528, 6, 30.6597, 44.3819, 1.00847, 88.1273, -62.608, 45.8749
4.532, 6, 30.6373, 44.3999, 1.00241, 88.1068, -62.6343, 45.8583
4.536, 6, 30.6141, 44.4185, 0.996177, 88.0862, -62.6608, 45.8417
4.54, 6, 30.5902, 44.4375, 0.989796, 88.0653, -62.6875, 45.825
4.544, 6, 30.5658, 44.4569, 0.9833, 88.0445, -62.7143, 45.8083
4.548, 6, 30.5412, 44.4764, 0.976714, 88.0235, -62.7411, 45.7915
4.552, 6, 30.5163, 44.4961, 0.970053, 88.0025, -62.768, 45.7747
4.556, 6, 30.4912, 44.516, 0.963328, 87.9815, -62.7949, 45.7579
4.56, 6, 30.466, 44.5359, 0.956548, 87.9604, -62.8218, 45.7411
4.564, 6, 30.4408, 44.5559, 0.949718, 87.9393, -62.8487, 45.7242
4.568, 6, 30.4155, 44.576, 0.942839, 87.9182, -62.8757, 45.7074
4.572, 6, 30.3902, 44.5961, 0.935916, 87.8971, -62.9027, 45.6906
4.576, 6, 30.3649, 44.6162, 0.928949, 87.8759, -62.9296, 45.6737
4.58, 6, 30.3395, 44.6364, 0.92194, 87.8548, -62.9566, 45.6569
4.584, 6, 30.3141, 44.6567, 0.914889, 87.8336, -62.9836, 45.6401
4.588, 6, 30.2887, 44.677, 0.907796, 87.8124, -63.0106, 45.6233
4.592, 6, 30.2633, 44.6973, 0.900662, 87.7912, -63.0376, 45.6064
4.596, 6, 30.2379, 44.7176, 0.893487, 87.77, -63.0647, 45.5896
4.6, 6, 30.2124, 44.738, 0.886271, 87.7487, -63.0917, 45.5728
4.604, 6, 30.187, 44.7584, 0.879015, 87.7275, -63.1187, 45.556
4.608, 6, 30.1616, 44.7788, 0.871717, 87.7062, -63.1457, 45.5392
4.612, 6, 30.1361, 44.7993, 0.864379, 87.6849, -63.1728, 45.5224
4.616, 6, 30.1106, 44.8198, 0.857, 87.6636, -63.1998, 45.5056
4.62, 6, 30.0852, 44.8403, 0.84958, 87.6423, -63.2269, 45.4888
4.624, 6, 30.0597, 44.8609, 0.842119, 87.6209, -63.2539, 45.4719
4.628, 6, 30.0342, 44.8815, 0.834616, 87.5996, -63.281, 45.4551
4.632, 6, 30.0087, 44.9022, 0.827073, 87.5782, -63.308, 45.4384
4.636, 6, 29.9832, 44.9228, 0.819489, 87.5569, -63.3351, 45.4216
4.64, 6, 29.9578, 44.9435, 0.811863, 87.5355, -63.3622, 45.4048
4.644, 6, 29.9322, 44.9643, 0.804197, 87.5141, -63.3893, 45.388
4.648, 6, 29.9067, 44.985, 0.796488, 87.4926, -63.4164, 45.3712
4.652, 6, 29.8812, 45.0058, 0.788739, 87.4712, -63.4435, 45.3544
4.656, 6, 29.8557, 45.0266, 0.780948, 87.4498, -63.4706, 45.3376
4.66, 6, 29.8302, 45.0475, 0.773115, 87.4283, -63.4977, 45.3208
4.664, 6, 29.8046, 45.0684, 0.765241, 87.4068, -63.5248, 45.3041
4.668, 6, 29.7791, 45.0893, 0.757326, 87.3853, -63.5519, 45.2873
4.672, 6, 29.7535, 45.1103, 0.749368, 87.3638, -63.579, 45.2705
4.676, 6, 29.728, 45.1313, 0.74137, 87.3423, -63.6061, 45.2537
4.68, 6, 29.7024, 45.1523, 0.733329, 87.3207, -63.6333, 45.237
4.684, 6, 29.6768, 45.1734, 0.725247, 87.2992, -63.6604, 45.2202
4.688, 6, 29.6513, 45.1945, 0.717123, 87.2776, -63.6875, 45.2034
4.692, 6, 29.6257, 45.2156, 0.708957, 87.256, -63.7147, 45.1866
4.696, 6, 29.6001, 45.2367, 0.700749, 87.2344, -63.7418, 45.1699
4.7, 6, 29.5745, 45.2579, 0.692499, 87.2128, -63.769, 45.1531
4.704, 6, 29.5489, 45.2791, 0.684207, 87.1912, -63.7962, 45.1364
4.708, 6, 29.5233, 45.3004, 0.675873, 87.1696, -63.8233, 45.1196
4.712, 6, 29.4977, 45.3217, 0.667497, 87.1479, -63.8505, 45.1028
4.716, 6, 29.4721, 45.343, 0.659079, 87.1262, -63.8777, 45.0861
4.72, 6, 29.4464, 45.3643, 0.650619, 87.1046, -63.9049, 45.0693
4.724, 6, 29.4208, 45.3857, 0.642116, 87.0829, -63.9321, 45.0525
4.728, 6, 29.3952, 45.4071, 0.633572, 87.0612, -63.9593, 45.0358
4.732, 6, 29.3695, 45.4286, 0.624986, 87.0394, -63.9865, 45.019
4.736, 6, 29.3439, 45.4501, 0.616357, 87.0177, -64.0137, 45.0023
4.74, 6, 29.3182, 45.4716, 0.607687, 86.9959, -64.0409, 44.9855
4.744, 6, 29.2926, 45.4931, 0.598974, 86.9742, -64.0681, 44.9688
4.748, 6, 29.2669, 45.5147, 0.590218, 86.9524, -64.0953, 44.952
4.752, 6, 29.2412, 45.5363, 0.581421, 86.9306, -64.1226, 44.9352
4.756, 6, 29.2155, 45.5579, 0.572581, 86.9088, -64.1498, 44.9185
4.76, 6, 29.1898, 45.5796, 0.563699, 86.887, -64.177, 44.9017
4.764, 6, 29.1641, 45.6013, 0.554775, 86.8652, -64.2043, 44.885
4.768, 6, 29.1384, 45.6231, 0.545808, 86.8433, -64.2315, 44.8682
4.772, 6, 29.1127, 45.6448, 0.536799, 86.8215, -64.2588, 44.8515
4.776, 6, 29.087, 45.6666, 0.527747, 86.7996, -64.286, 44.8347
4.78, 6, 29.0613, 45.6885, 0.518653, 86.7777, -64.3133, 44.818
4.784, 6, 29.0356, 45.7103, 0.509516, 86.7558, -64.3406, 44.8012
4.788, 6, 29.0098, 45.7322, 0.500336, 86.7339, -64.3679, 44.7845
4.792, 6, 28.9841, 45.7541, 0.491114, 86.712, -64.3952, 44.7677
4.796, 6, 28.9584, 45.7761, 0.481849, 86.69, -64.4224, 44.7509
4.8, 6, 28.9326, 45.7981, 0.472541, 86.6681, -64.4497, 44.7342
4.804, 6, 28.9068, 45.8201, 0.46319, 86.6461, -64.477, 44.7174
4.808, 6, 28.8811, 45.8422, 0.453797, 86.6241, -64.5043, 44.7007
4.812, 6, 28.8553, 45.8643, 0.44436, 86.6021, -64.5317, 44.6839
4.816, 6, 28.8295, 45.8864, 0.434881, 86.5801, -64.559, 44.6672
4.82, 6, 28.8038, 45.9086, 0.425359, 86.5581, -64.5863, 44.6504
4.824, 6, 28.778, 45.9307, 0.415793, 86.5361, -64.6136, 44.6337
4.828, 6, 28.7522, 45.953, 0.406185, 86.514, -64.6409, 44.6169
4.832, 6, 28.7264, 45.9752, 0.396533, 86.492, -64.6683, 44.6001
4.836, 6, 28.7006, 45.9975, 0.386839, 86.4699, -64.6956, 44.5834
4.84, 6, 28.6747, 46.0198, 0.377101, 86.4478, -64.723, 44.5666
4.844, 6, 28.6489, 46.0422, 0.36732, 86.4257, -64.7503, 44.5499
4.848, 6, 28.6231, 46.0645, 0.357495, 86.4036, -64.7777, 44.5331
4.852, 6, 28.5973, 46.0869, 0.347627, 86.3815, -64.805, 44.5164
4.856, 6, 28.5714, 46.1094, 0.337716, 86.3594, -64.8324, 44.4996
4.86, 6, 28.5456, 46.1319, 0.327761, 86.3372, -64.8598, 44.4828
4.864, 6, 28.5197, 46.1544, 0.317763, 86.315, -64.8872, 44.4661
4.868, 6, 28.4939, 46.1769, 0.307722, 86.2929, -64.9145, 44.4493
4.872, 6, 28.468, 46.1995, 0.297636, 86.2707, -64.9419, 44.4325
4.876, 6, 28.4421, 46.2221, 0.287508, 86.2485, -64.9693, 44.4158
4.88, 6, 28.4163, 46.2447, 0.277335, 86.2262, -64.9967, 44.399
4.884, 6, 28.3904, 46.2674, 0.267119, 86.204, -65.0241, 44.3822
4.888, 6, 28.3645, 46.2901, 0.256859, 86.1818, -65.0515, 44.3655
4.892, 6, 28.3386, 46.3128, 0.246555, 86.1595, -65.0789, 44.3487
4.896, 6, 28.3127, 46.3356, 0.236208, 86.1372, -65.1064, 44.3319
4.9, 6, 28.2868, 46.3584, 0.225816, 86.115, -65.1338, 44.3151
4.904, 6, 28.2609, 46.3812, 0.215381, 86.0927, -65.1612, 44.2984
4.908, 6, 28.235, 46.4041, 0.204902, 86.0704, -65.1887, 44.2816
4.912, 6, 28.209, 46.427, 0.194378, 86.048, -65.2161, 44.2648
4.916, 6, 28.1831, 46.4499, 0.183811, 86.0257, -65.2435, 44.248
4.92, 6, 28.1572, 46.4729, 0.1732, 86.0034, -65.271, 44.2313
4.924, 6, 28.1312, 46.4959, 0.162544, 85.981, -65.2984, 44.2145
4.928, 6, 28.1053, 46.5189, 0.151844, 85.9586, -65.3259, 44.1977
4.932, 6, 28.0793, 46.542, 0.1411, 85.9362, -65.3534, 44.1809
4.936, 6, 28.0534, 46.5651, 0.130312, 85.9138, -65.3808, 44.1641
4.94, 6, 28.0274, 46.5882, 0.119479, 85.8914, -65.4083, 44.1473
4.944, 6, 28.0014, 46.6113, 0.108602, 85.869, -65.4358, 44.1305
4.948, 6, 27.9754, 46.6345, 0.0976804, 85.8465, -65.4633, 44.1138
4.952, 6, 27.9495, 46.6577, 0.0867145, 85.8241, -65.4908, 44.097
4.956, 6, 27.9235, 46.681, 0.075704, 85.8016, -65.5182, 44.0802
4.96, 6, 27.8975, 46.7043, 0.064649, 85.7792, -65.5457, 44.0634
4.964, 6, 27.8715, 46.7276, 0.0535494, 85.7567, -65.5732, 44.0466
4.968, 6, 27.8455, 46.7509, 0.0424051, 85.7342, -65.6008, 44.0298
4.972, 6, 27.8194, 46.7743, 0.0312161, 85.7116, -65.6283, 44.013
4.976, 6, 27.7934, 46.7977, 0.0199824, 85.6891, -65.6558, 43.9961
4.98, 6, 27.7674, 46.8212, 0.00870395, 85.6666, -65.6833, 43.9793
4.984, 6, 27.7413, 46.8447, -0.00261938, 85.644, -65.7108, 43.9625
4.988, 6, 27.7153, 46.8682, -0.0139876, 85.6215, -65.7384, 43.9457
4.992, 6, 27.6893, 46.8917, -0.0254007, 85.5989, -65.7659, 43.9289
4.996, 6, 27.6632, 46.9153, -0.0368588, 85.5763, -65.7935, 43.9121
5, 6, 27.6371, 46.9389, -0.0483619, 85.5537, -65.821, 43.8953
5.004, 6, 27.6111, 46.9625, -0.0599101, 85.5311, -65.8486, 43.8784
5.008, 6, 27.585, 46.9862, -0.0715034, 85.5084, -65.8761, 43.8616
5.012, 6, 27.5589, 47.0099, -0.0831419, 85.4858, -65.9037, 43.8448
5.016, 6, 27.5329, 47.0336, -0.0948255, 85.4631, -65.9312, 43.8279
5.02, 6, 27.5068, 47.0574, -0.106554, 85.4405, -65.9588, 43.8111
5.024, 6, 27.4807, 47.0812, -0.118329, 85.4178, -65.9864, 43.7943
5.028, 6, 27.4546, 47.105, -0.130148, 85.3951, -66.014, 43.7774
5.032, 6, 27.4285, 47.1289, -0.142013, 85.3724, -66.0416, 43.7606
5.036, 6, 27.4023, 47.1528, -0.153923, 85.3497, -66.0692, 43.7437
5.04, 6, 27.3762, 47.1767, -0.165879, 85.3269, -66.0967, 43.7269
5.044, 6, 27.3501, 47.2007, -0.177881, 85.3042, -66.1244, 43.71
5.048, 6, 27.324, 47.2247, -0.189928, 85.2814, -66.152, 43.6932
5.052, 6, 27.2978, 47.2487, -0.20202, 85.2587, -66.1796, 43.6763
5.056, 6, 27.2717, 47.2728, -0.214159, 85.2359, -66.2072, 43.6595
5.06, 6, 27.2455, 47.2969, -0.226343, 85.2131, -66.2348, 43.6426
5.064, 6, 27.2194, 47.321, -0.238572, 85.1903, -66.2624, 43.6257
5.068, 6, 27.1932, 47.3451, -0.250848, 85.1675, -66.2901, 43.6089
5.072, 6, 27.167, 47.3693, -0.263169, 85.1446, -66.3177, 43.592
5.076, 6, 27.1409, 47.3936, -0.275537, 85.1218, -66.3453, 43.5751
5.08, 6, 27.1147, 47.4178, -0.28795, 85.0989, -66.373, 43.5582
5.084, 6, 27.0885, 47.4421, -0.300409, 85.0761, -66.4006, 43.5413
5.088, 6, 27.0623, 47.4664, -0.312914, 85.0532, -66.4283, 43.5244
5.092, 6, 27.0361, 47.4908, -0.325466, 85.0303, -66.4559, 43.5075
5.096, 6, 27.0099, 47.5151, -0.338063, 85.0074, -66.4836, 43.4907
5.1, 6, 26.9837, 47.5396, -0.350707, 84.9845, -66.5112, 43.4737
5.104, 6, 26.9575, 47.564, -0.363397, 84.9616, -66.5389, 43.4568
5.108, 6, 26.9313, 47.5885, -0.376133, 84.9386, -66.5666, 43.4399
5.112, 6, 26.905, 47.613, -0.388916, 84.9156, -66.5943, 43.423
5.116, 6, 26.8788, 47.6375, -0.401745, 84.8927, -66.6219, 43.4061
5.12, 6, 26.8526, 47.6621, -0.414621, 84.8697, -66.6496, 43.3892
5.124, 6, 26.8263, 47.6867, -0.427542, 84.8467, -66.6773, 43.3723
5.128, 6, 26.8001, 47.7114, -0.440511, 84.8237, -66.705, 43.3553
5.132, 6, 26.7738, 47.736, -0.453526, 84.8007, -66.7327, 43.3384
5.136, 6, 26.7476, 47.7607, -0.466588, 84.7777, -66.7604, 43.3215
5.14, 6, 26.7213, 47.7855, -0.479696, 84.7546, -66.7881, 43.3045
5.144, 6, 26.695, 47.8103, -0.492851, 84.7316, -66.8158, 43.2876
5.148, 6, 26.6687, 47.8351, -0.506053, 84.7085, -66.8436, 43.2706
5.152, 6, 26.6424, 47.8599, -0.519301, 84.6854, -66.8713, 43.2537
5.156, 6, 26.6162, 47.8848, -0.532597, 84.6624, -66.899, 43.2367
5.16, 6, 26.5899, 47.9097, -0.545939, 84.6393, -66.9268, 43.2197
5.164, 6, 26.5635, 47.9346, -0.559328, 84.6162, -66.9545, 43.2028
5.168, 6, 26.5372, 47.9596, -0.572765, 84.593, -66.9822, 43.1858
5.172, 6, 26.5109, 47.9846, -0.586248, 84.5699, -67.01, 43.1688
5.176, 6, 26.4846, 48.0096, -0.599779, 84.5468, -67.0377, 43.1518
5.18, 6, 26.4583, 48.0346, -0.613356, 84.5236, -67.0655, 43.1348
5.184, 6, 26.4319, 48.0597, -0.626981, 84.5004, -67.0932, 43.1178
5.188, 6, 26.4056, 48.0849, -0.640653, 84.4772, -67.121, 43.1008
5.192, 6, 26.3793, 48.11, -0.654373, 84.4541, -67.1488, 43.0838
5.196, 6, 26.3529, 48.1352, -0.66814, 84.4309, -67.1765, 43.0668
5.2, 6, 26.3265, 48.1604, -0.681954, 84.4076, -67.2043, 43.0498
5.204, 6, 26.3002, 48.1857, -0.695816, 84.3844, -67.2321, 43.0328
5.208, 6, 26.2738, 48.211, -0.709725, 84.3612, -67.2599, 43.0157
5.212, 6, 26.2474, 48.2363, -0.723681, 84.3379, -67.2877, 42.9987
5.216, 6, 26.2211, 48.2616, -0.737686, 84.3147, -67.3154, 42.9817
5.22, 6, 26.1947, 48.287, -0.751737, 84.2914, -67.3432, 42.9646
5.224, 6, 26.1683, 48.3124, -0.765837, 84.2681, -67.371, 42.9476
5.228, 6, 26.1419, 48.3379, -0.779984, 84.2448, -67.3988, 42.9305
5.232, 6, 26.1155, 48.3634, -0.79418, 84.2215, -67.4266, 42.9134
5.236, 6, 26.0891, 48.3889, -0.808423, 84.1982, -67.4545, 42.8964
5.24, 6, 26.0627, 48.4144, -0.822713, 84.1748, -67.4823, 42.8793
5.244, 6, 26.0362, 48.44, -0.837052, 84.1515, -67.5101, 42.8622
5.248, 6, 26.0098, 48.4656, -0.851439, 84.1281, -67.5379, 42.8451
5.252, 6, 25.9834, 48.4912, -0.865874, 84.1048, -67.5657, 42.828
5.256, 6, 25.9569, 48.5169, -0.880357, 84.0814, -67.5936, 42.8109
5.26, 6, 25.9305, 48.5426, -0.894888, 84.058, -67.6214, 42.7938
5.264, 6, 25.904, 48.5684, -0.909467, 84.0346, -67.6492, 42.7767
5.268, 6, 25.8776, 48.5941, -0.924095, 84.0112, -67.6771, 42.7596
5.272, 6, 25.8511, 48.6199, -0.938771, 83.9878, -67.7049, 42.7425
5.276, 6, 25.8247, 48.6458, -0.953495, 83.9643, -67.7328, 42.7254
5.28, 6, 25.7982, 48.6716, -0.968267, 83.9409, -67.7606, 42.7082
5.284, 6, 25.7717, 48.6975, -0.983088, 83.9174, -67.7885, 42.6911
5.288, 6, 25.7452, 48.7235, -0.997958, 83.894, -67.8164, 42.6739
5.292, 6, 25.7187, 48.7494, -1.01288, 83.8705, -67.8442, 42.6568
5.296, 6, 25.6922, 48.7754, -1.02784, 83.847, -67.8721, 42.6396
5.3, 6, 25.6657, 48.8014, -1.04286, 83.8235, -67.9, 42.6224
5.304, 6, 25.6392, 48.8275, -1.05792, 83.8, -67.9279, 42.6052
5.308, 6, 25.6127, 48.8536, -1.07303, 83.7765, -67.9557, 42.5881
5.312, 6, 25.5862, 48.8797, -1.0882, 83.7529, -67.9836, 42.5709
5.316, 6, 25.5597, 48.9059, -1.10341, 83.7294, -68.0115, 42.5537
5.32, 6, 25.5332, 48.9321, -1.11866, 83.7058, -68.0394, 42.5365
5.324, 6, 25.5066, 48.9583, -1.13397, 83.6822, -68.0673, 42.5192
5.328, 6, 25.4801, 48.9845, -1.14933, 83.6587, -68.0952, 42.502
5.332, 6, 25.4535, 49.0108, -1.16474, 83.6351, -68.1231, 42.4848
5.336, 6, 25.427, 49.0371, -1.18019, 83.6115, -68.151, 42.4676
5.34, 6, 25.4004, 49.0635, -1.1957, 83.5879, -68.1789, 42.4503
5.344, 6, 25.3739, 49.0899, -1.21125, 83.5642, -68.2068, 42.4331
5.348, 6, 25.3473, 49.1163, -1.22685, 83.5406, -68.2348, 42.4158
5.352, 6, 25.3207, 49.1427, -1.2425, 83.517, -68.2627, 42.3985
5.356, 6, 25.2942, 49.1692, -1.25821, 83.4933, -68.2906, 42.3812
5.36, 6, 25.2676, 49.1957, -1.27396, 83.4696, -68.3185, 42.364
5.364, 6, 25.241, 49.2222, -1.28976, 83.446, -68.3465, 42.3467
5.368, 6, 25.2144, 49.2488, -1.30561, 83.4223, -68.3744, 42.3294
5.372, 6, 25.1878, 49.2754, -1.32151, 83.3986, -68.4024, 42.3121
5.376, 6, 25.1612, 49.302, -1.33746, 83.3749, -68.4303, 42.2947
5.38, 6, 25.1346, 49.3287, -1.35345, 83.3512, -68.4582, 42.2774
5.384, 6, 25.1079, 49.3554, -1.3695, 83.3274, -68.4862, 42.2601
5.388, 6, 25.0813, 49.3821, -1.3856, 83.3037, -68.5141, 42.2427
5.392, 6, 25.0547, 49.4089, -1.40175, 83.2799, -68.5421, 42.2254
5.396, 6, 25.0281, 49.4357, -1.41795, 83.2562, -68.5701, 42.208
5.4, 6, 25.0014, 49.4625, -1.43419, 83.2324, -68.598, 42.1907
5.404, 6, 24.9748, 49.4894, -1.45049, 83.2086, -68.626, 42.1733
5.408, 6, 24.9481, 49.5163, -1.46684, 83.1848, -68.654, 42.1559
5.412, 6, 24.9215, 49.5432, -1.48324, 83.161, -68.6819, 42.1385
5.416, 6, 24.8948, 49.5701, -1.49969, 83.1372, -68.7099, 42.1211
5.42, 6, 24.8681, 49.5971, -1.51618, 83.1134, -68.7379, 42.1037
5.424, 6, 24.8415, 49.6242, -1.53273, 83.0896, -68.7659, 42.0862
5.428, 6, 24.8148, 49.6512, -1.54933, 83.0657, -68.7939, 42.0688
5.432, 6, 24.7881, 49.6783, -1.56598, 83.0419, -68.8219, 42.0514
5.436, 6, 24.7614, 49.7054, -1.58268, 83.018, -68.8499, 42.0339
5.44, 6, 24.7347, 49.7325, -1.59943, 82.9941, -68.8779, 42.0165
5.444, 6, 24.708, 49.7597, -1.61623, 82.9702, -68.9059, 41.999
5.448, 6, 24.6813, 49.7869, -1.63308, 82.9463, -68.9339, 41.9815
5.452, 6, 24.6546, 49.8142, -1.64998, 82.9224, -68.9619, 41.964
5.456, 6, 24.6279, 49.8414, -1.66693, 82.8985, -68.9899, 41.9465
5.46, 6, 24.6012, 49.8687, -1.68393, 82.8746, -69.0179, 41.929
5.464, 6, 24.5744, 49.8961, -1.70099, 82.8507, -69.0459, 41.9115
5.468, 6, 24.5477, 49.9234, -1.71809, 82.8267, -69.0739, 41.894
5.472, 6, 24.521, 49.9508, -1.73525, 82.8028, -69.102, 41.8764
5.476, 6, 24.4942, 49.9783, -1.75245, 82.7788, -69.13, 41.8589
5.48, 6, 24.4675, 50.0057, -1.76971, 82.7548, -69.158, 41.8413
5.484, 6, 24.4407, 50.0332, -1.78702, 82.7308, -69.186, 41.8237
5.488, 6, 24.414, 50.0608, -1.80438, 82.7069, -69.2141, 41.8062
5.492, 6, 24.3872, 50.0883, -1.82179, 82.6828, -69.2421, 41.7886
5.496, 6, 24.3604, 50.1159, -1.83925, 82.6588, -69.2702, 41.771
5.5, 6, 24.3337, 50.1435, -1.85676, 82.6348, -69.2982, 41.7533
5.504, 6, 24.3069, 50.1712, -1.87433, 82.6108, -69.3262, 41.7357
5.508, 6, 24.2801, 50.1989, -1.89194, 82.5867, -69.3543, 41.7181
5.512, 6, 24.2533, 50.2266, -1.90961, 82.5627, -69.3824, 41.7004
5.516, 6, 24.2265, 50.2543, -1.92733, 82.5386, -69.4104, 41.6828
5.52, 6, 24.1997, 50.2821, -1.9451, 82.5145, -69.4385, 41.6651
5.524, 6, 24.1729, 50.3099, -1.96293, 82.4905, -69.4665, 41.6474
5.528, 6, 24.1461, 50.3378, -1.9808, 82.4664, -69.4946, 41.6298
5.532, 6, 24.1193, 50.3657, -1.99873, 82.4423, -69.5227, 41.6121
5.536, 6, 24.0925, 50.3936, -2.01671, 82.4182, -69.5507, 41.5943
5.54, 6, 24.0656, 50.4215, -2.03474, 82.394, -69.5788, 41.5766
5.544, 6, 24.0388, 50.4495, -2.05283, 82.3699, -69.6069, 41.5589
5.548, 6, 24.012, 50.4775, -2.07096, 82.3457, -69.6349, 41.5412
5.552, 6, 23.9851, 50.5055, -2.08915, 82.3216, -69.663, 41.5234
5.556, 6, 23.9583, 50.5336, -2.10739, 82.2974, -69.6911, 41.5056
5.56, 6, 23.9314, 50.5617, -2.12569, 82.2732, -69.7192, 41.4879
5.564, 6, 23.9046, 50.5898, -2.14403, 82.2491, -69.7473, 41.4701
5.568, 6, 23.8777, 50.618, -2.16243, 82.2249, -69.7754, 41.4523
5.572, 6, 23.8508, 50.6462, -2.18088, 82.2007, -69.8035, 41.4345
5.576, 6, 23.8239, 50.6744, -2.19939, 82.1765, -69.8315, 41.4167
5.58, 6, 23.7971, 50.7027, -2.21794, 82.1522, -69.8596, 41.3988
5.584, 6, 23.7702, 50.731, -2.23655, 82.128, -69.8877, 41.381
5.588, 6, 23.7433, 50.7593, -2.25521, 82.1037, -69.9158, 41.3631
5.592, 6, 23.7164, 50.7877, -2.27393, 82.0795, -69.9439, 41.3453
5.596, 6, 23.6895, 50.8161, -2.29269, 82.0552, -69.972, 41.3274
5.6, 6, 23.6626, 50.8445, -2.31151, 82.0309, -70.0002, 41.3095
5.604, 6, 23.6357, 50.873, -2.33039, 82.0066, -70.0283, 41.2916
5.608, 6, 23.6088, 50.9014, -2.34931, 81.9824, -70.0564, 41.2737
5.612, 6, 23.5818, 50.93, -2.36829, 81.958, -70.0845, 41.2558
5.616, 6, 23.5549, 50.9585, -2.38732, 81.9337, -70.1126, 41.2378
5.62, 6, 23.528, 50.9871, -2.40641, 81.9094, -70.1407, 41.2199
5.624, 6, 23.501, 51.0157, -2.42555, 81.8851, -70.1688, 41.2019
5.628, 6, 23.4741, 51.0444, -2.44474, 81.8607, -70.197, 41.1839
5.632, 6, 23.4472, 51.073, -2.46398, 81.8364, -70.2251, 41.166
5.636, 6, 23.4202, 51.1018, -2.48328, 81.812, -70.2532, 41.148
5.64, 6, 23.3932, 51.1305, -2.50263, 81.7876, -70.2813, 41.13
5.644, 6, 23.3663, 51.1593, -2.52203, 81.7632, -70.3095, 41.1119
5.648, 6, 23.3393, 51.1881, -2.54149, 81.7388, -70.3376, 41.0939
5.652, 6, 23.3123, 51.2169, -2.561, 81.7144, -70.3657, 41.0759
5.656, 6, 23.2854, 51.2458, -2.58057, 81.69, -70.3939, 41.0578
5.66, 6, 23.2584, 51.2747, -2.60018, 81.6656, -70.422, 41.0397
5.664, 6, 23.2314, 51.3036, -2.61986, 81.6411, -70.4501, 41.0217
5.668, 6, 23.2044, 51.3326, -2.63958, 81.6167, -70.4783, 41.0036
5.672, 6, 23.1774, 51.3616, -2.65936, 81.5922, -70.5064, 40.9855
5.676, 6, 23.1504, 51.3906, -2.67919, 81.5678, -70.5346, 40.9673
5.68, 6, 23.1234, 51.4197, -2.69908, 81.5433, -70.5627, 40.9492
5.684, 6, 23.0964, 51.4488, -2.71902, 81.5188, -70.5909, 40.9311
5.688, 6, 23.0693, 51.4779, -2.73901, 81.4943, -70.619, 40.9129
5.692, 6, 23.0423, 51.5071, -2.75906, 81.4698, -70.6472, 40.8947
5.696, 6, 23.0153, 51.5363, -2.77916, 81.4453, -70.6753, 40.8766
5.7, 6, 22.9883, 51.5655, -2.79931, 81.4208, -70.7035, 40.8584
5.704, 6, 22.9612, 51.5948, -2.81952, 81.3962, -70.7316, 40.8402
5.708, 6, 22.9342, 51.624, -2.83979, 81.3717, -70.7598, 40.8219
5.712, 6, 22.9071, 51.6534, -2.8601, 81.3471, -70.7879, 40.8037
5.716, 6, 22.8801, 51.6827, -2.88047, 81.3225, -70.8161, 40.7855
5.72, 6, 22.853, 51.7121, -2.9009, 81.298, -70.8443, 40.7672
5.724, 6, 22.826, 51.7415, -2.92138, 81.2734, -70.8724, 40.7489
5.728, 6, 22.7989, 51.771, -2.94191, 81.2488, -70.9006, 40.7306
5.732, 6, 22.7718, 51.8004, -2.9625, 81.2242, -70.9288, 40.7123
5.736, 6, 22.7447, 51.8299, -2.98314, 81.1996, -70.9569, 40.694
5.74, 6, 22.7177, 51.8595, -3.00383, 81.175, -70.9851, 40.6757
5.744, 6, 22.6906, 51.8891, -3.02459, 81.1503, -71.0133, 40.6573
5.748, 6, 22.6635, 51.9187, -3.04539, 81.1257, -71.0414, 40.639
5.752, 6, 22.6364, 51.9483, -3.06625, 81.101, -71.0696, 40.6206
5.756, 6, 22.6093, 51.978, -3.08716, 81.0764, -71.0978, 40.6022
5.76, 6, 22.5822, 52.0077, -3.10813, 81.0517, -71.126, 40.5838
5.764, 6, 22.5551, 52.0374, -3.12915, 81.027, -71.1541, 40.5654
5.768, 6, 22.528, 52.0672, -3.15023, 81.0023, -71.1823, 40.547
5.772, 6, 22.501, 52.0969, -3.17135, 80.9776, -71.2105, 40.5286
5.776, 6, 22.4741, 52.1266, -3.1925, 80.9529, -71.2386, 40.5101
5.78, 6, 22.4475, 52.1563, -3.21367, 80.9282, -71.2668, 40.4917
5.784, 6, 22.4213, 52.1858, -3.23483, 80.9035, -71.295, 40.4732
5.788, 6, 22.3956, 52.215, -3.25592, 80.8788, -71.3231, 40.4548
5.792, 6, 22.3707, 52.2436, -3.27688, 80.8542, -71.3511, 40.4363
5.796, 6, 22.3466, 52.2714, -3.29761, 80.8297, -71.3791, 40.418
5.8, 6, 22.3234, 52.2981, -3.31804, 80.8054, -71.4068, 40.3998
5.804, 6, 22.3012, 52.3238, -3.33808, 80.7813, -71.4342, 40.3818
5.808, 6, 22.2799, 52.3483, -3.35765, 80.7577, -71.4611, 40.364
5.812, 6, 22.2595, 52.3717, -3.37667, 80.7346, -71.4874, 40.3467
5.816, 6, 22.24, 52.3941, -3.39506, 80.7122, -71.5129, 40.3299
5.82, 6, 22.2212, 52.4157, -3.41272, 80.6907, -71.5374, 40.3137
5.824, 6, 22.2033, 52.4363, -3.42955, 80.6702, -71.5608, 40.2984
5.828, 6, 22.1862, 52.456, -3.44544, 80.6509, -71.5827, 40.2839
5.832, 6, 22.1701, 52.4747, -3.46031, 80.633, -71.6031, 40.2704
5.836, 6, 22.1548, 52.4923, -3.4741, 80.6165, -71.6219, 40.258
5.84, 6, 22.1402, 52.5089, -3.48679, 80.6016, -71.6388, 40.2468
5.844, 6, 22.1262, 52.5246, -3.49839, 80.5883, -71.6539, 40.2369
5.848, 6, 22.1127, 52.5395, -3.50888, 80.5767, -71.6671, 40.2281
5.852, 6, 22.0997, 52.5535, -3.51826, 80.5667, -71.6785, 40.2206
5.856, 6, 22.0875, 52.5666, -3.52656, 80.5582, -71.688, 40.2142
5.86, 6, 22.0761, 52.5787, -3.53378, 80.5511, -71.696, 40.209
5.864, 6, 22.0657, 52.5898, -3.53996, 80.5454, -71.7025, 40.2047
5.868, 6, 22.0563, 52.5998, -3.54515, 80.5408, -71.7076, 40.2012
5.872, 6, 22.0479, 52.6086, -3.54946, 80.5372, -71.7116, 40.1985
5.876, 6, 22.0403, 52.6162, -3.55297, 80.5344, -71.7147, 40.1965
5.88, 6, 22.0337, 52.6226, -3.5558, 80.5323, -71.717, 40.195
5.884, 6, 22.0278, 52.6279, -3.55803, 80.5308, -71.7187, 40.1938
5.888, 7, 22.0229, 52.6321, -3.55975, 80.5297, -71.7199, 40.193
5.892, 7, 22.0189, 52.6353, -3.56105, 80.529, -71.7207, 40.1925
5.896, 7, 22.0157, 52.6377, -3.562, 80.5284, -71.7213, 40.1921
5.9, 7, 22.0134, 52.6394, -3.56267, 80.5281, -71.7217, 40.1918
5.904, 7, 22.0117, 52.6406, -3.56313, 80.5278, -71.7219, 40.1917
5.908, 7, 22.0106, 52.6414, -3.56344, 80.5277, -71.7221, 40.1915
5.912, 7, 22.0098, 52.6419, -3.56365, 80.5276, -71.7222, 40.1915
5.916, 7, 22.0093, 52.6423, -3.5638, 80.5275, -71.7223, 40.1914
5.92, 7, 22.009, 52.6426, -3.5639, 80.5274, -71.7224, 40.1914
5.924, 7, 22.0087, 52.6427, -3.56396, 80.5274, -71.7224, 40.1913
5.928, 7, 22.0086, 52.6428, -3.56401, 80.5274, -71.7224, 40.1913
5.932, 7, 22.0085, 52.6429, -3.56404, 80.5274, -71.7224, 40.1913
5.936, 7, 22.0084, 52.643, -3.56406, 80.5273, -71.7225, 40.1913
5.94, 7, 22.0084, 52.643, -3.56407, 80.5273, -71.7225, 40.1913
5.944, 7, 22.0083, 52.643, -3.56408, 80.5273, -71.7225, 40.1913
5.948, 7, 22.0083, 52.643, -3.56409, 80.5273, -71.7225, 40.1913
5.952, 7, 22.0083, 52.6431, -3.56409, 80.5273, -71.7225, 40.1913
5.956, 7, 22.0083, 52.6431, -3.56409, 80.5273, -71.7225, 40.1913
5.96, 7, 22.0083, 52.6431, -3.5641, 80.5273, -71.7225, 40.1913
5.964, 7, 22.0083, 52.6431, -3.5641, 80.5273, -71.7225, 40.1913
5.968, 7, 22.0083, 52.6431, -3.5641, 80.5273, -71.7225, 40.1913
5.972, 7, 22.0083, 52.6431, -3.5641, 80.5273, -71.7225, 40.1913
5.976, 7, 22.0083, 52.6431, -3.5641, 80.5273, -71.7225, 40.1913
5.98, 7, 22.0083, 52.6431, -3.5641, 80.5273, -71.7225, 40.1913
5.984, 7, 22.0083, 52.6431, -3.5641, 80.5273, -71.7225, 40.1913
5.988, 7, 22.0083, 52.6431, -3.5641, 80.5273, -71.7225, 40.1913
5.992, 7, 22.0083, 52.6431, -3.5641, 80.5273, -71.7225, 40.1913
5.996, 7, 22.0083, 52.6431, -3.5641, 80.5273, -71.7225, 40.1913
6, 7, 22.0083, 52.6431, -3.5641, 80.5273, -71.7225, 40.1913
6.004, 7, 22.0083, 52.6431, -3.5641, 80.5273, -71.7225, 40.1913
