hehonglu123/ABB_Primitive_Study/execution/movel2_30_car/curve_exe_v1000_z1.csv
timestamp, cmd_num, J1, J2, J3, J4, J5, J6
0, -1, 22.0083, 52.6431, -3.5641, 80.5273, -71.7225, 40.1913
0.003, -1, 22.0083, 52.6431, -3.5641, 80.5273, -71.7225, 40.1913
0.006, -1, 22.0083, 52.6431, -3.5641, 80.5273, -71.7225, 40.1913
0.008, -1, 22.0083, 52.6431, -3.5641, 80.5273, -71.7225, 40.1913
0.011, -1, 22.0083, 52.6431, -3.5641, 80.5273, -71.7225, 40.1913
0.016, -1, 22.0083, 52.6431, -3.5641, 80.5273, -71.7225, 40.1913
0.02, -1, 22.0083, 52.6431, -3.5641, 80.5273, -71.7225, 40.1913
0.024, -1, 22.0083, 52.6431, -3.5641, 80.5273, -71.7225, 40.1913
0.028, -1, 22.0083, 52.6431, -3.5641, 80.5273, -71.7225, 40.1913
0.032, -1, 22.0083, 52.6431, -3.5641, 80.5273, -71.7225, 40.1913
0.036, -1, 22.0083, 52.6431, -3.5641, 80.5273, -71.7225, 40.1913
0.04, -1, 22.0086, 52.643, -3.56409, 80.5273, -71.7225, 40.1913
0.044, -1, 22.0092, 52.6428, -3.56406, 80.5273, -71.7225, 40.1913
0.048, -1, 22.0103, 52.6425, -3.56401, 80.5274, -71.7224, 40.1913
0.052, -1, 22.012, 52.642, -3.56396, 80.5275, -71.7223, 40.1913
0.056, -1, 22.0145, 52.6411, -3.56392, 80.5277, -71.722, 40.1914
0.06, -1, 22.0177, 52.6399, -3.56394, 80.5281, -71.7215, 40.1915
0.064, -1, 22.0217, 52.6383, -3.56408, 80.5288, -71.7206, 40.1916
0.068, -1, 22.0265, 52.6362, -3.56441, 80.53, -71.7193, 40.1919
0.072, -1, 22.0322, 52.6334, -3.56504, 80.5317, -71.7172, 40.1923
0.076, -1, 22.0391, 52.6299, -3.56609, 80.5342, -71.7141, 40.1928
0.08, -1, 22.0472, 52.6256, -3.56769, 80.5377, -71.7099, 40.1936
0.084, -1, 22.0567, 52.6206, -3.57002, 80.5425, -71.7042, 40.1947
0.088, -1, 22.0678, 52.615, -3.57327, 80.5488, -71.6966, 40.1962
0.092, -1, 22.0803, 52.6089, -3.57766, 80.557, -71.6868, 40.198
0.096, -1, 22.094, 52.6026, -3.58342, 80.5673, -71.6745, 40.2003
0.1, -1, 22.109, 52.5963, -3.59077, 80.58, -71.6593, 40.2032
0.104, -1, 22.125, 52.5899, -3.59987, 80.5953, -71.641, 40.2067
0.108, -1, 22.1421, 52.5836, -3.61085, 80.6134, -71.6193, 40.2108
0.112, -1, 22.1603, 52.5773, -3.62379, 80.6345, -71.5942, 40.2156
0.116, -1, 22.1797, 52.5709, -3.63871, 80.6584, -71.5656, 40.221
0.12, -1, 22.2004, 52.5646, -3.65561, 80.6854, -71.5335, 40.2272
0.124, -1, 22.2224, 52.5582, -3.67441, 80.7152, -71.4979, 40.2339
0.128, -1, 22.2457, 52.5518, -3.69504, 80.7477, -71.4591, 40.2413
0.131, -1, 22.2701, 52.5455, -3.71736, 80.7828, -71.4173, 40.2493
0.136, -1, 22.2957, 52.539, -3.74121, 80.8202, -71.3726, 40.2578
0.139, -1, 22.3225, 52.5323, -3.76639, 80.8597, -71.3256, 40.2668
0.144, -1, 22.3507, 52.5251, -3.79268, 80.901, -71.2764, 40.2761
0.148, -1, 22.3804, 52.5172, -3.81986, 80.9437, -71.2254, 40.2858
0.152, -1, 22.4114, 52.5086, -3.84775, 80.9877, -71.1729, 40.2958
0.156, -1, 22.4437, 52.4992, -3.87617, 81.0327, -71.1193, 40.306
0.16, -1, 22.4771, 52.4892, -3.90498, 81.0784, -71.0648, 40.3164
0.164, -1, 22.5115, 52.4785, -3.93409, 81.1247, -71.0095, 40.3269
0.168, -1, 22.5468, 52.4674, -3.96339, 81.1714, -70.9538, 40.3375
0.172, -1, 22.5827, 52.4559, -3.99284, 81.2184, -70.8977, 40.3482
0.176, -1, 22.6193, 52.4441, -4.02238, 81.2657, -70.8413, 40.359
0.18, -1, 22.6565, 52.432, -4.05197, 81.3131, -70.7847, 40.3697
0.184, -1, 22.6942, 52.4198, -4.08158, 81.3606, -70.728, 40.3805
0.188, -1, 22.7324, 52.4074, -4.1112, 81.4082, -70.6713, 40.3913
0.192, -1, 22.7709, 52.3949, -4.14081, 81.4557, -70.6145, 40.4021
0.196, -1, 22.8095, 52.3823, -4.17041, 81.5033, -70.5577, 40.4129
0.2, -1, 22.8483, 52.3697, -4.2, 81.5509, -70.5009, 40.4237
0.204, -1, 22.8872, 52.3571, -4.22957, 81.5984, -70.4442, 40.4345
0.208, -1, 22.9262, 52.3445, -4.25912, 81.646, -70.3874, 40.4453
0.212, -1, 22.9651, 52.3318, -4.28865, 81.6935, -70.3307, 40.4561
0.216, -1, 23.0041, 52.3192, -4.31816, 81.741, -70.2741, 40.4669
0.22, -1, 23.043, 52.3065, -4.34764, 81.7884, -70.2175, 40.4776
0.224, -1, 23.082, 52.2939, -4.37711, 81.8358, -70.1609, 40.4884
0.228, -1, 23.1209, 52.2812, -4.40655, 81.8832, -70.1043, 40.4992
0.232, -1, 23.1598, 52.2686, -4.43597, 81.9305, -70.0478, 40.5099
0.236, -1, 23.1986, 52.256, -4.46537, 81.9778, -69.9914, 40.5207
0.24, -1, 23.2375, 52.2434, -4.49475, 82.0251, -69.935, 40.5314
0.244, -1, 23.2763, 52.2308, -4.52411, 82.0723, -69.8786, 40.5421
0.248, -1, 23.3151, 52.2182, -4.55344, 82.1195, -69.8223, 40.5528
0.252, -1, 23.3539, 52.2056, -4.58275, 82.1667, -69.766, 40.5635
0.256, -1, 23.3926, 52.193, -4.61204, 82.2138, -69.7097, 40.5742
0.26, -1, 23.4313, 52.1805, -4.64131, 82.2609, -69.6535, 40.5849
0.264, -1, 23.47, 52.1679, -4.67056, 82.308, -69.5974, 40.5956
0.268, -1, 23.5086, 52.1553, -4.69978, 82.355, -69.5412, 40.6063
0.272, -1, 23.5473, 52.1428, -4.72898, 82.402, -69.4852, 40.617
0.276, -1, 23.5859, 52.1303, -4.75816, 82.449, -69.4291, 40.6276
0.28, -1, 23.6244, 52.1178, -4.78732, 82.4959, -69.3731, 40.6383
0.284, -1, 23.663, 52.1052, -4.81646, 82.5428, -69.3172, 40.6489
0.288, -1, 23.7015, 52.0927, -4.84557, 82.5896, -69.2613, 40.6596
0.292, -1, 23.7399, 52.0802, -4.87467, 82.6364, -69.2054, 40.6702
0.296, -1, 23.7784, 52.0678, -4.90374, 82.6832, -69.1496, 40.6808
0.3, -1, 23.8168, 52.0553, -4.93279, 82.7299, -69.0938, 40.6914
0.304, -1, 23.8552, 52.0428, -4.96182, 82.7766, -69.038, 40.702
0.308, -1, 23.8936, 52.0304, -4.99083, 82.8233, -68.9823, 40.7126
0.312, -1, 23.9319, 52.0179, -5.01981, 82.87, -68.9267, 40.7232
0.316, -1, 23.9702, 52.0055, -5.04878, 82.9166, -68.871, 40.7338
0.32, -1, 24.0085, 51.9931, -5.07773, 82.9631, -68.8154, 40.7444
0.324, -1, 24.0468, 51.9806, -5.10665, 83.0097, -68.7599, 40.755
0.328, -1, 24.085, 51.9682, -5.13555, 83.0562, -68.7044, 40.7655
0.332, -1, 24.1232, 51.9558, -5.16443, 83.1027, -68.6489, 40.7761
0.336, -1, 24.1613, 51.9434, -5.19329, 83.1491, -68.5935, 40.7866
0.34, -1, 24.1995, 51.931, -5.22213, 83.1955, -68.5381, 40.7972
0.344, -1, 24.2376, 51.9187, -5.25095, 83.2419, -68.4828, 40.8077
0.348, -1, 24.2757, 51.9063, -5.27975, 83.2882, -68.4275, 40.8182
0.352, -1, 24.3138, 51.894, -5.30853, 83.3345, -68.3722, 40.8287
0.356, -1, 24.3518, 51.8816, -5.33728, 83.3808, -68.317, 40.8392
0.36, -1, 24.3898, 51.8693, -5.36602, 83.427, -68.2618, 40.8497
0.364, -1, 24.4278, 51.8569, -5.39474, 83.4732, -68.2067, 40.8602
0.368, -1, 24.4657, 51.8446, -5.42343, 83.5194, -68.1516, 40.8707
0.372, -1, 24.5036, 51.8323, -5.4521, 83.5655, -68.0965, 40.8812
0.376, -1, 24.5415, 51.82, -5.48076, 83.6116, -68.0415, 40.8916
0.38, -1, 24.5794, 51.8077, -5.50939, 83.6577, -67.9865, 40.9021
0.384, -1, 24.6172, 51.7954, -5.538, 83.7038, -67.9315, 40.9126
0.388, -1, 24.6551, 51.7831, -5.5666, 83.7498, -67.8766, 40.923
0.392, -1, 24.6928, 51.7709, -5.59517, 83.7957, -67.8218, 40.9334
0.396, -1, 24.7306, 51.7586, -5.62372, 83.8417, -67.7669, 40.9439
0.4, -1, 24.7683, 51.7464, -5.65225, 83.8876, -67.7121, 40.9543
0.404, -1, 24.806, 51.7341, -5.68076, 83.9335, -67.6574, 40.9647
0.408, -1, 24.8437, 51.7219, -5.70925, 83.9793, -67.6027, 40.9751
0.412, -1, 24.8814, 51.7097, -5.73772, 84.0251, -67.548, 40.9855
0.416, -1, 24.919, 51.6975, -5.76618, 84.0709, -67.4934, 40.9959
0.42, -1, 24.9566, 51.6852, -5.79461, 84.1166, -67.4388, 41.0063
0.424, -1, 24.9942, 51.673, -5.82302, 84.1624, -67.3842, 41.0167
0.428, -1, 25.0317, 51.6609, -5.85141, 84.208, -67.3297, 41.0271
0.432, -1, 25.0693, 51.6487, -5.87978, 84.2537, -67.2752, 41.0374
0.436, -1, 25.1068, 51.6365, -5.90813, 84.2993, -67.2208, 41.0478
0.44, -1, 25.1442, 51.6243, -5.93646, 84.3449, -67.1664, 41.0581
0.444, -1, 25.1817, 51.6122, -5.96478, 84.3905, -67.112, 41.0685
0.448, -1, 25.2191, 51.6, -5.99307, 84.436, -67.0576, 41.0788
0.452, -1, 25.2565, 51.5879, -6.02134, 84.4815, -67.0034, 41.0892
0.456, -1, 25.2938, 51.5758, -6.04959, 84.5269, -66.9491, 41.0995
0.46, -1, 25.3312, 51.5636, -6.07783, 84.5724, -66.8949, 41.1098
0.464, -1, 25.3685, 51.5515, -6.10604, 84.6178, -66.8407, 41.1201
0.468, -1, 25.4058, 51.5394, -6.13424, 84.6631, -66.7866, 41.1304
0.472, -1, 25.4431, 51.5273, -6.16241, 84.7085, -66.7325, 41.1407
0.476, -1, 25.4803, 51.5152, -6.19057, 84.7538, -66.6784, 41.151
0.48, -1, 25.5175, 51.5031, -6.2187, 84.799, -66.6244, 41.1613
0.484, -1, 25.5547, 51.4911, -6.24682, 84.8443, -66.5704, 41.1715
0.488, -1, 25.5918, 51.479, -6.27492, 84.8895, -66.5164, 41.1818
0.492, -1, 25.629, 51.4669, -6.303, 84.9347, -66.4625, 41.1921
0.496, -1, 25.6661, 51.4549, -6.33106, 84.9798, -66.4086, 41.2023
0.5, -1, 25.7032, 51.4429, -6.3591, 85.0249, -66.3547, 41.2126
0.504, -1, 25.7402, 51.4308, -6.38712, 85.07, -66.3009, 41.2228
0.508, -1, 25.7773, 51.4188, -6.41512, 85.1151, -66.2472, 41.233
0.512, -1, 25.8143, 51.4068, -6.4431, 85.1601, -66.1934, 41.2433
0.516, -1, 25.8513, 51.3948, -6.47107, 85.2051, -66.1397, 41.2535
0.52, -1, 25.8882, 51.3828, -6.49901, 85.2501, -66.0861, 41.2637
0.524, -1, 25.9251, 51.3708, -6.52694, 85.295, -66.0324, 41.2739
0.528, -1, 25.9621, 51.3588, -6.55484, 85.3399, -65.9788, 41.2841
0.532, -1, 25.9989, 51.3468, -6.58273, 85.3848, -65.9253, 41.2943
0.536, -1, 26.0358, 51.3349, -6.6106, 85.4296, -65.8718, 41.3045
0.54, -1, 26.0726, 51.3229, -6.63845, 85.4745, -65.8183, 41.3146
0.544, -1, 26.1094, 51.311, -6.66629, 85.5192, -65.7648, 41.3248
0.548, -1, 26.1462, 51.299, -6.6941, 85.564, -65.7114, 41.335
0.552, -1, 26.183, 51.2871, -6.72189, 85.6087, -65.658, 41.3451
0.556, -1, 26.2197, 51.2752, -6.74967, 85.6534, -65.6047, 41.3553
0.56, -1, 26.2564, 51.2632, -6.77743, 85.6981, -65.5514, 41.3654
0.564, -1, 26.2931, 51.2513, -6.80517, 85.7427, -65.4981, 41.3755
0.568, -1, 26.3298, 51.2394, -6.83289, 85.7873, -65.4449, 41.3857
0.572, -1, 26.3664, 51.2275, -6.86059, 85.8319, -65.3917, 41.3958
0.576, -1, 26.403, 51.2156, -6.88827, 85.8764, -65.3385, 41.4059
0.58, -1, 26.4396, 51.2038, -6.91594, 85.9209, -65.2854, 41.416
0.584, -1, 26.4762, 51.1919, -6.94359, 85.9654, -65.2323, 41.4261
0.588, -1, 26.5127, 51.18, -6.97122, 86.0099, -65.1792, 41.4362
0.592, -1, 26.5492, 51.1682, -6.99883, 86.0543, -65.1262, 41.4463
0.596, -1, 26.5857, 51.1563, -7.02642, 86.0987, -65.0732, 41.4564
0.6, -1, 26.6222, 51.1445, -7.05399, 86.1431, -65.0203, 41.4665
0.604, -1, 26.6586, 51.1327, -7.08155, 86.1874, -64.9674, 41.4765
0.608, -1, 26.6951, 51.1208, -7.10909, 86.2317, -64.9145, 41.4866
0.612, -1, 26.7315, 51.109, -7.13661, 86.276, -64.8616, 41.4966
0.616, -1, 26.7678, 51.0972, -7.16411, 86.3203, -64.8088, 41.5067
0.62, -1, 26.8042, 51.0854, -7.1916, 86.3645, -64.756, 41.5167
0.624, -1, 26.8405, 51.0736, -7.21906, 86.4087, -64.7033, 41.5268
0.628, -1, 26.8768, 51.0618, -7.24651, 86.4529, -64.6506, 41.5368
0.632, -1, 26.9131, 51.05, -7.27394, 86.497, -64.5979, 41.5468
0.636, -1, 26.9493, 51.0383, -7.30135, 86.5411, -64.5453, 41.5568
0.64, -1, 26.9856, 51.0265, -7.32875, 86.5852, -64.4927, 41.5668
0.644, -1, 27.0218, 51.0148, -7.35613, 86.6292, -64.4401, 41.5768
0.648, -1, 27.058, 51.003, -7.38349, 86.6732, -64.3875, 41.5868
0.652, -1, 27.0941, 50.9913, -7.41083, 86.7172, -64.335, 41.5968
0.656, -1, 27.1303, 50.9795, -7.43815, 86.7612, -64.2826, 41.6068
0.66, -1, 27.1664, 50.9678, -7.46546, 86.8051, -64.2301, 41.6168
0.664, -1, 27.2025, 50.9561, -7.49275, 86.8491, -64.1777, 41.6268
0.668, -1, 27.2385, 50.9444, -7.52002, 86.8929, -64.1254, 41.6367
0.672, -1, 27.2746, 50.9327, -7.54727, 86.9368, -64.073, 41.6467
0.676, -1, 27.3106, 50.921, -7.57451, 86.9806, -64.0207, 41.6566
0.68, -1, 27.3466, 50.9093, -7.60173, 87.0244, -63.9684, 41.6666
0.684, -1, 27.3826, 50.8976, -7.62893, 87.0682, -63.9162, 41.6765
0.688, -1, 27.4185, 50.8859, -7.65611, 87.1119, -63.864, 41.6865
0.692, -1, 27.4545, 50.8743, -7.68328, 87.1556, -63.8118, 41.6964
0.696, -1, 27.4904, 50.8626, -7.71043, 87.1993, -63.7597, 41.7063
0.7, -1, 27.5262, 50.851, -7.73756, 87.243, -63.7076, 41.7162
0.704, -1, 27.5621, 50.8393, -7.76468, 87.2866, -63.6555, 41.7261
0.708, -1, 27.5979, 50.8277, -7.79178, 87.3302, -63.6035, 41.736
0.712, -1, 27.6338, 50.8161, -7.81886, 87.3738, -63.5515, 41.7459
0.716, -1, 27.6696, 50.8044, -7.84592, 87.4173, -63.4995, 41.7558
0.72, -1, 27.7053, 50.7928, -7.87297, 87.4609, -63.4476, 41.7657
0.724, -1, 27.7411, 50.7812, -7.9, 87.5043, -63.3956, 41.7756
0.728, -1, 27.7768, 50.7696, -7.92701, 87.5478, -63.3438, 41.7854
0.732, -1, 27.8125, 50.758, -7.95401, 87.5913, -63.2919, 41.7953
0.736, -1, 27.8482, 50.7464, -7.98099, 87.6347, -63.2401, 41.8052
0.74, -1, 27.8838, 50.7349, -8.00795, 87.6781, -63.1883, 41.815
0.744, -1, 27.9195, 50.7233, -8.0349, 87.7214, -63.1366, 41.8249
0.748, -1, 27.9551, 50.7117, -8.06183, 87.7647, -63.0849, 41.8347
0.752, -1, 27.9907, 50.7002, -8.08874, 87.808, -63.0332, 41.8445
0.756, -1, 28.0263, 50.6886, -8.11564, 87.8513, -62.9815, 41.8544
0.76, -1, 28.0618, 50.6771, -8.14252, 87.8946, -62.9299, 41.8642
0.764, -1, 28.0973, 50.6656, -8.16938, 87.9378, -62.8783, 41.874
0.768, -1, 28.1328, 50.654, -8.19622, 87.981, -62.8268, 41.8838
0.772, -1, 28.1683, 50.6425, -8.22305, 88.0242, -62.7753, 41.8936
0.776, -1, 28.2038, 50.631, -8.24987, 88.0673, -62.7238, 41.9034
0.78, -1, 28.2392, 50.6195, -8.27666, 88.1104, -62.6723, 41.9132
0.784, -1, 28.2746, 50.608, -8.30344, 88.1535, -62.6209, 41.923
0.788, -1, 28.31, 50.5965, -8.33021, 88.1966, -62.5695, 41.9327
0.792, -1, 28.3454, 50.585, -8.35696, 88.2396, -62.5181, 41.9425
0.796, -1, 28.3808, 50.5735, -8.38369, 88.2826, -62.4668, 41.9523
0.8, -1, 28.4161, 50.5621, -8.4104, 88.3256, -62.4155, 41.962
0.804, -1, 28.4514, 50.5506, -8.4371, 88.3686, -62.3642, 41.9718
0.808, -1, 28.4867, 50.5391, -8.46378, 88.4115, -62.313, 41.9816
0.812, -1, 28.522, 50.5277, -8.49045, 88.4544, -62.2618, 41.9913
0.816, -1, 28.5572, 50.5163, -8.5171, 88.4973, -62.2106, 42.001
0.82, -1, 28.5924, 50.5048, -8.54374, 88.5402, -62.1594, 42.0108
0.824, -1, 28.6276, 50.4934, -8.57035, 88.583, -62.1083, 42.0205
0.828, -1, 28.6628, 50.482, -8.59696, 88.6258, -62.0572, 42.0302
0.832, -1, 28.698, 50.4706, -8.62354, 88.6686, -62.0062, 42.0399
0.836, -1, 28.7331, 50.4591, -8.65011, 88.7113, -61.9552, 42.0496
0.84, -1, 28.7682, 50.4477, -8.67667, 88.7541, -61.9042, 42.0593
0.844, -1, 28.8033, 50.4363, -8.7032, 88.7968, -61.8532, 42.069
0.848, -1, 28.8384, 50.425, -8.72973, 88.8394, -61.8023, 42.0787
0.852, -1, 28.8735, 50.4136, -8.75623, 88.8821, -61.7514, 42.0884
0.856, -1, 28.9085, 50.4022, -8.78272, 88.9247, -61.7005, 42.0981
0.86, -1, 28.9435, 50.3908, -8.8092, 88.9673, -61.6496, 42.1078
0.864, -1, 28.9785, 50.3795, -8.83566, 89.0099, -61.5988, 42.1174
0.868, -1, 29.0135, 50.3681, -8.8621, 89.0524, -61.548, 42.1271
0.872, -1, 29.0484, 50.3568, -8.88853, 89.095, -61.4973, 42.1367
0.876, -1, 29.0834, 50.3454, -8.91494, 89.1375, -61.4466, 42.1464
0.88, -1, 29.1183, 50.3341, -8.94134, 89.1799, -61.3959, 42.156
0.884, -1, 29.1532, 50.3228, -8.96772, 89.2224, -61.3452, 42.1657
0.888, -1, 29.188, 50.3114, -8.99409, 89.2648, -61.2946, 42.1753
0.892, -1, 29.2229, 50.3001, -9.02044, 89.3072, -61.244, 42.1849
0.896, -1, 29.2577, 50.2888, -9.04677, 89.3496, -61.1934, 42.1946
0.9, -1, 29.2925, 50.2775, -9.07309, 89.3919, -61.1429, 42.2042
0.904, -1, 29.3273, 50.2662, -9.0994, 89.4343, -61.0924, 42.2138
0.908, -1, 29.3621, 50.2549, -9.12568, 89.4766, -61.0419, 42.2234
0.912, -1, 29.3968, 50.2437, -9.15196, 89.5188, -60.9914, 42.233
0.916, -1, 29.4316, 50.2324, -9.17822, 89.5611, -60.941, 42.2426
0.92, -1, 29.4663, 50.2211, -9.20446, 89.6033, -60.8906, 42.2522
0.924, -1, 29.501, 50.2099, -9.23069, 89.6455, -60.8402, 42.2618
0.928, -1, 29.5356, 50.1986, -9.2569, 89.6877, -60.7899, 42.2713
0.932, -1, 29.5703, 50.1873, -9.2831, 89.7298, -60.7396, 42.2809
0.936, -1, 29.6049, 50.1761, -9.30928, 89.772, -60.6893, 42.2905
0.94, -1, 29.6395, 50.1649, -9.33544, 89.8141, -60.6391, 42.3
0.944, -1, 29.6741, 50.1536, -9.3616, 89.8562, -60.5888, 42.3096
0.948, -1, 29.7087, 50.1424, -9.38773, 89.8982, -60.5387, 42.3191
0.952, -1, 29.7432, 50.1312, -9.41386, 89.9402, -60.4885, 42.3287
0.956, -1, 29.7777, 50.12, -9.43996, 89.9822, -60.4384, 42.3382
0.96, -1, 29.8122, 50.1088, -9.46605, 90.0242, -60.3882, 42.3478
0.964, -1, 29.8467, 50.0976, -9.49213, 90.0662, -60.3382, 42.3573
0.968, -1, 29.8812, 50.0864, -9.51819, 90.1081, -60.2881, 42.3668
0.972, -1, 29.9156, 50.0752, -9.54424, 90.15, -60.2381, 42.3763
0.976, -1, 29.9501, 50.064, -9.57027, 90.1919, -60.1881, 42.3858
0.98, -1, 29.9845, 50.0529, -9.59629, 90.2338, -60.1381, 42.3953
0.984, -1, 30.0189, 50.0417, -9.62229, 90.2756, -60.0882, 42.4048
0.988, -1, 30.0532, 50.0305, -9.64828, 90.3175, -60.0383, 42.4143
0.992, -1, 30.0876, 50.0194, -9.67425, 90.3592, -59.9884, 42.4238
0.996, -1, 30.1219, 50.0082, -9.70021, 90.401, -59.9386, 42.4333
1, -1, 30.1562, 49.9971, -9.72616, 90.4427, -59.8888, 42.4428
1.004, -1, 30.1905, 49.986, -9.75208, 90.4845, -59.839, 42.4523
1.008, -1, 30.2248, 49.9748, -9.778, 90.5262, -59.7892, 42.4617
1.012, -1, 30.259, 49.9637, -9.8039, 90.5678, -59.7395, 42.4712
1.016, -1, 30.2933, 49.9526, -9.82979, 90.6095, -59.6897, 42.4806
1.02, -1, 30.3275, 49.9415, -9.85566, 90.6511, -59.6401, 42.4901
1.024, -1, 30.3617, 49.9304, -9.88151, 90.6927, -59.5904, 42.4995
1.027, -1, 30.3959, 49.9193, -9.90735, 90.7343, -59.5408, 42.509
1.032, -1, 30.43, 49.9082, -9.93318, 90.7759, -59.4912, 42.5184
1.036, -1, 30.4642, 49.8971, -9.95899, 90.8174, -59.4416, 42.5279
1.04, -1, 30.4983, 49.8861, -9.98479, 90.8589, -59.3921, 42.5373
1.044, -1, 30.5324, 49.875, -10.0106, 90.9004, -59.3426, 42.5467
1.048, -1, 30.5665, 49.8639, -10.0363, 90.9419, -59.2931, 42.5561
1.052, -1, 30.6005, 49.8529, -10.0621, 90.9833, -59.2436, 42.5655
1.055, -1, 30.6346, 49.8418, -10.0878, 91.0247, -59.1942, 42.5749
1.06, -1, 30.6686, 49.8308, -10.1136, 91.0661, -59.1448, 42.5843
1.064, -1, 30.7026, 49.8197, -10.1393, 91.1075, -59.0954, 42.5937
1.068, -1, 30.7366, 49.8087, -10.165, 91.1489, -59.046, 42.6031
1.072, -1, 30.7706, 49.7976, -10.1907, 91.1902, -58.9967, 42.6125
1.076, -1, 30.8045, 49.7866, -10.2163, 91.2315, -58.9474, 42.6219
1.08, -1, 30.8384, 49.7756, -10.242, 91.2728, -58.8981, 42.6313
1.084, -1, 30.8723, 49.7646, -10.2676, 91.314, -58.8489, 42.6406
1.088, -1, 30.9062, 49.7536, -10.2933, 91.3553, -58.7997, 42.65
1.091, -1, 30.9401, 49.7426, -10.3189, 91.3965, -58.7505, 42.6593
1.096, -1, 30.974, 49.7316, -10.3445, 91.4377, -58.7013, 42.6687
1.1, -1, 31.0078, 49.7206, -10.3701, 91.4789, -58.6522, 42.6781
1.104, -1, 31.0416, 49.7096, -10.3956, 91.52, -58.6031, 42.6874
1.108, -1, 31.0754, 49.6987, -10.4212, 91.5611, -58.554, 42.6967
1.112, -1, 31.1092, 49.6877, -10.4467, 91.6022, -58.5049, 42.7061
1.116, -1, 31.143, 49.6767, -10.4723, 91.6433, -58.4559, 42.7154
1.119, -1, 31.1767, 49.6658, -10.4978, 91.6844, -58.4069, 42.7247
1.124, -1, 31.2105, 49.6548, -10.5233, 91.7254, -58.3579, 42.734
1.128, -1, 31.2442, 49.6439, -10.5488, 91.7664, -58.309, 42.7433
1.132, -1, 31.2779, 49.6329, -10.5743, 91.8074, -58.2601, 42.7527
1.136, -1, 31.3115, 49.622, -10.5997, 91.8484, -58.2112, 42.762
1.14, -1, 31.3452, 49.6111, -10.6252, 91.8893, -58.1623, 42.7713
1.144, -1, 31.3788, 49.6002, -10.6506, 91.9303, -58.1135, 42.7806
1.147, -1, 31.4125, 49.5892, -10.676, 91.9712, -58.0646, 42.7898
1.152, -1, 31.4461, 49.5783, -10.7014, 92.0121, -58.0158, 42.7991
1.156, -1, 31.4796, 49.5674, -10.7268, 92.0529, -57.9671, 42.8084
1.16, -1, 31.5132, 49.5565, -10.7522, 92.0938, -57.9183, 42.8177
1.164, -1, 31.5468, 49.5456, -10.7776, 92.1346, -57.8696, 42.8269
1.168, -1, 31.5803, 49.5348, -10.8029, 92.1754, -57.8209, 42.8362
1.172, -1, 31.6138, 49.5239, -10.8283, 92.2161, -57.7723, 42.8455
1.175, -1, 31.6473, 49.513, -10.8536, 92.2569, -57.7236, 42.8547
1.18, -1, 31.6808, 49.5021, -10.8789, 92.2976, -57.675, 42.864
1.184, -1, 31.7142, 49.4913, -10.9042, 92.3383, -57.6264, 42.8732
1.188, -1, 31.7477, 49.4804, -10.9295, 92.379, -57.5779, 42.8825
1.192, -1, 31.7811, 49.4696, -10.9548, 92.4197, -57.5293, 42.8917
1.196, -1, 31.8145, 49.4587, -10.98, 92.4603, -57.4808, 42.9009
1.2, -1, 31.8479, 49.4479, -11.0053, 92.501, -57.4323, 42.9101
1.204, -1, 31.8813, 49.437, -11.0305, 92.5416, -57.3839, 42.9194
1.208, -1, 31.9146, 49.4262, -11.0557, 92.5821, -57.3355, 42.9286
1.212, -1, 31.948, 49.4154, -11.0809, 92.6227, -57.2871, 42.9378
1.216, -1, 31.9813, 49.4046, -11.1061, 92.6632, -57.2387, 42.947
1.22, -1, 32.0146, 49.3938, -11.1313, 92.7038, -57.1903, 42.9562
1.224, -1, 32.0479, 49.3829, -11.1565, 92.7443, -57.142, 42.9654
1.228, -1, 32.0811, 49.3721, -11.1816, 92.7847, -57.0937, 42.9746
1.232, -1, 32.1144, 49.3614, -11.2068, 92.8252, -57.0454, 42.9838
1.236, -1, 32.1476, 49.3506, -11.2319, 92.8656, -56.9971, 42.9929
1.24, -1, 32.1808, 49.3398, -11.257, 92.906, -56.9489, 43.0021
1.244, -1, 32.214, 49.329, -11.2821, 92.9464, -56.9007, 43.0113
1.248, -1, 32.2472, 49.3182, -11.3072, 92.9868, -56.8525, 43.0205
1.252, -1, 32.2804, 49.3075, -11.3323, 93.0271, -56.8044, 43.0296
1.256, -1, 32.3135, 49.2967, -11.3574, 93.0675, -56.7562, 43.0388
1.26, -1, 32.3466, 49.2859, -11.3824, 93.1078, -56.7081, 43.0479
1.264, -1, 32.3798, 49.2752, -11.4074, 93.1481, -56.66, 43.0571
1.267, -1, 32.4129, 49.2644, -11.4325, 93.1883, -56.612, 43.0662
1.272, -1, 32.4459, 49.2537, -11.4575, 93.2286, -56.564, 43.0754
1.276, -1, 32.479, 49.243, -11.4825, 93.2688, -56.516, 43.0845
1.28, -1, 32.512, 49.2322, -11.5075, 93.309, -56.468, 43.0936
1.284, -1, 32.5451, 49.2215, -11.5324, 93.3492, -56.42, 43.1027
1.288, -1, 32.5781, 49.2108, -11.5574, 93.3894, -56.3721, 43.1119
1.292, -1, 32.6111, 49.2001, -11.5824, 93.4295, -56.3242, 43.121
1.295, -1, 32.644, 49.1894, -11.6073, 93.4696, -56.2763, 43.1301
1.3, -1, 32.677, 49.1787, -11.6322, 93.5097, -56.2284, 43.1392
1.304, -1, 32.71, 49.168, -11.6571, 93.5498, -56.1806, 43.1483
1.308, -1, 32.7429, 49.1573, -11.682, 93.5899, -56.1328, 43.1574
1.312, -1, 32.7758, 49.1466, -11.7069, 93.6299, -56.085, 43.1665
1.316, -1, 32.8087, 49.1359, -11.7318, 93.6699, -56.0372, 43.1756
1.32, -1, 32.8416, 49.1253, -11.7566, 93.7099, -55.9895, 43.1847
1.324, -1, 32.8744, 49.1146, -11.7815, 93.7499, -55.9418, 43.1937
1.328, -1, 32.9073, 49.1039, -11.8063, 93.7899, -55.8941, 43.2028
1.332, -1, 32.9401, 49.0933, -11.8311, 93.8298, -55.8464, 43.2119
1.336, -1, 32.9729, 49.0826, -11.8559, 93.8697, -55.7988, 43.2209
1.34, -1, 33.0057, 49.072, -11.8807, 93.9096, -55.7511, 43.23
1.344, -1, 33.0385, 49.0613, -11.9055, 93.9495, -55.7036, 43.2391
1.348, -1, 33.0712, 49.0507, -11.9303, 93.9894, -55.656, 43.2481
1.352, -1, 33.104, 49.0401, -11.9551, 94.0292, -55.6084, 43.2572
1.356, -1, 33.1367, 49.0294, -11.9798, 94.069, -55.5609, 43.2662
1.36, -1, 33.1694, 49.0188, -12.0045, 94.1088, -55.5134, 43.2752
1.364, -1, 33.2021, 49.0082, -12.0293, 94.1486, -55.4659, 43.2843
1.368, -1, 33.2348, 48.9976, -12.054, 94.1884, -55.4185, 43.2933
1.372, -1, 33.2675, 48.987, -12.0787, 94.2281, -55.371, 43.3023
1.376, -1, 33.3001, 48.9764, -12.1034, 94.2678, -55.3236, 43.3113
1.38, -1, 33.3327, 48.9658, -12.128, 94.3075, -55.2763, 43.3204
1.384, -1, 33.3654, 48.9552, -12.1527, 94.3472, -55.2289, 43.3294
1.388, -1, 33.398, 48.9446, -12.1773, 94.3869, -55.1816, 43.3384
1.392, -1, 33.4306, 48.934, -12.202, 94.4265, -55.1342, 43.3474
1.396, -1, 33.4631, 48.9235, -12.2266, 94.4661, -55.087, 43.3564
1.4, -1, 33.4957, 48.9129, -12.2512, 94.5058, -55.0397, 43.3654
1.404, -1, 33.5282, 48.9023, -12.2758, 94.5453, -54.9924, 43.3744
1.408, -1, 33.5607, 48.8918, -12.3004, 94.5849, -54.9452, 43.3833
1.412, -1, 33.5932, 48.8812, -12.325, 94.6245, -54.898, 43.3923
1.416, -1, 33.6257, 48.8707, -12.3496, 94.664, -54.8508, 43.4013
1.42, -1, 33.6582, 48.8601, -12.3741, 94.7035, -54.8037, 43.4103
1.424, -1, 33.6907, 48.8496, -12.3987, 94.743, -54.7566, 43.4192
1.428, -1, 33.7231, 48.839, -12.4232, 94.7825, -54.7094, 43.4282
1.432, -1, 33.7555, 48.8285, -12.4477, 94.8219, -54.6624, 43.4372
1.436, -1, 33.7879, 48.818, -12.4722, 94.8613, -54.6153, 43.4461
1.44, -1, 33.8203, 48.8075, -12.4967, 94.9008, -54.5683, 43.4551
1.444, -1, 33.8527, 48.797, -12.5212, 94.9402, -54.5212, 43.464
1.448, -1, 33.8851, 48.7865, -12.5457, 94.9795, -54.4742, 43.4729
1.452, -1, 33.9174, 48.7759, -12.5701, 95.0189, -54.4273, 43.4819
1.456, -1, 33.9498, 48.7655, -12.5946, 95.0582, -54.3803, 43.4908
1.46, -1, 33.9821, 48.755, -12.619, 95.0976, -54.3334, 43.4997
1.464, -1, 34.0144, 48.7445, -12.6434, 95.1369, -54.2865, 43.5087
1.468, -1, 34.0467, 48.734, -12.6679, 95.1761, -54.2396, 43.5176
1.472, -1, 34.0789, 48.7235, -12.6923, 95.2154, -54.1927, 43.5265
1.476, -1, 34.1112, 48.713, -12.7166, 95.2546, -54.1459, 43.5354
1.48, -1, 34.1434, 48.7026, -12.741, 95.2939, -54.0991, 43.5443
1.484, -1, 34.1757, 48.6921, -12.7654, 95.3331, -54.0523, 43.5532
1.488, -1, 34.2079, 48.6816, -12.7897, 95.3723, -54.0055, 43.5621
1.492, -1, 34.2401, 48.6712, -12.8141, 95.4114, -53.9588, 43.571
1.496, -1, 34.2723, 48.6607, -12.8384, 95.4506, -53.912, 43.5799
1.5, -1, 34.3044, 48.6503, -12.8627, 95.4897, -53.8653, 43.5888
1.504, -1, 34.3366, 48.6399, -12.8871, 95.5289, -53.8186, 43.5977
1.508, -1, 34.3687, 48.6294, -12.9114, 95.568, -53.772, 43.6066
1.512, -1, 34.4008, 48.619, -12.9356, 95.607, -53.7253, 43.6154
1.516, -1, 34.4329, 48.6086, -12.9599, 95.6461, -53.6787, 43.6243
1.52, -1, 34.465, 48.5982, -12.9842, 95.6852, -53.6321, 43.6332
1.524, -1, 34.4971, 48.5877, -13.0084, 95.7242, -53.5855, 43.642
1.528, -1, 34.5292, 48.5773, -13.0327, 95.7632, -53.539, 43.6509
1.532, -1, 34.5612, 48.5669, -13.0569, 95.8022, -53.4924, 43.6597
1.536, -1, 34.5933, 48.5565, -13.0811, 95.8411, -53.4459, 43.6686
1.54, -1, 34.6253, 48.5461, -13.1054, 95.8801, -53.3994, 43.6774
1.544, -1, 34.6573, 48.5357, -13.1296, 95.919, -53.353, 43.6863
1.548, -1, 34.6893, 48.5254, -13.1537, 95.958, -53.3065, 43.6951
1.552, -1, 34.7212, 48.515, -13.1779, 95.9969, -53.2601, 43.704
1.556, -1, 34.7532, 48.5046, -13.2021, 96.0358, -53.2137, 43.7128
1.56, -1, 34.7852, 48.4942, -13.2262, 96.0746, -53.1673, 43.7216
1.564, -1, 34.8171, 48.4839, -13.2504, 96.1135, -53.1209, 43.7304
1.568, -1, 34.849, 48.4735, -13.2745, 96.1523, -53.0746, 43.7392
1.572, -1, 34.8809, 48.4631, -13.2986, 96.1911, -53.0283, 43.7481
1.576, -1, 34.9128, 48.4528, -13.3227, 96.2299, -52.982, 43.7569
1.58, -1, 34.9447, 48.4424, -13.3468, 96.2687, -52.9357, 43.7657
1.584, -1, 34.9765, 48.4321, -13.3709, 96.3075, -52.8894, 43.7745
1.588, -1, 35.0084, 48.4217, -13.395, 96.3462, -52.8432, 43.7833
1.592, -1, 35.0402, 48.4114, -13.4191, 96.3849, -52.797, 43.7921
1.596, -1, 35.072, 48.4011, -13.4431, 96.4236, -52.7508, 43.8009
1.6, -1, 35.1038, 48.3908, -13.4672, 96.4623, -52.7046, 43.8096
1.604, -1, 35.1356, 48.3804, -13.4912, 96.501, -52.6584, 43.8184
1.608, -1, 35.1674, 48.3701, -13.5152, 96.5397, -52.6123, 43.8272
1.612, -1, 35.1991, 48.3598, -13.5393, 96.5783, -52.5662, 43.836
1.616, -1, 35.2309, 48.3495, -13.5633, 96.6169, -52.5201, 43.8447
1.62, -1, 35.2625, 48.3392, -13.5873, 96.6555, -52.474, 43.8535
1.624, -1, 35.294, 48.329, -13.6113, 96.6941, -52.428, 43.8623
1.628, -1, 35.3252, 48.3189, -13.6353, 96.7327, -52.3819, 43.871
1.632, -1, 35.356, 48.3088, -13.6593, 96.7712, -52.336, 43.8798
1.636, -1, 35.3865, 48.299, -13.6833, 96.8096, -52.2901, 43.8885
1.64, -1, 35.4165, 48.2893, -13.7072, 96.848, -52.2443, 43.8972
1.644, -1, 35.446, 48.2798, -13.7312, 96.8862, -52.1987, 43.9059
1.648, -1, 35.4749, 48.2706, -13.7551, 96.9243, -52.1534, 43.9145
1.652, -1, 35.5033, 48.2617, -13.7788, 96.962, -52.1083, 43.9231
1.656, -1, 35.5309, 48.2532, -13.8025, 96.9994, -52.0638, 43.9316
1.66, -1, 35.5575, 48.2451, -13.8259, 97.0363, -52.0198, 43.94
1.664, -1, 35.5832, 48.2375, -13.849, 97.0725, -51.9766, 43.9482
1.668, -1, 35.6077, 48.2303, -13.8717, 97.1079, -51.9345, 43.9563
1.672, -1, 35.6312, 48.2236, -13.8937, 97.1423, -51.8935, 43.9641
1.676, -1, 35.6537, 48.2172, -13.9151, 97.1754, -51.8541, 43.9716
1.68, -1, 35.6753, 48.211, -13.9354, 97.2071, -51.8164, 43.9788
1.684, -1, 35.6959, 48.2051, -13.9547, 97.2371, -51.7806, 43.9857
1.688, -1, 35.7155, 48.1994, -13.9728, 97.2653, -51.7471, 43.9921
1.692, -1, 35.734, 48.194, -13.9895, 97.2914, -51.716, 43.998
1.696, -1, 35.7515, 48.1887, -14.0047, 97.3153, -51.6874, 44.0034
1.7, -1, 35.7681, 48.1836, -14.0184, 97.337, -51.6616, 44.0084
1.704, -1, 35.7838, 48.1786, -14.0305, 97.3564, -51.6385, 44.0128
1.708, -1, 35.7987, 48.1736, -14.0409, 97.3734, -51.6181, 44.0166
1.712, -1, 35.8129, 48.1686, -14.0498, 97.3882, -51.6004, 44.02
1.716, -1, 35.8263, 48.1636, -14.0571, 97.4008, -51.5854, 44.0228
1.72, -1, 35.8388, 48.1588, -14.063, 97.4113, -51.5728, 44.0252
1.724, -1, 35.8502, 48.1543, -14.0678, 97.42, -51.5623, 44.0272
1.728, -1, 35.8604, 48.1502, -14.0714, 97.427, -51.5539, 44.0288
1.732, -1, 35.8696, 48.1464, -14.0742, 97.4325, -51.5472, 44.03
1.736, -1, 35.8778, 48.1429, -14.0762, 97.4368, -51.5419, 44.031
1.74, -1, 35.8851, 48.1398, -14.0776, 97.4401, -51.5379, 44.0317
1.744, -1, 35.8916, 48.1371, -14.0786, 97.4425, -51.535, 44.0322
1.748, -1, 35.8971, 48.1348, -14.0792, 97.4443, -51.5328, 44.0326
1.752, 2, 35.9018, 48.1329, -14.0795, 97.4455, -51.5313, 44.0329
1.756, 2, 35.9056, 48.1314, -14.0797, 97.4464, -51.5302, 44.0331
1.76, 2, 35.9085, 48.1303, -14.0798, 97.447, -51.5294, 44.0332
1.764, 2, 35.9106, 48.1295, -14.0799, 97.4474, -51.5289, 44.0333
1.768, 2, 35.9121, 48.1289, -14.0799, 97.4477, -51.5286, 44.0334
1.772, 2, 35.9131, 48.1286, -14.08, 97.4479, -51.5283, 44.0334
1.776, 2, 35.9137, 48.1283, -14.08, 97.448, -51.5282, 44.0335
1.78, 2, 35.9142, 48.1281, -14.08, 97.4481, -51.5281, 44.0335
1.784, 2, 35.9145, 48.128, -14.08, 97.4482, -51.528, 44.0335
1.788, 2, 35.9147, 48.1279, -14.08, 97.4482, -51.5279, 44.0335
1.792, 2, 35.9148, 48.1279, -14.08, 97.4482, -51.5279, 44.0335
1.796, 2, 35.9149, 48.1279, -14.08, 97.4482, -51.5279, 44.0335
1.8, 2, 35.915, 48.1278, -14.08, 97.4483, -51.5279, 44.0335
1.804, 2, 35.915, 48.1278, -14.08, 97.4483, -51.5279, 44.0335
1.808, 2, 35.9151, 48.1278, -14.08, 97.4483, -51.5279, 44.0335
1.812, 2, 35.9151, 48.1278, -14.08, 97.4483, -51.5279, 44.0335
1.816, 2, 35.9151, 48.1278, -14.08, 97.4483, -51.5278, 44.0335
1.82, 2, 35.9151, 48.1278, -14.08, 97.4483, -51.5278, 44.0335
1.824, 2, 35.9151, 48.1278, -14.08, 97.4483, -51.5278, 44.0335
1.828, 2, 35.9151, 48.1278, -14.08, 97.4483, -51.5278, 44.0335
1.832, 2, 35.9151, 48.1278, -14.08, 97.4483, -51.5278, 44.0335
1.836, 2, 35.9151, 48.1278, -14.08, 97.4483, -51.5278, 44.0335
1.84, 2, 35.9151, 48.1278, -14.08, 97.4483, -51.5278, 44.0335
1.844, 2, 35.9151, 48.1278, -14.08, 97.4483, -51.5278, 44.0335
1.848, 2, 35.9151, 48.1278, -14.08, 97.4483, -51.5278, 44.0335
1.852, 2, 35.9151, 48.1278, -14.08, 97.4483, -51.5278, 44.0335
1.856, 2, 35.9151, 48.1278, -14.08, 97.4483, -51.5278, 44.0335
1.86, 2, 35.9151, 48.1278, -14.08, 97.4483, -51.5278, 44.0335
1.864, 2, 35.9151, 48.1278, -14.08, 97.4483, -51.5278, 44.0335
1.868, 2, 35.9151, 48.1278, -14.08, 97.4483, -51.5278, 44.0335
1.872, 2, 35.9151, 48.1278, -14.08, 97.4483, -51.5278, 44.0335
1.876, 2, 35.9151, 48.1278, -14.08, 97.4483, -51.5278, 44.0335
1.88, 2, 35.9151, 48.1278, -14.08, 97.4483, -51.5278, 44.0335
1.884, 2, 35.9151, 48.1278, -14.08, 97.4483, -51.5278, 44.0335
1.888, 2, 35.9151, 48.1278, -14.08, 97.4483, -51.5278, 44.0335
1.892, 2, 35.9151, 48.1278, -14.08, 97.4483, -51.5278, 44.0335
1.896, 2, 35.9151, 48.1278, -14.08, 97.4483, -51.5278, 44.0335
1.9, 2, 35.9151, 48.1278, -14.08, 97.4483, -51.5278, 44.0335
1.904, 2, 35.9151, 48.1278, -14.08, 97.4483, -51.5278, 44.0335
1.908, 2, 35.9151, 48.1278, -14.08, 97.4483, -51.5278, 44.0335
1.912, 2, 35.9151, 48.1278, -14.08, 97.4483, -51.5278, 44.0335
1.916, 2, 35.9151, 48.1278, -14.08, 97.4483, -51.5278, 44.0335
1.92, 2, 35.9151, 48.1278, -14.08, 97.4483, -51.5278, 44.0335
1.924, 2, 35.9151, 48.1278, -14.08, 97.4483, -51.5278, 44.0335
1.928, 2, 35.9151, 48.1278, -14.08, 97.4483, -51.5278, 44.0335
1.932, 2, 35.9151, 48.1278, -14.08, 97.4483, -51.5278, 44.0335
1.936, 2, 35.9151, 48.1278, -14.08, 97.4483, -51.5278, 44.0335
1.94, 2, 35.9151, 48.1278, -14.08, 97.4483, -51.5278, 44.0335
1.944, 2, 35.9151, 48.1278, -14.08, 97.4483, -51.5278, 44.0335
1.948, 2, 35.9151, 48.1278, -14.08, 97.4483, -51.5278, 44.0335
1.952, 2, 35.9151, 48.1278, -14.08, 97.4483, -51.5278, 44.0335
1.956, 2, 35.9151, 48.1278, -14.08, 97.4483, -51.5278, 44.0335
1.96, 2, 35.9151, 48.1278, -14.08, 97.4483, -51.5278, 44.0335
1.964, 2, 35.9151, 48.1278, -14.08, 97.4483, -51.5278, 44.0335
1.968, 2, 35.9151, 48.1278, -14.08, 97.4483, -51.5278, 44.0335
1.972, 2, 35.9151, 48.1278, -14.08, 97.4483, -51.5278, 44.0335
1.976, 2, 35.9151, 48.1278, -14.08, 97.4483, -51.5278, 44.0335
1.98, 2, 35.9151, 48.1278, -14.08, 97.4483, -51.5278, 44.0335
1.984, 2, 35.9151, 48.1278, -14.08, 97.4483, -51.5278, 44.0335
1.988, 2, 35.9151, 48.1278, -14.08, 97.4483, -51.5278, 44.0335
1.992, 2, 35.9151, 48.1278, -14.08, 97.4483, -51.5278, 44.0335
1.996, 2, 35.9151, 48.1278, -14.08, 97.4483, -51.5278, 44.0335
1.999, 2, 35.9151, 48.1278, -14.08, 97.4483, -51.5278, 44.0335
2.004, 2, 35.9151, 48.1278, -14.08, 97.4483, -51.5278, 44.0335
2.008, 2, 35.9151, 48.1278, -14.08, 97.4483, -51.5278, 44.0335
2.012, 2, 35.9151, 48.1278, -14.08, 97.4483, -51.5278, 44.0335
2.015, 2, 35.9151, 48.1278, -14.08, 97.4483, -51.5278, 44.0335
2.019, 2, 35.9151, 48.1278, -14.08, 97.4483, -51.5278, 44.0335
2.024, 2, 35.9151, 48.1278, -14.08, 97.4483, -51.5278, 44.0335
2.028, 2, 35.9151, 48.1278, -14.08, 97.4483, -51.5278, 44.0335
2.031, 2, 35.9151, 48.1278, -14.08, 97.4483, -51.5278, 44.0335
2.036, 2, 35.9151, 48.1278, -14.08, 97.4483, -51.5278, 44.0335
2.04, 2, 35.9151, 48.1278, -14.08, 97.4483, -51.5278, 44.0335
2.044, 2, 35.9151, 48.1278, -14.08, 97.4483, -51.5278, 44.0335
2.048, 2, 35.9151, 48.1278, -14.08, 97.4483, -51.5278, 44.0335
2.051, 2, 35.9151, 48.1278, -14.08, 97.4483, -51.5278, 44.0335
2.055, 2, 35.9151, 48.1278, -14.08, 97.4483, -51.5278, 44.0335
2.06, 2, 35.9151, 48.1278, -14.08, 97.4483, -51.5278, 44.0335
2.064, 2, 35.9151, 48.1278, -14.08, 97.4483, -51.5278, 44.0335
2.068, 2, 35.9151, 48.1278, -14.08, 97.4483, -51.5278, 44.0335
2.071, 2, 35.9151, 48.1278, -14.08, 97.4483, -51.5278, 44.0335
2.076, 2, 35.9151, 48.1278, -14.08, 97.4483, -51.5278, 44.0335
2.08, 2, 35.9151, 48.1278, -14.08, 97.4483, -51.5278, 44.0335
2.084, 2, 35.9151, 48.1278, -14.08, 97.4483, -51.5278, 44.0335
2.087, 2, 35.9151, 48.1278, -14.08, 97.4483, -51.5278, 44.0335
2.092, 2, 35.9151, 48.1278, -14.08, 97.4483, -51.5278, 44.0335
2.096, 2, 35.9151, 48.1278, -14.08, 97.4483, -51.5278, 44.0335
2.1, 2, 35.9151, 48.1278, -14.08, 97.4483, -51.5278, 44.0335
2.104, 2, 35.9151, 48.1278, -14.08, 97.4483, -51.5278, 44.0335
2.107, 2, 35.9151, 48.1278, -14.08, 97.4483, -51.5278, 44.0335
2.111, 2, 35.9151, 48.1278, -14.08, 97.4483, -51.5278, 44.0335
2.116, 2, 35.9151, 48.1278, -14.08, 97.4483, -51.5278, 44.0335
2.12, 2, 35.9151, 48.1278, -14.08, 97.4483, -51.5278, 44.0335
2.124, 2, 35.9151, 48.1278, -14.08, 97.4483, -51.5278, 44.0335
2.127, 2, 35.9151, 48.1278, -14.08, 97.4483, -51.5278, 44.0335
2.132, 2, 35.9151, 48.1278, -14.08, 97.4483, -51.5278, 44.0335
2.136, 2, 35.9151, 48.1278, -14.08, 97.4483, -51.5278, 44.0335
2.14, 2, 35.9151, 48.1278, -14.08, 97.4483, -51.5278, 44.0335
2.143, 2, 35.9151, 48.1278, -14.08, 97.4483, -51.5278, 44.0335
2.148, 2, 35.9151, 48.1278, -14.08, 97.4483, -51.5278, 44.0335
2.152, 2, 35.9151, 48.1278, -14.08, 97.4483, -51.5278, 44.0335
2.156, 2, 35.9151, 48.1278, -14.08, 97.4483, -51.5278, 44.0335
2.16, 2, 35.9151, 48.1278, -14.08, 97.4483, -51.5278, 44.0335
2.163, 2, 35.9151, 48.1278, -14.08, 97.4483, -51.5278, 44.0335
2.168, 2, 35.9151, 48.1278, -14.08, 97.4483, -51.5278, 44.0335
2.172, 2, 35.9151, 48.1278, -14.08, 97.4483, -51.5278, 44.0335
2.176, 2, 35.9151, 48.1278, -14.08, 97.4483, -51.5278, 44.0335
2.179, 2, 35.9151, 48.1278, -14.08, 97.4483, -51.5278, 44.0335
2.184, 2, 35.9151, 48.1278, -14.08, 97.4483, -51.5278, 44.0335
2.188, 2, 35.9151, 48.1278, -14.08, 97.4483, -51.5278, 44.0335
2.192, 2, 35.9151, 48.1278, -14.08, 97.4483, -51.5278, 44.0335
2.196, 2, 35.9151, 48.1278, -14.08, 97.4483, -51.5278, 44.0335
2.199, 2, 35.9151, 48.1278, -14.08, 97.4483, -51.5278, 44.0335
2.204, 2, 35.9151, 48.1278, -14.08, 97.4483, -51.5278, 44.0335
2.208, 2, 35.9151, 48.1278, -14.08, 97.4483, -51.5278, 44.0335
2.212, 2, 35.9151, 48.1278, -14.08, 97.4483, -51.5278, 44.0335
2.216, 2, 35.9151, 48.1278, -14.08, 97.4483, -51.5278, 44.0335
2.219, 2, 35.9151, 48.1278, -14.08, 97.4483, -51.5278, 44.0335
2.224, 2, 35.9151, 48.1278, -14.08, 97.4483, -51.5278, 44.0335
2.228, 2, 35.9151, 48.1278, -14.08, 97.4483, -51.5278, 44.0335
2.232, 2, 35.9151, 48.1278, -14.08, 97.4483, -51.5278, 44.0335
2.235, 2, 35.9151, 48.1278, -14.08, 97.4483, -51.5278, 44.0335
2.24, 2, 35.9151, 48.1278, -14.08, 97.4483, -51.5278, 44.0335
2.244, 2, 35.9151, 48.1278, -14.08, 97.4483, -51.5278, 44.0335
2.248, 2, 35.9151, 48.1278, -14.08, 97.4483, -51.5278, 44.0335
2.252, 2, 35.9151, 48.1278, -14.08, 97.4483, -51.5278, 44.0335
2.255, 2, 35.9151, 48.1278, -14.08, 97.4483, -51.5278, 44.0335
2.259, 2, 35.9151, 48.1278, -14.08, 97.4483, -51.5278, 44.0335
2.264, 2, 35.9151, 48.1278, -14.08, 97.4483, -51.5278, 44.0335
2.268, 2, 35.9151, 48.1278, -14.08, 97.4483, -51.5278, 44.0335
2.272, 2, 35.9151, 48.1278, -14.08, 97.4483, -51.5278, 44.0335
2.275, 2, 35.9151, 48.1278, -14.08, 97.4483, -51.5278, 44.0335
2.28, 2, 35.9151, 48.1278, -14.08, 97.4483, -51.5278, 44.0335
2.284, 2, 35.9151, 48.1278, -14.08, 97.4483, -51.5278, 44.0335
2.288, 2, 35.9151, 48.1278, -14.08, 97.4483, -51.5278, 44.0335
2.291, 2, 35.9151, 48.1278, -14.08, 97.4483, -51.5278, 44.0335
2.296, 2, 35.9151, 48.1278, -14.08, 97.4483, -51.5278, 44.0335
2.3, 2, 35.9151, 48.1278, -14.08, 97.4483, -51.5278, 44.0335
2.304, 2, 35.9151, 48.1278, -14.08, 97.4483, -51.5278, 44.0335
2.308, 2, 35.9151, 48.1278, -14.08, 97.4483, -51.5278, 44.0335
2.311, 2, 35.9151, 48.1278, -14.08, 97.4483, -51.5278, 44.0335
2.316, 2, 35.9151, 48.1278, -14.08, 97.4483, -51.5278, 44.0335
2.32, 2, 35.9151, 48.1278, -14.08, 97.4483, -51.5278, 44.0335
2.324, 2, 35.9151, 48.1278, -14.08, 97.4483, -51.5278, 44.0335
2.328, 2, 35.9151, 48.1278, -14.08, 97.4483, -51.5278, 44.0335
2.331, 2, 35.9151, 48.1278, -14.08, 97.4483, -51.5278, 44.0335
2.336, 2, 35.9151, 48.1278, -14.08, 97.4483, -51.5278, 44.0335
2.34, 2, 35.9151, 48.1278, -14.08, 97.4483, -51.5278, 44.0335
2.344, 2, 35.9151, 48.1278, -14.08, 97.4483, -51.5278, 44.0335
2.347, 2, 35.9151, 48.1278, -14.08, 97.4483, -51.5278, 44.0335
2.352, 2, 35.9151, 48.1278, -14.08, 97.4483, -51.5278, 44.0335
2.356, 2, 35.9151, 48.1278, -14.08, 97.4483, -51.5278, 44.0335
2.36, 2, 35.9151, 48.1278, -14.08, 97.4483, -51.5278, 44.0335
2.364, 2, 35.9151, 48.1278, -14.08, 97.4483, -51.5278, 44.0335
2.367, 2, 35.9151, 48.1278, -14.08, 97.4483, -51.5278, 44.0335
2.372, 2, 35.9151, 48.1278, -14.08, 97.4483, -51.5278, 44.0335
2.376, 2, 35.9151, 48.1278, -14.08, 97.4483, -51.5278, 44.0335
2.38, 2, 35.9151, 48.1278, -14.08, 97.4483, -51.5278, 44.0335
2.383, 2, 35.9151, 48.1278, -14.08, 97.4483, -51.5278, 44.0335
2.388, 2, 35.9151, 48.1278, -14.08, 97.4483, -51.5278, 44.0335
2.392, 2, 35.9151, 48.1278, -14.08, 97.4483, -51.5278, 44.0335
2.396, 2, 35.9151, 48.1278, -14.08, 97.4483, -51.5278, 44.0335
2.4, 2, 35.9151, 48.1278, -14.08, 97.4483, -51.5278, 44.0335
2.403, 2, 35.9151, 48.1278, -14.08, 97.4483, -51.5278, 44.0335
2.408, 2, 35.9151, 48.1278, -14.08, 97.4483, -51.5278, 44.0335
2.412, 2, 35.9151, 48.1278, -14.08, 97.4483, -51.5278, 44.0335
2.416, 2, 35.9151, 48.1278, -14.08, 97.4483, -51.5278, 44.0335
2.42, 2, 35.9151, 48.1278, -14.08, 97.4483, -51.5278, 44.0335
2.423, 2, 35.9151, 48.1278, -14.08, 97.4483, -51.5278, 44.0335
2.428, 2, 35.9151, 48.1278, -14.08, 97.4483, -51.5278, 44.0335
2.432, 2, 35.9151, 48.1278, -14.08, 97.4483, -51.5278, 44.0335
2.436, 2, 35.9151, 48.1278, -14.08, 97.4483, -51.5278, 44.0335
2.439, 2, 35.9151, 48.1278, -14.08, 97.4483, -51.5278, 44.0335
2.444, 2, 35.9151, 48.1278, -14.08, 97.4483, -51.5278, 44.0335
2.448, 2, 35.9151, 48.1278, -14.08, 97.4483, -51.5278, 44.0335
2.452, 2, 35.9151, 48.1278, -14.08, 97.4483, -51.5278, 44.0335
2.456, 2, 35.9151, 48.1278, -14.08, 97.4483, -51.5278, 44.0335
2.459, 2, 35.9151, 48.1278, -14.08, 97.4483, -51.5278, 44.0335
2.464, 2, 35.9151, 48.1278, -14.08, 97.4483, -51.5278, 44.0335
2.468, 2, 35.9151, 48.1278, -14.08, 97.4483, -51.5278, 44.0335
2.472, 2, 35.9151, 48.1278, -14.08, 97.4483, -51.5278, 44.0335
2.476, 2, 35.9151, 48.1278, -14.08, 97.4483, -51.5278, 44.0335
2.479, 2, 35.9151, 48.1278, -14.08, 97.4483, -51.5278, 44.0335
2.484, 2, 35.9151, 48.1278, -14.08, 97.4483, -51.5278, 44.0335
2.488, 2, 35.9151, 48.1278, -14.08, 97.4483, -51.5278, 44.0335
2.492, 2, 35.9151, 48.1278, -14.08, 97.4483, -51.5278, 44.0335
2.495, 2, 35.9151, 48.1278, -14.08, 97.4483, -51.5278, 44.0335
2.5, 2, 35.9151, 48.1278, -14.08, 97.4483, -51.5278, 44.0335
2.504, 2, 35.9151, 48.1278, -14.08, 97.4483, -51.5278, 44.0335
2.508, 2, 35.9151, 48.1278, -14.08, 97.4483, -51.5278, 44.0335
2.512, 2, 35.9151, 48.1278, -14.08, 97.4483, -51.5278, 44.0335
2.515, 2, 35.9151, 48.1278, -14.08, 97.4483, -51.5278, 44.0335
2.52, 2, 35.9151, 48.1278, -14.08, 97.4483, -51.5278, 44.0335
2.524, 2, 35.9151, 48.1278, -14.08, 97.4483, -51.5278, 44.0335
2.528, 2, 35.9151, 48.1278, -14.08, 97.4483, -51.5278, 44.0335
2.531, 2, 35.9151, 48.1278, -14.08, 97.4483, -51.5278, 44.0335
2.536, 2, 35.9151, 48.1278, -14.08, 97.4483, -51.5278, 44.0335
2.54, 2, 35.9151, 48.1278, -14.08, 97.4483, -51.5278, 44.0335
2.544, 2, 35.9151, 48.1278, -14.08, 97.4483, -51.5278, 44.0335
2.548, 2, 35.9151, 48.1278, -14.08, 97.4483, -51.5278, 44.0335
2.551, 2, 35.9151, 48.1278, -14.08, 97.4483, -51.5278, 44.0335
2.556, 2, 35.9151, 48.1278, -14.08, 97.4483, -51.5278, 44.0335
2.56, 2, 35.9151, 48.1278, -14.08, 97.4483, -51.5278, 44.0335
2.564, 2, 35.9151, 48.1278, -14.08, 97.4483, -51.5278, 44.0335
2.568, 2, 35.9151, 48.1278, -14.08, 97.4483, -51.5278, 44.0335
2.571, 2, 35.9151, 48.1278, -14.08, 97.4483, -51.5278, 44.0335
2.576, 2, 35.9151, 48.1278, -14.08, 97.4483, -51.5278, 44.0335
2.58, 2, 35.9151, 48.1278, -14.08, 97.4483, -51.5278, 44.0335
2.584, 2, 35.9151, 48.1278, -14.08, 97.4483, -51.5278, 44.0335
2.587, 2, 35.9151, 48.1278, -14.08, 97.4483, -51.5278, 44.0335
2.592, 2, 35.9151, 48.1278, -14.08, 97.4483, -51.5278, 44.0335
2.596, 2, 35.9151, 48.1278, -14.08, 97.4483, -51.5278, 44.0335
2.6, 2, 35.9151, 48.1278, -14.08, 97.4483, -51.5278, 44.0335
2.604, 2, 35.9151, 48.1278, -14.08, 97.4483, -51.5278, 44.0335
2.607, 2, 35.9151, 48.1278, -14.08, 97.4483, -51.5278, 44.0335
2.612, 2, 35.9151, 48.1278, -14.08, 97.4483, -51.5278, 44.0335
2.616, 2, 35.9151, 48.1278, -14.08, 97.4483, -51.5278, 44.0335
2.62, 2, 35.9151, 48.1278, -14.08, 97.4483, -51.5278, 44.0335
2.624, 2, 35.9151, 48.1278, -14.08, 97.4483, -51.5278, 44.0335
2.627, 2, 35.9151, 48.1278, -14.08, 97.4483, -51.5278, 44.0335
2.632, 2, 35.9151, 48.1278, -14.08, 97.4483, -51.5278, 44.0335
2.636, 2, 35.9151, 48.1278, -14.08, 97.4483, -51.5278, 44.0335
2.64, 2, 35.9151, 48.1278, -14.08, 97.4483, -51.5278, 44.0335
2.643, 2, 35.9151, 48.1278, -14.08, 97.4483, -51.5278, 44.0335
2.648, 2, 35.9151, 48.1278, -14.08, 97.4483, -51.5278, 44.0335
2.652, 2, 35.9151, 48.1278, -14.08, 97.4483, -51.5278, 44.0335
2.656, 2, 35.9151, 48.1278, -14.08, 97.4483, -51.5278, 44.0335
2.66, 2, 35.9151, 48.1278, -14.08, 97.4483, -51.5278, 44.0335
2.663, 2, 35.9151, 48.1278, -14.08, 97.4483, -51.5278, 44.0335
2.668, 2, 35.9151, 48.1278, -14.08, 97.4483, -51.5278, 44.0335
2.672, 2, 35.9151, 48.1278, -14.08, 97.4483, -51.5278, 44.0335
2.676, 2, 35.9151, 48.1278, -14.08, 97.4483, -51.5278, 44.0335
2.679, 2, 35.9151, 48.1278, -14.08, 97.4483, -51.5278, 44.0335
2.684, 2, 35.9151, 48.1278, -14.08, 97.4483, -51.5278, 44.0335
2.688, 2, 35.9151, 48.1278, -14.08, 97.4483, -51.5278, 44.0335
2.692, 2, 35.9151, 48.1278, -14.08, 97.4483, -51.5278, 44.0335
2.696, 2, 35.9151, 48.1278, -14.08, 97.4483, -51.5278, 44.0335
2.699, 2, 35.9151, 48.1278, -14.08, 97.4483, -51.5278, 44.0335
2.704, 2, 35.9151, 48.1278, -14.08, 97.4483, -51.5278, 44.0335
2.708, 2, 35.9151, 48.1278, -14.08, 97.4483, -51.5278, 44.0335
2.712, 2, 35.9151, 48.1278, -14.08, 97.4483, -51.5278, 44.0335
2.716, 2, 35.9151, 48.1278, -14.08, 97.4483, -51.5278, 44.0335
2.719, 2, 35.9151, 48.1278, -14.08, 97.4483, -51.5278, 44.0335
2.724, 2, 35.9151, 48.1278, -14.08, 97.4483, -51.5278, 44.0335
2.728, 2, 35.9151, 48.1278, -14.08, 97.4483, -51.5278, 44.0335
2.732, 2, 35.9151, 48.1278, -14.08, 97.4483, -51.5278, 44.0335
2.735, 2, 35.9151, 48.1278, -14.08, 97.4483, -51.5278, 44.0335
2.74, 2, 35.9151, 48.1278, -14.08, 97.4483, -51.5278, 44.0335
2.744, 2, 35.9151, 48.1278, -14.08, 97.4483, -51.5278, 44.0335
2.748, 2, 35.9151, 48.1278, -14.08, 97.4483, -51.5278, 44.0335
2.752, 2, 35.9151, 48.1278, -14.08, 97.4483, -51.5278, 44.0335
2.755, 2, 35.9151, 48.1278, -14.08, 97.4483, -51.5278, 44.0335
2.76, 2, 35.9151, 48.1278, -14.08, 97.4483, -51.5278, 44.0335
2.764, 2, 35.9151, 48.1278, -14.08, 97.4483, -51.5278, 44.0335
2.768, 2, 35.9151, 48.1278, -14.08, 97.4483, -51.5278, 44.0335
2.772, 2, 35.9151, 48.1278, -14.08, 97.4483, -51.5278, 44.0335
2.775, 2, 35.9151, 48.1278, -14.08, 97.4483, -51.5278, 44.0335
2.78, 2, 35.9151, 48.1278, -14.08, 97.4483, -51.5278, 44.0335
2.784, 2, 35.9151, 48.1278, -14.08, 97.4483, -51.5278, 44.0335
2.788, 2, 35.9151, 48.1278, -14.08, 97.4483, -51.5278, 44.0335
2.791, 2, 35.9151, 48.1278, -14.08, 97.4483, -51.5278, 44.0335
2.796, 2, 35.9151, 48.1278, -14.08, 97.4483, -51.5278, 44.0335
2.8, 2, 35.9151, 48.1278, -14.08, 97.4483, -51.5278, 44.0335
2.804, 2, 35.9151, 48.1278, -14.08, 97.4483, -51.5278, 44.0335
2.808, 4, 35.9151, 48.1278, -14.08, 97.4483, -51.5278, 44.0335
2.811, 4, 35.9151, 48.1278, -14.08, 97.4483, -51.5278, 44.0335
2.816, 4, 35.9151, 48.1278, -14.08, 97.4483, -51.5278, 44.0335
2.82, 4, 35.9151, 48.1278, -14.08, 97.4483, -51.5278, 44.0335
2.824, 4, 35.9151, 48.1278, -14.08, 97.4483, -51.5278, 44.0335
2.828, 4, 35.9151, 48.1278, -14.08, 97.4483, -51.5278, 44.0335
2.831, 4, 35.9151, 48.1278, -14.08, 97.4483, -51.5278, 44.0335
2.836, 4, 35.9151, 48.1278, -14.08, 97.4483, -51.5278, 44.0335
2.84, 4, 35.9151, 48.1278, -14.08, 97.4483, -51.5278, 44.0335
2.844, 4, 35.9151, 48.1278, -14.08, 97.4483, -51.5278, 44.0335
2.847, 4, 35.9151, 48.1278, -14.08, 97.4483, -51.5278, 44.0335
2.852, 4, 35.9151, 48.1278, -14.08, 97.4483, -51.5278, 44.0335
2.856, 4, 35.9151, 48.1278, -14.08, 97.4483, -51.5278, 44.0335
2.86, 4, 35.9151, 48.1278, -14.08, 97.4483, -51.5278, 44.0335
2.864, 4, 35.9151, 48.1278, -14.08, 97.4483, -51.5278, 44.0335
2.867, 4, 35.9151, 48.1278, -14.08, 97.4483, -51.5278, 44.0335
2.872, 4, 35.9151, 48.1278, -14.08, 97.4483, -51.5278, 44.0335
2.876, 4, 35.9151, 48.1278, -14.08, 97.4483, -51.5278, 44.0335
2.88, 4, 35.9151, 48.1278, -14.08, 97.4483, -51.5278, 44.0335
2.883, 4, 35.9151, 48.1278, -14.08, 97.4483, -51.5278, 44.0335
2.888, 4, 35.9151, 48.1278, -14.08, 97.4483, -51.5278, 44.0335
2.892, 4, 35.9151, 48.1278, -14.08, 97.4483, -51.5278, 44.0335
2.896, 4, 35.9151, 48.1278, -14.08, 97.4483, -51.5278, 44.0335
2.9, 4, 35.9151, 48.1278, -14.08, 97.4483, -51.5278, 44.0335
2.903, 4, 35.9151, 48.1278, -14.08, 97.4483, -51.5278, 44.0335
2.908, 4, 35.9151, 48.1278, -14.08, 97.4483, -51.5278, 44.0335
2.914, 4, 35.9151, 48.1278, -14.08, 97.4483, -51.5278, 44.0335
2.916, 4, 35.9151, 48.1278, -14.08, 97.4483, -51.5278, 44.0335
2.92, 4, 35.9151, 48.1278, -14.08, 97.4483, -51.5278, 44.0335
2.923, 4, 35.9151, 48.1278, -14.08, 97.4483, -51.5278, 44.0335
2.928, 4, 35.9151, 48.1278, -14.08, 97.4483, -51.5278, 44.0335
2.932, 4, 35.9151, 48.1278, -14.08, 97.4483, -51.5278, 44.0335
2.936, 4, 35.9151, 48.1278, -14.08, 97.4483, -51.5278, 44.0335
2.939, 4, 35.9151, 48.1278, -14.08, 97.4483, -51.5278, 44.0335
2.944, 4, 35.9148, 48.1277, -14.08, 97.4483, -51.5279, 44.0335
2.948, 4, 35.9142, 48.1276, -14.0799, 97.4482, -51.5279, 44.0335
2.952, 4, 35.9132, 48.1273, -14.0797, 97.4482, -51.528, 44.0336
2.956, 4, 35.9115, 48.1268, -14.0792, 97.448, -51.5283, 44.0336
2.959, 4, 35.9092, 48.1259, -14.0783, 97.4476, -51.5288, 44.0337
2.964, 4, 35.9062, 48.1245, -14.0767, 97.4468, -51.5297, 44.0339
2.968, 4, 35.9025, 48.1226, -14.0741, 97.4456, -51.5311, 44.0342
2.972, 4, 35.898, 48.1198, -14.07, 97.4435, -51.5334, 44.0348
2.976, 4, 35.8927, 48.1162, -14.0639, 97.4404, -51.5368, 44.0356
2.98, 5, 35.8864, 48.1114, -14.0553, 97.436, -51.5418, 44.0368
2.984, 5, 35.8789, 48.1054, -14.0433, 97.4296, -51.5486, 44.0385
2.988, 5, 35.8701, 48.0978, -14.0273, 97.4211, -51.5578, 44.0408
2.992, 5, 35.8599, 48.0885, -14.0062, 97.4098, -51.5699, 44.0439
2.995, 5, 35.8483, 48.0773, -13.9793, 97.3952, -51.5855, 44.0478
3, 5, 35.8353, 48.0638, -13.9456, 97.3768, -51.605, 44.0527
3.004, 5, 35.8211, 48.048, -13.9043, 97.3541, -51.629, 44.0588
3.008, 5, 35.8057, 48.0295, -13.8546, 97.3267, -51.6579, 44.0662
3.012, 5, 35.7889, 48.0081, -13.796, 97.2942, -51.6921, 44.0749
3.015, 5, 35.7708, 47.9838, -13.7279, 97.2563, -51.732, 44.0851
3.02, 5, 35.7513, 47.9564, -13.6502, 97.2128, -51.7776, 44.0966
3.024, 5, 35.7303, 47.926, -13.5626, 97.1638, -51.8292, 44.1097
3.028, 5, 35.708, 47.8925, -13.4655, 97.1093, -51.8865, 44.1242
3.031, 5, 35.6842, 47.8563, -13.3589, 97.0494, -51.9496, 44.14
3.036, 5, 35.6591, 47.8174, -13.2435, 96.9845, -52.0181, 44.1572
3.04, 5, 35.6327, 47.7761, -13.1199, 96.9148, -52.0917, 44.1755
3.044, 5, 35.6047, 47.7325, -12.9887, 96.8408, -52.1699, 44.1949
3.048, 5, 35.5753, 47.6869, -12.851, 96.7631, -52.2524, 44.2152
3.051, 5, 35.5442, 47.6394, -12.7075, 96.682, -52.3386, 44.2363
3.056, 5, 35.5116, 47.5902, -12.5592, 96.5982, -52.428, 44.258
3.06, 5, 35.4776, 47.5396, -12.4069, 96.5121, -52.5201, 44.2802
3.064, 5, 35.4423, 47.4878, -12.2514, 96.4242, -52.6144, 44.3028
3.068, 5, 35.4057, 47.4352, -12.0934, 96.3349, -52.7105, 44.3256
3.071, 5, 35.3681, 47.3818, -11.9336, 96.2444, -52.8081, 44.3486
3.076, 5, 35.3294, 47.3281, -11.7725, 96.1532, -52.9069, 44.3717
3.08, 5, 35.2899, 47.2742, -11.6106, 96.0615, -53.0066, 44.3948
3.084, 5, 35.2494, 47.2203, -11.4481, 95.9694, -53.1069, 44.4179
3.087, 5, 35.2082, 47.1664, -11.2854, 95.8772, -53.2078, 44.4409
3.092, 5, 35.1663, 47.1127, -11.1228, 95.7848, -53.3091, 44.4638
3.096, 5, 35.1239, 47.0592, -10.9603, 95.6925, -53.4106, 44.4866
3.1, 5, 35.0811, 47.0062, -10.7981, 95.6002, -53.5124, 44.5093
3.104, 5, 35.0379, 46.9534, -10.6362, 95.5081, -53.6144, 44.5318
3.107, 5, 34.9945, 46.9011, -10.4747, 95.416, -53.7166, 44.5542
3.112, 5, 34.9508, 46.8493, -10.3137, 95.3241, -53.8189, 44.5765
3.116, 5, 34.907, 46.7978, -10.153, 95.2324, -53.9214, 44.5986
3.12, 5, 34.863, 46.7469, -9.99291, 95.1407, -54.0239, 44.6206
3.124, 5, 34.8188, 46.6963, -9.83325, 95.0493, -54.1266, 44.6424
3.128, 5, 34.7744, 46.6462, -9.67406, 94.958, -54.2294, 44.6641
3.132, 5, 34.7299, 46.5966, -9.51535, 94.8668, -54.3323, 44.6857
3.136, 5, 34.6852, 46.5475, -9.35712, 94.7758, -54.4353, 44.7072
3.14, 5, 34.6404, 46.4988, -9.19938, 94.6849, -54.5384, 44.7285
3.143, 5, 34.5954, 46.4505, -9.04211, 94.5942, -54.6417, 44.7497
3.148, 5, 34.5503, 46.4027, -8.88532, 94.5037, -54.745, 44.7708
3.152, 5, 34.505, 46.3554, -8.72901, 94.4133, -54.8484, 44.7917
3.156, 5, 34.4596, 46.3086, -8.57318, 94.323, -54.9519, 44.8125
3.16, 5, 34.414, 46.2621, -8.41781, 94.2329, -55.0555, 44.8333
3.163, 5, 34.3683, 46.2162, -8.26292, 94.1429, -55.1593, 44.8539
3.168, 5, 34.3224, 46.1707, -8.10851, 94.053, -55.2631, 44.8744
3.172, 5, 34.2764, 46.1257, -7.95455, 93.9633, -55.367, 44.8947
3.176, 5, 34.2302, 46.0811, -7.80107, 93.8738, -55.471, 44.915
3.179, 5, 34.1839, 46.037, -7.64805, 93.7843, -55.5751, 44.9352
3.184, 5, 34.1374, 45.9933, -7.49549, 93.695, -55.6794, 44.9553
3.188, 5, 34.0907, 45.9501, -7.34339, 93.6058, -55.7837, 44.9752
3.192, 5, 34.044, 45.9073, -7.19175, 93.5167, -55.8881, 44.9951
3.196, 5, 33.997, 45.865, -7.04057, 93.4278, -55.9926, 45.0149
3.199, 5, 33.9499, 45.8231, -6.88984, 93.339, -56.0972, 45.0346
3.204, 5, 33.9026, 45.7817, -6.73956, 93.2503, -56.2019, 45.0541
3.208, 5, 33.8552, 45.7408, -6.58974, 93.1617, -56.3067, 45.0737
3.212, 5, 33.8077, 45.7003, -6.44036, 93.0733, -56.4116, 45.0931
3.216, 5, 33.7599, 45.6602, -6.29143, 92.9849, -56.5166, 45.1124
3.22, 5, 33.7121, 45.6206, -6.14295, 92.8967, -56.6217, 45.1317
3.224, 5, 33.664, 45.5814, -5.99492, 92.8086, -56.7269, 45.1508
3.228, 5, 33.6158, 45.5427, -5.84732, 92.7206, -56.8322, 45.1699
3.232, 5, 33.5675, 45.5045, -5.70017, 92.6327, -56.9376, 45.1889
3.235, 5, 33.519, 45.4666, -5.55346, 92.5449, -57.0431, 45.2079
3.24, 5, 33.4703, 45.4293, -5.40718, 92.4572, -57.1487, 45.2267
3.244, 5, 33.4214, 45.3923, -5.26135, 92.3696, -57.2544, 45.2455
3.248, 5, 33.3724, 45.3559, -5.11594, 92.2821, -57.3601, 45.2643
3.252, 5, 33.3233, 45.3198, -4.97098, 92.1947, -57.466, 45.2829
3.255, 5, 33.274, 45.2842, -4.82645, 92.1074, -57.572, 45.3015
3.26, 5, 33.2245, 45.2491, -4.68234, 92.0202, -57.678, 45.3201
3.264, 5, 33.1748, 45.2144, -4.53867, 91.9331, -57.7842, 45.3385
3.268, 5, 33.125, 45.1801, -4.39543, 91.8461, -57.8904, 45.3569
3.272, 5, 33.075, 45.1463, -4.25262, 91.7592, -57.9968, 45.3753
3.276, 5, 33.0249, 45.1129, -4.11023, 91.6723, -58.1032, 45.3936
3.28, 5, 32.9746, 45.08, -3.96827, 91.5856, -58.2098, 45.4118
3.284, 5, 32.9241, 45.0475, -3.82674, 91.4989, -58.3164, 45.43
3.288, 5, 32.8735, 45.0154, -3.68563, 91.4124, -58.4232, 45.4482
3.291, 5, 32.8227, 44.9838, -3.54494, 91.3259, -58.53, 45.4662
3.296, 5, 32.7717, 44.9527, -3.40468, 91.2395, -58.6369, 45.4843
3.3, 5, 32.7206, 44.922, -3.26483, 91.1532, -58.7439, 45.5023
3.304, 5, 32.6692, 44.8917, -3.12541, 91.067, -58.8511, 45.5202
3.308, 5, 32.6178, 44.8618, -2.9864, 90.9808, -58.9583, 45.5381
3.312, 5, 32.5661, 44.8325, -2.84781, 90.8948, -59.0656, 45.5559
3.316, 5, 32.5143, 44.8035, -2.70965, 90.8088, -59.173, 45.5737
3.32, 5, 32.4623, 44.775, -2.57189, 90.7228, -59.2806, 45.5915
3.324, 5, 32.4101, 44.7469, -2.43455, 90.637, -59.3882, 45.6092
3.328, 5, 32.3578, 44.7193, -2.29763, 90.5512, -59.4959, 45.6269
3.332, 5, 32.3053, 44.6921, -2.16112, 90.4655, -59.6037, 45.6446
3.336, 5, 32.2526, 44.6654, -2.02503, 90.3799, -59.7116, 45.6622
3.34, 5, 32.1998, 44.6391, -1.88935, 90.2944, -59.8196, 45.6797
3.344, 5, 32.1467, 44.6132, -1.75408, 90.2089, -59.9278, 45.6973
3.347, 5, 32.0935, 44.5878, -1.61922, 90.1235, -60.036, 45.7148
3.352, 5, 32.0402, 44.5628, -1.48478, 90.0381, -60.1443, 45.7323
3.356, 5, 31.987, 44.5382, -1.35077, 89.9529, -60.2527, 45.7497
3.36, 5, 31.9342, 44.5139, -1.21721, 89.8677, -60.3612, 45.7671
3.364, 5, 31.8818, 44.49, -1.08418, 89.7826, -60.4696, 45.7845
3.368, 5, 31.8303, 44.4664, -0.951779, 89.6977, -60.5781, 45.8018
3.372, 5, 31.7796, 44.4429, -0.820165, 89.6131, -60.6863, 45.8191
3.376, 5, 31.7299, 44.4197, -0.68957, 89.5289, -60.7941, 45.8362
3.38, 5, 31.6811, 44.3966, -0.560299, 89.4453, -60.9013, 45.8532
3.383, 5, 31.6334, 44.3737, -0.43273, 89.3626, -61.0074, 45.8701
3.388, 5, 31.5866, 44.3512, -0.307314, 89.2811, -61.1122, 45.8866
3.392, 5, 31.5409, 44.329, -0.18457, 89.2011, -61.2151, 45.9029
3.396, 5, 31.4967, 44.3074, -0.0650739, 89.1231, -61.3157, 45.9188
3.4, 5, 31.4539, 44.2866, 0.0505528, 89.0474, -61.4133, 45.9341
3.403, 5, 31.4128, 44.2667, 0.161651, 88.9745, -61.5074, 45.9489
3.408, 5, 31.3733, 44.2482, 0.267539, 88.9049, -61.5974, 45.9631
3.412, 5, 31.335, 44.2314, 0.367534, 88.8389, -61.6828, 45.9764
3.416, 5, 31.2977, 44.2169, 0.460996, 88.777, -61.763, 45.9889
3.42, 5, 31.2611, 44.2049, 0.547368, 88.7193, -61.8378, 46.0004
3.424, 5, 31.2248, 44.1958, 0.626212, 88.6662, -61.9068, 46.0107
3.428, 6, 31.1887, 44.1897, 0.697232, 88.6177, -61.9699, 46.0197
3.432, 6, 31.1524, 44.1866, 0.760286, 88.5736, -62.0273, 46.0272
3.436, 6, 31.1158, 44.1865, 0.815391, 88.5338, -62.0792, 46.0331
3.439, 6, 31.079, 44.1891, 0.862707, 88.4978, -62.1262, 46.0372
3.444, 6, 31.0418, 44.1943, 0.902514, 88.4653, -62.1687, 46.0392
3.448, 6, 31.0043, 44.2022, 0.935186, 88.4357, -62.2075, 46.0391
3.452, 6, 30.9664, 44.2127, 0.96119, 88.4082, -62.2434, 46.0367
3.456, 6, 30.9281, 44.2259, 0.981077, 88.3823, -62.2774, 46.0318
3.46, 6, 30.8897, 44.2416, 0.995459, 88.3571, -62.3102, 46.0243
3.464, 6, 30.8512, 44.2599, 1.00498, 88.3321, -62.3428, 46.014
3.468, 6, 30.8123, 44.2807, 1.01025, 88.3065, -62.3761, 46.001
3.472, 6, 30.7729, 44.3038, 1.01189, 88.2797, -62.4109, 45.985
3.476, 6, 30.7327, 44.3292, 1.01042, 88.2512, -62.4478, 45.9661
3.48, 6, 30.6914, 44.357, 1.0063, 88.2206, -62.4874, 45.9444
3.484, 6, 30.6486, 44.3872, 0.999886, 88.1874, -62.5301, 45.9197
3.488, 6, 30.6038, 44.4201, 0.991486, 88.1514, -62.5764, 45.8922
3.492, 6, 30.5567, 44.4557, 0.981339, 88.1125, -62.6264, 45.8619
3.495, 6, 30.5072, 44.4938, 0.969647, 88.0705, -62.6802, 45.8288
3.5, 6, 30.4551, 44.5346, 0.956573, 88.0255, -62.7379, 45.7932
3.504, 6, 30.4005, 44.5779, 0.94224, 87.9774, -62.7994, 45.7551
3.508, 6, 30.3434, 44.6236, 0.92674, 87.9263, -62.8646, 45.7146
3.512, 6, 30.2838, 44.6716, 0.910136, 87.8725, -62.9333, 45.6718
3.516, 6, 30.2218, 44.7218, 0.892468, 87.816, -63.0052, 45.627
3.52, 6, 30.1575, 44.7742, 0.873755, 87.7571, -63.0802, 45.5803
3.524, 6, 30.0907, 44.8287, 0.854016, 87.696, -63.158, 45.532
3.528, 6, 30.0218, 44.8853, 0.833279, 87.6328, -63.2381, 45.4822
3.531, 6, 29.9507, 44.9439, 0.81158, 87.5679, -63.3204, 45.431
3.536, 6, 29.8778, 45.0042, 0.788959, 87.5015, -63.4045, 45.3788
3.54, 6, 29.8031, 45.0661, 0.765453, 87.4338, -63.4901, 45.3257
3.544, 6, 29.7269, 45.1296, 0.741095, 87.3649, -63.577, 45.2719
3.548, 6, 29.6491, 45.1945, 0.715914, 87.2952, -63.6649, 45.2174
3.552, 6, 29.5699, 45.2608, 0.689942, 87.2248, -63.7536, 45.1626
3.556, 6, 29.4893, 45.3284, 0.663211, 87.1537, -63.8429, 45.1074
3.56, 6, 29.4074, 45.3971, 0.635756, 87.0822, -63.9327, 45.052
3.564, 6, 29.3245, 45.4669, 0.607623, 87.0103, -64.0228, 44.9964
3.568, 6, 29.2407, 45.5376, 0.578861, 86.9381, -64.1131, 44.9407
3.572, 6, 29.1563, 45.609, 0.549513, 86.8657, -64.2036, 44.885
3.576, 6, 29.0714, 45.681, 0.519616, 86.793, -64.2943, 44.8292
3.58, 6, 28.9862, 45.7535, 0.489192, 86.7201, -64.3851, 44.7734
3.584, 6, 28.9008, 45.8265, 0.458257, 86.6471, -64.476, 44.7175
3.587, 6, 28.8151, 45.9, 0.426822, 86.5738, -64.567, 44.6617
3.592, 6, 28.7293, 45.9738, 0.394891, 86.5004, -64.6581, 44.6058
3.596, 6, 28.6434, 46.0481, 0.362469, 86.4268, -64.7492, 44.5499
3.6, 6, 28.5573, 46.1227, 0.329558, 86.3531, -64.8404, 44.4941
3.604, 6, 28.4712, 46.1978, 0.296159, 86.2792, -64.9316, 44.4382
3.608, 6, 28.385, 46.2731, 0.262272, 86.2052, -65.0229, 44.3823
3.612, 6, 28.2987, 46.3489, 0.227896, 86.131, -65.1143, 44.3264
3.616, 6, 28.2123, 46.425, 0.19303, 86.0566, -65.2057, 44.2704
3.62, 6, 28.1258, 46.5015, 0.157674, 85.9821, -65.2972, 44.2145
3.624, 6, 28.0393, 46.5784, 0.121826, 85.9075, -65.3888, 44.1585
3.628, 6, 27.9527, 46.6556, 0.0854841, 85.8327, -65.4804, 44.1026
3.632, 6, 27.866, 46.7332, 0.0486475, 85.7578, -65.572, 44.0466
3.636, 6, 27.7793, 46.8111, 0.0113144, 85.6827, -65.6637, 43.9906
3.64, 6, 27.6925, 46.8894, -0.0265169, 85.6075, -65.7555, 43.9345
3.644, 6, 27.6056, 46.9681, -0.0648478, 85.5321, -65.8473, 43.8785
3.648, 6, 27.5187, 47.0471, -0.10368, 85.4566, -65.9392, 43.8224
3.652, 6, 27.4317, 47.1265, -0.143015, 85.3809, -66.0311, 43.7663
3.656, 6, 27.3446, 47.2062, -0.182856, 85.3051, -66.1231, 43.7101
3.66, 6, 27.2575, 47.2864, -0.223202, 85.2292, -66.2151, 43.654
3.664, 6, 27.1703, 47.3668, -0.264057, 85.1531, -66.3072, 43.5978
3.668, 6, 27.083, 47.4476, -0.305421, 85.0769, -66.3993, 43.5415
3.672, 6, 26.9956, 47.5288, -0.347298, 85.0005, -66.4915, 43.4852
3.676, 6, 26.9082, 47.6104, -0.389687, 84.924, -66.5837, 43.4289
3.679, 6, 26.8208, 47.6923, -0.432592, 84.8474, -66.676, 43.3725
3.684, 6, 26.7332, 47.7745, -0.476013, 84.7707, -66.7683, 43.3161
3.688, 6, 26.6456, 47.8571, -0.519953, 84.6938, -66.8607, 43.2596
3.692, 6, 26.558, 47.9401, -0.564414, 84.6167, -66.9531, 43.203
3.696, 6, 26.4702, 48.0234, -0.609396, 84.5396, -67.0456, 43.1465
3.7, 6, 26.3824, 48.1071, -0.654903, 84.4623, -67.1381, 43.0898
3.704, 6, 26.2946, 48.1912, -0.700935, 84.3849, -67.2307, 43.0331
3.708, 6, 26.2066, 48.2756, -0.747495, 84.3073, -67.3233, 42.9763
3.712, 6, 26.1186, 48.3604, -0.794584, 84.2297, -67.4159, 42.9195
3.716, 6, 26.0306, 48.4455, -0.842205, 84.1519, -67.5086, 42.8626
3.72, 6, 25.9425, 48.5309, -0.890358, 84.074, -67.6014, 42.8056
3.724, 6, 25.8543, 48.6168, -0.939046, 83.9959, -67.6942, 42.7486
3.728, 6, 25.766, 48.703, -0.988271, 83.9177, -67.787, 42.6915
3.732, 6, 25.6777, 48.7895, -1.03804, 83.8395, -67.8799, 42.6343
3.735, 6, 25.5894, 48.8764, -1.08834, 83.7611, -67.9728, 42.577
3.74, 6, 25.5009, 48.9637, -1.13919, 83.6825, -68.0658, 42.5196
3.744, 6, 25.4124, 49.0513, -1.19058, 83.6039, -68.1588, 42.4622
3.748, 6, 25.3239, 49.1392, -1.24251, 83.5251, -68.2518, 42.4046
3.752, 6, 25.2353, 49.2275, -1.295, 83.4462, -68.3449, 42.347
3.756, 6, 25.1466, 49.3162, -1.34804, 83.3673, -68.4381, 42.2893
3.76, 6, 25.0578, 49.4052, -1.40162, 83.2881, -68.5312, 42.2314
3.764, 6, 24.969, 49.4946, -1.45577, 83.2089, -68.6244, 42.1735
3.768, 6, 24.8802, 49.5843, -1.51047, 83.1296, -68.7177, 42.1155
3.772, 6, 24.7913, 49.6744, -1.56573, 83.0502, -68.811, 42.0574
3.776, 6, 24.7023, 49.7649, -1.62155, 82.9706, -68.9043, 41.9991
3.78, 6, 24.6132, 49.8557, -1.67794, 82.8909, -68.9976, 41.9408
3.784, 6, 24.5241, 49.9468, -1.73489, 82.8111, -69.091, 41.8823
3.788, 6, 24.435, 50.0383, -1.79241, 82.7313, -69.1844, 41.8238
3.792, 6, 24.3457, 50.1302, -1.85049, 82.6512, -69.2779, 41.7651
3.796, 6, 24.2565, 50.2224, -1.90915, 82.5711, -69.3714, 41.7063
3.8, 6, 24.1673, 50.3149, -1.96836, 82.4909, -69.4649, 41.6474
3.804, 6, 24.0784, 50.4076, -2.0281, 82.4105, -69.5584, 41.5884
3.808, 6, 23.9902, 50.5003, -2.0883, 82.3301, -69.652, 41.5292
3.812, 6, 23.9029, 50.5928, -2.14888, 82.2496, -69.7455, 41.47
3.816, 6, 23.8167, 50.6846, -2.20977, 82.1691, -69.839, 41.4107
3.82, 6, 23.7318, 50.7757, -2.27088, 82.0887, -69.9323, 41.3515
3.824, 6, 23.6481, 50.8658, -2.33209, 82.0084, -70.0253, 41.2923
3.828, 6, 23.5656, 50.9549, -2.39331, 81.9284, -70.1178, 41.2333
3.832, 6, 23.4843, 51.0429, -2.45441, 81.8489, -70.2097, 41.1746
3.836, 6, 23.404, 51.1299, -2.51527, 81.7702, -70.3007, 41.1163
3.84, 6, 23.325, 51.2157, -2.57572, 81.6923, -70.3906, 41.0587
3.844, 6, 23.2476, 51.3002, -2.63556, 81.6156, -70.479, 41.0019
3.848, 6, 23.1718, 51.3833, -2.6946, 81.5403, -70.5658, 40.9461
3.852, 6, 23.0979, 51.4647, -2.75265, 81.4667, -70.6505, 40.8915
3.856, 6, 23.026, 51.5442, -2.80951, 81.395, -70.733, 40.8383
3.86, 6, 22.9561, 51.6216, -2.86502, 81.3255, -70.8128, 40.7867
3.864, 6, 22.8883, 51.6969, -2.919, 81.2584, -70.8898, 40.7368
3.868, 6, 22.8226, 51.7697, -2.97127, 81.194, -70.9636, 40.6889
3.872, 6, 22.7592, 51.84, -3.02165, 81.1325, -71.0341, 40.6431
3.876, 6, 22.6983, 51.9074, -3.06997, 81.0739, -71.1011, 40.5995
3.88, 6, 22.6402, 51.9717, -3.11607, 81.0186, -71.1644, 40.5583
3.884, 6, 22.5849, 52.0329, -3.15982, 80.9664, -71.224, 40.5194
3.888, 6, 22.5325, 52.0906, -3.20111, 80.9176, -71.2797, 40.483
3.892, 6, 22.4831, 52.145, -3.23989, 80.8722, -71.3316, 40.449
3.896, 6, 22.4365, 52.1961, -3.27612, 80.8301, -71.3795, 40.4176
3.9, 6, 22.3929, 52.2437, -3.30979, 80.7914, -71.4236, 40.3887
3.904, 6, 22.3522, 52.2879, -3.34088, 80.7561, -71.4638, 40.3622
3.908, 6, 22.3145, 52.3288, -3.36941, 80.724, -71.5003, 40.3382
3.912, 6, 22.2797, 52.3662, -3.3954, 80.695, -71.5332, 40.3166
3.916, 6, 22.2479, 52.4003, -3.4189, 80.6691, -71.5626, 40.2972
3.92, 6, 22.2188, 52.4312, -3.44002, 80.6461, -71.5887, 40.2799
3.924, 6, 22.1924, 52.4591, -3.45889, 80.6258, -71.6117, 40.2648
3.928, 6, 22.1683, 52.4843, -3.47562, 80.6082, -71.6316, 40.2516
3.932, 6, 22.1465, 52.5068, -3.49035, 80.593, -71.6488, 40.2402
3.936, 6, 22.1269, 52.527, -3.50321, 80.58, -71.6635, 40.2305
3.94, 6, 22.1094, 52.545, -3.51433, 80.5691, -71.6758, 40.2224
3.944, 6, 22.0939, 52.5608, -3.52384, 80.56, -71.6861, 40.2155
3.948, 6, 22.0804, 52.5748, -3.53187, 80.5525, -71.6945, 40.2099
3.952, 6, 22.0687, 52.587, -3.53858, 80.5464, -71.7013, 40.2054
3.956, 6, 22.0585, 52.5976, -3.54412, 80.5415, -71.7068, 40.2018
3.96, 6, 22.0496, 52.6069, -3.54867, 80.5377, -71.711, 40.199
3.964, 6, 22.0418, 52.6148, -3.55236, 80.5348, -71.7142, 40.1968
3.968, 6, 22.0349, 52.6215, -3.55533, 80.5326, -71.7167, 40.1952
3.972, 6, 22.0288, 52.627, -3.55767, 80.531, -71.7184, 40.194
3.976, 7, 22.0237, 52.6315, -3.55949, 80.5299, -71.7197, 40.1932
3.98, 7, 22.0195, 52.6348, -3.56086, 80.5291, -71.7206, 40.1926
3.984, 7, 22.0162, 52.6374, -3.56186, 80.5285, -71.7212, 40.1922
3.988, 7, 22.0137, 52.6392, -3.56257, 80.5281, -71.7216, 40.1919
3.992, 7, 22.012, 52.6404, -3.56306, 80.5279, -71.7219, 40.1917
3.996, 7, 22.0108, 52.6413, -3.5634, 80.5277, -71.7221, 40.1916
3.999, 7, 22.01, 52.6419, -3.56362, 80.5276, -71.7222, 40.1915
4.004, 7, 22.0094, 52.6423, -3.56378, 80.5275, -71.7223, 40.1914
4.008, 7, 22.009, 52.6425, -3.56388, 80.5274, -71.7224, 40.1914
4.012, 7, 22.0088, 52.6427, -3.56395, 80.5274, -71.7224, 40.1914
4.016, 7, 22.0086, 52.6428, -3.564, 80.5274, -71.7224, 40.1913
4.02, 7, 22.0085, 52.6429, -3.56403, 80.5274, -71.7224, 40.1913
4.024, 7, 22.0084, 52.643, -3.56405, 80.5274, -71.7224, 40.1913
4.028, 7, 22.0084, 52.643, -3.56407, 80.5273, -71.7225, 40.1913
4.032, 7, 22.0083, 52.643, -3.56408, 80.5273, -71.7225, 40.1913
4.036, 7, 22.0083, 52.643, -3.56409, 80.5273, -71.7225, 40.1913
4.04, 7, 22.0083, 52.6431, -3.56409, 80.5273, -71.7225, 40.1913
4.044, 7, 22.0083, 52.6431, -3.56409, 80.5273, -71.7225, 40.1913
4.048, 7, 22.0083, 52.6431, -3.5641, 80.5273, -71.7225, 40.1913
4.052, 7, 22.0083, 52.6431, -3.5641, 80.5273, -71.7225, 40.1913
4.056, 7, 22.0083, 52.6431, -3.5641, 80.5273, -71.7225, 40.1913
4.06, 7, 22.0083, 52.6431, -3.5641, 80.5273, -71.7225, 40.1913
4.064, 7, 22.0083, 52.6431, -3.5641, 80.5273, -71.7225, 40.1913
4.068, 7, 22.0083, 52.6431, -3.5641, 80.5273, -71.7225, 40.1913
4.072, 7, 22.0083, 52.6431, -3.5641, 80.5273, -71.7225, 40.1913
4.076, 7, 22.0083, 52.6431, -3.5641, 80.5273, -71.7225, 40.1913
4.08, 7, 22.0083, 52.6431, -3.5641, 80.5273, -71.7225, 40.1913
4.084, 7, 22.0083, 52.6431, -3.5641, 80.5273, -71.7225, 40.1913
4.088, 7, 22.0083, 52.6431, -3.5641, 80.5273, -71.7225, 40.1913
4.092, 7, 22.0083, 52.6431, -3.5641, 80.5273, -71.7225, 40.1913
